; generated by PrusaSlicer 2.8.1+linux-x64-GTK3 on 2024-10-08 at 09:33:29 UTC

; 

; external perimeters extrusion width = 0.45mm
; perimeters extrusion width = 0.45mm
; infill extrusion width = 0.45mm
; solid infill extrusion width = 0.45mm
; top infill extrusion width = 0.40mm
; support material extrusion width = 0.40mm
; first layer extrusion width = 0.60mm

M190 S60 ; set bed temperature and wait for it to be reached
M104 S200 ; set temperature
;TYPE:Custom
G28 ; home all axes
G1 Z5 F5000 ; lift nozzle
M109 S200 ; set temperature and wait for it to be reached
G21 ; set units to millimeters
G90 ; use absolute coordinates
M82 ; use absolute distances for extrusion
G92 E0
; Filament gcode
M107
;LAYER_CHANGE
;Z:0.3
;HEIGHT:0.3
G1 E-2 F2400
G1 Z.3 F7800
G1 X86.744 Y82.08
G1 E0 F2400
;TYPE:Skirt/Brim
;WIDTH:0.6
G1 F1800
G1 X88.099 Y80.963 E.11731
G1 X89.588 Y80.033 E.23459
G1 X91.186 Y79.304 E.35193
G1 X92.728 Y78.82 E.4599
G1 X119.712 Y72.824 E2.30655
G1 X121.154 Y72.58 E2.40425
G1 X122.751 Y72.5 E2.51107
G1 X124.609 Y72.657 E2.63564
G1 X125.679 Y72.879 E2.70864
G1 X126.77 Y73.211 E2.78482
G1 X128.718 Y74.093 E2.92767
G1 X134.377 Y77.58 E3.37173
G1 X135.279 Y78.278 E3.44792
G1 X136.101 Y79.045 E3.52303
G1 X136.861 Y79.896 E3.59925
G1 X137.526 Y80.792 E3.67379
G1 X138.36 Y82.25 E3.786
G1 X139.029 Y83.858 E3.90235
G1 X139.331 Y84.932 E3.97688
G1 X139.538 Y86.053 E4.05303
G1 X139.665 Y87.584 E4.15566
G1 X140.168 Y107.078 E5.4584
G1 X139.984 Y109.377 E5.61248
G1 X138.497 Y118.312 E6.2176
G1 X137.812 Y120.438 E6.36682
G1 X130.818 Y138.818 E7.6806
G1 X129.89 Y140.329 E7.79906
G1 X129.221 Y141.136 E7.86909
G1 X126.031 Y144.511 E8.17933
G1 X124.681 Y145.645 E8.29711
G1 X123.25 Y146.555 E8.4104
G1 X122.249 Y147.031 E8.48445
G1 X121.032 Y147.461 E8.57068
G1 X119.933 Y147.726 E8.6462
G1 X118.713 Y147.896 E8.72849
G1 X109.375 Y148.27 E9.35282
G1 X107.687 Y148.204 E9.46567
G1 X106.496 Y148.02 E9.54618
G1 X104.399 Y147.388 E9.6925
G1 X102.949 Y146.688 E9.80007
G1 X102.165 Y146.195 E9.86194
G1 X101.306 Y145.562 E9.93322
G1 X100.404 Y144.751 E10.01425
G1 X99.64 Y143.917 E10.08981
G1 X98.909 Y142.944 E10.17111
G1 X84.338 Y118.259 E12.08607
G1 X83.388 Y116.25 E12.23453
G1 X82.875 Y114.571 E12.35182
G1 X82.692 Y113.652 E12.41442
G1 X82.51 Y111.494 E12.5591
G1 X82.511 Y91.857 E13.87096
G1 X82.586 Y90.512 E13.96095
G1 X82.876 Y88.781 E14.0782
G1 X83.389 Y87.101 E14.19555
G1 X84.117 Y85.504 E14.3128
G1 X85.048 Y84.015 E14.43012
G1 X85.716 Y83.171 E14.50203
G1 X86.703 Y82.124 E14.59816
G1 E12.59816 F2400
G92 E0
G1 X86.703 Y82.124 F7800
G92 E0
G1 X122.75 Y78.768
G1 E2 F2400
;TYPE:Support material
G1 F1800
G1 X123.336 Y78.794 E2.03919
G1 X124.407 Y79.016 E2.11226
G1 X125.449 Y79.44 E2.18741
G1 X126.396 Y80.046 E2.26252
G1 X127.218 Y80.813 E2.33763
G1 X127.792 Y81.588 E2.40206
G1 X129.041 Y81.845 E2.48725
G1 X130.056 Y82.257 E2.56043
G1 X131.004 Y82.863 E2.6356
G1 X131.827 Y83.63 E2.71076
G1 X132.492 Y84.526 E2.7853
G1 X132.995 Y85.552 E2.86164
G1 X133.296 Y86.626 E2.93615
G1 X133.399 Y87.746 E3.01129
G1 X133.297 Y88.866 E3.08642
G1 X132.994 Y89.949 E3.16155
G1 X132.5 Y90.959 E3.23666
G1 X131.83 Y91.863 E3.31183
G1 X131.254 Y92.402 E3.36453
G1 X131.761 Y93.089 E3.42157
G1 X132.25 Y94.086 E3.49575
G1 X132.554 Y95.166 E3.5707
G1 X132.658 Y96.29 E3.64611
G1 X132.557 Y97.407 E3.72104
G1 X132.258 Y98.481 E3.79552
G1 X131.758 Y99.506 E3.87171
G1 X131.095 Y100.404 E3.94628
G1 X129.932 Y101.492 E4.05267
G1 X130.565 Y101.75 E4.09834
G1 X131.499 Y102.347 E4.17239
G1 X132.343 Y103.136 E4.24957
G1 X133.003 Y104.027 E4.32365
G1 X133.497 Y105.037 E4.39876
G1 X133.8 Y106.12 E4.47389
G1 X133.902 Y107.24 E4.54902
G1 X133.8 Y108.36 E4.62415
G1 X133.496 Y109.443 E4.6993
G1 X133.001 Y110.453 E4.77444
G1 X132.331 Y111.356 E4.84956
G1 X131.509 Y112.123 E4.92467
G1 X131.805 Y112.643 E4.96464
G1 X132.137 Y113.55 E5.02916
G1 X132.338 Y114.61 E5.10124
G1 X132.481 Y115.58 E5.16674
G1 X132.462 Y116.493 E5.22775
G1 X132.338 Y117.154 E5.27268
G1 X131.948 Y118.224 E5.34876
G1 X131.36 Y119.256 E5.42811
G1 X130.57 Y120.152 E5.50791
G1 X129.693 Y120.835 E5.58217
G1 X128.69 Y121.369 E5.65808
G1 X127.685 Y121.7 E5.72877
G1 X127.152 Y121.779 E5.76477
G1 X127.512 Y122.5 E5.81861
G1 X127.823 Y123.595 E5.89466
G1 X127.923 Y124.729 E5.97071
G1 X127.81 Y125.863 E6.04684
G1 X127.492 Y126.942 E6.12199
G1 X126.963 Y127.975 E6.19952
G1 X126.269 Y128.867 E6.27502
G1 X125.415 Y129.618 E6.35099
G1 X124.589 Y130.108 E6.41515
G1 X124.57 Y129.447 E6.45933
G1 X124.416 Y129.085 E6.48561
G1 X124.079 Y128.777 E6.51611
G1 X123.638 Y128.655 E6.54668
G1 X110.187 Y128.654 E7.44528
G1 X109.691 Y128.794 E7.47971
G1 X109.328 Y129.176 E7.51491
G1 X109.032 Y128.93 E7.54062
G1 X108.369 Y127.983 E7.61785
G1 X108.003 Y126.963 E7.69025
G1 X107.908 Y126.242 E7.73883
G1 X108.003 Y124.995 E7.82238
G1 X108.37 Y123.975 E7.8948
G1 X109.032 Y123.029 E7.97194
G1 X109.867 Y122.336 E8.04443
G1 X110.38 Y122.069 E8.08307
G1 X111.019 Y121.804 E8.12928
G1 X112.064 Y121.635 E8.2
G1 X113.032 Y120.727 E8.28866
G1 X114.016 Y120.159 E8.36456
G1 X115.047 Y119.814 E8.43719
G1 X116.723 Y119.616 E8.54993
G1 X116.146 Y118.567 E8.62991
G1 X115.795 Y117.501 E8.70489
G1 X115.643 Y116.39 E8.7798
G1 X115.643 Y115.83 E8.81721
G1 X115.794 Y114.717 E8.89225
G1 X116.163 Y113.602 E8.97071
G1 X116.675 Y112.664 E9.0421
G1 X117.356 Y111.826 E9.11424
G1 X118.279 Y111.038 E9.19532
G1 X118.621 Y110.84 E9.22172
G1 X117.905 Y109.958 E9.29761
G1 X117.343 Y108.932 E9.37576
G1 X116.993 Y107.866 E9.45071
G1 X116.841 Y106.754 E9.52569
G1 X116.893 Y105.633 E9.60066
G1 X117.147 Y104.54 E9.67562
G1 X117.361 Y103.972 E9.71617
G1 X117.872 Y103.035 E9.78747
G1 X118.393 Y102.391 E9.84281
G1 X117.792 Y102.044 E9.88917
G1 X116.938 Y101.314 E9.96422
G1 X116.229 Y100.441 E10.03935
G1 X115.718 Y99.504 E10.11065
G1 X115.504 Y98.933 E10.15139
G1 X115.349 Y98.39 E10.18911
G1 X115.197 Y97.278 E10.26409
G1 X115.197 Y96.719 E10.30143
G1 X115.349 Y95.607 E10.37641
G1 X115.718 Y94.492 E10.45487
G1 X116.229 Y93.555 E10.52617
G1 X116.91 Y92.716 E10.59836
G1 X116.759 Y91.608 E10.67306
G1 X116.811 Y90.487 E10.74803
G1 X117.066 Y89.394 E10.82301
G1 X117.501 Y88.42 E10.89427
G1 X116.964 Y87.436 E10.96916
G1 X116.595 Y86.322 E11.04756
G1 X116.443 Y85.21 E11.12254
G1 X116.495 Y84.089 E11.19751
G1 X116.595 Y83.538 E11.23492
G1 X116.964 Y82.423 E11.31338
G1 X117.475 Y81.486 E11.38468
G1 X118.184 Y80.613 E11.45981
G1 X119.039 Y79.883 E11.53492
G1 X120.013 Y79.32 E11.61008
G1 X121.072 Y78.942 E11.6852
G1 X122.152 Y78.768 E11.75828
G1 X122.67 Y78.768 E11.79289
G1 X133.21 Y109.478 F7800
G1 F1800
G1 X133.21 Y105.8 E12.0386
G1 X133.045 Y105.209 E12.07959
G1 X132.615 Y104.331 E12.1449
G1 X132.615 Y110.144 E12.53324
G1 X132.02 Y110.966 E12.60103
G1 X132.02 Y103.51 E13.09913
G1 X131.425 Y102.933 E13.1545
G1 X131.425 Y111.542 E13.72963
G1 X130.901 Y112.03 E13.77747
G1 X131.425 Y113.008 E13.85159
G1 X131.425 Y118.169 E14.19637
G1 X130.83 Y119.129 E14.27182
G1 X130.83 Y102.492 E15.38326
G1 X130.234 Y102.136 E15.42964
G1 X130.234 Y119.802 E16.60982
G1 X129.639 Y120.265 E16.66019
G1 X129.639 Y101.893 E17.88754
G1 X129.054 Y101.655 E17.92973
G1 X129.639 Y101.106 E17.98333
G1 X129.639 Y82.608 E19.2191
G1 X129.044 Y82.366 E19.26201
G1 X129.044 Y120.642 E21.81905
G1 X128.449 Y120.941 E21.86354
G1 X128.449 Y82.204 E24.45138
G1 X127.854 Y82.09 E24.49185
G1 X127.854 Y121.137 E27.1004
G1 X127.259 Y121.276 E27.14122
G1 X127.259 Y81.678 E29.78658
G1 X126.664 Y80.955 E29.84913
G1 X126.664 Y127.507 E32.95906
G1 X126.069 Y128.339 E33.02739
G1 X126.069 Y80.409 E36.22937
G1 X125.473 Y80.028 E36.27663
G1 X125.473 Y128.925 E39.54321
G1 X125.027 Y129.288 E39.58163
G1 X124.878 Y128.917 E39.60834
G1 X124.878 Y79.729 E42.89436
G1 X124.283 Y79.486 E42.9373
G1 X124.283 Y128.34 E46.20101
G1 X123.688 Y128.175 E46.24226
G1 X123.688 Y79.36 E49.50337
G1 X123.093 Y79.266 E49.54361
G1 X123.093 Y128.172 E52.8108
G1 X122.498 Y128.172 E52.85055
G1 X122.498 Y79.25 E56.1188
G1 X121.903 Y79.297 E56.15867
G1 X121.903 Y128.172 E59.42378
G1 X121.308 Y128.172 E59.46353
G1 X121.308 Y79.393 E62.72223
G1 X120.712 Y79.582 E62.764
G1 X120.712 Y128.172 E66.01008
G1 X120.117 Y128.172 E66.04983
G1 X120.117 Y79.816 E69.28027
G1 X119.522 Y80.16 E69.32618
G1 X119.522 Y128.172 E72.53364
G1 X118.927 Y128.172 E72.57339
G1 X118.927 Y111.22 E73.70588
G1 X118.332 Y111.612 E73.75348
G1 X118.332 Y128.172 E74.85978
G1 X117.737 Y128.172 E74.89953
G1 X117.737 Y112.131 E75.97116
G1 X117.142 Y112.855 E76.03376
G1 X117.142 Y128.172 E77.05702
G1 X116.546 Y128.172 E77.09684
G1 X116.546 Y120.118 E77.63489
G1 X115.951 Y120.178 E77.67484
G1 X115.951 Y128.172 E78.20888
G1 X115.356 Y128.172 E78.24863
G1 X115.356 Y120.253 E78.77766
G1 X114.761 Y120.418 E78.81891
G1 X114.761 Y128.172 E79.33692
G1 X114.166 Y128.172 E79.37667
G1 X114.166 Y120.629 E79.88058
G1 X113.571 Y120.972 E79.92646
G1 X113.571 Y128.172 E80.40746
G1 X112.976 Y128.172 E80.44721
G1 X112.976 Y121.42 E80.89828
G1 X112.381 Y122.016 E80.95454
G1 X112.381 Y128.172 E81.36579
G1 X111.785 Y128.172 E81.40561
G1 X111.785 Y122.168 E81.80671
G1 X111.19 Y122.265 E81.84698
G1 X111.19 Y128.172 E82.2416
G1 X110.595 Y128.172 E82.28135
G1 X110.595 Y122.502 E82.66014
G1 X110 Y122.852 E82.70626
G1 X110 Y128.186 E83.0626
G1 X109.405 Y128.405 E83.10496
G1 X109.405 Y123.347 E83.44286
G1 X108.81 Y124.187 E83.51163
G1 X108.81 Y128.192 E83.77919
G1 E81.77919 F2400
G92 E0
G1 X108.81 Y128.192 F7800
G1 X132.615 Y90.175
G1 E2 F2400
G1 F1800
G1 X132.615 Y85.983 E2.28005
G1 X132.02 Y84.699 E2.37459
G1 X132.02 Y90.797 E2.78197
G1 X131.425 Y91.582 E2.84777
G1 X131.425 Y83.914 E3.36003
G1 X130.83 Y83.359 E3.41439
G1 X130.83 Y99.951 E4.52283
G1 X130.234 Y100.549 E4.57923
G1 X130.234 Y82.657 E5.77451
G1 X130.234 Y82.657 F7800
G1 X132.02 Y98.42
G1 F1800
G1 X132.02 Y95.047 E5.99984
G1 X131.798 Y94.259 E6.05453
G1 X131.425 Y93.499 E6.11109
G1 X131.425 Y99.551 E6.5154
G1 E4.5154 F2400
G92 E0
G1 X131.425 Y99.551 F7800
G1 X127.259 Y126.87
G1 E2 F2400
G1 F1800
G1 X127.259 Y122.532 E2.2898
G1 X127.259 Y122.532 F7800
G1 X118.927 Y110.835
G1 F1800
G1 X118.927 Y80.612 E4.30886
G1 X118.332 Y81.196 E4.36456
G1 X118.332 Y101.799 E5.74095
G1 X117.737 Y101.362 E5.79027
G1 X117.737 Y88.994 E6.61652
G1 X117.381 Y90.049 E6.6909
G1 X117.241 Y91.075 E6.76008
G1 X117.289 Y92.108 E6.82916
G1 X117.424 Y92.848 E6.87941
G1 X117.142 Y93.196 E6.90933
G1 X117.142 Y100.8 E7.41732
G1 X116.546 Y100.016 E7.48311
G1 X116.546 Y93.98 E7.88635
G1 X115.951 Y95.251 E7.9801
G1 X115.951 Y99.428 E8.25915
G1 E6.25915 F2400
G92 E0
G1 X115.951 Y99.428 F7800
G1 X118.332 Y110.101
G1 E2 F2400
G1 F1800
G1 X118.332 Y103.232 E2.45889
G1 X117.737 Y104.342 E2.54303
G1 X117.737 Y109.182 E2.86637
G1 E.86637 F2400
G92 E0
G1 X117.737 Y109.182 F7800
G1 X117.737 Y88.349
G1 E2 F2400
G1 F1800
G1 X117.737 Y82.013 E2.42328
G1 X117.403 Y82.624 E2.4698
G1 X117.142 Y83.377 E2.52304
G1 X117.142 Y87.224 E2.78004
G1 E.78004 F2400
G92 E0
G1 X117.142 Y87.224 F7800
G1 X116.546 Y118.83
G1 E2 F2400
G1 F1800
G1 X116.546 Y113.403 E2.36255
G1 E.36255 F2400
G92 E0
G1 X116.546 Y113.403 F7800
G1 X109.211 Y130.348
G1 E2 F2400
G1 F1800
G1 X109.211 Y131.858 E2.10088
G1 X109.299 Y132.252 E2.12785
G1 X109.627 Y132.649 E2.16225
G1 X110.161 Y132.831 E2.19994
G1 X123.638 Y132.831 E3.10028
G1 X124.079 Y132.708 E3.13087
G1 X124.4 Y132.423 E3.15955
G1 X124.57 Y132.038 E3.18767
G1 X124.589 Y131.511 E3.2229
G1 X124.998 Y131.904 E3.26079
G1 X125.459 Y132.927 E3.33575
G1 X125.656 Y134.303 E3.42861
G1 X125.503 Y135.297 E3.4958
G1 X125.067 Y136.327 E3.57052
G1 X124.397 Y137.134 E3.64059
G1 X123.582 Y137.742 E3.70852
G1 X122.881 Y138.015 E3.75878
G1 X122.771 Y138.364 E3.78323
G1 X122.221 Y139.349 E3.8586
G1 X121.489 Y140.192 E3.93319
G1 X120.562 Y140.893 E4.01083
G1 X119.561 Y141.368 E4.08485
G1 X118.462 Y141.634 E4.16039
G1 X117.332 Y141.668 E4.23591
G1 X116.217 Y141.47 E4.31156
G1 X115.165 Y141.046 E4.38733
G1 X114.222 Y140.415 E4.46313
G1 X113.543 Y139.719 E4.52809
G1 X113.169 Y140.195 E4.56853
G1 X112.295 Y140.948 E4.6456
G1 X111.336 Y141.497 E4.71942
G1 X110.294 Y141.851 E4.79294
G1 X109.125 Y142.007 E4.87173
G1 X108.042 Y141.946 E4.94419
G1 X106.976 Y141.675 E5.01767
G1 X105.884 Y141.15 E5.09861
G1 X105.026 Y140.517 E5.16984
G1 X104.261 Y139.683 E5.24544
G1 X103.671 Y138.714 E5.32123
G1 X103.293 Y137.684 E5.39453
G1 X103.149 Y136.922 E5.44634
G1 X103.162 Y135.335 E5.55236
G1 X103.29 Y134.691 E5.59622
G1 X103.677 Y133.641 E5.67098
G1 X104.256 Y132.684 E5.7457
G1 X105.036 Y131.826 E5.82316
G1 X105.889 Y131.186 E5.8944
G1 X106.861 Y130.713 E5.96662
G1 X107.981 Y130.413 E6.04408
G1 X109.131 Y130.34 E6.12106
G1 E4.12106 F2400
G92 E0
G1 X124.878 Y136.155 F7800
G1 E2 F2400
G1 F1800
G1 X124.878 Y132.811 E2.2234
G1 X124.815 Y132.671 E2.23366
G1 X124.283 Y133.145 E2.28126
G1 X124.283 Y136.516 E2.50646
G1 X123.688 Y137.062 E2.56041
G1 X123.688 Y133.31 E2.81106
G1 X123.093 Y133.314 E2.85081
G1 X123.093 Y137.415 E3.12478
G1 X122.498 Y137.646 E3.16742
G1 X122.498 Y133.314 E3.45682
G1 X121.903 Y133.314 E3.49657
G1 X121.903 Y138.93 E3.87175
G1 X121.308 Y139.666 E3.93498
G1 X121.308 Y133.314 E4.35933
G1 X120.712 Y133.314 E4.39915
G1 X120.712 Y140.183 E4.85804
G1 X120.117 Y140.571 E4.90549
G1 X120.117 Y133.314 E5.3903
G1 X119.522 Y133.314 E5.43005
G1 X119.522 Y140.853 E5.9337
G1 X118.927 Y141.026 E5.9751
G1 X118.927 Y133.314 E6.4903
G1 X118.332 Y133.314 E6.53005
G1 X118.332 Y141.155 E7.05387
G1 X117.737 Y141.173 E7.09364
G1 X117.737 Y133.314 E7.61866
G1 X117.142 Y133.314 E7.65841
G1 X117.142 Y141.145 E8.18156
G1 X116.546 Y141.039 E8.222
G1 X116.546 Y133.314 E8.73807
G1 X115.951 Y133.314 E8.77782
G1 X115.951 Y140.843 E9.2808
G1 X115.356 Y140.594 E9.32389
G1 X115.356 Y133.314 E9.81023
G1 X114.761 Y133.314 E9.84998
G1 X114.761 Y140.196 E10.30973
G1 X114.166 Y139.667 E10.36292
G1 X114.166 Y133.314 E10.78733
G1 X113.571 Y133.314 E10.82708
G1 X113.571 Y139.058 E11.21081
G1 X113.504 Y138.989 E11.21724
G1 X112.976 Y139.661 E11.27433
G1 X112.976 Y133.314 E11.69834
G1 X112.381 Y133.314 E11.73809
G1 X112.381 Y140.246 E12.20119
G1 X111.785 Y140.684 E12.2506
G1 X111.785 Y133.314 E12.74296
G1 X111.19 Y133.314 E12.78271
G1 X111.19 Y141.025 E13.29785
G1 X110.595 Y141.24 E13.34011
G1 X110.595 Y133.314 E13.86961
G1 X110 Y133.299 E13.90937
G1 X110 Y141.408 E14.4511
G1 X109.405 Y141.492 E14.49124
G1 X109.405 Y133.08 E15.05321
G1 X109.079 Y132.798 E15.08201
G1 X108.81 Y132.314 E15.119
G1 X108.81 Y141.507 E15.73314
G1 X108.215 Y141.473 E15.77295
G1 X108.215 Y130.876 E16.48089
G1 X108.059 Y130.89 E16.49135
G1 X107.619 Y130.994 E16.52155
G1 X107.619 Y141.341 E17.21279
G1 X107.024 Y141.168 E17.25419
G1 X107.024 Y131.17 E17.92211
G1 X106.429 Y131.459 E17.9663
G1 X106.429 Y140.893 E18.59654
G1 X105.834 Y140.514 E18.64367
G1 X105.834 Y131.83 E19.22381
G1 X105.239 Y132.309 E19.27484
G1 X105.239 Y140.036 E19.79105
G1 X104.644 Y139.384 E19.85002
G1 X104.644 Y132.972 E20.27838
G1 X104.049 Y134.005 E20.35802
G1 X104.049 Y138.87 E20.68303
G1 E18.68303 F2400
G92 E0
G1 X104.049 Y138.87 F7800
G1 X111.08 Y130.711
G1 E2 F2400
;TYPE:Perimeter
;WIDTH:0.52075
G1 F1800
G1 X111.08 Y130.518 E2.01099
G1 X122.728 Y130.513 E2.674
;WIDTH:0.519665
G1 X122.726 Y130.968 E2.69984
G1 X122.5 Y130.968 E2.71267
;WIDTH:0.52075
G1 X111.08 Y130.975 E3.36271
G1 X111.08 Y130.771 E3.37432
G1 X111.08 Y130.771 F7800
G1 X110.584 Y130.106
;WIDTH:0.6
G1 F1800
G1 X110.584 Y130.022 E3.37993
G1 X123.226 Y130.017 E4.22448
G1 X123.219 Y131.463 E4.32108
G1 X110.584 Y131.471 E5.16517
G1 X110.584 Y130.166 E5.25235
G1 X110.584 Y130.166 F7800
G1 X110.134 Y129.535
;TYPE:External perimeter
G1 F1800
G1 X110.191 Y129.487 E5.25733
G1 X123.579 Y129.481 E6.15172
G1 X123.718 Y129.549 E6.16206
G1 X123.764 Y129.703 E6.1728
G1 X123.752 Y131.877 E6.31804
G1 X123.609 Y131.998 E6.33055
G1 X110.28 Y132.007 E7.221
G1 X110.107 Y131.963 E7.23293
G1 X110.048 Y131.882 E7.23962
G1 X110.048 Y129.608 E7.39154
G1 X110.088 Y129.574 E7.39505
G1 X110.48 Y129.494 F7800
G1 E5.39505 F2400
G92 E0
G1 X94.381 Y107.908 F7800
G1 E2 F2400
;TYPE:Perimeter
G1 F1800
G1 X94.457 Y107.865 E2.00583
G1 X95.384 Y107.615 E2.06997
