; generated by PrusaSlicer 2.8.1+linux-x64-GTK3 on 2024-10-26 at 18:26:22 UTC

; 

; external perimeters extrusion width = 0.45mm
; perimeters extrusion width = 0.45mm
; infill extrusion width = 0.45mm
; solid infill extrusion width = 0.45mm
; top infill extrusion width = 0.40mm
; support material extrusion width = 0.40mm
; first layer extrusion width = 0.60mm

M190 S60 ; set bed temperature and wait for it to be reached
M104 S200 ; set temperature
;TYPE:Custom
G28 ; home all axes
G1 Z5 F5000 ; lift nozzle
M109 S200 ; set temperature and wait for it to be reached
G21 ; set units to millimeters
G90 ; use absolute coordinates
M82 ; use absolute distances for extrusion
G92 E0
; Filament gcode
M107
;LAYER_CHANGE
;Z:0.3
;HEIGHT:0.3
G1 E-2 F2400
G1 Z.3 F7800
G1 X40.184 Y34.727
G1 E0 F2400
;TYPE:Skirt/Brim
;WIDTH:0.6
G1 F1800
G1 X67.094 Y7.842 E2.5412
G1 X67.984 Y7.104 E2.61844
G1 X69.395 Y6.22 E2.72967
G1 X70.448 Y5.742 E2.80692
G1 X72.042 Y5.261 E2.91815
G1 X73.131 Y5.085 E2.99185
G1 X75.114 Y5.058 E3.12434
G1 X76.179 Y5.185 E3.19599
G1 X77.645 Y5.562 E3.29711
G1 X78.877 Y6.047 E3.38556
G1 X184.435 Y51.335 E11.05903
G1 X186.11 Y52.477 E11.19446
G1 X186.896 Y53.206 E11.26608
G1 X187.58 Y53.986 E11.33539
G1 X188.235 Y54.913 E11.41122
G1 X188.747 Y55.829 E11.48132
G1 X189.152 Y56.76 E11.54915
G1 X189.469 Y57.748 E11.61847
G1 X189.796 Y59.749 E11.75392
G1 X189.781 Y63.27 E11.98914
G1 X189.598 Y64.526 E12.07393
G1 X189.342 Y65.508 E12.14173
G1 X188.992 Y66.457 E12.2093
G1 X188.523 Y67.42 E12.28086
G1 X187.723 Y68.648 E12.37877
G1 X186.935 Y69.573 E12.45995
G1 X185.916 Y70.502 E12.55207
G1 X184.923 Y71.201 E12.6332
G1 X183.805 Y71.802 E12.718
G1 X182.624 Y72.262 E12.80267
G1 X181.319 Y72.587 E12.89251
G1 X179.885 Y72.744 E12.98888
G1 X81.239 Y72.721 E19.57897
G1 X79.826 Y72.447 E19.67512
G1 X78.494 Y71.903 E19.77124
G1 X45.468 Y54.216 E22.27403
G1 X44.041 Y53.167 E22.39235
G1 X40.277 Y49.48 E22.74434
G1 X39.536 Y48.607 E22.82084
G1 X38.908 Y47.713 E22.89383
G1 X38.245 Y46.508 E22.98571
G1 X37.967 Y45.838 E23.03417
G1 X37.582 Y44.627 E23.11906
G1 X37.403 Y43.754 E23.17859
G1 X37.267 Y42.306 E23.27575
G1 X37.32 Y40.967 E23.36527
G1 X37.416 Y40.239 E23.41433
G1 X37.735 Y38.929 E23.5044
G1 X38.104 Y37.908 E23.57693
G1 X38.871 Y36.432 E23.68805
G1 X40.147 Y34.774 E23.82782
G1 E21.82782 F2400
G92 E0
G1 X40.147 Y34.774 F7800
G92 E0
G1 X74.689 Y11.311
G1 E2 F2400
;TYPE:Support material
G1 F1800
G1 X75.362 Y11.399 E2.04534
G1 X76.408 Y11.809 E2.12039
G1 X77.336 Y12.498 E2.1976
G1 X78.05 Y13.408 E2.27487
G1 X78.499 Y14.473 E2.35208
G1 X78.559 Y14.921 E2.38228
G1 X79.02 Y15.507 E2.43209
G1 X79.471 Y16.572 E2.50935
G1 X79.61 Y17.824 E2.5935
G1 X80.311 Y19.077 E2.68942
G1 X80.509 Y20.265 E2.76988
G1 X80.305 Y21.486 E2.85258
G1 X79.716 Y22.575 E2.93529
G1 X78.864 Y23.36 E3.01268
G1 X77.985 Y23.808 E3.07859
G1 X76.84 Y24.031 E3.15652
G1 X75.614 Y23.86 E3.23922
G1 X74.509 Y23.301 E3.32195
G1 X73.976 Y22.753 E3.37302
G1 X73.265 Y23.092 E3.42564
G1 X69.911 Y19.738 E3.74252
G1 X69.476 Y19.738 E3.77158
G1 X68.236 Y20.978 E3.88873
G1 X68.074 Y19.597 E3.98162
G1 X68.196 Y18.684 E4.04316
G1 X68.655 Y17.615 E4.12088
G1 X69.49 Y16.695 E4.20388
G1 X70.039 Y16.393 E4.24574
G1 X69.971 Y15.357 E4.3151
G1 X70.066 Y14.633 E4.36388
G1 X70.433 Y13.612 E4.43636
G1 X71.097 Y12.665 E4.51363
G1 X71.987 Y11.927 E4.59087
G1 X73.04 Y11.449 E4.66812
G1 X74.129 Y11.273 E4.74182
G1 X74.609 Y11.305 E4.77396
G1 X74.609 Y11.305 F7800
G1 X79.965 Y21.608
G1 F1800
G1 X79.965 Y19.935 E4.88573
G1 X79.848 Y19.23 E4.93347
G1 X79.37 Y18.353 E5.0002
G1 X79.37 Y22.201 E5.25727
G1 X78.775 Y22.786 E5.31301
G1 X78.775 Y16.165 E5.75533
G1 X78.601 Y15.754 E5.78515
G1 X78.18 Y15.218 E5.83068
G1 X78.18 Y23.167 E6.36172
G1 X77.585 Y23.394 E6.40426
G1 X77.585 Y13.596 E7.05882
G1 X76.99 Y12.841 E7.12304
G1 X76.99 Y23.51 E7.83579
G1 X76.395 Y23.482 E7.87558
G1 X76.395 Y12.399 E8.61598
G1 X75.799 Y12.088 E8.66089
G1 X75.799 Y23.399 E9.41653
G1 X75.204 Y23.112 E9.46066
G1 X75.204 Y11.865 E10.21202
G1 X74.641 Y11.791 E10.24995
G1 X74.609 Y22.712 E10.97954
G1 X74.081 Y22.169 E11.03014
G1 X74.014 Y22.201 E11.0351
G1 X74.014 Y11.78 E11.73128
G1 X73.419 Y11.876 E11.77154
G1 X73.419 Y22.484 E12.48021
G1 X73.365 Y22.51 E12.48421
G1 X72.824 Y21.968 E12.53537
G1 X72.824 Y12.076 E13.19621
G1 X72.229 Y12.353 E13.24006
G1 X72.229 Y21.373 E13.84264
G1 X71.633 Y20.778 E13.8989
G1 X71.633 Y12.847 E14.42873
G1 X71.038 Y13.589 E14.49227
G1 X71.038 Y20.183 E14.93278
G1 X70.443 Y19.588 E14.98899
G1 X70.443 Y16.72 E15.18059
G1 X69.848 Y17.048 E15.22598
G1 X69.848 Y19.256 E15.37349
G1 X69.253 Y19.279 E15.41327
G1 X69.253 Y17.673 E15.52056
G1 X69.066 Y17.879 E15.53915
G1 X68.665 Y18.813 E15.60705
G1 X68.658 Y20.215 E15.70071
G1 E13.70071 F2400
G92 E0
G1 X68.658 Y20.215 F7800
G1 X77.362 Y31.609
G1 E2 F2400
G1 F1800
G1 X77.737 Y31.984 E2.03543
G1 X76.307 Y33.413 E2.17049
G1 X76.307 Y33.848 E2.19955
G1 X79.853 Y37.393 E2.53452
G1 X79.182 Y39.899 E2.70783
G1 X76.676 Y40.57 E2.88114
G1 X73.131 Y37.025 E3.21606
G1 X72.696 Y37.025 E3.24512
G1 X72.603 Y37.117 E3.25386
G1 X72.446 Y36.556 E3.29278
G1 X72.347 Y35.539 E3.36104
G1 X72.561 Y34.391 E3.43905
G1 X73.065 Y33.386 E3.51416
G1 X73.966 Y32.435 E3.60168
G1 X74.883 Y31.882 E3.67322
G1 X76.015 Y31.58 E3.75149
G1 X77.281 Y31.607 E3.83608
G1 E1.83608 F2400
G92 E0
G1 X77.281 Y31.607 F7800
G1 X78.775 Y39.758
G1 E2 F2400
G1 F1800
G1 X78.775 Y36.997 E2.18445
G1 X78.18 Y36.402 E2.24066
G1 X78.18 Y39.668 E2.45885
G1 X77.585 Y39.828 E2.50001
G1 X77.585 Y35.807 E2.76863
G1 X76.99 Y35.212 E2.82484
G1 X76.99 Y39.987 E3.14384
G1 X76.82 Y40.033 E3.15561
G1 X76.395 Y39.607 E3.19581
G1 X76.395 Y34.617 E3.52917
G1 X75.825 Y34.047 E3.58302
G1 X75.825 Y33.213 E3.63874
G1 X76.395 Y32.644 E3.69254
G1 X76.395 Y32.071 E3.73082
G1 X75.799 Y32.137 E3.77088
G1 X75.799 Y39.012 E4.23017
G1 X75.204 Y38.416 E4.28643
G1 X75.204 Y32.296 E4.69528
G1 X74.609 Y32.61 E4.74022
G1 X74.609 Y37.821 E5.08834
G1 X74.014 Y37.226 E5.14455
G1 X74.014 Y33.05 E5.42353
G1 X73.419 Y33.756 E5.48521
G1 X73.419 Y36.972 E5.70006
G1 E3.70006 F2400
G92 E0
G1 X73.419 Y36.972 F7800
G1 X69.346 Y38.362
G1 E2 F2400
G1 F1800
G1 X69.886 Y38.399 E2.03616
G1 X70.979 Y38.741 E2.11267
G1 X69.236 Y40.484 E2.27734
G1 X69.236 Y40.919 E2.3064
G1 X72.782 Y44.465 E2.64142
G1 X72.111 Y46.97 E2.81467
G1 X69.605 Y47.641 E2.98798
G1 X66.06 Y44.096 E3.3229
G1 X65.625 Y44.096 E3.35196
G1 X65.429 Y44.291 E3.37043
G1 X65.202 Y43.846 E3.4038
G1 X65.007 Y42.822 E3.47344
G1 X65.007 Y42.169 E3.51706
G1 X65.192 Y41.2 E3.58296
G1 X65.802 Y40.029 E3.67117
G1 X66.527 Y39.252 E3.74216
G1 X67.529 Y38.652 E3.82018
G1 X68.629 Y38.361 E3.89619
G1 X69.265 Y38.362 E3.93868
G1 E1.93868 F2400
G92 E0
G1 X69.265 Y38.362 F7800
G1 X72.229 Y45.599
G1 E2 F2400
G1 F1800
G1 X72.229 Y44.593 E2.06721
G1 X71.633 Y43.998 E2.12347
G1 X71.633 Y46.599 E2.29723
G1 X71.038 Y46.758 E2.33837
G1 X71.038 Y43.403 E2.5625
G1 X70.443 Y42.807 E2.61876
G1 X70.443 Y46.918 E2.8934
G1 X69.848 Y47.077 E2.93454
G1 X69.848 Y42.212 E3.25955
G1 X69.253 Y41.617 E3.31576
G1 X69.253 Y46.607 E3.64912
G1 X68.658 Y46.012 E3.70533
G1 X68.658 Y38.852 E4.18366
G1 X69.253 Y38.844 E4.22341
G1 X69.253 Y39.786 E4.28634
G1 X69.848 Y39.19 E4.3426
G1 X69.848 Y38.639 E4.37941
G1 X69.848 Y38.639 F7800
G1 X68.063 Y45.758
G1 F1800
G1 X68.063 Y39.009 E4.83028
G1 X67.468 Y39.25 E4.87317
G1 X67.468 Y44.822 E5.24541
G1 X66.872 Y44.227 E5.30167
G1 X66.872 Y39.607 E5.61031
G1 X66.277 Y40.226 E5.66767
G1 X66.277 Y43.632 E5.89521
G1 X65.682 Y43.614 E5.93498
G1 X65.682 Y40.709 E6.12905
G1 E4.12905 F2400
G92 E0
G1 X65.682 Y40.709 F7800
G1 X53.158 Y36.056
G1 E2 F2400
G1 F1800
G1 X51.95 Y37.265 E2.11418
G1 X51.95 Y37.7 E2.14324
G1 X58.066 Y43.816 E2.72106
G1 X57.678 Y44.586 E2.77866
G1 X56.86 Y45.395 E2.85552
G1 X55.968 Y45.887 E2.92357
G1 X55.183 Y46.059 E2.97726
G1 X54.5 Y47.017 E3.05586
G1 X53.841 Y47.59 E3.1142
G1 X53.044 Y48.041 E3.17538
G1 X51.971 Y48.339 E3.24978
G1 X51.458 Y48.382 E3.28417
G1 X50.629 Y48.35 E3.33959
G1 X49.618 Y48.048 E3.41008
G1 X48.427 Y48.69 E3.50047
G1 X47.504 Y46.361 E3.66783
G1 X46.651 Y46.224 E3.72555
G1 X45.498 Y45.694 E3.81032
G1 X44.663 Y45.003 E3.88273
G1 X44.035 Y44.109 E3.95572
G1 X43.617 Y42.937 E4.03885
G1 X43.534 Y42.307 E4.0813
G1 X43.63 Y41.058 E4.16499
G1 X43.999 Y40.037 E4.23752
G1 X44.617 Y39.158 E4.3093
G1 X45.6 Y38.334 E4.39499
G1 X46.605 Y37.878 E4.46872
G1 X47.695 Y37.702 E4.54248
G1 X48.623 Y37.789 E4.60475
G1 X48.843 Y37.363 E4.63678
G1 X49.728 Y36.509 E4.71894
G1 X50.843 Y35.985 E4.80124
G1 X52.005 Y35.855 E4.87935
G1 X53.079 Y36.042 E4.95218
G1 E2.95218 F2400
G92 E0
G1 X53.079 Y36.042 F7800
G1 X57.35 Y44.571
G1 E2 F2400
G1 F1800
G1 X57.35 Y43.782 E2.05271
G1 X56.755 Y43.187 E2.10892
G1 X56.755 Y44.821 E2.21808
G1 X56.16 Y45.231 E2.26635
G1 X56.16 Y42.592 E2.44265
G1 X55.565 Y41.997 E2.49886
G1 X55.565 Y45.482 E2.73168
G1 X54.97 Y45.613 E2.77238
G1 X54.97 Y41.402 E3.0537
G1 X54.375 Y40.806 E3.10996
G1 X54.375 Y46.399 E3.4836
G1 X53.779 Y47.004 E3.54034
G1 X53.78 Y40.211 E3.99415
G1 X53.184 Y39.616 E4.05041
G1 X53.184 Y47.408 E4.57096
G1 X52.589 Y47.688 E4.61489
G1 X52.589 Y39.021 E5.19389
G1 X51.994 Y38.426 E5.2501
G1 X51.994 Y47.841 E5.87907
G1 X51.399 Y47.898 E5.919
G1 X51.399 Y36.408 E6.68659
G1 X51.994 Y36.343 E6.72658
G1 X51.994 Y36.879 E6.76239
G1 X51.994 Y36.879 F7800
G1 X50.804 Y48.115
G1 F1800
G1 X50.804 Y36.536 E7.53593
G1 X50.209 Y36.816 E7.57986
G1 X50.209 Y47.755 E8.31064
G1 X49.614 Y47.524 E8.35328
G1 X49.614 Y37.289 E9.03703
G1 X49.235 Y37.654 E9.07218
G1 X49.018 Y38.075 E9.10382
G1 X49.018 Y47.824 E9.75511
G1 X48.676 Y48.009 E9.78109
G1 X48.423 Y47.372 E9.82688
G1 X48.423 Y38.249 E10.43635
G1 X47.828 Y38.195 E10.47626
G1 X47.828 Y45.925 E10.99267
G1 X47.233 Y45.83 E11.03292
G1 X47.233 Y38.265 E11.5383
G1 X46.638 Y38.392 E11.57894
G1 X46.638 Y45.697 E12.06695
G1 X46.043 Y45.433 E12.11044
G1 X46.043 Y38.662 E12.56278
G1 X45.448 Y39.058 E12.61053
G1 X45.448 Y45.026 E13.00922
G1 X45.021 Y44.673 E13.04623
G1 X44.853 Y44.433 E13.0658
G1 X44.853 Y39.661 E13.3846
G1 X44.431 Y40.261 E13.4336
G1 X44.257 Y40.741 E13.46771
G1 X44.257 Y44.006 E13.68583
G1 E11.68583 F2400
G92 E0
G1 X44.257 Y44.006 F7800
G1 X114.838 Y60.429
G1 E2 F2400
;TYPE:Perimeter
;WIDTH:0.6
G1 F1800
G1 X114.976 Y60.937 E2.03517
G1 X115.014 Y61.507 E2.07333
G1 X114.938 Y62.073 E2.11148
G1 X114.751 Y62.613 E2.14966
G1 X114.461 Y63.105 E2.18781
G1 X114.268 Y63.341 E2.20818
G1 X114 Y63.59 E2.23262
G1 X113.564 Y63.895 E2.26817
;WIDTH:0.647257
G1 X112.957 Y64.186 E2.31711
;WIDTH:0.690783
G1 X112.872 Y64.228 E2.32452
;WIDTH:0.734309
G1 X112.787 Y64.271 E2.33248
;WIDTH:0.777836
G1 X112.703 Y64.314 E2.34088
G1 X112.117 Y64.352 E2.39314
;WIDTH:0.788722
G1 X111.53 Y64.307 E2.44633
G1 X111.4 Y64.24 E2.45954
;WIDTH:0.741541
G1 X111.27 Y64.174 E2.47185
;WIDTH:0.694361
G1 X111.14 Y64.108 E2.48331
;WIDTH:0.64718
G1 X111.01 Y64.042 E2.49391
;WIDTH:0.6
G1 X110.511 Y63.764 E2.53207
G1 X110.077 Y63.393 E2.57021
G1 X109.725 Y62.944 E2.60832
G1 X109.469 Y62.433 E2.6465
G1 X109.319 Y61.882 E2.68465
G1 X109.282 Y61.312 E2.72281
G1 X109.358 Y60.746 E2.76096
G1 X109.545 Y60.206 E2.79914
G1 X109.835 Y59.715 E2.83724
G1 X110.216 Y59.29 E2.87537
G1 X110.675 Y58.949 E2.91357
G1 X111.29 Y58.681 E2.95839
;WIDTH:0.645613
G1 X111.459 Y58.621 E2.97139
;WIDTH:0.691226
G1 X111.628 Y58.562 E2.98539
;WIDTH:0.73684
G1 X111.797 Y58.502 E3.00043
;WIDTH:0.752735
G1 X112.181 Y58.466 E3.03354
;WIDTH:0.79113
G1 X112.766 Y58.512 E3.08673
G1 X112.896 Y58.578 E3.09995
;WIDTH:0.743347
G1 X113.026 Y58.645 E3.11234
;WIDTH:0.695565
G1 X113.156 Y58.711 E3.12382
;WIDTH:0.647782
G1 X113.286 Y58.777 E3.13443
;WIDTH:0.6
G1 X113.785 Y59.055 E3.17259
G1 X114.219 Y59.426 E3.21073
G1 X114.571 Y59.876 E3.2489
G1 X114.82 Y60.372 E3.28598
G1 X114.82 Y60.372 F7800
G1 X114.33 Y60.606
G1 F1800
G1 X114.345 Y60.637 E3.28828
G1 X114.454 Y61.084 E3.31902
G1 X114.473 Y61.547 E3.34998
G1 X114.398 Y62.009 E3.38125
G1 X114.231 Y62.45 E3.41275
G1 X114.046 Y62.766 E3.43721
G1 X113.853 Y63.002 E3.45758
G1 X113.256 Y63.457 E3.50773
G1 X112.773 Y63.658 E3.54268
G1 X112.205 Y63.744 E3.58106
G1 X111.693 Y63.698 E3.6154
G1 X111.248 Y63.562 E3.64649
G1 X110.839 Y63.342 E3.67752
G1 X110.483 Y63.044 E3.70854
G1 X110.192 Y62.682 E3.73957
G1 X109.979 Y62.269 E3.77061
G1 X109.851 Y61.822 E3.80167
G1 X109.815 Y61.359 E3.83269
G1 X109.871 Y60.898 E3.86371
G1 X110.018 Y60.457 E3.89476
G1 X110.249 Y60.054 E3.92579
G1 X110.555 Y59.704 E3.95685
G1 X110.925 Y59.423 E3.98789
G1 X111.402 Y59.205 E4.02293
G1 X111.924 Y59.093 E4.0586
G1 X112.445 Y59.096 E4.09341
G1 X113.047 Y59.257 E4.13504
G1 X113.456 Y59.478 E4.1661
G1 X113.813 Y59.775 E4.19712
G1 X114.152 Y60.224 E4.2347
G1 X114.305 Y60.552 E4.25888
G1 X114.305 Y60.552 F7800
G1 X113.826 Y60.783
;TYPE:External perimeter
G1 F1800
G1 X113.835 Y60.801 E4.26022
G1 X113.922 Y61.144 E4.28386
G1 X113.939 Y61.501 E4.30774
G1 X113.885 Y61.857 E4.33179
G1 X113.758 Y62.2 E4.35622
G1 X113.632 Y62.427 E4.37356
G1 X113.439 Y62.663 E4.39393
G1 X112.949 Y63.018 E4.43435
G1 X112.544 Y63.165 E4.46313
G1 X112.188 Y63.208 E4.48709
G1 X111.831 Y63.181 E4.51101
G1 X111.487 Y63.083 E4.53491
G1 X111.168 Y62.919 E4.55887
G1 X110.889 Y62.695 E4.58277
G1 X110.659 Y62.42 E4.60672
G1 X110.488 Y62.105 E4.63066
G1 X110.384 Y61.762 E4.6546
G1 X110.36 Y61.273 E4.68731
G1 X110.472 Y60.756 E4.72265
G1 X110.664 Y60.393 E4.75008
G1 X110.895 Y60.119 E4.77402
G1 X111.175 Y59.896 E4.79793
G1 X111.514 Y59.729 E4.82318
G1 X112.036 Y59.617 E4.85885
G1 X112.464 Y59.639 E4.88748
G1 X112.809 Y59.737 E4.91144
G1 X113.127 Y59.901 E4.93534
G1 X113.407 Y60.125 E4.95929
G1 X113.685 Y60.486 E4.98973
G1 X113.8 Y60.728 E5.00763
G1 X113.907 Y61.114 F7800
G1 E3.00763 F2400
G92 E0
G1 X116.588 Y62.777 F7800
G1 E2 F2400
;TYPE:Perimeter
G1 F1800
G1 X116.416 Y62.433 E2.02569
G1 X116.266 Y61.882 E2.06384
G1 X116.229 Y61.312 E2.102
G1 X116.305 Y60.746 E2.14015
G1 X116.492 Y60.206 E2.17833
G1 X116.781 Y59.715 E2.21639
G1 X117.163 Y59.29 E2.25457
G1 X117.621 Y58.949 E2.29272
G1 X118.233 Y58.682 E2.33733
;WIDTH:0.645318
G1 X118.403 Y58.622 E2.35039
;WIDTH:0.690636
G1 X118.573 Y58.563 E2.36445
;WIDTH:0.735955
G1 X118.743 Y58.503 E2.37955
;WIDTH:0.752554
G1 X119.128 Y58.466 E2.41275
;WIDTH:0.79096
G1 X119.713 Y58.512 E2.46593
G1 X119.843 Y58.578 E2.47914
;WIDTH:0.74322
G1 X119.973 Y58.645 E2.49152
;WIDTH:0.69548
G1 X120.103 Y58.711 E2.503
;WIDTH:0.64774
G1 X120.233 Y58.777 E2.51361
;WIDTH:0.6
G1 X120.732 Y59.055 E2.55177
G1 X121.166 Y59.426 E2.58991
G1 X121.518 Y59.876 E2.62808
G1 X121.774 Y60.386 E2.6662
G1 X121.923 Y60.937 E2.70433
G1 X121.961 Y61.507 E2.74249
G1 X121.885 Y62.073 E2.78064
G1 X121.698 Y62.613 E2.81882
G1 X121.408 Y63.105 E2.85697
G1 X121.026 Y63.53 E2.89515
G1 X120.79 Y63.723 E2.91552
G1 X120.298 Y64.013 E2.95367
;WIDTH:0.644691
G1 X120.015 Y64.114 E2.97542
;WIDTH:0.689382
G1 X119.731 Y64.215 E2.99892
;WIDTH:0.734074
G1 X119.448 Y64.316 E3.02402
;WIDTH:0.750146
G1 X119.064 Y64.352 E3.05701
;WIDTH:0.788538
G1 X118.477 Y64.306 E3.11019
G1 X118.347 Y64.24 E3.12336
;WIDTH:0.741403
G1 X118.217 Y64.174 E3.13567
;WIDTH:0.694269
G1 X118.087 Y64.108 E3.14712
;WIDTH:0.647134
G1 X117.957 Y64.042 E3.15772
;WIDTH:0.6
G1 X117.458 Y63.764 E3.19588
G1 X117.024 Y63.393 E3.23402
G1 X116.672 Y62.944 E3.27213
G1 X116.615 Y62.83 E3.28064
G1 X116.615 Y62.83 F7800
G1 X117.059 Y62.528
G1 F1800
G1 X116.898 Y62.183 E3.30607
G1 X116.789 Y61.736 E3.33681
G1 X116.77 Y61.272 E3.36783
G1 X116.844 Y60.811 E3.39902
G1 X117.011 Y60.37 E3.43052
G1 X117.196 Y60.054 E3.45498
G1 X117.502 Y59.704 E3.48604
G1 X117.872 Y59.423 E3.51708
G1 X118.346 Y59.206 E3.55191
G1 X118.87 Y59.093 E3.58772
G1 X119.392 Y59.096 E3.62259
G1 X119.994 Y59.257 E3.66422
G1 X120.403 Y59.478 E3.69528
G1 X120.76 Y59.775 E3.7263
G1 X121.099 Y60.224 E3.76388
G1 X121.292 Y60.637 E3.79433
G1 X121.401 Y61.084 E3.82507
G1 X121.42 Y61.547 E3.85603
G1 X121.345 Y62.009 E3.8873
G1 X121.178 Y62.45 E3.9188
G1 X120.993 Y62.766 E3.94326
G1 X120.687 Y63.115 E3.97427
G1 X120.451 Y63.308 E3.99464
G1 X120.048 Y63.539 E4.02567
G1 X119.321 Y63.726 E4.07582
