; generated by PrusaSlicer 2.8.1+linux-x64-GTK3 on 2024-10-28 at 17:17:05 UTC

; 

; external perimeters extrusion width = 0.45mm
; perimeters extrusion width = 0.45mm
; infill extrusion width = 0.45mm
; solid infill extrusion width = 0.45mm
; top infill extrusion width = 0.40mm
; support material extrusion width = 0.40mm
; first layer extrusion width = 0.60mm

M190 S60 ; set bed temperature and wait for it to be reached
M104 S200 ; set temperature
;TYPE:Custom
G28 ; home all axes
G1 Z5 F5000 ; lift nozzle
M109 S200 ; set temperature and wait for it to be reached
G21 ; set units to millimeters
G90 ; use absolute coordinates
M82 ; use absolute distances for extrusion
G92 E0
; Filament gcode
M107
;LAYER_CHANGE
;Z:0.3
;HEIGHT:0.3
G1 E-2 F2400
G1 Z.3 F7800
G1 X48.019 Y53.948
G1 E0 F2400
;TYPE:Skirt/Brim
;WIDTH:0.6
G1 F1800
G1 X48.046 Y53.924 E.00241
G1 X48.603 Y53.496 E.04934
G1 X49.826 Y52.762 E.14463
G1 X51.044 Y52.213 E.23388
G1 X155.859 Y9.154 E7.80393
G1 X156.894 Y8.791 E7.8772
G1 X157.934 Y8.544 E7.94861
G1 X159.108 Y8.398 E8.02764
G1 X160.154 Y8.38 E8.09753
G1 X161.667 Y8.544 E8.1992
G1 X162.95 Y8.865 E8.28755
G1 X164.361 Y9.434 E8.38919
G1 X165.627 Y10.172 E8.48709
G1 X166.859 Y11.158 E8.59251
G1 X168.774 Y13.072 E8.77339
G1 X169.579 Y14.049 E8.85796
G1 X170.252 Y15.101 E8.94139
G1 X170.879 Y16.449 E9.04071
G1 X171.271 Y17.716 E9.12931
G1 X171.488 Y18.934 E9.21196
G1 X171.551 Y20.485 E9.31566
G1 X171.393 Y21.968 E9.41529
G1 X171.011 Y23.449 E9.51747
G1 X170.408 Y24.871 E9.62066
G1 X169.715 Y26.023 E9.71047
G1 X168.529 Y27.445 E9.83417
G1 X99.043 Y96.885 E16.39683
G1 X97.788 Y97.724 E16.49768
G1 X96.332 Y98.304 E16.60238
G1 X61.312 Y108.106 E19.03182
G1 X60.291 Y108.302 E19.10127
G1 X59.184 Y108.421 E19.17565
G1 X57.704 Y108.404 E19.27453
G1 X52.44 Y107.68 E19.6295
G1 X51.034 Y107.282 E19.72712
G1 X49.394 Y106.524 E19.84782
G1 X48.28 Y105.786 E19.93709
G1 X47.446 Y105.094 E20.00949
G1 X46.316 Y103.869 E20.12083
G1 X45.688 Y102.975 E20.19382
G1 X45.026 Y101.768 E20.28579
G1 X44.749 Y101.098 E20.33422
G1 X44.364 Y99.886 E20.41918
G1 X44.186 Y99.014 E20.47864
G1 X44.051 Y97.566 E20.57579
G1 X44.091 Y61.909 E22.95787
G1 X44.24 Y60.377 E23.0607
G1 X44.555 Y59.076 E23.15013
G1 X44.921 Y58.056 E23.22253
G1 X45.687 Y56.578 E23.33374
G1 X46.304 Y55.697 E23.40559
G1 X47.155 Y54.717 E23.4923
G1 X47.974 Y53.988 E23.56555
G1 E21.56555 F2400
G92 E0
G1 X47.974 Y53.988 F7800
G92 E0
G1 X53.261 Y92.525
G1 E2 F2400
;TYPE:Support material
G1 F1800
G1 X53.568 Y92.832 E2.029
G1 X62.145 Y92.832 E2.60199
G1 X62.338 Y93.21 E2.63034
G1 X62.537 Y94.397 E2.71074
G1 X62.345 Y95.551 E2.78889
G1 X62.832 Y96.696 E2.87201
G1 X62.985 Y97.833 E2.94865
G1 X62.833 Y98.97 E3.02528
G1 X62.588 Y99.562 E3.06808
G1 X62.374 Y100.055 E3.10398
G1 X61.67 Y100.954 E3.18026
G1 X60.764 Y101.628 E3.2557
G1 X60.144 Y101.884 E3.30051
G1 X59.622 Y102.07 E3.33753
G1 X58.516 Y102.189 E3.41184
G1 X57.419 Y102.012 E3.48607
G1 X56.135 Y101.373 E3.58188
G1 X55.639 Y101.549 E3.61704
G1 X54.532 Y101.668 E3.69142
G1 X53.434 Y101.492 E3.76571
G1 X52.281 Y100.961 E3.85051
G1 X51.446 Y100.269 E3.92296
G1 X50.818 Y99.374 E3.996
G1 X50.401 Y98.201 E4.07917
G1 X50.319 Y97.573 E4.12148
G1 X50.415 Y96.325 E4.2051
G1 X50.83 Y95.176 E4.28671
G1 X50.705 Y94.055 E4.36206
G1 X50.904 Y92.966 E4.43602
G1 X51.461 Y91.922 E4.51507
G1 X52.329 Y91.092 E4.5953
G1 X53.261 Y90.653 E4.66412
G1 X53.261 Y92.444 E4.78377
G1 X53.261 Y92.444 F7800
G1 X62.389 Y99.412
G1 F1800
G1 X62.389 Y97.024 E4.9433
G1 X61.846 Y95.612 E5.04436
G1 X62.048 Y94.398 E5.12658
G1 X61.875 Y93.363 E5.19668
G1 X61.794 Y93.314 E5.203
G1 X61.794 Y100.014 E5.6506
G1 X61.199 Y100.703 E5.71142
G1 X61.199 Y93.314 E6.20505
G1 X60.604 Y93.314 E6.2448
G1 X60.604 Y101.146 E6.76802
G1 X60.009 Y101.419 E6.81175
G1 X60.009 Y93.314 E7.35321
G1 X59.414 Y93.314 E7.39296
G1 X59.414 Y101.608 E7.94704
G1 X58.819 Y101.671 E7.98701
G1 X58.819 Y93.314 E8.5453
G1 X58.224 Y93.314 E8.58505
G1 X58.224 Y101.653 E9.14214
G1 X57.628 Y101.558 E9.18246
G1 X57.628 Y93.314 E9.7332
G1 X57.033 Y93.314 E9.77295
G1 X57.033 Y101.331 E10.30853
G1 X56.438 Y100.998 E10.35408
G1 X56.438 Y93.314 E10.86741
G1 X55.843 Y93.314 E10.90716
G1 X55.843 Y100.965 E11.41829
G1 X55.248 Y101.107 E11.45916
G1 X55.248 Y93.314 E11.97977
G1 X54.653 Y93.314 E12.01952
G1 X54.653 Y101.171 E12.54441
G1 X54.058 Y101.104 E12.58441
G1 X54.058 Y93.314 E13.10482
G1 X53.462 Y93.314 E13.14464
G1 X53.462 Y100.982 E13.6569
G1 X52.867 Y100.722 E13.70028
G1 X52.867 Y92.813 E14.22864
G1 X52.778 Y92.724 E14.23705
G1 X52.778 Y91.413 E14.32463
G1 X52.272 Y91.814 E14.36776
G1 X52.272 Y100.327 E14.93647
G1 X51.677 Y99.758 E14.99147
G1 X51.677 Y92.541 E15.4736
G1 X51.365 Y93.126 E15.51789
G1 X51.19 Y94.079 E15.58262
G1 X51.262 Y94.958 E15.64154
G1 X51.345 Y95.168 E15.65663
G1 X51.082 Y95.898 E15.70847
G1 X51.082 Y99.33 E15.93775
G1 E13.93775 F2400
G92 E0
G1 X74.379 Y85.131 F7800
G1 E2 F2400
G1 F1800
G1 X73.082 Y87.378 E2.17332
G1 X68.068 Y87.378 E2.50828
G1 X67.884 Y87.562 E2.52566
G1 X67.613 Y87.155 E2.55833
G1 X67.27 Y85.999 E2.63888
G1 X67.269 Y84.821 E2.71758
G1 X67.572 Y83.785 E2.78969
G1 X68.097 Y82.885 E2.8593
G1 X73.082 Y82.885 E3.19232
G1 X74.339 Y85.062 E3.36026
G1 X74.339 Y85.062 F7800
G1 X73.697 Y85.831
G1 F1800
G1 X73.697 Y84.914 E3.42152
G1 X73.102 Y83.883 E3.50104
G1 X73.102 Y86.38 E3.66785
G1 X72.804 Y86.896 E3.70766
G1 X72.507 Y86.896 E3.7275
G1 X72.507 Y83.367 E3.96326
G1 X71.912 Y83.367 E4.00301
G1 X71.912 Y86.896 E4.23877
G1 X71.316 Y86.896 E4.27859
G1 X71.316 Y83.367 E4.51435
G1 X70.721 Y83.367 E4.5541
G1 X70.721 Y86.896 E4.78986
G1 X70.126 Y86.896 E4.82961
G1 X70.126 Y83.367 E5.06537
G1 X69.531 Y83.367 E5.10512
G1 X69.531 Y86.896 E5.34088
G1 X68.936 Y86.896 E5.38063
G1 X68.936 Y83.367 E5.61639
G1 X68.341 Y83.367 E5.65614
G1 X68.341 Y87.137 E5.908
G1 E3.908 F2400
G92 E0
G1 X68.341 Y87.137 F7800
G1 X68.068 Y72.885
G1 E2 F2400
G1 F1800
G1 X73.082 Y72.885 E2.33496
G1 X74.379 Y75.131 E2.50823
G1 X73.082 Y77.378 E2.68155
G1 X68.068 Y77.378 E3.01651
G1 X67.939 Y77.506 E3.02865
G1 X67.495 Y76.84 E3.08212
G1 X67.15 Y75.688 E3.16246
G1 X67.149 Y74.455 E3.24483
G1 X67.541 Y73.246 E3.32974
G1 X67.9 Y72.717 E3.37245
G1 X68.011 Y72.828 E3.38294
G1 X68.011 Y72.828 F7800
G1 X73.697 Y75.831
G1 F1800
G1 X73.697 Y74.914 E3.4442
G1 X73.102 Y73.883 E3.52372
G1 X73.102 Y76.38 E3.69053
G1 X72.804 Y76.896 E3.73034
G1 X72.507 Y76.896 E3.75018
G1 X72.507 Y73.367 E3.98594
G1 X71.912 Y73.367 E4.02569
G1 X71.912 Y76.896 E4.26145
G1 X71.316 Y76.896 E4.30127
G1 X71.316 Y73.367 E4.53703
G1 X70.721 Y73.367 E4.57678
G1 X70.721 Y76.896 E4.81254
G1 X70.126 Y76.896 E4.85229
G1 X70.126 Y73.367 E5.08805
G1 X69.531 Y73.367 E5.1278
G1 X69.531 Y76.896 E5.36356
G1 X68.936 Y76.896 E5.40331
G1 X68.936 Y73.367 E5.63907
G1 X68.341 Y73.367 E5.67882
G1 X68.341 Y76.896 E5.91458
G1 X68.111 Y76.896 E5.92995
G1 X67.936 Y76.632 E5.95111
G1 X67.746 Y75.996 E5.99545
G1 X67.746 Y73.398 E6.16901
G1 E4.16901 F2400
G92 E0
G1 X67.746 Y73.398 F7800
G1 X55.076 Y57.872
G1 E2 F2400
G1 F1800
G1 X55.748 Y57.96 E2.04528
G1 X56.794 Y58.368 E2.12029
G1 X57.199 Y58.669 E2.154
G1 X57.855 Y58.563 E2.19839
G1 X59.089 Y58.69 E2.28126
G1 X60.135 Y59.1 E2.35631
G1 X61.063 Y59.79 E2.43356
G1 X61.768 Y60.689 E2.50988
G1 X61.981 Y61.181 E2.5457
G1 X62.227 Y61.775 E2.58865
G1 X62.378 Y62.913 E2.66534
G1 X62.224 Y64.049 E2.74193
G1 X61.772 Y65.115 E2.81928
G1 X61.874 Y66.33 E2.90073
G1 X61.608 Y67.43 E2.97633
G1 X53.568 Y67.43 E3.51345
G1 X53.261 Y67.738 E3.5425
G1 X53.261 Y69.676 E3.67197
G1 X52.19 Y69.171 E3.75107
G1 X51.322 Y68.34 E3.83135
G1 X50.793 Y67.351 E3.90628
G1 X50.582 Y66.429 E3.96947
G1 X50.626 Y65.252 E4.04815
G1 X50.965 Y64.39 E4.11003
G1 X50.583 Y63.573 E4.17028
G1 X50.441 Y63.066 E4.20545
G1 X50.359 Y61.916 E4.28247
G1 X50.454 Y61.195 E4.33105
G1 X50.82 Y60.174 E4.40351
G1 X51.437 Y59.294 E4.47531
G1 X52.421 Y58.467 E4.56118
G1 X53.425 Y58.01 E4.63487
G1 X54.515 Y57.834 E4.70863
G1 X54.996 Y57.866 E4.74083
G1 X54.996 Y57.866 F7800
G1 X61.794 Y64.456
G1 F1800
G1 X61.757 Y61.901 E4.91154
G1 X61.35 Y60.938 E4.98138
G1 X61.199 Y60.745 E4.99775
G1 X61.199 Y66.948 E5.41214
G1 X60.604 Y66.948 E5.45189
G1 X60.604 Y60.049 E5.91278
G1 X60.009 Y59.607 E5.9623
G1 X60.009 Y66.948 E6.45272
G1 X59.414 Y66.948 E6.49247
G1 X59.414 Y59.335 E7.00106
G1 X58.819 Y59.141 E7.04287
G1 X58.819 Y66.948 E7.56442
G1 X58.224 Y66.948 E7.60417
G1 X58.224 Y59.071 E8.1304
G1 X57.628 Y59.088 E8.17023
G1 X57.628 Y66.948 E8.69532
G1 X57.033 Y66.948 E8.73507
G1 X57.033 Y59.146 E9.25629
G1 X56.438 Y58.747 E9.30415
G1 X56.438 Y66.948 E9.85202
G1 X55.843 Y66.948 E9.89177
G1 X55.843 Y58.514 E10.45521
G1 X55.248 Y58.38 E10.49595
G1 X55.248 Y66.948 E11.06834
G1 X54.653 Y66.948 E11.10809
G1 X54.653 Y58.326 E11.68409
G1 X54.058 Y58.396 E11.72411
G1 X54.058 Y66.948 E12.29543
G1 X53.462 Y66.948 E12.33525
G1 X53.462 Y58.523 E12.89809
G1 X52.867 Y58.794 E12.94177
G1 X52.867 Y67.449 E13.51997
G1 X52.778 Y67.538 E13.52838
G1 X52.778 Y68.915 E13.62037
G1 X52.272 Y68.582 E13.66084
G1 X52.272 Y59.189 E14.28834
G1 X51.677 Y59.792 E14.34493
G1 X51.677 Y67.982 E14.89207
G1 X51.249 Y67.18 E14.9528
G1 X51.082 Y66.451 E15.00276
G1 X51.104 Y65.352 E15.07619
G1 X51.509 Y64.325 E15.14994
G1 X51.082 Y63.517 E15.21099
G1 X51.082 Y60.221 E15.43118
G1 E13.43118 F2400
G92 E0
G1 X51.082 Y60.221 F7800
G1 X115.517 Y63.815
G1 E2 F2400
;TYPE:Perimeter
;WIDTH:0.6
G1 F1800
G1 X115.37 Y63.623 E2.01615
G1 X115.121 Y63.109 E2.0543
G1 X114.978 Y62.556 E2.09246
G1 X114.948 Y61.986 E2.13059
G1 X115.031 Y61.421 E2.16874
G1 X115.274 Y60.8 E2.21329
;WIDTH:0.644791
G1 X115.352 Y60.638 E2.22631
;WIDTH:0.689582
G1 X115.43 Y60.477 E2.24026
;WIDTH:0.734374
G1 X115.507 Y60.315 E2.25525
;WIDTH:0.751079
G1 X115.753 Y60.016 E2.28841
;WIDTH:0.789484
G1 X116.201 Y59.633 E2.34171
G1 X116.34 Y59.588 E2.35492
;WIDTH:0.742113
G1 X116.478 Y59.543 E2.36719
;WIDTH:0.694742
G1 X116.617 Y59.498 E2.37868
;WIDTH:0.647371
G1 X116.756 Y59.453 E2.3893
;WIDTH:0.6
G1 X117.305 Y59.296 E2.42745
G1 X117.874 Y59.252 E2.46558
G1 X118.179 Y59.275 E2.48601
G1 X118.735 Y59.404 E2.52414
G1 X119.255 Y59.64 E2.56229
G1 X119.717 Y59.975 E2.60041
G1 X120.104 Y60.395 E2.63856
G1 X120.401 Y60.883 E2.67672
G1 X120.594 Y61.42 E2.71484
G1 X120.653 Y61.781 E2.73928
G1 X120.666 Y62.314 E2.7749
G1 X120.55 Y62.974 E2.81967
;WIDTH:0.646731
G1 X120.348 Y63.509 E2.86121
;WIDTH:0.689747
G1 X120.318 Y63.599 E2.86861
;WIDTH:0.732762
G1 X120.288 Y63.69 E2.8766
;WIDTH:0.775778
G1 X120.258 Y63.78 E2.88502
G1 X119.871 Y64.221 E2.93708
;WIDTH:0.786553
G1 X119.423 Y64.604 E2.99017
G1 X119.285 Y64.649 E3.00324
;WIDTH:0.739914
G1 X119.146 Y64.694 E3.01555
;WIDTH:0.693276
G1 X119.008 Y64.74 E3.02696
;WIDTH:0.646638
G1 X118.869 Y64.785 E3.03757
;WIDTH:0.6
G1 X118.32 Y64.942 E3.07572
G1 X117.751 Y64.986 E3.11385
G1 X117.184 Y64.917 E3.15201
G1 X116.642 Y64.737 E3.19016
G1 X116.146 Y64.453 E3.22834
G1 X115.717 Y64.077 E3.26645
G1 X115.554 Y63.863 E3.28442
G1 X115.554 Y63.863 F7800
G1 X115.953 Y63.502
G1 F1800
G1 X115.798 Y63.287 E3.30213
G1 X115.604 Y62.857 E3.33364
G1 X115.511 Y62.503 E3.35809
G1 X115.481 Y62.039 E3.38915
G1 X115.543 Y61.579 E3.42016
G1 X115.725 Y61.09 E3.45502
G1 X116.014 Y60.641 E3.49069
G1 X116.386 Y60.272 E3.52569
G1 X116.926 Y59.961 E3.56732
G1 X117.372 Y59.828 E3.59841
G1 X117.834 Y59.786 E3.6294
G1 X118.139 Y59.809 E3.64983
G1 X118.622 Y59.929 E3.68308
G1 X119.145 Y60.204 E3.72255
G1 X119.521 Y60.534 E3.75597
G1 X119.828 Y60.951 E3.79056
G1 X120.021 Y61.381 E3.82205
G1 X120.118 Y61.795 E3.85046
G1 X120.131 Y62.327 E3.88601
G1 X120.031 Y62.841 E3.92099
G1 X119.778 Y63.38 E3.96077
G1 X119.467 Y63.764 E3.99378
G1 X119.109 Y64.059 E4.02477
G1 X118.699 Y64.277 E4.05579
G1 X118.253 Y64.41 E4.08688
G1 X117.791 Y64.452 E4.11787
G1 X117.234 Y64.375 E4.15543
G1 X116.805 Y64.219 E4.18593
G1 X116.412 Y63.98 E4.21666
G1 X116.071 Y63.666 E4.24763
G1 X115.988 Y63.551 E4.2571
G1 X115.988 Y63.551 F7800
G1 X116.386 Y63.191
;TYPE:External perimeter
G1 F1800
G1 X116.268 Y63.031 E4.27038
G1 X116.116 Y62.699 E4.29477
G1 X116.044 Y62.449 E4.31215
G1 X116.014 Y62.092 E4.33608
G1 X116.055 Y61.737 E4.35995
G1 X116.175 Y61.381 E4.38505
G1 X116.464 Y60.932 E4.42072
G1 X116.784 Y60.643 E4.44953
G1 X117.097 Y60.468 E4.47349
G1 X117.438 Y60.359 E4.49741
G1 X117.794 Y60.32 E4.52133
G1 X118.099 Y60.343 E4.54176
G1 X118.575 Y60.496 E4.57516
G1 X118.879 Y60.677 E4.5988
G1 X119.144 Y60.917 E4.62268
G1 X119.357 Y61.207 E4.64672
G1 X119.51 Y61.539 E4.67114
G1 X119.582 Y61.808 E4.68974
G1 X119.595 Y62.341 E4.72536
G1 X119.494 Y62.759 E4.75409
G1 X119.334 Y63.08 E4.77805
G1 X119.113 Y63.362 E4.80199
G1 X118.841 Y63.595 E4.82592
G1 X118.528 Y63.77 E4.84988
G1 X118.187 Y63.879 E4.8738
G1 X117.831 Y63.918 E4.89772
G1 X117.379 Y63.859 E4.92817
G1 X117.05 Y63.742 E4.9515
G1 X116.746 Y63.561 E4.97514
G1 X116.481 Y63.321 E4.99902
G1 X116.421 Y63.239 E5.00581
G1 X116.214 Y62.897 F7800
G1 E3.00581 F2400
G92 E0
G1 X125.51 Y56.533 F7800
G1 E2 F2400
;TYPE:Perimeter
G1 F1800
G1 X125.565 Y56.869 E2.02275
G1 X125.579 Y57.402 E2.05837
G1 X125.462 Y58.061 E2.10308
;WIDTH:0.646798
G1 X125.26 Y58.597 E2.14469
;WIDTH:0.689901
G1 X125.23 Y58.687 E2.15209
;WIDTH:0.733003
G1 X125.2 Y58.777 E2.16
;WIDTH:0.776107
G1 X125.17 Y58.868 E2.16851
G1 X124.783 Y59.309 E2.22059
;WIDTH:0.786884
G1 X124.336 Y59.692 E2.27364
G1 X124.197 Y59.737 E2.28681
;WIDTH:0.740163
G1 X124.058 Y59.782 E2.29912
;WIDTH:0.693442
G1 X123.92 Y59.828 E2.31053
;WIDTH:0.646721
G1 X123.781 Y59.873 E2.32114
;WIDTH:0.6
G1 X123.232 Y60.029 E2.35927
G1 X122.663 Y60.074 E2.3974
G1 X122.096 Y60.005 E2.43556
G1 X121.554 Y59.825 E2.47371
G1 X121.059 Y59.541 E2.51183
G1 X120.629 Y59.164 E2.55003
G1 X120.283 Y58.71 E2.58816
G1 X120.033 Y58.197 E2.62628
G1 X119.89 Y57.644 E2.66444
G1 X119.86 Y57.073 E2.70264
G1 X119.943 Y56.508 E2.74079
G1 X120.137 Y55.971 E2.77893
;WIDTH:0.643898
G1 X120.175 Y55.859 E2.78748
;WIDTH:0.687796
G1 X120.214 Y55.748 E2.79663
;WIDTH:0.731694
G1 X120.252 Y55.636 E2.80647
;WIDTH:0.775593
G1 X120.291 Y55.524 E2.81699
G1 X120.655 Y55.11 E2.86589
;WIDTH:0.771572
G1 X121.005 Y54.806 E2.90678
G1 X121.142 Y54.751 E2.9198
;WIDTH:0.728679
G1 X121.28 Y54.697 E2.93208
;WIDTH:0.685786
G1 X121.417 Y54.643 E2.94349
;WIDTH:0.642893
G1 X121.554 Y54.589 E2.95412
;WIDTH:0.6
G1 X121.9 Y54.468 E2.97861
G1 X122.422 Y54.362 E3.01419
G1 X123.091 Y54.362 E3.05888
G1 X123.647 Y54.491 E3.09701
G1 X124.167 Y54.728 E3.13519
G1 X124.63 Y55.063 E3.17337
G1 X125.017 Y55.483 E3.21152
G1 X125.313 Y55.971 E3.24965
G1 X125.494 Y56.475 E3.28543
G1 X125.494 Y56.475 F7800
G1 X124.977 Y56.654
G1 F1800
G1 X125.03 Y56.883 E3.30113
G1 X125.043 Y57.415 E3.33668
G1 X124.943 Y57.929 E3.37166
G1 X124.69 Y58.467 E3.41138
G1 X124.38 Y58.851 E3.44435
G1 X124.021 Y59.147 E3.47543
G1 X123.611 Y59.365 E3.50645
G1 X123.166 Y59.498 E3.53748
G1 X122.703 Y59.54 E3.56854
G1 X122.146 Y59.462 E3.60611
G1 X121.718 Y59.307 E3.63652
G1 X121.324 Y59.068 E3.66731
G1 X120.983 Y58.754 E3.69828
G1 X120.71 Y58.375 E3.72948
G1 X120.516 Y57.945 E3.76099
G1 X120.423 Y57.59 E3.78551
G1 X120.393 Y57.127 E3.81651
G1 X120.455 Y56.666 E3.84758
G1 X120.607 Y56.227 E3.87862
G1 X120.843 Y55.827 E3.90965
G1 X121.154 Y55.482 E3.94068
G1 X121.527 Y55.205 E3.97172
G1 X122.006 Y54.993 E4.00671
G1 X122.528 Y54.887 E4.04229
G1 X123.051 Y54.897 E4.07724
G1 X123.535 Y55.017 E4.11055
G1 X124.057 Y55.291 E4.14993
G1 X124.434 Y55.621 E4.1834
G1 X124.74 Y56.039 E4.21801
G1 X124.934 Y56.469 E4.24952
G1 X124.963 Y56.596 E4.25822
G1 X124.963 Y56.596 F7800
G1 X124.461 Y56.772
;TYPE:External perimeter
G1 F1800
G1 X124.494 Y56.896 E4.26679
G1 X124.508 Y57.428 E4.30234
G1 X124.406 Y57.847 E4.33115
G1 X124.246 Y58.168 E4.35511
G1 X124.025 Y58.45 E4.37905
G1 X123.753 Y58.683 E4.40298
G1 X123.44 Y58.857 E4.4269
G1 X123.099 Y58.966 E4.45082
G1 X122.743 Y59.006 E4.47475
G1 X122.291 Y58.947 E4.5052
G1 X121.962 Y58.83 E4.52853
G1 X121.658 Y58.649 E4.55217
G1 X121.394 Y58.409 E4.57601
G1 X121.18 Y58.118 E4.60014
G1 X121.028 Y57.787 E4.62447
G1 X120.956 Y57.537 E4.64185
G1 X120.926 Y57.18 E4.66578
G1 X120.967 Y56.824 E4.68972
