; generated by PrusaSlicer 2.8.1+linux-x64-GTK3 on 2024-10-27 at 14:26:02 UTC

; 

; external perimeters extrusion width = 0.45mm
; perimeters extrusion width = 0.45mm
; infill extrusion width = 0.45mm
; solid infill extrusion width = 0.45mm
; top infill extrusion width = 0.40mm
; support material extrusion width = 0.40mm
; first layer extrusion width = 0.60mm

M190 S60 ; set bed temperature and wait for it to be reached
M104 S200 ; set temperature
;TYPE:Custom
G28 ; home all axes
G1 Z5 F5000 ; lift nozzle
M109 S200 ; set temperature and wait for it to be reached
G21 ; set units to millimeters
G90 ; use absolute coordinates
M82 ; use absolute distances for extrusion
G92 E0
; Filament gcode
M107
;LAYER_CHANGE
;Z:0.3
;HEIGHT:0.3
G1 E-2 F2400
G1 Z.3 F7800
G1 X61.122 Y15.684
G1 E0 F2400
;TYPE:Skirt/Brim
;WIDTH:0.6
G1 F1800
G1 X61.597 Y14.48 E.08647
G1 X62.076 Y13.564 E.15553
G1 X62.645 Y12.665 E.22661
G1 X63.455 Y11.641 E.31383
G1 X64.238 Y10.838 E.38876
G1 X65.241 Y10.006 E.47582
G1 X68.39 Y7.929 E.72783
G1 X70.259 Y6.998 E.86732
G1 X71.387 Y6.609 E.94703
G1 X72.486 Y6.344 E1.02255
G1 X73.667 Y6.177 E1.10223
G1 X74.797 Y6.125 E1.1778
G1 X75.971 Y6.181 E1.25632
G1 X79.55 Y6.693 E1.49785
G1 X81.503 Y7.076 E1.63081
G1 X91.015 Y9.86 E2.29292
G1 X92.021 Y10.299 E2.36625
G1 X106.237 Y17.485 E3.43039
G1 X112.64 Y21.863 E3.94857
G1 X113.862 Y22.968 E4.05863
G1 X114.613 Y23.853 E4.13617
G1 X115.536 Y25.305 E4.25111
G1 X116.07 Y26.502 E4.33867
G1 X116.528 Y28.12 E4.45101
G1 X116.748 Y29.928 E4.57269
G1 X117.088 Y39.913 E5.24013
G1 X116.886 Y42.084 E5.38579
G1 X116.456 Y43.672 E5.4957
G1 X115.953 Y44.852 E5.58139
G1 X115.133 Y46.216 E5.68771
G1 X114.433 Y47.101 E5.76309
G1 X113.436 Y48.106 E5.85766
G1 X107.366 Y52.973 E6.37742
G1 X106.238 Y53.739 E6.46851
G1 X91.922 Y60.974 E7.54009
G1 X90.701 Y61.477 E7.62831
G1 X81.95 Y64.39 E8.24446
G1 X80.217 Y64.807 E8.36354
G1 X79.128 Y64.949 E8.43691
G1 X77.589 Y64.997 E8.53977
G1 X72.752 Y64.865 E8.86303
G1 X71.53 Y64.814 E8.94474
G1 X70.348 Y64.65 E9.02446
G1 X69.248 Y64.389 E9.09999
G1 X68.117 Y64.003 E9.17983
G1 X67.086 Y63.538 E9.25539
G1 X66.048 Y62.944 E9.33529
G1 X65.123 Y62.291 E9.41093
G1 X64.216 Y61.511 E9.49085
G1 X63.432 Y60.694 E9.5665
G1 X62.69 Y59.755 E9.64645
G1 X62.075 Y58.803 E9.72217
G1 X61.524 Y57.74 E9.80216
G1 X61.101 Y56.688 E9.87791
G1 X60.763 Y55.54 E9.95786
G1 X60.547 Y54.427 E10.0336
G1 X60.433 Y53.235 E10.1136
G1 X60.527 Y19.118 E12.39281
G1 X60.697 Y17.373 E12.50994
G1 X61.107 Y15.743 E12.62222
G1 E10.62222 F2400
G92 E0
G1 X61.107 Y15.743 F7800
G92 E0
G1 X72.081 Y48.93
G1 E2 F2400
;TYPE:Support material
G1 F1800
G1 X72.389 Y49.237 E2.02905
G1 X83.289 Y49.237 E2.75723
G1 X83.581 Y49.804 E2.79984
G1 X83.627 Y52.819 E3.00128
G1 X83.762 Y53.405 E3.04145
G1 X84.028 Y54.053 E3.08825
G1 X83.887 Y54.607 E3.12644
G1 X83.413 Y55.643 E3.20255
G1 X82.777 Y56.555 E3.27683
G1 X81.979 Y57.346 E3.35189
G1 X81.033 Y57.991 E3.42838
G1 X79.97 Y58.444 E3.50557
G1 X78.869 Y58.686 E3.58088
G1 X77.761 Y58.732 E3.65496
G1 X76.666 Y58.585 E3.72877
G1 X75.585 Y58.241 E3.80456
G1 X75.197 Y58.025 E3.83423
G1 X74.04 Y58.432 E3.91617
G1 X72.924 Y58.599 E3.99155
G1 X71.795 Y58.551 E4.06704
G1 X70.695 Y58.29 E4.14257
G1 X69.664 Y57.825 E4.21813
G1 X68.739 Y57.172 E4.29377
G1 X67.954 Y56.354 E4.36951
G1 X67.339 Y55.402 E4.44523
G1 X66.916 Y54.35 E4.52098
G1 X66.701 Y53.237 E4.59671
G1 X66.702 Y52.103 E4.67247
G1 X66.917 Y50.99 E4.7482
G1 X67.341 Y49.938 E4.82397
G1 X67.956 Y48.987 E4.89963
G1 X68.741 Y48.17 E4.97532
G1 X69.665 Y47.517 E5.05091
G1 X70.696 Y47.052 E5.12647
G1 X72.081 Y46.78 E5.22076
G1 X72.081 Y48.85 E5.35905
G1 X72.081 Y48.85 F7800
G1 X83.25 Y55.423
G1 F1800
G1 X83.25 Y53.367 E5.4964
G1 X83.104 Y52.425 E5.56008
G1 X83.099 Y49.921 E5.72736
G1 X82.995 Y49.72 E5.74248
G1 X82.655 Y49.72 E5.76519
G1 X82.655 Y55.888 E6.17725
G1 X82.06 Y56.587 E6.23857
G1 X82.06 Y49.72 E6.69732
G1 X81.465 Y49.72 E6.73707
G1 X81.465 Y57.113 E7.23096
G1 X80.869 Y57.52 E7.27917
G1 X80.869 Y49.72 E7.80025
G1 X80.274 Y49.72 E7.84
G1 X80.274 Y57.79 E8.37912
G1 X79.679 Y58.014 E8.42159
G1 X79.679 Y49.72 E8.97567
G1 X79.084 Y49.72 E9.01542
G1 X79.084 Y58.145 E9.57826
G1 X78.489 Y58.219 E9.61832
G1 X78.489 Y49.72 E10.1861
G1 X77.894 Y49.72 E10.22585
G1 X77.894 Y58.244 E10.7953
G1 X77.299 Y58.184 E10.83525
G1 X77.299 Y49.72 E11.40069
G1 X76.704 Y49.72 E11.44044
G1 X76.704 Y58.092 E11.99973
G1 X76.108 Y57.902 E12.04152
G1 X76.108 Y49.72 E12.58812
G1 X75.513 Y49.72 E12.62787
G1 X75.513 Y57.649 E13.15757
G1 X75.242 Y57.498 E13.17829
G1 X74.918 Y57.612 E13.20124
G1 X74.918 Y49.72 E13.72847
G1 X74.323 Y49.72 E13.76822
G1 X74.323 Y57.822 E14.30948
G1 X73.728 Y57.992 E14.35082
G1 X73.728 Y49.72 E14.90343
G1 X73.133 Y49.72 E14.94318
G1 X73.133 Y58.081 E15.50174
G1 X72.538 Y58.1 E15.54151
G1 X72.538 Y49.72 E16.10134
G1 X72.189 Y49.72 E16.12466
G1 X71.942 Y49.473 E16.148
G1 X71.942 Y58.075 E16.72266
G1 X71.347 Y57.95 E16.76328
G1 X71.347 Y47.393 E17.46854
G1 X70.752 Y47.556 E17.50975
G1 X70.752 Y57.787 E18.19324
G1 X70.157 Y57.519 E18.23684
G1 X70.157 Y47.824 E18.88452
G1 X69.562 Y48.18 E18.93084
G1 X69.562 Y57.163 E19.53095
G1 X68.967 Y56.713 E19.58079
G1 X68.967 Y48.63 E20.12078
G1 X68.372 Y49.25 E20.17819
G1 X68.372 Y56.093 E20.63534
G1 X67.777 Y55.19 E20.70758
G1 X67.777 Y49.708 E21.07381
G1 E19.07381 F2400
G92 E0
G1 X67.777 Y49.708 F7800
G1 X75.617 Y12.464
G1 E2 F2400
G1 F1800
G1 X76.199 Y12.549 E2.03929
G1 X77.36 Y12.954 E2.12143
G1 X78.662 Y12.898 E2.20849
G1 X79.76 Y13.097 E2.28304
G1 X80.809 Y13.501 E2.35814
G1 X81.763 Y14.093 E2.43315
G1 X82.575 Y14.839 E2.50681
G1 X83.261 Y15.756 E2.58332
G1 X83.749 Y16.758 E2.65778
G1 X83.922 Y17.394 E2.70181
G1 X83.707 Y18.013 E2.74559
G1 X83.601 Y18.618 E2.78662
G1 X83.581 Y21.345 E2.9688
G1 X83.244 Y21.987 E3.01724
G1 X72.389 Y21.987 E3.74241
G1 X72.081 Y22.295 E3.77151
G1 X72.081 Y24.726 E3.93391
G1 X71.701 Y24.732 E3.9593
G1 X70.618 Y24.524 E4.03297
G1 X69.603 Y24.102 E4.1064
G1 X68.697 Y23.485 E4.17963
G1 X67.936 Y22.699 E4.25272
G1 X67.35 Y21.778 E4.32565
G1 X66.963 Y20.76 E4.39841
G1 X66.799 Y19.749 E4.46683
G1 X66.844 Y18.598 E4.54378
G1 X67.11 Y17.535 E4.61698
G1 X67.371 Y16.918 E4.66174
G1 X67.94 Y16.019 E4.73282
G1 X68.724 Y15.217 E4.80775
G1 X69.654 Y14.595 E4.88249
G1 X70.491 Y14.259 E4.94274
G1 X70.905 Y13.826 E4.98276
G1 X71.826 Y13.171 E5.05826
G1 X72.855 Y12.702 E5.13381
G1 X73.954 Y12.438 E5.20932
G1 X75.083 Y12.386 E5.28482
G1 X75.537 Y12.453 E5.31548
G1 X75.537 Y12.453 F7800
G1 X83.25 Y21.457
G1 F1800
G1 X83.25 Y16.835 E5.62425
G1 X82.655 Y15.746 E5.70715
G1 X82.655 Y21.505 E6.09188
G1 X82.06 Y21.505 E6.13163
G1 X82.06 Y15.02 E6.56486
G1 X81.465 Y14.475 E6.61876
G1 X81.465 Y21.505 E7.0884
G1 X80.869 Y21.505 E7.12822
G1 X80.869 Y14.105 E7.62258
G1 X80.274 Y13.811 E7.66692
G1 X80.274 Y21.505 E8.18092
G1 X79.679 Y21.505 E8.22067
G1 X79.629 Y13.563 E8.75125
G1 X79.084 Y13.464 E8.78825
G1 X79.084 Y21.505 E9.32543
G1 X78.489 Y21.505 E9.36518
G1 X78.489 Y13.38 E9.90797
G1 X77.894 Y13.381 E9.94772
G1 X77.894 Y21.505 E10.49045
G1 X77.299 Y21.505 E10.5302
G1 X77.299 Y13.443 E11.06879
G1 X76.704 Y13.235 E11.1109
G1 X76.704 Y21.505 E11.66338
G1 X76.108 Y21.505 E11.7032
G1 X76.108 Y13.028 E12.26951
G1 X75.513 Y12.936 E12.30973
G1 X75.513 Y21.505 E12.88219
G1 X74.918 Y21.505 E12.92194
G1 X74.918 Y12.876 E13.4984
G1 X74.323 Y12.903 E13.53819
G1 X74.323 Y21.505 E14.11285
G1 X73.728 Y21.505 E14.1526
G1 X73.728 Y12.988 E14.72158
G1 X73.133 Y13.131 E14.76246
G1 X73.133 Y21.505 E15.32189
G1 X72.538 Y21.505 E15.36164
G1 X72.538 Y13.377 E15.90463
G1 X71.942 Y13.68 E15.9493
G1 X71.942 Y21.752 E16.48855
G1 X71.599 Y22.095 E16.52096
G1 X71.599 Y24.221 E16.66299
G1 X71.347 Y24.173 E16.68013
G1 X71.347 Y14.103 E17.35286
G1 X70.752 Y14.674 E17.40795
G1 X70.752 Y24.058 E18.03485
G1 X70.157 Y23.811 E18.07789
G1 X70.157 Y14.912 E18.67239
G1 X69.562 Y15.236 E18.71765
G1 X69.562 Y23.491 E19.26913
G1 X68.967 Y23.071 E19.31778
G1 X68.967 Y15.658 E19.81301
G1 X68.372 Y16.267 E19.86989
G1 X68.372 Y22.457 E20.28342
G1 X67.777 Y21.543 E20.35628
G1 X67.777 Y16.728 E20.67795
G1 E18.67795 F2400
G92 E0
G1 X67.777 Y16.728 F7800
G1 X106.505 Y26.007
G1 E2 F2400
G1 F1800
G1 X107.051 Y26.045 E2.03656
G1 X108.108 Y26.377 E2.11057
G1 X109.083 Y27.023 E2.1887
G1 X109.835 Y27.909 E2.26634
G1 X110.112 Y28.517 E2.31097
G1 X110.322 Y29 E2.34615
G1 X110.484 Y30.141 E2.42314
G1 X110.322 Y31.283 E2.5002
G1 X110.112 Y31.767 E2.53545
G1 X109.835 Y32.374 E2.58002
G1 X109.084 Y33.259 E2.65756
G1 X108.152 Y33.878 E2.7323
G1 X107.637 Y34.061 E2.76881
G1 X106.968 Y34.258 E2.8154
G1 X105.825 Y34.285 E2.89178
G1 X105.131 Y34.102 E2.93973
G1 X105.131 Y26.182 E3.46883
G1 X105.792 Y26.007 E3.51451
G1 X106.425 Y26.007 E3.5568
G1 X106.425 Y26.007 F7800
G1 X109.436 Y32.472
G1 F1800
G1 X109.436 Y28.196 E3.84246
G1 X108.841 Y27.483 E3.9045
G1 X108.841 Y32.801 E4.25977
G1 X108.246 Y33.238 E4.30909
G1 X108.246 Y27.046 E4.72275
G1 X107.65 Y26.738 E4.76757
G1 X107.65 Y33.545 E5.22231
G1 X107.055 Y33.73 E5.26394
G1 X107.055 Y26.551 E5.74354
G1 X106.46 Y26.489 E5.7835
G1 X106.46 Y33.788 E6.27111
G1 X105.865 Y33.797 E6.31086
G1 X105.865 Y26.248 E6.81517
G1 E4.81517 F2400
G92 E0
G1 X105.865 Y26.248 F7800
G1 X106.869 Y35.884
G1 E2 F2400
G1 F1800
G1 X107.544 Y35.967 E2.04543
G1 X108.583 Y36.362 E2.11969
G1 X109.508 Y37.04 E2.19631
G1 X110.208 Y37.922 E2.27153
G1 X110.405 Y38.365 E2.30392
G1 X110.671 Y38.998 E2.34979
G1 X110.824 Y40.126 E2.42584
G1 X110.673 Y41.255 E2.50193
G1 X110.407 Y41.891 E2.54798
G1 X110.214 Y42.331 E2.58008
G1 X109.515 Y43.216 E2.65542
G1 X108.611 Y43.881 E2.73039
G1 X107.962 Y44.143 E2.77715
G1 X107.468 Y44.311 E2.81201
G1 X106.377 Y44.418 E2.88524
G1 X105.131 Y44.162 E2.97022
G1 X105.131 Y36.092 E3.50934
G1 X106.313 Y35.854 E3.58989
G1 X106.788 Y35.88 E3.62167
G1 X106.788 Y35.88 F7800
G1 X110.031 Y42.149
G1 F1800
G1 X110.031 Y38.72 E3.85075
G1 X109.792 Y38.173 E3.89063
G1 X109.436 Y37.724 E3.92891
G1 X109.436 Y42.539 E4.25058
G1 X109.177 Y42.866 E4.27845
G1 X108.841 Y43.113 E4.30631
G1 X108.841 Y37.149 E4.70474
G1 X108.246 Y36.75 E4.7526
G1 X108.246 Y43.508 E5.20407
G1 X107.65 Y43.74 E5.2468
G1 X107.65 Y36.523 E5.72893
G1 X107.055 Y36.393 E5.76962
G1 X107.055 Y43.867 E6.26892
G1 X106.46 Y43.926 E6.30886
G1 X106.46 Y36.345 E6.81531
G1 X105.865 Y36.421 E6.85538
G1 X105.865 Y44.085 E7.36738
G1 E5.36738 F2400
G92 E0
G1 X105.865 Y44.085 F7800
G1 X85.954 Y17.453
G1 E2 F2400
;TYPE:Perimeter
;WIDTH:0.497964
G1 F1800
G1 X86.012 Y17.382 E2.00496
;WIDTH:0.498893
G1 X86.467 Y17.04 E2.03581
G1 X86.763 Y16.894 E2.0537
;WIDTH:0.497345
G1 X87.172 Y16.774 E2.07672
;WIDTH:0.493891
G1 X87.624 Y16.733 E2.10103
G1 X88.076 Y16.781 E2.12538
G1 X88.508 Y16.919 E2.14967
;WIDTH:0.493257
G1 X88.904 Y17.14 E2.17393
;WIDTH:0.497343
G1 X89.27 Y17.454 E2.19997
G1 X89.531 Y17.79 E2.22295
;WIDTH:0.493887
G1 X89.733 Y18.197 E2.24729
;WIDTH:0.489408
G1 X89.853 Y18.634 E2.27131
;WIDTH:0.496882
G1 X89.887 Y19.087 E2.29582
;WIDTH:0.531254
G1 X89.853 Y19.34 E2.31068
;WIDTH:0.565627
G1 X89.82 Y19.592 E2.32657
;WIDTH:0.6
G1 X89.786 Y19.845 E2.34362
G1 X89.488 Y20.392 E2.38523
G1 X89.131 Y20.771 E2.42001
G1 X88.69 Y21.073 E2.45572
G1 X88.203 Y21.268 E2.49077
G1 X87.644 Y21.348 E2.52849
G1 X87.122 Y21.295 E2.56354
G1 X86.68 Y21.154 E2.59453
G1 X86.274 Y20.928 E2.62557
G1 X85.921 Y20.626 E2.6566
G1 X85.634 Y20.26 E2.68767
G1 X85.426 Y19.845 E2.71868
G1 X85.386 Y19.59 E2.73592
;WIDTH:0.555946
G1 X85.345 Y19.336 E2.75169
;WIDTH:0.511893
G1 X85.341 Y18.803 E2.78144
;WIDTH:0.49255
G1 X85.441 Y18.304 E2.80862
;WIDTH:0.494199
G1 X85.49 Y18.163 E2.81662
G1 X85.701 Y17.761 E2.84096
;WIDTH:0.497964
G1 X85.916 Y17.5 E2.85925
G1 X85.916 Y17.5 F7800
G1 X86.307 Y17.798
;TYPE:External perimeter
;WIDTH:0.6
G1 F1800
G1 X86.534 Y17.568 E2.88084
G1 X86.917 Y17.353 E2.91018
G1 X87.232 Y17.253 E2.93226
G1 X87.748 Y17.226 E2.96678
G1 X88.239 Y17.328 E3.00028
G1 X88.605 Y17.516 E3.02777
G1 X88.899 Y17.765 E3.05351
G1 X89.107 Y18.021 E3.07555
G1 X89.274 Y18.338 E3.09949
G1 X89.375 Y18.682 E3.12344
G1 X89.405 Y19.039 E3.14737
G1 X89.364 Y19.395 E3.17131
G1 X89.253 Y19.736 E3.19527
G1 X89.078 Y20.048 E3.21917
G1 X88.829 Y20.329 E3.24425
G1 X88.388 Y20.63 E3.27992
G1 X87.98 Y20.772 E3.30878
G1 X87.624 Y20.811 E3.3327
G1 X87.248 Y20.774 E3.35794
G1 X86.924 Y20.677 E3.38053
G1 X86.608 Y20.509 E3.40444
G1 X86.331 Y20.282 E3.42837
G1 X86.105 Y20.004 E3.4523
G1 X85.938 Y19.687 E3.47624
G1 X85.837 Y19.323 E3.50148
G1 X85.823 Y18.791 E3.53703
G1 X85.925 Y18.372 E3.56584
G1 X86.177 Y17.93 E3.59983
G1 X86.265 Y17.841 E3.60819
G1 X86.559 Y17.569 F7800
G1 E1.60819 F2400
G92 E0
G1 X85.404 Y52.753 F7800
G1 E2 F2400
;TYPE:Perimeter
;WIDTH:0.489409
G1 F1800
G1 X85.36 Y52.591 E2.0089
;WIDTH:0.501868
G1 X85.331 Y52.085 E2.03656
;WIDTH:0.550934
G1 X85.353 Y51.817 E2.05288
;WIDTH:0.6
G1 X85.375 Y51.55 E2.07078
G1 X85.575 Y51.065 E2.10583
G1 X85.951 Y50.568 E2.14746
G1 X86.31 Y50.273 E2.1785
G1 X86.813 Y50.023 E2.21602
G1 X87.165 Y49.921 E2.2405
G1 X87.628 Y49.879 E2.27156
G1 X88.11 Y49.936 E2.30398
G1 X88.533 Y50.071 E2.33364
G1 X88.938 Y50.297 E2.36462
G1 X89.292 Y50.599 E2.39571
G1 X89.578 Y50.965 E2.42674
G1 X89.786 Y51.38 E2.45775
G1 X89.825 Y51.607 E2.47314
;WIDTH:0.556145
G1 X89.864 Y51.833 E2.48721
;WIDTH:0.512291
G1 X89.886 Y52.291 E2.51283
;WIDTH:0.496931
G1 X89.818 Y52.765 E2.53866
;WIDTH:0.497216
G1 X89.659 Y53.203 E2.56382
;WIDTH:0.499339
G1 X89.359 Y53.667 E2.5938
G1 X89.123 Y53.915 E2.61237
;WIDTH:0.497344
G1 X88.78 Y54.167 E2.63535
;WIDTH:0.493889
G1 X88.369 Y54.361 E2.6597
;WIDTH:0.497595
G1 X87.907 Y54.473 E2.68539
G1 X87.34 Y54.473 E2.71603
;WIDTH:0.49657
G1 X86.843 Y54.363 E2.74347
G1 X86.367 Y54.131 E2.77201
;WIDTH:0.49672
G1 X85.96 Y53.793 E2.80054
G1 X85.681 Y53.435 E2.82501
;WIDTH:0.493889
G1 X85.479 Y53.028 E2.84935
;WIDTH:0.489409
G1 X85.42 Y52.811 E2.86127
G1 X85.42 Y52.811 F7800
G1 X85.868 Y52.648
;TYPE:External perimeter
;WIDTH:0.6
G1 F1800
G1 X85.838 Y52.543 E2.86857
G1 X85.81 Y52.169 E2.89363
G1 X85.902 Y51.642 E2.92937
G1 X86.085 Y51.252 E2.95815
G1 X86.306 Y50.969 E2.98214
G1 X86.578 Y50.736 E3.00607
G1 X86.983 Y50.531 E3.03639
G1 X87.232 Y50.453 E3.05382
G1 X87.588 Y50.414 E3.07774
G1 X87.965 Y50.451 E3.10305
G1 X88.288 Y50.548 E3.12558
G1 X88.605 Y50.716 E3.14955
G1 X88.881 Y50.943 E3.17342
G1 X89.107 Y51.221 E3.19735
G1 X89.274 Y51.538 E3.22129
G1 X89.375 Y51.882 E3.24524
G1 X89.405 Y52.242 E3.26937
G1 X89.356 Y52.622 E3.29497
G1 X89.234 Y52.971 E3.31967
G1 X88.987 Y53.356 E3.35023
G1 X88.605 Y53.709 E3.38498
G1 X88.239 Y53.897 E3.41247
G1 X87.885 Y53.989 E3.4369
G1 X87.34 Y53.989 E3.47331
G1 X86.91 Y53.87 E3.50312
G1 X86.608 Y53.709 E3.52598
G1 X86.321 Y53.47 E3.55093
G1 X86.105 Y53.204 E3.57382
G1 X85.938 Y52.887 E3.59776
G1 X85.885 Y52.705 E3.61042
G1 X85.825 Y52.31 F7800
G1 E1.61042 F2400
G92 E0
G1 X98.562 Y24.55 F7800
G1 E2 F2400
;TYPE:Perimeter
G1 F1800
G1 X98.269 Y24.299 E2.02577
G1 X98.058 Y24.269 E2.04001
;WIDTH:0.553651
G1 X97.848 Y24.24 E2.05295
;WIDTH:0.507302
G1 X97.638 Y24.211 E2.06466
;WIDTH:0.460953
G1 X91.074 Y24.211 E2.38933
;WIDTH:0.507301
G1 X90.797 Y24.188 E2.40469
;WIDTH:0.55365
G1 X90.52 Y24.164 E2.42166
;WIDTH:0.6
G1 X90.243 Y24.141 E2.44023
G1 X84.971 Y24.141 E2.79243
G1 X84.693 Y24.164 E2.81107
;WIDTH:0.55365
G1 X84.416 Y24.188 E2.82804
;WIDTH:0.507301
G1 X84.138 Y24.211 E2.84345
;WIDTH:0.460953
G1 X73.908 Y24.211 E3.34945
G1 X73.908 Y23.814 E3.36909
G1 X84.138 Y23.814 E3.87509
;WIDTH:0.472075
G1 X84.359 Y23.801 E3.88635
;WIDTH:0.514716
G1 X84.519 Y23.762 E3.8956
;WIDTH:0.557358
G1 X84.68 Y23.723 E3.90579
;WIDTH:0.6
G1 X84.841 Y23.685 E3.91684
G1 X85.287 Y23.232 E3.95931
G1 X85.46 Y22.76 E3.99289
G1 X85.477 Y22.545 E4.0073
G1 X85.477 Y20.931 E4.11512
G1 X85.701 Y21.156 E4.13633
G1 X86.164 Y21.491 E4.17451
G1 X86.684 Y21.728 E4.21269
G1 X87.24 Y21.857 E4.25082
G1 X87.811 Y21.873 E4.28898
G1 X88.374 Y21.776 E4.32715
G1 X88.992 Y21.515 E4.37197
G1 X89.433 Y21.213 E4.40768
G1 X89.733 Y20.933 E4.43509
G1 X89.753 Y22.761 E4.55722
G1 X89.926 Y23.233 E4.5908
G1 X90.372 Y23.685 E4.63322
G1 X90.606 Y23.728 E4.64911
