; generated by PrusaSlicer 2.8.1+linux-x64-GTK3 on 2024-10-22 at 18:56:10 UTC

; 

; external perimeters extrusion width = 0.45mm
; perimeters extrusion width = 0.45mm
; infill extrusion width = 0.45mm
; solid infill extrusion width = 0.45mm
; top infill extrusion width = 0.40mm
; support material extrusion width = 0.40mm
; first layer extrusion width = 0.60mm

M190 S60 ; set bed temperature and wait for it to be reached
M104 S200 ; set temperature
;TYPE:Custom
G28 ; home all axes
G1 Z5 F5000 ; lift nozzle
M109 S200 ; set temperature and wait for it to be reached
G21 ; set units to millimeters
G90 ; use absolute coordinates
M82 ; use absolute distances for extrusion
G92 E0
; Filament gcode
M107
;LAYER_CHANGE
;Z:0.3
;HEIGHT:0.3
G1 E-2 F2400
G1 Z.3 F7800
G1 X85.835 Y84.492
G1 E0 F2400
;TYPE:Skirt/Brim
;WIDTH:0.6
G1 F1800
G1 X86.738 Y83.708 E.07989
G1 X87.659 Y83.05 E.15551
G1 X88.695 Y82.451 E.23546
G1 X89.725 Y81.98 E.31112
G1 X90.855 Y81.589 E.391
G1 X91.956 Y81.322 E.46668
G1 X93.14 Y81.152 E.54659
G1 X94.439 Y81.094 E.63346
G1 X98.914 Y81.015 E.93246
G1 X99.871 Y81.078 E.99653
G1 X101.729 Y81.419 E1.12273
G1 X111.524 Y83.965 E1.79883
G1 X112.874 Y84.434 E1.8943
G1 X127.504 Y91.801 E2.98858
G1 X134.032 Y96.246 E3.51619
G1 X135.255 Y97.352 E3.62635
G1 X136.007 Y98.237 E3.70393
G1 X136.929 Y99.689 E3.81884
G1 X137.464 Y100.886 E3.90643
G1 X137.921 Y102.504 E4.01875
G1 X138.141 Y104.312 E4.14043
G1 X138.482 Y114.3 E4.80807
G1 X138.431 Y115.343 E4.87783
G1 X138.28 Y116.472 E4.95392
G1 X137.85 Y118.059 E5.06376
G1 X137.584 Y118.696 E5.10988
G1 X137.346 Y119.24 E5.14955
G1 X136.526 Y120.604 E5.25587
G1 X135.827 Y121.489 E5.33121
G1 X134.83 Y122.493 E5.42573
G1 X128.824 Y127.309 E5.94003
G1 X127.237 Y128.342 E6.06653
G1 X113.419 Y135.311 E7.10041
G1 X111.962 Y135.907 E7.20557
G1 X101.277 Y138.701 E7.94339
G1 X95.257 Y139.623 E8.35025
G1 X93.376 Y139.715 E8.47606
G1 X92.241 Y139.64 E8.55205
G1 X91.133 Y139.464 E8.627
G1 X90.03 Y139.184 E8.70302
G1 X88.131 Y138.436 E8.83937
G1 X86.767 Y137.652 E8.94447
G1 X85.177 Y136.399 E9.07971
G1 X84.378 Y135.587 E9.15581
G1 X83.667 Y134.718 E9.23082
G1 X83.029 Y133.775 E9.30688
G1 X82.132 Y132.014 E9.43891
G1 X81.744 Y130.923 E9.51627
G1 X81.459 Y129.811 E9.59296
G1 X81.229 Y128.157 E9.70452
G1 X81.205 Y126.822 E9.79372
G1 X82.097 Y92.582 E12.08191
G1 X82.204 Y91.58 E12.14923
G1 X82.414 Y90.469 E12.22477
G1 X82.747 Y89.322 E12.30456
G1 X83.164 Y88.271 E12.3801
G1 X83.709 Y87.208 E12.4599
G1 X84.318 Y86.254 E12.53551
G1 X85.055 Y85.313 E12.61536
G1 X85.794 Y84.536 E12.687
G1 E10.687 F2400
G92 E0
G1 X85.794 Y84.536 F7800
G92 E0
G1 X93.475 Y121.12
G1 E2 F2400
;TYPE:Support material
G1 F1800
G1 X93.475 Y123.317 E2.14677
G1 X93.783 Y123.625 E2.17587
G1 X103.709 Y123.625 E2.83898
G1 X104.16 Y124.493 E2.90433
G1 X104.482 Y125.556 E2.97853
G1 X104.602 Y126.672 E3.05351
G1 X104.511 Y127.792 E3.12858
G1 X104.214 Y128.872 E3.20341
G1 X103.724 Y129.873 E3.27786
G1 X103.035 Y130.788 E3.35438
G1 X102.221 Y131.533 E3.4281
G1 X101.275 Y132.117 E3.50237
G1 X100.176 Y132.53 E3.5808
G1 X99.107 Y132.721 E3.65335
G1 X97.978 Y132.707 E3.72878
G1 X96.915 Y132.49 E3.80126
G1 X96.502 Y132.755 E3.83404
G1 X95.423 Y133.196 E3.91191
G1 X94.345 Y133.422 E3.98549
G1 X93.223 Y133.449 E4.06047
G1 X92.115 Y133.273 E4.13542
G1 X91.094 Y132.913 E4.20774
G1 X90.053 Y132.315 E4.28794
G1 X89.228 Y131.616 E4.36018
G1 X88.517 Y130.748 E4.43514
G1 X87.999 Y129.809 E4.50678
G1 X87.625 Y128.691 E4.58554
G1 X87.519 Y128.108 E4.62513
G1 X87.52 Y126.455 E4.73556
G1 X87.626 Y125.872 E4.77515
G1 X87.999 Y124.755 E4.85382
G1 X88.517 Y123.816 E4.92546
G1 X89.228 Y122.948 E5.00042
G1 X90.084 Y122.223 E5.07536
G1 X91.056 Y121.664 E5.15027
G1 X92.114 Y121.291 E5.22521
G1 X93.395 Y121.12 E5.31155
G1 E3.31155 F2400
G92 E0
G1 X93.395 Y121.12 F7800
G1 X104.049 Y128.563
G1 E2 F2400
G1 F1800
G1 X104.008 Y125.652 E2.19449
G1 X103.712 Y124.674 E2.26275
G1 X103.454 Y124.172 E2.30046
G1 X103.454 Y129.328 E2.64491
G1 X102.858 Y130.228 E2.71702
G1 X102.858 Y124.107 E3.12594
G1 X102.263 Y124.107 E3.16569
G1 X102.263 Y130.841 E3.61556
G1 X101.668 Y131.307 E3.66605
G1 X101.668 Y124.107 E4.14705
G1 X101.073 Y124.107 E4.1868
G1 X101.073 Y131.675 E4.69238
G1 X100.478 Y131.911 E4.73514
G1 X100.478 Y124.107 E5.25649
G1 X99.883 Y124.107 E5.29624
G1 X99.883 Y132.093 E5.82975
G1 X99.288 Y132.199 E5.87013
G1 X99.288 Y124.107 E6.41072
G1 X98.692 Y124.107 E6.45054
G1 X98.692 Y132.234 E6.99347
G1 X98.097 Y132.227 E7.03322
G1 X98.097 Y124.107 E7.57568
G1 X97.502 Y124.107 E7.61543
G1 X97.502 Y132.118 E8.15061
G1 X96.907 Y131.996 E8.19119
G1 X96.907 Y124.107 E8.71822
G1 X96.312 Y124.107 E8.75797
G1 X96.312 Y132.304 E9.30557
G1 X95.717 Y132.564 E9.34895
G1 X95.717 Y124.107 E9.91392
G1 X95.122 Y124.107 E9.95367
G1 X95.122 Y132.767 E10.5322
G1 X94.527 Y132.891 E10.5728
G1 X94.527 Y124.107 E11.15962
G1 X93.931 Y124.107 E11.19944
G1 X93.931 Y132.95 E11.7902
G1 X93.336 Y132.964 E11.82996
G1 X93.336 Y123.86 E12.43816
G1 X92.993 Y123.517 E12.47057
G1 X92.993 Y121.639 E12.59603
G1 X92.741 Y121.679 E12.61308
G1 X92.741 Y132.885 E13.3617
G1 X92.146 Y132.773 E13.40215
G1 X92.146 Y121.791 E14.13581
G1 X91.551 Y122.001 E14.17796
G1 X91.551 Y132.563 E14.88356
G1 X90.956 Y132.292 E14.92724
G1 X90.956 Y122.278 E15.59623
G1 X90.361 Y122.62 E15.64208
G1 X90.361 Y131.938 E16.26457
G1 X89.766 Y131.44 E16.3164
G1 X89.766 Y123.124 E16.87195
G1 X89.17 Y123.779 E16.93111
G1 X89.17 Y130.785 E17.39915
G1 X88.575 Y129.855 E17.47291
G1 X88.575 Y124.709 E17.81669
G1 X88.23 Y125.51 E17.87495
G1 X87.998 Y126.52 E17.94418
G1 X87.98 Y129.056 E18.1136
G1 E16.1136 F2400
G92 E0
G1 X87.98 Y129.056 F7800
G1 X99.361 Y87.336
G1 E2 F2400
G1 F1800
G1 X100.152 Y87.485 E2.05377
G1 X101.191 Y87.884 E2.12812
G1 X102.146 Y88.475 E2.20315
G1 X102.973 Y89.232 E2.27805
G1 X103.636 Y90.121 E2.35214
G1 X104.136 Y91.143 E2.42815
G1 X104.431 Y92.219 E2.50269
G1 X104.521 Y93.338 E2.57769
G1 X104.4 Y94.454 E2.65268
G1 X104.073 Y95.53 E2.72781
G1 X103.631 Y96.375 E2.79152
G1 X93.783 Y96.375 E3.44942
G1 X93.475 Y96.683 E3.47852
G1 X93.475 Y99.169 E3.6446
G1 X92.344 Y98.904 E3.7222
G1 X91.319 Y98.439 E3.79739
G1 X90.4 Y97.788 E3.87263
G1 X89.62 Y96.975 E3.9479
G1 X89.007 Y96.029 E4.02321
G1 X88.584 Y94.983 E4.09859
G1 X88.366 Y93.875 E4.17403
G1 X88.362 Y92.746 E4.24945
G1 X88.573 Y91.635 E4.325
G1 X88.99 Y90.584 E4.40054
G1 X89.599 Y89.63 E4.47615
G1 X90.379 Y88.809 E4.5518
G1 X91.301 Y88.151 E4.62747
G1 X92.331 Y87.68 E4.70313
G1 X93.432 Y87.413 E4.77881
G1 X94.563 Y87.361 E4.85445
G1 X95.684 Y87.524 E4.93013
G1 X96.28 Y87.732 E4.9723
G1 X96.794 Y87.52 E5.00944
G1 X97.904 Y87.295 E5.0851
G1 X99.281 Y87.325 E5.17711
G1 X99.281 Y87.325 F7800
G1 X103.454 Y96.134
G1 F1800
G1 X103.454 Y90.838 E5.53091
G1 X103.224 Y90.375 E5.56545
G1 X102.858 Y89.885 E5.60631
G1 X102.858 Y95.893 E6.00768
G1 X102.263 Y95.893 E6.04743
G1 X102.263 Y89.236 E6.49215
G1 X101.668 Y88.746 E6.54364
G1 X101.668 Y95.893 E7.0211
G1 X101.073 Y95.893 E7.06085
G1 X101.073 Y88.377 E7.56296
G1 X100.478 Y88.126 E7.6061
G1 X100.478 Y95.893 E8.12498
G1 X99.883 Y95.893 E8.16473
G1 X99.883 Y87.925 E8.69704
G1 X99.288 Y87.813 E8.73749
G1 X99.288 Y95.893 E9.27728
G1 X98.692 Y95.893 E9.3171
G1 X98.692 Y87.768 E9.85989
G1 X98.097 Y87.774 E9.89964
G1 X98.097 Y95.893 E10.44203
G1 X97.502 Y95.893 E10.48178
G1 X97.502 Y87.868 E11.01789
G1 X96.907 Y87.995 E11.05853
G1 X96.907 Y95.893 E11.58616
G1 X96.312 Y95.893 E11.62591
G1 X96.312 Y88.24 E12.13717
G1 X95.717 Y88.046 E12.17898
G1 X95.717 Y95.893 E12.7032
G1 X95.122 Y95.893 E12.74295
G1 X95.122 Y87.929 E13.27499
G1 X94.54 Y87.844 E13.31428
G1 X94.527 Y95.893 E13.852
G1 X93.931 Y95.893 E13.89182
G1 X93.931 Y87.873 E14.4276
G1 X93.336 Y87.933 E14.46755
G1 X93.336 Y96.14 E15.01582
G1 X92.993 Y96.483 E15.04823
G1 X92.993 Y98.565 E15.18732
G1 X92.741 Y98.504 E15.20464
G1 X92.741 Y88.077 E15.90122
G1 X92.146 Y88.295 E15.94355
G1 X92.146 Y98.285 E16.61094
G1 X91.551 Y98.013 E16.65465
G1 X91.551 Y88.567 E17.28569
G1 X90.956 Y88.99 E17.33446
G1 X90.956 Y97.591 E17.90905
G1 X90.361 Y97.051 E17.96273
G1 X90.361 Y89.529 E18.46524
G1 X89.766 Y90.265 E18.52847
G1 X89.766 Y96.314 E18.93258
G1 X89.437 Y95.806 E18.97301
G1 X89.17 Y95.148 E19.02045
G1 X89.17 Y90.782 E19.31212
G1 E17.31212 F2400
G92 E0
G1 X89.17 Y90.782 F7800
G1 X127.898 Y100.391
G1 E2 F2400
G1 F1800
G1 X128.445 Y100.429 E2.03663
G1 X129.501 Y100.761 E2.11058
G1 X130.476 Y101.407 E2.18871
G1 X131.228 Y102.293 E2.26635
G1 X131.506 Y102.901 E2.31101
G1 X131.715 Y103.384 E2.34617
G1 X131.877 Y104.525 E2.42316
G1 X131.716 Y105.667 E2.50021
G1 X131.506 Y106.151 E2.53546
G1 X131.229 Y106.758 E2.58003
G1 X130.478 Y107.643 E2.65757
G1 X129.546 Y108.262 E2.73231
G1 X129.031 Y108.445 E2.76882
G1 X128.361 Y108.642 E2.81547
G1 X127.218 Y108.669 E2.89185
G1 X126.525 Y108.486 E2.93973
G1 X126.525 Y100.566 E3.46883
G1 X127.186 Y100.391 E3.51451
G1 X127.818 Y100.391 E3.55673
G1 X127.818 Y100.391 F7800
G1 X130.83 Y106.856
G1 F1800
G1 X130.83 Y102.581 E3.84232
G1 X130.234 Y101.867 E3.90445
G1 X130.234 Y107.185 E4.25972
G1 X129.639 Y107.621 E4.309
G1 X129.639 Y101.431 E4.72253
G1 X129.044 Y101.122 E4.76732
G1 X129.044 Y107.929 E5.22206
G1 X128.449 Y108.114 E5.26369
G1 X128.449 Y100.935 E5.74329
G1 X127.854 Y100.873 E5.78325
G1 X127.854 Y108.172 E6.27086
G1 X127.259 Y108.181 E6.31061
G1 X127.259 Y100.632 E6.81492
G1 E4.81492 F2400
G92 E0
G1 X127.259 Y100.632 F7800
G1 X128.263 Y110.272
G1 E2 F2400
G1 F1800
G1 X128.938 Y110.354 E2.04543
G1 X129.977 Y110.75 E2.11971
G1 X130.902 Y111.427 E2.19629
G1 X131.602 Y112.309 E2.27151
G1 X131.799 Y112.753 E2.30396
G1 X132.065 Y113.386 E2.34983
G1 X132.218 Y114.513 E2.42581
G1 X132.067 Y115.642 E2.5019
G1 X131.801 Y116.279 E2.54802
G1 X131.608 Y116.718 E2.58006
G1 X130.909 Y117.603 E2.6554
G1 X130.005 Y118.268 E2.73037
G1 X129.356 Y118.53 E2.77713
G1 X128.862 Y118.699 E2.81201
G1 X127.771 Y118.806 E2.88524
G1 X126.525 Y118.549 E2.97023
G1 X126.525 Y110.48 E3.50928
G1 X127.706 Y110.242 E3.58976
G1 X128.182 Y110.267 E3.6216
G1 X128.182 Y110.267 F7800
G1 X131.425 Y116.536
G1 F1800
G1 X131.425 Y113.107 E3.85068
G1 X131.186 Y112.561 E3.8905
G1 X130.83 Y112.112 E3.92878
G1 X130.83 Y116.926 E4.25038
G1 X130.571 Y117.254 E4.2783
G1 X130.234 Y117.501 E4.30621
G1 X130.234 Y111.536 E4.7047
G1 X129.639 Y111.137 E4.75256
G1 X129.639 Y117.896 E5.2041
G1 X129.044 Y118.127 E5.24674
G1 X129.044 Y110.911 E5.72881
G1 X128.449 Y110.78 E5.76951
G1 X128.449 Y118.255 E6.26888
G1 X127.854 Y118.313 E6.30882
G1 X127.854 Y110.732 E6.81527
G1 X127.259 Y110.809 E6.85535
G1 X127.259 Y118.473 E7.36735
G1 E5.36735 F2400
G92 E0
G1 X127.259 Y118.473 F7800
G1 X108.081 Y91.316
G1 E2 F2400
;TYPE:Perimeter
;WIDTH:0.493742
G1 F1800
G1 X108.547 Y91.164 E2.02625
;WIDTH:0.497549
G1 X109.037 Y91.119 E2.05283
G1 X109.469 Y91.169 E2.07633
;WIDTH:0.49389
G1 X109.902 Y91.306 E2.10066
;WIDTH:0.493183
G1 X110.298 Y91.528 E2.12494
;WIDTH:0.497343
G1 X110.664 Y91.841 E2.15095
G1 X110.951 Y92.227 E2.17692
;WIDTH:0.496167
G1 X111.168 Y92.713 E2.20558
;WIDTH:0.493021
G1 X111.271 Y93.212 E2.23282
;WIDTH:0.510494
G1 X111.263 Y93.759 E2.26326
;WIDTH:0.553423
G1 X111.24 Y93.94 E2.27439
;WIDTH:0.596352
G1 X111.217 Y94.122 E2.28656
;WIDTH:0.6
G1 X111.031 Y94.548 E2.31761
G1 X110.655 Y95.045 E2.35924
G1 X110.296 Y95.34 E2.39028
G1 X109.793 Y95.59 E2.4278
G1 X109.441 Y95.691 E2.45226
G1 X108.978 Y95.733 E2.48332
G1 X108.496 Y95.677 E2.51574
G1 X108.074 Y95.541 E2.54536
G1 X107.668 Y95.315 E2.5764
G1 X107.315 Y95.013 E2.60743
G1 X107.028 Y94.647 E2.6385
G1 X106.82 Y94.232 E2.66951
G1 X106.786 Y93.981 E2.68643
;WIDTH:0.566323
G1 X106.752 Y93.729 E2.70235
;WIDTH:0.532646
G1 X106.719 Y93.478 E2.71714
;WIDTH:0.505376
G1 X106.78 Y92.945 E2.74665
G1 X106.905 Y92.502 E2.77197
;WIDTH:0.498901
G1 X107.185 Y92.025 E2.80195
G1 X107.577 Y91.618 E2.83257
;WIDTH:0.498094
G1 X108.026 Y91.339 E2.86117
G1 X108.026 Y91.339 F7800
G1 X108.275 Y91.776
;TYPE:External perimeter
;WIDTH:0.6
G1 F1800
G1 X108.574 Y91.652 E2.88279
G1 X109.001 Y91.603 E2.9115
G1 X109.339 Y91.633 E2.93417
G1 X109.807 Y91.8 E2.96737
G1 X110.237 Y92.094 E3.00217
G1 X110.51 Y92.426 E3.03088
G1 X110.729 Y92.912 E3.06649
G1 X110.798 Y93.337 E3.09525
G1 X110.775 Y93.694 E3.11915
G1 X110.699 Y93.99 E3.13957
G1 X110.521 Y94.361 E3.16706
G1 X110.301 Y94.643 E3.19095
G1 X110.028 Y94.876 E3.21493
G1 X109.623 Y95.082 E3.24529
G1 X109.374 Y95.16 E3.26272
G1 X109.018 Y95.199 E3.28664
G1 X108.641 Y95.161 E3.31195
G1 X108.318 Y95.065 E3.33446
G1 X108.002 Y94.897 E3.35837
G1 X107.725 Y94.669 E3.38234
G1 X107.499 Y94.391 E3.40627
G1 X107.332 Y94.074 E3.43021
G1 X107.232 Y93.73 E3.45414
G1 X107.204 Y93.356 E3.4792
G1 X107.296 Y92.83 E3.51487
G1 X107.479 Y92.439 E3.54371
G1 X107.727 Y92.132 E3.57008
G1 X108.104 Y91.848 E3.60161
G1 X108.22 Y91.799 E3.61002
G1 X108.596 Y91.663 F7800
G1 E1.61002 F2400
G92 E0
G1 X107.572 Y128.36 F7800
G1 E2 F2400
;TYPE:Perimeter
;WIDTH:0.4956
G1 F1800
G1 X107.355 Y128.179 E2.0152
;WIDTH:0.493891
G1 X107.075 Y127.822 E2.03951
G1 X106.873 Y127.416 E2.0638
;WIDTH:0.489409
G1 X106.759 Y127.015 E2.0859
;WIDTH:0.503255
G1 X106.73 Y126.391 E2.12009
;WIDTH:0.542217
G1 X106.76 Y126.135 E2.13545
;WIDTH:0.581179
G1 X106.791 Y125.88 E2.15201
;WIDTH:0.6
G1 X106.969 Y125.452 E2.18298
G1 X107.345 Y124.955 E2.22461
G1 X107.704 Y124.66 E2.25565
G1 X108.207 Y124.41 E2.29317
G1 X108.559 Y124.309 E2.31763
G1 X109.022 Y124.267 E2.34869
G1 X109.504 Y124.323 E2.38111
G1 X109.926 Y124.459 E2.41073
G1 X110.332 Y124.685 E2.44177
G1 X110.685 Y124.987 E2.4728
G1 X110.972 Y125.353 E2.50387
G1 X111.18 Y125.768 E2.53488
G1 X111.219 Y125.994 E2.5502
;WIDTH:0.556144
G1 X111.258 Y126.221 E2.56433
;WIDTH:0.512289
G1 X111.28 Y126.678 E2.58989
;WIDTH:0.496932
G1 X111.212 Y127.152 E2.61572
;WIDTH:0.497197
G1 X111.053 Y127.59 E2.64087
G1 X110.841 Y127.946 E2.66324
;WIDTH:0.497499
G1 X110.527 Y128.295 E2.6886
G1 X110.174 Y128.555 E2.71228
;WIDTH:0.49389
G1 X109.763 Y128.748 E2.7366
;WIDTH:0.498311
G1 X109.269 Y128.861 E2.76403
G1 X108.735 Y128.861 E2.79293
;WIDTH:0.496187
G1 X108.237 Y128.75 E2.82041
;WIDTH:0.4956
G1 X107.769 Y128.523 E2.84839
G1 X107.618 Y128.398 E2.85893
G1 X107.618 Y128.398 F7800
G1 X107.884 Y127.988
;TYPE:External perimeter
;WIDTH:0.6
G1 F1800
G1 X107.619 Y127.743 E2.88304
G1 X107.353 Y127.323 E2.91625
G1 X107.233 Y126.944 E2.94281
G1 X107.217 Y126.378 E2.98064
G1 X107.319 Y125.96 E3.00938
G1 X107.479 Y125.639 E3.03334
G1 X107.699 Y125.357 E3.05723
G1 X107.972 Y125.124 E3.08121
G1 X108.377 Y124.918 E3.11157
G1 X108.626 Y124.84 E3.129
G1 X108.982 Y124.801 E3.15292
G1 X109.359 Y124.839 E3.17823
G1 X109.682 Y124.935 E3.20074
G1 X109.998 Y125.103 E3.22465
G1 X110.275 Y125.331 E3.24862
G1 X110.501 Y125.609 E3.27255
G1 X110.668 Y125.926 E3.29649
G1 X110.768 Y126.27 E3.32042
G1 X110.798 Y126.63 E3.34455
G1 X110.75 Y127.01 E3.37014
G1 X110.628 Y127.358 E3.39478
G1 X110.471 Y127.635 E3.41605
G1 X110.225 Y127.916 E3.441
G1 X109.954 Y128.126 E3.4639
G1 X109.485 Y128.326 E3.49796
G1 X109.269 Y128.376 E3.51277
G1 X108.734 Y128.377 E3.54851
G1 X108.318 Y128.265 E3.57729
G1 X108.002 Y128.097 E3.6012
G1 X107.928 Y128.029 E3.60791
G1 X107.64 Y127.751 F7800
G1 E1.60791 F2400
G92 E0
G1 X119.956 Y98.938 F7800
G1 E2 F2400
;TYPE:Perimeter
G1 F1800
G1 X119.662 Y98.686 E2.02587
G1 X119.452 Y98.657 E2.04003
;WIDTH:0.553651
G1 X119.242 Y98.628 E2.05297
;WIDTH:0.507302
G1 X119.032 Y98.598 E2.06469
;WIDTH:0.460953
G1 X112.468 Y98.598 E2.38936
;WIDTH:0.507301
G1 X112.191 Y98.575 E2.40472
;WIDTH:0.55365
G1 X111.914 Y98.552 E2.42168
;WIDTH:0.6
G1 X111.637 Y98.529 E2.44025
G1 X106.364 Y98.529 E2.79251
G1 X106.087 Y98.552 E2.81108
;WIDTH:0.553651
G1 X105.81 Y98.575 E2.82804
;WIDTH:0.507302
G1 X105.532 Y98.598 E2.84345
;WIDTH:0.460953
G1 X95.302 Y98.598 E3.34945
G1 X95.302 Y98.202 E3.36904
G1 X105.532 Y98.202 E3.87504
;WIDTH:0.472076
G1 X105.753 Y98.188 E3.8863
;WIDTH:0.514717
G1 X105.913 Y98.149 E3.89555
;WIDTH:0.557358
G1 X106.074 Y98.111 E3.90572
;WIDTH:0.6
G1 X106.235 Y98.072 E3.91679
G1 X106.681 Y97.62 E3.95921
G1 X106.854 Y97.147 E3.99286
G1 X106.871 Y96.932 E4.00727
