; generated by PrusaSlicer 2.8.1+linux-x64-GTK3 on 2024-10-28 at 17:18:00 UTC

; 

; external perimeters extrusion width = 0.45mm
; perimeters extrusion width = 0.45mm
; infill extrusion width = 0.45mm
; solid infill extrusion width = 0.45mm
; top infill extrusion width = 0.40mm
; support material extrusion width = 0.40mm
; first layer extrusion width = 0.60mm

M190 S60 ; set bed temperature and wait for it to be reached
M104 S200 ; set temperature
;TYPE:Custom
G28 ; home all axes
G1 Z5 F5000 ; lift nozzle
M109 S200 ; set temperature and wait for it to be reached
G21 ; set units to millimeters
G90 ; use absolute coordinates
M82 ; use absolute distances for extrusion
G92 E0
; Filament gcode
M107
;LAYER_CHANGE
;Z:0.3
;HEIGHT:0.3
G1 E-2 F2400
G1 Z.3 F7800
G1 X82.091 Y20.313
G1 E0 F2400
;TYPE:Skirt/Brim
;WIDTH:0.6
G1 F1800
G1 X82.516 Y18.624 E.11635
G1 X82.991 Y17.419 E.20288
G1 X83.47 Y16.503 E.27194
G1 X84.039 Y15.605 E.34296
G1 X84.849 Y14.58 E.43024
G1 X85.632 Y13.778 E.50512
G1 X86.634 Y12.945 E.59217
G1 X89.784 Y10.868 E.84423
G1 X91.653 Y9.937 E.98372
G1 X92.781 Y9.549 E1.06341
G1 X93.88 Y9.284 E1.13893
G1 X95.061 Y9.116 E1.21862
G1 X96.191 Y9.064 E1.29419
G1 X97.365 Y9.121 E1.37271
G1 X100.944 Y9.633 E1.61424
G1 X102.778 Y9.982 E1.73896
G1 X113.109 Y12.799 E2.45432
G1 X114.233 Y13.3 E2.53653
G1 X127.63 Y20.425 E3.55022
G1 X134.032 Y24.798 E4.06816
G1 X135.255 Y25.904 E4.17832
G1 X136.007 Y26.79 E4.25596
G1 X136.929 Y28.241 E4.37081
G1 X137.464 Y29.438 E4.4584
G1 X137.921 Y31.056 E4.57072
G1 X138.141 Y32.864 E4.6924
G1 X138.482 Y42.852 E5.36004
G1 X138.28 Y45.024 E5.50577
G1 X137.85 Y46.611 E5.61561
G1 X137.346 Y47.792 E5.70139
G1 X136.526 Y49.156 E5.80771
G1 X135.827 Y50.041 E5.88305
G1 X134.83 Y51.045 E5.97757
G1 X128.759 Y55.912 E6.49739
G1 X127.896 Y56.521 E6.56795
G1 X114.016 Y63.914 E7.61854
G1 X112.662 Y64.459 E7.71605
G1 X103.211 Y67.373 E8.37676
G1 X101.611 Y67.747 E8.48653
G1 X100.522 Y67.888 E8.55989
G1 X98.983 Y67.937 E8.66276
G1 X94.146 Y67.804 E8.98602
G1 X92.924 Y67.753 E9.06773
G1 X91.742 Y67.589 E9.14745
G1 X90.642 Y67.328 E9.22298
G1 X89.511 Y66.943 E9.30279
G1 X88.479 Y66.477 E9.37844
G1 X87.442 Y65.884 E9.45824
G1 X86.517 Y65.231 E9.53388
G1 X85.61 Y64.451 E9.6138
G1 X84.826 Y63.633 E9.68949
G1 X84.083 Y62.695 E9.76943
G1 X83.468 Y61.743 E9.84515
G1 X82.918 Y60.68 E9.92511
G1 X82.495 Y59.628 E10.00086
G1 X82.156 Y58.479 E10.08089
G1 X81.941 Y57.366 E10.15662
G1 X81.827 Y56.174 E10.23662
G1 X81.921 Y22.058 E12.51576
G1 X82.085 Y20.373 E12.62886
G1 E10.62886 F2400
G92 E0
G1 X82.085 Y20.373 F7800
G92 E0
G1 X93.475 Y51.87
G1 E2 F2400
;TYPE:Support material
G1 F1800
G1 X93.783 Y52.177 E2.02905
G1 X104.683 Y52.177 E2.75723
G1 X105.176 Y53.134 E2.82915
G1 X105.504 Y54.216 E2.90468
G1 X105.632 Y55.336 E2.97999
G1 X105.556 Y56.46 E3.05525
G1 X105.281 Y57.547 E3.13016
G1 X104.807 Y58.582 E3.20621
G1 X104.171 Y59.494 E3.28049
G1 X103.373 Y60.286 E3.3556
G1 X102.427 Y60.931 E3.43209
G1 X101.364 Y61.383 E3.50926
G1 X100.263 Y61.626 E3.58458
G1 X99.155 Y61.672 E3.65866
G1 X98.06 Y61.525 E3.73247
G1 X96.979 Y61.18 E3.80828
G1 X96.591 Y60.964 E3.83795
G1 X95.434 Y61.372 E3.91991
G1 X94.318 Y61.539 E3.99529
G1 X93.189 Y61.491 E4.07078
G1 X92.089 Y61.23 E4.14631
G1 X91.058 Y60.764 E4.2219
G1 X90.133 Y60.111 E4.29754
G1 X89.348 Y59.294 E4.37323
G1 X88.733 Y58.342 E4.44895
G1 X88.31 Y57.29 E4.5247
G1 X88.095 Y56.176 E4.60049
G1 X88.095 Y55.042 E4.67625
G1 X88.311 Y53.929 E4.75199
G1 X88.735 Y52.878 E4.8277
G1 X89.35 Y51.926 E4.90342
G1 X90.135 Y51.109 E4.97911
G1 X91.059 Y50.457 E5.05466
G1 X92.09 Y49.992 E5.13022
G1 X93.475 Y49.719 E5.22453
G1 X93.475 Y51.789 E5.36282
G1 X93.475 Y51.789 F7800
G1 X104.644 Y58.362
G1 F1800
G1 X104.644 Y53.153 E5.71081
G1 X104.389 Y52.659 E5.74795
G1 X104.049 Y52.659 E5.77066
G1 X104.049 Y58.827 E6.18272
G1 X103.454 Y59.527 E6.24409
G1 X103.454 Y52.659 E6.70291
G1 X102.858 Y52.659 E6.74273
G1 X102.858 Y60.053 E7.23669
G1 X102.263 Y60.459 E7.28481
G1 X102.263 Y52.659 E7.80589
G1 X101.668 Y52.659 E7.84564
G1 X101.668 Y60.73 E8.38483
G1 X101.073 Y60.954 E8.4273
G1 X101.073 Y52.659 E8.98145
G1 X100.478 Y52.659 E9.0212
G1 X100.478 Y61.085 E9.5841
G1 X99.883 Y61.159 E9.62416
G1 X99.883 Y52.659 E10.19201
G1 X99.288 Y52.659 E10.23176
G1 X99.288 Y61.184 E10.80128
G1 X98.692 Y61.123 E10.8413
G1 X98.692 Y52.659 E11.40674
G1 X98.097 Y52.659 E11.44649
G1 X98.097 Y61.031 E12.00578
G1 X97.502 Y60.841 E12.04751
G1 X97.502 Y52.659 E12.59411
G1 X96.907 Y52.659 E12.63386
G1 X96.907 Y60.588 E13.16356
G1 X96.636 Y60.438 E13.18425
G1 X96.312 Y60.552 E13.2072
G1 X96.312 Y52.659 E13.7345
G1 X95.717 Y52.659 E13.77425
G1 X95.717 Y60.761 E14.31551
G1 X95.122 Y60.931 E14.35685
G1 X95.122 Y52.659 E14.90946
G1 X94.527 Y52.659 E14.94921
G1 X94.527 Y61.02 E15.50777
G1 X93.931 Y61.04 E15.54761
G1 X93.931 Y52.659 E16.10751
G1 X93.583 Y52.659 E16.13076
G1 X93.336 Y52.413 E16.15405
G1 X93.336 Y61.015 E16.72871
G1 X92.741 Y60.889 E16.76934
G1 X92.741 Y50.333 E17.47454
G1 X92.146 Y50.496 E17.51575
G1 X92.146 Y60.727 E18.19924
G1 X91.551 Y60.458 E18.24286
G1 X91.551 Y50.764 E18.89047
G1 X90.956 Y51.12 E18.93679
G1 X90.956 Y60.102 E19.53684
G1 X90.361 Y59.652 E19.58668
G1 X90.361 Y51.57 E20.1266
G1 X89.766 Y52.19 E20.18401
G1 X89.766 Y59.032 E20.64109
G1 X89.17 Y58.13 E20.71331
G1 X89.17 Y52.648 E21.07954
G1 E19.07954 F2400
G92 E0
G1 X89.17 Y52.648 F7800
G1 X97.011 Y15.404
G1 E2 F2400
G1 F1800
G1 X97.593 Y15.488 E2.03928
G1 X98.754 Y15.893 E2.12142
G1 X100.056 Y15.838 E2.20848
G1 X101.154 Y16.036 E2.28302
G1 X102.203 Y16.44 E2.35812
G1 X103.157 Y17.032 E2.43313
G1 X103.969 Y17.778 E2.50679
G1 X104.655 Y18.696 E2.58335
G1 X105.143 Y19.698 E2.65781
G1 X105.437 Y20.78 E2.73271
G1 X105.526 Y21.898 E2.80763
G1 X105.405 Y23.015 E2.88269
G1 X105.077 Y24.09 E2.95777
G1 X104.638 Y24.927 E3.02091
G1 X93.783 Y24.927 E3.74608
G1 X93.475 Y25.235 E3.77518
G1 X93.475 Y27.665 E3.93752
G1 X93.095 Y27.671 E3.96291
G1 X92.012 Y27.464 E4.03657
G1 X90.997 Y27.042 E4.11
G1 X90.09 Y26.425 E4.18328
G1 X89.329 Y25.639 E4.25637
G1 X88.744 Y24.718 E4.32926
G1 X88.357 Y23.699 E4.40208
G1 X88.193 Y22.689 E4.47044
G1 X88.238 Y21.538 E4.54739
G1 X88.504 Y20.475 E4.62059
G1 X88.765 Y19.857 E4.66541
G1 X89.334 Y18.959 E4.73643
G1 X90.117 Y18.156 E4.81136
G1 X91.048 Y17.534 E4.88616
G1 X91.885 Y17.199 E4.94639
G1 X92.299 Y16.765 E4.98646
G1 X93.22 Y16.11 E5.06196
G1 X94.249 Y15.642 E5.13748
G1 X95.348 Y15.377 E5.213
G1 X96.477 Y15.326 E5.2885
G1 X96.931 Y15.392 E5.31915
G1 X96.931 Y15.392 F7800
G1 X104.644 Y24.397
G1 F1800
G1 X104.644 Y19.774 E5.62799
G1 X104.049 Y18.686 E5.71083
G1 X104.049 Y24.445 E6.09556
G1 X103.454 Y24.445 E6.13531
G1 X103.454 Y17.96 E6.56854
G1 X102.858 Y17.414 E6.62254
G1 X102.858 Y24.445 E7.09225
G1 X102.263 Y24.445 E7.132
G1 X102.263 Y17.045 E7.62636
G1 X101.668 Y16.751 E7.6707
G1 X101.668 Y24.445 E8.1847
G1 X101.073 Y24.445 E8.22445
G1 X101.023 Y16.502 E8.7551
G1 X100.478 Y16.404 E8.79209
G1 X100.478 Y24.445 E9.32927
G1 X99.883 Y24.445 E9.36902
G1 X99.883 Y16.32 E9.91181
G1 X99.288 Y16.321 E9.95156
G1 X99.288 Y24.445 E10.49429
G1 X98.692 Y24.445 E10.53411
G1 X98.692 Y16.382 E11.07276
G1 X98.097 Y16.175 E11.11485
G1 X98.097 Y24.445 E11.66733
G1 X97.502 Y24.445 E11.70708
G1 X97.502 Y15.967 E12.27346
G1 X96.907 Y15.876 E12.31367
G1 X96.907 Y24.445 E12.88613
G1 X96.312 Y24.445 E12.92588
G1 X96.312 Y15.816 E13.50234
G1 X95.717 Y15.843 E13.54213
G1 X95.717 Y24.445 E14.11679
G1 X95.122 Y24.445 E14.15654
G1 X95.122 Y15.928 E14.72552
G1 X94.527 Y16.071 E14.7664
G1 X94.527 Y24.445 E15.32583
G1 X93.931 Y24.445 E15.36565
G1 X93.931 Y16.316 E15.90871
G1 X93.336 Y16.619 E15.95332
G1 X93.336 Y24.692 E16.49264
G1 X92.993 Y25.035 E16.52505
G1 X92.993 Y27.161 E16.66708
G1 X92.741 Y27.113 E16.68422
G1 X92.741 Y17.042 E17.35702
G1 X92.146 Y17.613 E17.41211
G1 X92.146 Y26.997 E18.03901
G1 X91.551 Y26.75 E18.08205
G1 X91.551 Y17.852 E18.67648
G1 X90.956 Y18.176 E18.72174
G1 X90.956 Y26.431 E19.27322
G1 X90.361 Y26.011 E19.32187
G1 X90.361 Y18.597 E19.81717
G1 X89.766 Y19.207 E19.8741
G1 X89.766 Y25.396 E20.28756
G1 X89.17 Y24.483 E20.3604
G1 X89.17 Y19.668 E20.68207
G1 E18.68207 F2400
G92 E0
G1 X89.17 Y19.668 F7800
G1 X127.898 Y28.943
G1 E2 F2400
G1 F1800
G1 X128.445 Y28.981 E2.03663
G1 X129.501 Y29.313 E2.11058
G1 X130.476 Y29.959 E2.18871
G1 X131.228 Y30.845 E2.26635
G1 X131.506 Y31.453 E2.31101
G1 X131.715 Y31.936 E2.34617
G1 X131.877 Y33.077 E2.42316
G1 X131.716 Y34.219 E2.50021
G1 X131.506 Y34.703 E2.53546
G1 X131.229 Y35.31 E2.58003
G1 X130.478 Y36.195 E2.65757
G1 X129.546 Y36.814 E2.73231
G1 X129.031 Y36.997 E2.76882
G1 X128.361 Y37.194 E2.81547
G1 X127.218 Y37.221 E2.89185
G1 X126.525 Y37.038 E2.93973
G1 X126.525 Y29.118 E3.46883
G1 X127.186 Y28.943 E3.51451
G1 X127.818 Y28.943 E3.55673
G1 X127.818 Y28.943 F7800
G1 X130.83 Y35.408
G1 F1800
G1 X130.83 Y31.133 E3.84232
G1 X130.234 Y30.419 E3.90445
G1 X130.234 Y35.737 E4.25972
G1 X129.639 Y36.173 E4.309
G1 X129.639 Y29.983 E4.72253
G1 X129.044 Y29.674 E4.76732
G1 X129.044 Y36.481 E5.22206
G1 X128.449 Y36.666 E5.26369
G1 X128.449 Y29.487 E5.74329
G1 X127.854 Y29.425 E5.78325
G1 X127.854 Y36.724 E6.27086
G1 X127.259 Y36.733 E6.31061
G1 X127.259 Y29.184 E6.81492
G1 E4.81492 F2400
G92 E0
G1 X127.259 Y29.184 F7800
G1 X128.263 Y38.824
G1 E2 F2400
G1 F1800
G1 X128.938 Y38.906 E2.04543
G1 X129.977 Y39.302 E2.11971
G1 X130.902 Y39.979 E2.19629
G1 X131.602 Y40.861 E2.27151
G1 X131.799 Y41.305 E2.30396
G1 X132.065 Y41.938 E2.34983
G1 X132.218 Y43.066 E2.42588
G1 X132.067 Y44.194 E2.50191
G1 X131.801 Y44.831 E2.54803
G1 X131.608 Y45.27 E2.58007
G1 X130.909 Y46.155 E2.65541
G1 X130.005 Y46.82 E2.73038
G1 X129.356 Y47.082 E2.77714
G1 X128.862 Y47.251 E2.81202
G1 X127.771 Y47.358 E2.88525
G1 X126.525 Y47.101 E2.97024
G1 X126.525 Y39.032 E3.50929
G1 X127.706 Y38.794 E3.58977
G1 X128.182 Y38.819 E3.62161
G1 X128.182 Y38.819 F7800
G1 X131.425 Y45.088
G1 F1800
G1 X131.425 Y41.66 E3.85062
G1 X131.186 Y41.113 E3.8905
G1 X130.83 Y40.664 E3.92878
G1 X130.83 Y45.478 E4.25038
G1 X130.571 Y45.806 E4.2783
G1 X130.234 Y46.053 E4.30621
G1 X130.234 Y40.088 E4.7047
G1 X129.639 Y39.689 E4.75256
G1 X129.639 Y46.448 E5.2041
G1 X129.044 Y46.679 E5.24674
G1 X129.044 Y39.463 E5.72881
G1 X128.449 Y39.332 E5.76951
G1 X128.449 Y46.807 E6.26888
G1 X127.854 Y46.865 E6.30882
G1 X127.854 Y39.285 E6.81521
G1 X127.259 Y39.361 E6.85528
G1 X127.259 Y47.025 E7.36728
G1 E5.36728 F2400
G92 E0
G1 X127.259 Y47.025 F7800
G1 X108.184 Y56.841
G1 E2 F2400
;TYPE:Perimeter
;WIDTH:0.497499
G1 F1800
G1 X108.044 Y56.721 E2.00996
G1 X107.775 Y56.374 E2.03368
;WIDTH:0.49389
G1 X107.573 Y55.968 E2.05797
;WIDTH:0.489409
G1 X107.454 Y55.531 E2.08198
;WIDTH:0.501869
G1 X107.425 Y55.024 E2.10969
;WIDTH:0.550934
G1 X107.447 Y54.757 E2.12595
;WIDTH:0.6
G1 X107.469 Y54.489 E2.14391
G1 X107.669 Y54.004 E2.17896
G1 X108.045 Y53.507 E2.22059
G1 X108.404 Y53.212 E2.25163
G1 X108.907 Y52.963 E2.28913
G1 X109.259 Y52.861 E2.31361
G1 X109.722 Y52.819 E2.34467
G1 X110.204 Y52.875 E2.37709
G1 X110.626 Y53.011 E2.40671
G1 X111.032 Y53.237 E2.43775
G1 X111.385 Y53.539 E2.46878
G1 X111.672 Y53.905 E2.49985
G1 X111.88 Y54.32 E2.53086
G1 X111.919 Y54.546 E2.54618
;WIDTH:0.55616
G1 X111.958 Y54.772 E2.56025
;WIDTH:0.51232
G1 X111.973 Y55.279 E2.58859
;WIDTH:0.496796
G1 X111.88 Y55.806 E2.61745
;WIDTH:0.495286
G1 X111.683 Y56.276 E2.64484
;WIDTH:0.495093
G1 X111.374 Y56.705 E2.67324
G1 X110.969 Y57.046 E2.70168
;WIDTH:0.497344
G1 X110.543 Y57.271 E2.7277
G1 X110.134 Y57.391 E2.75072
;WIDTH:0.497499
G1 X109.666 Y57.433 E2.7761
G1 X109.231 Y57.383 E2.79975
G1 X108.783 Y57.24 E2.82515
G1 X108.401 Y57.026 E2.8488
G1 X108.23 Y56.88 E2.86095
G1 X108.23 Y56.88 F7800
G1 X108.511 Y56.489
;TYPE:External perimeter
;WIDTH:0.6
G1 F1800
G1 X108.415 Y56.409 E2.8693
G1 X108.199 Y56.143 E2.89219
G1 X108.032 Y55.826 E2.91613
G1 X107.932 Y55.482 E2.94006
G1 X107.904 Y55.108 E2.96512
G1 X107.996 Y54.582 E3.00079
G1 X108.179 Y54.191 E3.02963
G1 X108.4 Y53.909 E3.05357
G1 X108.672 Y53.676 E3.0775
G1 X109.077 Y53.47 E3.10786
G1 X109.326 Y53.392 E3.12529
G1 X109.682 Y53.353 E3.14921
G1 X110.059 Y53.391 E3.17452
G1 X110.382 Y53.487 E3.19703
G1 X110.698 Y53.655 E3.22094
G1 X110.975 Y53.883 E3.24491
G1 X111.201 Y54.161 E3.26884
G1 X111.368 Y54.478 E3.29278
G1 X111.468 Y54.822 E3.31671
G1 X111.496 Y55.196 E3.34177
G1 X111.404 Y55.722 E3.37744
G1 X111.204 Y56.135 E3.4081
G1 X111 Y56.395 E3.43018
G1 X110.596 Y56.704 E3.46416
G1 X110.126 Y56.9 E3.49818
G1 X109.703 Y56.95 E3.52664
G1 X109.361 Y56.919 E3.54958
G1 X109.004 Y56.809 E3.57454
G1 X108.702 Y56.649 E3.59737
G1 X108.557 Y56.527 E3.61003
G1 X108.281 Y56.238 F7800
G1 E1.61003 F2400
G92 E0
G1 X108.208 Y20.232 F7800
G1 E2 F2400
;TYPE:Perimeter
;WIDTH:0.499011
G1 F1800
G1 X108.645 Y19.934 E2.02867
;WIDTH:0.49732
G1 X109.12 Y19.747 E2.05624
;WIDTH:0.49389
G1 X109.661 Y19.671 E2.08551
G1 X110.169 Y19.721 E2.11286
G1 X110.602 Y19.858 E2.13719
;WIDTH:0.493258
G1 X110.998 Y20.08 E2.16147
;WIDTH:0.497343
G1 X111.364 Y20.393 E2.18748
G1 X111.625 Y20.73 E2.2105
;WIDTH:0.493883
G1 X111.842 Y21.187 E2.2376
;WIDTH:0.493047
G1 X111.961 Y21.708 E2.26617
;WIDTH:0.503744
G1 X111.97 Y22.218 E2.29412
;WIDTH:0.550052
G1 X111.943 Y22.446 E2.30803
;WIDTH:0.596361
G1 X111.917 Y22.674 E2.32326
;WIDTH:0.6
G1 X111.731 Y23.1 E2.35431
G1 X111.355 Y23.597 E2.39594
G1 X110.996 Y23.892 E2.42698
G1 X110.493 Y24.142 E2.4645
G1 X110.141 Y24.243 E2.48896
G1 X109.678 Y24.285 E2.52002
G1 X109.196 Y24.229 E2.55244
G1 X108.774 Y24.093 E2.58206
G1 X108.368 Y23.867 E2.6131
G1 X108.015 Y23.565 E2.64413
G1 X107.728 Y23.199 E2.6752
G1 X107.52 Y22.784 E2.70621
G1 X107.486 Y22.532 E2.7232
;WIDTH:0.5663
G1 X107.452 Y22.279 E2.73918
;WIDTH:0.5326
G1 X107.419 Y22.027 E2.75402
;WIDTH:0.498901
G1 X107.462 Y21.5 E2.78268
;WIDTH:0.495869
G1 X107.628 Y20.997 E2.81119
;WIDTH:0.497351
G1 X107.876 Y20.584 E2.83721
;WIDTH:0.499011
G1 X108.166 Y20.275 E2.86018
G1 X108.166 Y20.275 F7800
G1 X108.526 Y20.611
;TYPE:External perimeter
;WIDTH:0.6
G1 F1800
G1 X108.853 Y20.379 E2.88696
G1 X109.28 Y20.202 E2.91784
G1 X109.682 Y20.153 E2.94489
G1 X110.039 Y20.185 E2.96884
G1 X110.503 Y20.35 E3.00174
G1 X110.937 Y20.646 E3.03683
G1 X111.201 Y20.961 E3.06429
G1 X111.372 Y21.295 E3.08936
G1 X111.491 Y21.816 E3.12506
G1 X111.475 Y22.247 E3.15387
G1 X111.381 Y22.592 E3.17776
G1 X111.221 Y22.913 E3.20172
G1 X111 Y23.195 E3.22566
G1 X110.728 Y23.428 E3.24959
G1 X110.323 Y23.634 E3.27995
G1 X110.074 Y23.712 E3.29738
G1 X109.718 Y23.751 E3.3213
G1 X109.341 Y23.713 E3.34661
G1 X109.018 Y23.617 E3.36912
G1 X108.702 Y23.449 E3.39303
G1 X108.425 Y23.221 E3.417
G1 X108.199 Y22.943 E3.44093
G1 X108.032 Y22.626 E3.46487
G1 X107.932 Y22.282 E3.4888
G1 X107.901 Y21.925 E3.51274
G1 X107.942 Y21.569 E3.53668
G1 X108.12 Y21.106 E3.56982
G1 X108.423 Y20.685 E3.60447
G1 X108.477 Y20.646 E3.60892
G1 X108.803 Y20.414 F7800
G1 E1.60892 F2400
G92 E0
G1 X119.956 Y27.49 F7800
G1 E2 F2400
;TYPE:Perimeter
G1 F1800
G1 X119.662 Y27.238 E2.02587
G1 X119.452 Y27.209 E2.04003
;WIDTH:0.553651
G1 X119.242 Y27.18 E2.05297
;WIDTH:0.507302
G1 X119.032 Y27.15 E2.06469
;WIDTH:0.460953
G1 X113.168 Y27.15 E2.35474
;WIDTH:0.507301
G1 X112.891 Y27.127 E2.3701
;WIDTH:0.55365
G1 X112.614 Y27.104 E2.38706
;WIDTH:0.6
G1 X112.337 Y27.081 E2.40563
G1 X107.064 Y27.081 E2.75789
G1 X106.787 Y27.104 E2.77646
;WIDTH:0.55365
G1 X106.51 Y27.127 E2.79342
;WIDTH:0.507301
G1 X106.232 Y27.15 E2.80883
;WIDTH:0.460953
G1 X95.302 Y27.15 E3.34946
G1 X95.302 Y26.754 E3.36905
G1 X106.232 Y26.754 E3.90968
;WIDTH:0.472075
G1 X106.453 Y26.74 E3.92094
;WIDTH:0.514716
G1 X106.613 Y26.701 E3.93019
;WIDTH:0.557358
G1 X106.774 Y26.663 E3.94036
;WIDTH:0.6
G1 X106.935 Y26.624 E3.95143
G1 X107.381 Y26.172 E3.99385
G1 X107.554 Y25.699 E4.0275
G1 X107.571 Y25.484 E4.04191
G1 X107.571 Y23.87 E4.14973
G1 X107.795 Y24.096 E4.17099
G1 X108.258 Y24.431 E4.20917
G1 X108.777 Y24.667 E4.24726
G1 X109.334 Y24.796 E4.28546
G1 X109.905 Y24.813 E4.32362
G1 X110.467 Y24.715 E4.36173
G1 X111 Y24.508 E4.39993
G1 X111.481 Y24.2 E4.43809
G1 X111.827 Y23.872 E4.46994
G1 X111.846 Y25.701 E4.59213
