; generated by PrusaSlicer 2.8.1+linux-x64-GTK3 on 2024-10-20 at 15:29:25 UTC

; 

; external perimeters extrusion width = 0.45mm
; perimeters extrusion width = 0.45mm
; infill extrusion width = 0.45mm
; solid infill extrusion width = 0.45mm
; top infill extrusion width = 0.40mm
; support material extrusion width = 0.40mm
; first layer extrusion width = 0.60mm

M190 S60 ; set bed temperature and wait for it to be reached
M104 S200 ; set temperature
;TYPE:Custom
G28 ; home all axes
G1 Z5 F5000 ; lift nozzle
M109 S200 ; set temperature and wait for it to be reached
G21 ; set units to millimeters
G90 ; use absolute coordinates
M82 ; use absolute distances for extrusion
G92 E0
; Filament gcode
M107
;LAYER_CHANGE
;Z:0.3
;HEIGHT:0.3
G1 E-2 F2400
G1 Z.3 F7800
G1 X99.522 Y85.1
G1 E0 F2400
;TYPE:Skirt/Brim
;WIDTH:0.6
G1 F1800
G1 X100.663 Y83.858 E.11267
G1 X101.737 Y82.936 E.20723
G1 X103.512 Y81.794 E.34823
G1 X105.135 Y81.078 E.46674
G1 X107.194 Y80.53 E.60908
G1 X108.283 Y80.388 E.68245
G1 X110.457 Y80.392 E.82769
G1 X112.519 Y80.759 E.96761
G1 X113.639 Y81.11 E1.04602
G1 X114.735 Y81.572 E1.12548
G1 X115.734 Y82.11 E1.20128
G1 X116.651 Y82.712 E1.27456
G1 X118.308 Y84.138 E1.4206
G1 X119.12 Y85.043 E1.50183
G1 X119.968 Y86.249 E1.60032
G1 X120.977 Y88.309 E1.75356
G1 X126.451 Y104.65 E2.90485
G1 X127.057 Y107.156 E3.07709
G1 X127.242 Y108.694 E3.18058
G1 X127.288 Y110.276 E3.28631
G1 X127.139 Y112.298 E3.42176
G1 X126.612 Y114.822 E3.59401
G1 X121.227 Y131.615 E4.77214
G1 X120.777 Y132.672 E4.84889
G1 X120.204 Y133.735 E4.92956
G1 X119.361 Y134.936 E5.02759
G1 X118.545 Y135.85 E5.10944
G1 X116.876 Y137.288 E5.25662
G1 X115.96 Y137.89 E5.32985
G1 X114.139 Y138.789 E5.46552
G1 X112.849 Y139.217 E5.55632
G1 X110.709 Y139.605 E5.70161
G1 X109.594 Y139.658 E5.77618
G1 X108.509 Y139.612 E5.84873
G1 X106.378 Y139.24 E5.99325
G1 X105.36 Y138.922 E6.0645
G1 X103.737 Y138.207 E6.18298
G1 X101.962 Y137.064 E6.32402
G1 X100.889 Y136.144 E6.41844
G1 X99.765 Y134.922 E6.52936
G1 X98.974 Y133.798 E6.62118
G1 X97.982 Y131.797 E6.77038
G1 X97.552 Y130.51 E6.86103
G1 X93.041 Y114.838 E7.95051
G1 X92.522 Y112.393 E8.11749
G1 X92.358 Y109.849 E8.2878
G1 X92.515 Y107.657 E8.43461
G1 X92.899 Y105.683 E8.56896
G1 X97.303 Y89.571 E9.68481
G1 X97.755 Y88.207 E9.78081
G1 X98.728 Y86.234 E9.92777
G1 X99.488 Y85.149 E10.01627
G1 E8.01627 F2400
G92 E0
G1 X99.488 Y85.149 F7800
G92 E0
G1 X110.645 Y86.74
G1 E2 F2400
;TYPE:Support material
G1 F1800
G1 X111.765 Y87.091 E2.07841
G1 X112.764 Y87.629 E2.15421
G1 X113.642 Y88.323 E2.22898
G1 X114.454 Y89.228 E2.31021
G1 X115.034 Y90.301 E2.39169
G1 X115.381 Y91.392 E2.46817
G1 X115.525 Y92.52 E2.54414
G1 X115.463 Y93.651 E2.61981
G1 X115.199 Y94.75 E2.69532
G1 X114.743 Y95.786 E2.77094
G1 X114.291 Y96.449 E2.82455
G1 X105.106 Y96.449 E3.43816
G1 X104.799 Y96.756 E3.46716
G1 X104.799 Y96.919 E3.47805
G1 X104.238 Y96.271 E3.53531
G1 X103.669 Y95.215 E3.61545
G1 X103.393 Y94.401 E3.67287
G1 X103.197 Y93.33 E3.74561
G1 X103.19 Y92.212 E3.8203
G1 X103.349 Y91.224 E3.88715
G1 X103.689 Y90.227 E3.95752
G1 X104.228 Y89.239 E4.03271
G1 X104.899 Y88.477 E4.10054
G1 X105.685 Y87.804 E4.16967
G1 X106.588 Y87.254 E4.2403
G1 X107.505 Y86.88 E4.30646
G1 X108.547 Y86.65 E4.37775
G1 X109.627 Y86.604 E4.44997
G1 X110.566 Y86.73 E4.51326
G1 X110.566 Y86.73 F7800
G1 X114.583 Y95.55
G1 F1800
G1 X114.583 Y90.481 E4.8519
G1 X113.988 Y89.43 E4.93258
G1 X113.988 Y95.967 E5.36929
G1 X113.393 Y95.967 E5.40904
G1 X113.393 Y88.767 E5.89004
G1 X112.798 Y88.27 E5.94183
G1 X112.798 Y95.967 E6.45603
G1 X112.203 Y95.967 E6.49578
G1 X112.203 Y87.874 E7.03644
G1 X111.607 Y87.554 E7.08163
G1 X111.607 Y95.967 E7.64366
G1 X111.012 Y95.967 E7.68341
G1 X111.012 Y87.361 E8.25834
G1 X110.417 Y87.196 E8.29959
G1 X110.417 Y95.967 E8.88554
G1 X109.822 Y95.967 E8.92529
G1 X109.822 Y87.117 E9.51652
G1 X109.227 Y87.104 E9.55628
G1 X109.227 Y95.967 E10.14838
G1 X108.632 Y95.967 E10.18813
G1 X108.632 Y87.129 E10.77856
G1 X108.037 Y87.256 E10.8192
G1 X108.037 Y95.967 E11.40114
G1 X107.442 Y95.967 E11.44089
G1 X107.442 Y87.427 E12.01141
G1 X106.846 Y87.67 E12.05441
G1 X106.846 Y95.967 E12.60869
G1 X106.251 Y95.967 E12.64844
G1 X106.251 Y88.013 E13.17981
G1 X105.656 Y88.448 E13.22905
G1 X105.656 Y95.967 E13.73136
G1 X105.061 Y95.967 E13.77111
G1 X105.061 Y89.023 E14.23501
G1 X104.466 Y89.81 E14.30092
G1 X104.466 Y95.677 E14.69287
G1 X104.113 Y95.022 E14.74258
G1 X103.871 Y94.308 E14.79294
G1 X103.871 Y90.44 E15.05134
G1 E13.05134 F2400
G92 E0
G1 X103.871 Y90.44 F7800
G1 X105.106 Y123.551
G1 E2 F2400
G1 F1800
G1 X114.516 Y123.551 E2.62864
G1 X114.968 Y124.214 E2.68225
G1 X115.425 Y125.25 E2.7579
G1 X115.688 Y126.349 E2.83339
G1 X115.75 Y127.48 E2.90906
G1 X115.607 Y128.608 E2.98502
G1 X115.259 Y129.698 E3.06146
G1 X114.687 Y130.761 E3.1421
G1 X113.87 Y131.675 E3.224
G1 X112.989 Y132.371 E3.29901
G1 X112.036 Y132.884 E3.37131
G1 X110.94 Y133.247 E3.44844
G1 X109.857 Y133.396 E3.52147
G1 X108.772 Y133.35 E3.59402
G1 X107.731 Y133.12 E3.66524
G1 X106.814 Y132.746 E3.7314
G1 X105.911 Y132.196 E3.80203
G1 X105.125 Y131.524 E3.87111
G1 X104.465 Y130.775 E3.9378
G1 X103.916 Y129.777 E4.01389
G1 X103.575 Y128.776 E4.08454
G1 X103.407 Y127.741 E4.15459
G1 X103.415 Y126.691 E4.22474
G1 X103.597 Y125.653 E4.29514
G1 X103.952 Y124.655 E4.3659
G1 X104.506 Y123.668 E4.44151
G1 X104.845 Y123.29 E4.47543
G1 X105.05 Y123.494 E4.49475
G1 X105.05 Y123.494 F7800
G1 X115.178 Y129.159
G1 F1800
G1 X115.178 Y126.29 E4.68641
G1 X114.966 Y125.405 E4.74721
G1 X114.583 Y124.536 E4.81065
G1 X114.583 Y129.937 E5.17147
G1 X114.289 Y130.482 E5.21284
G1 X113.988 Y130.819 E5.24303
G1 X113.988 Y124.033 E5.69637
G1 X113.393 Y124.033 E5.73612
G1 X113.393 Y131.438 E6.23081
G1 X112.798 Y131.908 E6.28146
G1 X112.798 Y124.033 E6.80755
G1 X112.203 Y124.033 E6.8473
G1 X112.203 Y132.247 E7.39604
G1 X111.607 Y132.525 E7.43997
G1 X111.607 Y124.033 E8.00728
G1 X111.012 Y124.033 E8.04703
G1 X111.012 Y132.718 E8.62724
G1 X110.417 Y132.832 E8.66771
G1 X110.417 Y124.033 E9.25553
G1 X109.822 Y124.033 E9.29528
G1 X109.822 Y132.912 E9.88845
G1 X109.227 Y132.887 E9.92823
G1 X109.227 Y124.033 E10.51973
G1 X108.632 Y124.033 E10.55948
G1 X108.632 Y132.826 E11.1469
G1 X108.037 Y132.694 E11.18762
G1 X108.037 Y124.033 E11.76622
G1 X107.442 Y124.033 E11.80597
G1 X107.442 Y132.481 E12.37034
G1 X107.024 Y132.311 E12.40049
G1 X106.846 Y132.211 E12.41413
G1 X106.846 Y124.033 E12.96046
G1 X106.251 Y124.033 E13.00021
G1 X106.251 Y131.842 E13.52189
G1 X105.656 Y131.357 E13.57317
G1 X105.656 Y124.033 E14.06245
G1 X105.061 Y124.033 E14.1022
G1 X105.061 Y130.722 E14.54906
G1 X104.466 Y129.777 E14.62366
G1 X104.466 Y124.232 E14.9941
G1 E12.9941 F2400
G92 E0
G1 X104.466 Y124.232 F7800
G1 X118.956 Y112.604
G1 E2 F2400
;TYPE:Perimeter
;WIDTH:0.461164
G1 F1800
G1 X118.69 Y113.413 E2.04215
;WIDTH:0.461299
G1 X118.306 Y114.279 E2.08905
;WIDTH:0.46144
G1 X117.838 Y115.102 E2.13594
;WIDTH:0.461659
G1 X117.296 Y115.868 E2.18244
;WIDTH:0.461904
G1 X116.682 Y116.574 E2.22883
;WIDTH:0.46214
G1 X116.003 Y117.216 E2.27519
;WIDTH:0.462368
G1 X115.263 Y117.788 E2.32162
;WIDTH:0.462587
G1 X114.471 Y118.285 E2.36806
G1 X113.582 Y118.726 E2.41735
;WIDTH:0.50833
G1 X113.291 Y118.859 E2.43507
;WIDTH:0.554165
G1 X112.999 Y118.992 E2.45467
;WIDTH:0.6
G1 X112.708 Y119.125 E2.47604
G1 X111.822 Y119.357 E2.53723
G1 X110.843 Y119.515 E2.60348
G1 X109.891 Y119.57 E2.66718
G1 X108.951 Y119.53 E2.73003
G1 X108.021 Y119.399 E2.79277
G1 X107.109 Y119.177 E2.85548
G1 X106.82 Y119.055 E2.87644
;WIDTH:0.561943
G1 X106.531 Y118.934 E2.89588
;WIDTH:0.523886
G1 X106.242 Y118.813 E2.91384
;WIDTH:0.48583
G1 X105.59 Y118.5 E2.95186
;WIDTH:0.464872
G1 X104.792 Y118.053 E2.99755
;WIDTH:0.465018
G1 X104.04 Y117.531 E3.04329
;WIDTH:0.465148
G1 X103.342 Y116.939 E3.08904
;WIDTH:0.465264
G1 X102.705 Y116.283 E3.13476
;WIDTH:0.465366
G1 X102.133 Y115.568 E3.18055
G1 X101.641 Y114.815 E3.22554
;WIDTH:0.465527
G1 X101.209 Y113.991 E3.27209
G1 X100.865 Y113.143 E3.31788
G1 X100.608 Y112.281 E3.36288
G1 X100.494 Y111.792 E3.388
;WIDTH:0.46104
G1 X100.376 Y110.993 E3.42796
;WIDTH:0.46567
G1 X100.324 Y109.938 E3.48083
;WIDTH:0.460877
G1 X100.363 Y109.131 E3.52079
;WIDTH:0.465656
G1 X100.51 Y108.121 E3.57187
;WIDTH:0.461215
G1 X100.714 Y107.302 E3.61365
;WIDTH:0.461408
G1 X101.023 Y106.422 E3.65984
;WIDTH:0.46171
G1 X101.411 Y105.587 E3.70547
;WIDTH:0.462041
G1 X101.96 Y104.67 E3.75848
;WIDTH:0.462358
G1 X102.413 Y104.057 E3.79631
;WIDTH:0.462662
G1 X103.02 Y103.372 E3.84178
;WIDTH:0.462949
G1 X103.69 Y102.748 E3.88729
;WIDTH:0.463224
G1 X104.416 Y102.192 E3.93278
;WIDTH:0.463483
G1 X105.193 Y101.708 E3.97835
;WIDTH:0.46361
G1 X106.064 Y101.277 E4.02674
;WIDTH:0.509073
G1 X106.371 Y101.138 E4.04543
;WIDTH:0.554536
G1 X106.677 Y101 E4.06595
;WIDTH:0.6
G1 X106.983 Y100.861 E4.0884
G1 X107.823 Y100.644 E4.14636
G1 X108.82 Y100.483 E4.21383
G1 X110.205 Y100.44 E4.3064
G1 X111.187 Y100.528 E4.37227
G1 X111.861 Y100.657 E4.41811
G1 X113.037 Y100.986 E4.49969
G1 X113.221 Y101.085 E4.51365
;WIDTH:0.555483
G1 X113.405 Y101.184 E4.52645
;WIDTH:0.510966
G1 X113.588 Y101.284 E4.53807
;WIDTH:0.46645
G1 X114.057 Y101.497 E4.5639
;WIDTH:0.462643
G1 X114.725 Y101.862 E4.60171
;WIDTH:0.465484
G1 X115.268 Y102.222 E4.6343
G1 X116.007 Y102.795 E4.68108
;WIDTH:0.46561
G1 X116.685 Y103.438 E4.72784
G1 X117.297 Y104.144 E4.7746
G1 X117.836 Y104.907 E4.82135
;WIDTH:0.465744
G1 X118.298 Y105.719 E4.86812
G1 X118.678 Y106.573 E4.91491
G1 X118.972 Y107.46 E4.96169
G1 X119.1 Y107.949 E4.98699
;WIDTH:0.46095
G1 X119.242 Y108.758 E5.02762
;WIDTH:0.46582
G1 X119.322 Y109.828 E5.08134
;WIDTH:0.46081
G1 X119.302 Y110.648 E5.1219
;WIDTH:0.465814
G1 X119.175 Y111.679 E5.17391
;WIDTH:0.461041
G1 X118.986 Y112.513 E5.21622
;WIDTH:0.461164
G1 X118.975 Y112.547 E5.21799
G1 X118.975 Y112.547 F7800
G1 X118.512 Y112.467
;WIDTH:0.6
G1 F1800
G1 X118.248 Y113.265 E5.27414
G1 X117.881 Y114.087 E5.33428
G1 X117.434 Y114.869 E5.39445
G1 X116.917 Y115.595 E5.45399
G1 X116.332 Y116.265 E5.51341
G1 X115.685 Y116.874 E5.57277
G1 X114.981 Y117.416 E5.63212
G1 X114.227 Y117.886 E5.69148
G1 X113.379 Y118.305 E5.75467
G1 X112.525 Y118.622 E5.81553
G1 X111.69 Y118.838 E5.87315
G1 X110.763 Y118.986 E5.93586
G1 X109.864 Y119.035 E5.99601
G1 X108.977 Y118.995 E6.05533
G1 X108.1 Y118.869 E6.11452
G1 X107.239 Y118.657 E6.17376
G1 X106.403 Y118.362 E6.23298
G1 X105.79 Y118.077 E6.27814
G1 X105.033 Y117.651 E6.33617
G1 X104.319 Y117.155 E6.39425
G1 X103.657 Y116.592 E6.45231
G1 X103.052 Y115.968 E6.51037
G1 X102.509 Y115.289 E6.56845
G1 X102.042 Y114.574 E6.6255
G1 X101.632 Y113.791 E6.68455
G1 X101.306 Y112.985 E6.74263
G1 X101.062 Y112.167 E6.79966
G1 X100.892 Y111.299 E6.85875
G1 X100.808 Y110.435 E6.91674
G1 X100.808 Y109.565 E6.97486
G1 X100.892 Y108.701 E7.03285
G1 X100.97 Y108.199 E7.06679
G1 X101.167 Y107.415 E7.12079
G1 X101.462 Y106.579 E7.18001
G1 X101.832 Y105.787 E7.23841
G1 X102.334 Y104.948 E7.30373
G1 X102.815 Y104.299 E7.3577
G1 X103.366 Y103.686 E7.41276
G1 X104.003 Y103.094 E7.47086
G1 X104.695 Y102.567 E7.52897
G1 X105.434 Y102.109 E7.58705
G1 X106.264 Y101.699 E7.64889
G1 X107.163 Y101.366 E7.71294
G1 X107.953 Y101.164 E7.76741
G1 X108.998 Y101.004 E7.83804
G1 X110.218 Y100.975 E7.91957
G1 X111.134 Y101.061 E7.98103
G1 X111.754 Y101.182 E8.02323
G1 X112.879 Y101.497 E8.10128
G1 X113.406 Y101.716 E8.13941
G1 X114.24 Y102.128 E8.20155
G1 X115.004 Y102.609 E8.26186
G1 X115.705 Y103.153 E8.32114
G1 X116.35 Y103.765 E8.38054
G1 X116.93 Y104.436 E8.43979
G1 X117.443 Y105.161 E8.49912
G1 X117.881 Y105.933 E8.55842
G1 X118.242 Y106.744 E8.61772
G1 X118.521 Y107.587 E8.67704
G1 X118.716 Y108.453 E8.73634
G1 X118.825 Y109.334 E8.79564
G1 X118.846 Y110.222 E8.85498
G1 X118.781 Y111.107 E8.91426
G1 X118.714 Y111.61 E8.94816
G1 X118.531 Y112.41 E9.00298
G1 X118.531 Y112.41 F7800
G1 X117.984 Y112.304
;TYPE:External perimeter
G1 F1800
G1 X117.884 Y112.667 E9.02813
G1 X117.583 Y113.445 E9.08386
G1 X117.208 Y114.19 E9.13958
G1 X116.956 Y114.623 E9.17305
G1 X116.477 Y115.29 E9.22791
G1 X115.931 Y115.91 E9.2831
G1 X115.321 Y116.481 E9.33892
G1 X114.658 Y116.989 E9.39472
G1 X113.948 Y117.429 E9.45052
G1 X113.147 Y117.823 E9.51015
G1 X112.342 Y118.118 E9.56743
G1 X111.558 Y118.319 E9.6215
G1 X110.683 Y118.456 E9.68067
G1 X109.837 Y118.5 E9.73726
G1 X109.004 Y118.46 E9.79297
G1 X108.178 Y118.339 E9.84874
G1 X107.369 Y118.138 E9.90443
G1 X106.583 Y117.858 E9.96017
G1 X106.019 Y117.592 E10.00183
G1 X105.308 Y117.192 E10.05633
G1 X104.638 Y116.724 E10.11093
G1 X104.016 Y116.195 E10.16548
G1 X103.449 Y115.608 E10.22
G1 X102.939 Y114.97 E10.27457
G1 X102.502 Y114.299 E10.32806
G1 X102.117 Y113.562 E10.38361
G1 X101.81 Y112.805 E10.43818
G1 X101.582 Y112.037 E10.4917
G1 X101.422 Y111.221 E10.54725
G1 X101.343 Y110.408 E10.60182
G1 X101.343 Y109.592 E10.65633
G1 X101.422 Y108.779 E10.7109
G1 X101.578 Y107.978 E10.76542
G1 X101.81 Y107.195 E10.81998
G1 X102.117 Y106.438 E10.87455
G1 X102.334 Y105.982 E10.90829
G1 X102.764 Y105.267 E10.96403
G1 X103.245 Y104.618 E11.018
G1 X103.762 Y104.045 E11.06956
G1 X104.363 Y103.491 E11.12417
G1 X105.014 Y102.997 E11.17876
G1 X105.709 Y102.568 E11.23332
G1 X106.493 Y102.183 E11.29167
G1 X107.344 Y101.87 E11.35224
G1 X108.083 Y101.684 E11.40315
G1 X109.01 Y101.54 E11.46582
G1 X110.231 Y101.51 E11.54741
G1 X111.08 Y101.594 E11.6044
G1 X111.648 Y101.707 E11.64309
G1 X112.721 Y102.009 E11.71756
G1 X113.198 Y102.209 E11.75211
G1 X113.983 Y102.598 E11.81064
G1 X114.703 Y103.051 E11.86747
G1 X115.361 Y103.564 E11.92321
G1 X115.966 Y104.138 E11.97892
G1 X116.512 Y104.77 E12.03472
G1 X116.993 Y105.452 E12.09047
G1 X117.404 Y106.177 E12.14615
G1 X117.743 Y106.94 E12.20193
G1 X118.005 Y107.732 E12.25766
G1 X118.188 Y108.546 E12.3134
G1 X118.291 Y109.374 E12.36914
G1 X118.311 Y110.208 E12.42487
G1 X118.25 Y111.041 E12.48067
G1 X118.107 Y111.863 E12.53641
G1 X118 Y112.247 E12.56304
G1 X117.892 Y112.632 F7800
G1 E10.56304 F2400
G92 E0
G1 X113.186 Y100.462 F7800
G1 E2 F2400
;TYPE:Perimeter
G1 F1800
G1 X113.271 Y100.631 E2.01264
G1 X113.362 Y100.728 E2.02153
G1 X113.636 Y100.857 E2.04176
;WIDTH:0.553615
G1 X113.91 Y100.987 E2.06027
;WIDTH:0.50723
G1 X114.184 Y101.116 E2.077
;WIDTH:0.465323
G1 X115.096 Y101.624 E2.1292
;WIDTH:0.46243
G1 X115.893 Y102.183 E2.17753
;WIDTH:0.462195
G1 X116.633 Y102.817 E2.22588
;WIDTH:0.461962
G1 X117.306 Y103.522 E2.27421
;WIDTH:0.461721
G1 X117.844 Y104.202 E2.31718
;WIDTH:0.465708
G1 X118.174 Y104.69 E2.34667
G1 X118.436 Y105.122 E2.37196
;WIDTH:0.461333
G1 X118.832 Y105.902 E2.41527
;WIDTH:0.465774
G1 X119.054 Y106.432 E2.44404
G1 X119.231 Y106.925 E2.47026
;WIDTH:0.461069
G1 X119.465 Y107.764 E2.51336
;WIDTH:0.465812
G1 X119.573 Y108.308 E2.54113
G1 X119.653 Y108.849 E2.56851
;WIDTH:0.460836
G1 X119.719 Y109.761 E2.61372
;WIDTH:0.465821
G1 X119.686 Y110.819 E2.66672
;WIDTH:0.460729
G1 X119.578 Y111.676 E2.70942
;WIDTH:0.465801
G1 X119.476 Y112.18 E2.73517
G1 X119.328 Y112.756 E2.76495
;WIDTH:0.461164
G1 X119.065 Y113.543 E2.80602
;WIDTH:0.465748
G1 X118.863 Y114.027 E2.83227
G1 X118.594 Y114.584 E2.86324
;WIDTH:0.46144
G1 X118.18 Y115.304 E2.90437
;WIDTH:0.465671
G1 X117.9 Y115.718 E2.92939
G1 X117.298 Y116.485 E2.97819
;WIDTH:0.465563
G1 X116.624 Y117.188 E3.02692
G1 X115.885 Y117.822 E3.07564
;WIDTH:0.465427
G1 X115.086 Y118.38 E3.12439
G1 X114.237 Y118.857 E3.1731
;WIDTH:0.473335
G1 X113.63 Y119.145 E3.20737
;WIDTH:0.515556
G1 X113.458 Y119.296 E3.22025
;WIDTH:0.557778
G1 X113.287 Y119.446 E3.23425
;WIDTH:0.6
G1 X113.115 Y119.597 E3.24954
G1 X113.057 Y119.717 E3.25844
G1 X112.953 Y120.236 E3.2938
G1 X112.953 Y121.655 E3.3886
G1 X106.695 Y121.655 E3.80667
G1 X106.695 Y120.236 E3.90147
G1 X106.55 Y119.63 E3.9431
G1 X106.388 Y119.476 E3.95803
;WIDTH:0.561943
G1 X106.226 Y119.321 E3.97194
;WIDTH:0.523886
G1 X106.064 Y119.167 E3.98475
;WIDTH:0.48583
G1 X105.894 Y119.085 E3.99467
;WIDTH:0.46361
G1 X104.989 Y118.635 E4.045
;WIDTH:0.463483
G1 X104.18 Y118.13 E4.09247
;WIDTH:0.463225
G1 X103.423 Y117.549 E4.13994
;WIDTH:0.46295
G1 X102.726 Y116.897 E4.18739
;WIDTH:0.462663
