; generated by PrusaSlicer 2.8.1+linux-x64-GTK3 on 2024-10-20 at 14:53:50 UTC

; 

; external perimeters extrusion width = 0.45mm
; perimeters extrusion width = 0.45mm
; infill extrusion width = 0.45mm
; solid infill extrusion width = 0.45mm
; top infill extrusion width = 0.40mm
; support material extrusion width = 0.40mm
; first layer extrusion width = 0.60mm

M190 S60 ; set bed temperature and wait for it to be reached
M104 S200 ; set temperature
;TYPE:Custom
G28 ; home all axes
G1 Z5 F5000 ; lift nozzle
M109 S200 ; set temperature and wait for it to be reached
G21 ; set units to millimeters
G90 ; use absolute coordinates
M82 ; use absolute distances for extrusion
G92 E0
; Filament gcode
M107
;LAYER_CHANGE
;Z:0.3
;HEIGHT:0.3
G1 E-2 F2400
G1 Z.3 F7800
G1 X100.108 Y86.099
G1 E0 F2400
;TYPE:Skirt/Brim
;WIDTH:0.6
G1 F1800
G1 X101.249 Y84.857 E.11267
G1 X102.324 Y83.935 E.20728
G1 X104.088 Y82.799 E.34745
G1 X105.55 Y82.141 E.45456
G1 X107.653 Y81.555 E.6004
G1 X108.846 Y81.389 E.68087
G1 X111.07 Y81.395 E.82945
G1 X112.16 Y81.544 E.90295
G1 X114.3 Y82.137 E1.0513
G1 X115.277 Y82.551 E1.12219
G1 X116.432 Y83.176 E1.20992
G1 X118.115 Y84.406 E1.34918
G1 X118.894 Y85.138 E1.42059
G1 X119.706 Y86.043 E1.50182
G1 X120.555 Y87.25 E1.6004
G1 X121.134 Y88.322 E1.68179
G1 X121.592 Y89.398 E1.75991
G1 X126.453 Y105.261 E2.86828
G1 X126.972 Y107.74 E3.03748
G1 X127.12 Y110.268 E3.20665
G1 X126.972 Y112.26 E3.34009
G1 X126.456 Y114.731 E3.50873
G1 X121.622 Y130.601 E4.61702
G1 X121.168 Y131.672 E4.69473
G1 X120.595 Y132.735 E4.7754
G1 X119.752 Y133.936 E4.87343
G1 X118.936 Y134.85 E4.95528
G1 X117.267 Y136.288 E5.10246
G1 X116.351 Y136.89 E5.17569
G1 X114.53 Y137.789 E5.31136
G1 X113.24 Y138.217 E5.40216
G1 X111.1 Y138.605 E5.54745
G1 X109.985 Y138.658 E5.62202
G1 X108.9 Y138.612 E5.69457
G1 X106.769 Y138.24 E5.83909
G1 X105.751 Y137.922 E5.91034
G1 X104.129 Y137.207 E6.02876
G1 X102.354 Y136.064 E6.1698
G1 X101.28 Y135.144 E6.26427
G1 X100.156 Y133.922 E6.37519
G1 X99.366 Y132.798 E6.46697
G1 X98.816 Y131.8 E6.5431
G1 X98.032 Y129.795 E6.68692
G1 X93.519 Y114.655 E7.74233
G1 X93.022 Y112.247 E7.90659
G1 X92.876 Y109.849 E8.06709
G1 X93.077 Y107.379 E8.23264
G1 X93.583 Y105.121 E8.38723
G1 X98.002 Y90.205 E9.42651
G1 X98.774 Y88.223 E9.56861
G1 X99.313 Y87.235 E9.6438
G1 X100.074 Y86.148 E9.73244
G1 E7.73244 F2400
G92 E0
G1 X100.074 Y86.148 F7800
G92 E0
G1 X111.308 Y87.754
G1 E2 F2400
;TYPE:Support material
G1 F1800
G1 X112.354 Y88.095 E2.0735
G1 X112.966 Y88.418 E2.11973
G1 X113.368 Y88.643 E2.15051
G1 X114.228 Y89.323 E2.22375
G1 X115.04 Y90.228 E2.30498
G1 X115.62 Y91.301 E2.38646
G1 X115.967 Y92.392 E2.46294
G1 X116.111 Y93.52 E2.53891
G1 X116.049 Y94.651 E2.61458
G1 X115.785 Y95.75 E2.69009
G1 X115.329 Y96.786 E2.76571
G1 X114.652 Y97.778 E2.84594
G1 X114.367 Y97.539 E2.87079
G1 X114.016 Y97.449 E2.895
G1 X105.992 Y97.449 E3.43105
G1 X105.587 Y97.563 E3.45916
G1 X105.303 Y97.836 E3.48548
G1 X104.814 Y97.246 E3.53667
G1 X104.311 Y96.34 E3.6059
G1 X103.958 Y95.347 E3.6763
G1 X103.775 Y94.31 E3.74665
G1 X103.768 Y93.26 E3.8168
G1 X103.935 Y92.225 E3.88684
G1 X104.275 Y91.227 E3.95727
G1 X104.814 Y90.239 E4.03246
G1 X105.485 Y89.477 E4.10029
G1 X106.271 Y88.804 E4.16942
G1 X107.165 Y88.26 E4.23933
G1 X107.97 Y87.923 E4.29763
G1 X109.109 Y87.651 E4.37586
G1 X110.218 Y87.604 E4.45001
G1 X111.229 Y87.743 E4.51819
G1 X111.229 Y87.743 F7800
G1 X115.353 Y96.133
G1 F1800
G1 X115.353 Y92.052 E4.79082
G1 X115.174 Y91.491 E4.83016
G1 X114.758 Y90.72 E4.88869
G1 X114.758 Y96.767 E5.29266
G1 X114.54 Y97.087 E5.31853
G1 X114.163 Y96.977 E5.34477
G1 X114.163 Y89.972 E5.81274
G1 X113.568 Y89.416 E5.86714
G1 X113.568 Y96.967 E6.37159
G1 X112.972 Y96.967 E6.41141
G1 X112.972 Y88.974 E6.94539
G1 X112.377 Y88.653 E6.99055
G1 X112.377 Y96.967 E7.54597
G1 X111.782 Y96.967 E7.58572
G1 X111.782 Y88.416 E8.15697
G1 X111.187 Y88.224 E8.19874
G1 X111.187 Y96.967 E8.78282
G1 X110.592 Y96.967 E8.82257
G1 X110.592 Y88.142 E9.41213
G1 X109.997 Y88.096 E9.452
G1 X109.997 Y96.967 E10.04463
G1 X109.402 Y96.967 E10.08438
G1 X109.402 Y88.121 E10.67534
G1 X108.806 Y88.219 E10.71569
G1 X108.806 Y96.967 E11.3001
G1 X108.211 Y96.967 E11.33985
G1 X108.211 Y88.361 E11.91478
G1 X107.616 Y88.594 E11.95747
G1 X107.616 Y96.967 E12.51683
G1 X107.021 Y96.967 E12.55658
G1 X107.021 Y88.896 E13.09577
G1 X106.426 Y89.299 E13.14378
G1 X106.426 Y96.967 E13.65604
G1 X105.831 Y96.978 E13.6958
G1 X105.831 Y89.814 E14.17439
G1 X105.236 Y90.49 E14.23455
G1 X105.236 Y97 E14.66945
G1 X104.641 Y95.828 E14.75726
G1 X104.641 Y91.06 E15.07579
G1 E13.07579 F2400
G92 E0
G1 X104.641 Y91.06 F7800
G1 X105.338 Y122.213
G1 E2 F2400
G1 F1800
G1 X105.63 Y122.461 E2.02559
G1 X105.98 Y122.551 E2.04973
G1 X114.004 Y122.551 E2.58578
G1 X114.367 Y122.461 E2.61076
G1 X114.665 Y122.204 E2.63705
G1 X115.359 Y123.213 E2.71886
G1 X115.816 Y124.25 E2.79457
G1 X116.079 Y125.349 E2.87006
G1 X116.141 Y126.48 E2.94573
G1 X115.998 Y127.608 E3.02169
G1 X115.651 Y128.698 E3.09811
G1 X115.078 Y129.761 E3.17878
G1 X114.261 Y130.675 E3.26068
G1 X113.38 Y131.371 E3.33569
G1 X112.427 Y131.884 E3.40799
G1 X111.331 Y132.247 E3.48512
G1 X110.248 Y132.396 E3.55815
G1 X109.163 Y132.35 E3.6307
G1 X108.122 Y132.12 E3.70192
G1 X107.205 Y131.746 E3.76808
G1 X106.302 Y131.196 E3.83871
G1 X105.517 Y130.524 E3.90774
G1 X104.856 Y129.775 E3.97448
G1 X104.307 Y128.777 E4.05057
G1 X103.966 Y127.776 E4.12122
G1 X103.798 Y126.741 E4.19127
G1 X103.806 Y125.691 E4.26142
G1 X103.988 Y124.653 E4.33182
G1 X104.343 Y123.655 E4.40258
G1 X104.897 Y122.668 E4.47819
G1 X105.287 Y122.233 E4.51722
G1 X105.287 Y122.233 F7800
G1 X115.353 Y128.742
G1 F1800
G1 X115.353 Y124.395 E4.80762
G1 X114.758 Y123.188 E4.89752
G1 X114.758 Y129.338 E5.30837
G1 X114.163 Y130.061 E5.37092
G1 X114.163 Y123.023 E5.8411
G1 X113.568 Y123.033 E5.88085
G1 X113.568 Y130.609 E6.38697
G1 X112.972 Y131.043 E6.43622
G1 X112.972 Y123.033 E6.97133
G1 X112.377 Y123.033 E7.01108
G1 X112.377 Y131.364 E7.56764
G1 X111.782 Y131.597 E7.61033
G1 X111.782 Y123.033 E8.18245
G1 X111.187 Y123.033 E8.2222
G1 X111.187 Y131.78 E8.80655
G1 X110.592 Y131.862 E8.84667
G1 X110.592 Y123.033 E9.4365
G1 X109.997 Y123.033 E9.47625
G1 X109.997 Y131.903 E10.06881
G1 X109.402 Y131.878 E10.10859
G1 X109.402 Y123.033 E10.69948
G1 X108.806 Y123.033 E10.7393
G1 X108.806 Y131.778 E11.32351
G1 X108.211 Y131.636 E11.36438
G1 X108.211 Y123.033 E11.93911
G1 X107.616 Y123.033 E11.97886
G1 X107.616 Y131.393 E12.53735
G1 X107.415 Y131.311 E12.55185
G1 X107.021 Y131.085 E12.58219
G1 X107.021 Y123.033 E13.12011
G1 X106.426 Y123.033 E13.15986
G1 X106.426 Y130.676 E13.67045
G1 X105.831 Y130.152 E13.72342
G1 X105.831 Y123.022 E14.19974
G1 X105.367 Y122.866 E14.23244
G1 X105.236 Y123.05 E14.24753
G1 X105.236 Y129.465 E14.67609
G1 X104.641 Y128.262 E14.76575
G1 X104.641 Y123.618 E15.07599
G1 E13.07599 F2400
G92 E0
G1 X104.641 Y123.618 F7800
G1 X115.926 Y117.113
G1 E2 F2400
;TYPE:Perimeter
;WIDTH:0.390464
G1 F1800
G1 X115.289 Y117.604 E2.03271
G1 X114.482 Y118.105 E2.07134
;WIDTH:0.400727
G1 X113.936 Y118.383 E2.09704
;WIDTH:0.450545
G1 X113.797 Y118.47 E2.10494
;WIDTH:0.500363
G1 X113.658 Y118.557 E2.11386
;WIDTH:0.550181
G1 X113.519 Y118.644 E2.1238
;WIDTH:0.6
G1 X113.379 Y118.732 E2.13485
G1 X112.824 Y118.934 E2.17431
G1 X111.821 Y119.192 E2.2435
G1 X110.998 Y119.316 E2.2991
G1 X110.065 Y119.37 E2.36153
G1 X109.145 Y119.331 E2.42305
G1 X108.235 Y119.202 E2.48445
G1 X107.341 Y118.985 E2.54591
G1 X106.768 Y118.787 E2.58641
G1 X106.638 Y118.715 E2.59634
;WIDTH:0.55631
G1 X106.509 Y118.644 E2.60537
;WIDTH:0.51262
G1 X106.38 Y118.572 E2.61363
;WIDTH:0.46893
G1 X106.032 Y118.386 E2.63354
;WIDTH:0.431176
G1 X105.684 Y118.201 E2.65157
;WIDTH:0.393422
G1 X105.093 Y117.854 E2.6797
;WIDTH:0.393265
G1 X104.37 Y117.352 E2.71581
;WIDTH:0.39345
G1 X103.781 Y116.86 E2.74731
G1 X103.406 Y116.507 E2.76845
;WIDTH:0.390712
G1 X102.905 Y115.958 E2.7987
G1 X102.331 Y115.196 E2.83753
;WIDTH:0.392486
G1 X101.857 Y114.42 E2.87474
;WIDTH:0.38857
G1 X101.464 Y113.601 E2.91147
;WIDTH:0.387072
G1 X101.152 Y112.747 E2.94806
;WIDTH:0.393899
G1 X100.901 Y111.748 E2.99039
;WIDTH:0.389439
G1 X100.784 Y110.968 E3.02237
;WIDTH:0.391255
G1 X100.738 Y110.155 E3.05557
;WIDTH:0.393951
G1 X100.785 Y109.032 E3.10177
;WIDTH:0.389492
G1 X100.9 Y108.252 E3.13374
;WIDTH:0.389653
G1 X101.115 Y107.369 E3.17061
;WIDTH:0.389827
G1 X101.416 Y106.51 E3.20756
;WIDTH:0.390085
G1 X101.795 Y105.694 E3.24411
;WIDTH:0.390393
G1 X102.249 Y104.923 E3.28049
;WIDTH:0.390686
G1 X102.775 Y104.2 E3.31688
;WIDTH:0.390972
G1 X103.367 Y103.532 E3.35324
;WIDTH:0.391241
G1 X104.022 Y102.923 E3.3897
;WIDTH:0.391501
G1 X104.732 Y102.38 E3.42617
;WIDTH:0.391739
G1 X105.493 Y101.908 E3.46273
;WIDTH:0.396836
G1 X105.991 Y101.652 E3.48595
;WIDTH:0.437468
G1 X106.063 Y101.595 E3.49022
;WIDTH:0.478101
G1 X106.135 Y101.539 E3.49493
;WIDTH:0.518734
G1 X106.208 Y101.482 E3.50018
;WIDTH:0.559367
G1 X106.28 Y101.425 E3.50585
;WIDTH:0.6
G1 X106.352 Y101.369 E3.51194
G1 X107.044 Y101.114 E3.56121
G1 X107.675 Y100.931 E3.6051
G1 X108.2 Y100.803 E3.6412
G1 X109.179 Y100.668 E3.70722
G1 X110.367 Y100.639 E3.78661
G1 X111.329 Y100.725 E3.85113
G1 X112.124 Y100.879 E3.90523
G1 X113.266 Y101.218 E3.98481
G1 X113.64 Y101.383 E4.01212
;WIDTH:0.587651
G1 X113.748 Y101.457 E4.02066
;WIDTH:0.538627
G1 X113.857 Y101.531 E4.02845
;WIDTH:0.489604
G1 X113.966 Y101.605 E4.03544
;WIDTH:0.44058
G1 X114.074 Y101.679 E4.04158
;WIDTH:0.391557
G1 X114.776 Y102.064 E4.07425
;WIDTH:0.393929
G1 X115.293 Y102.405 E4.09971
G1 X116.254 Y103.168 E4.15015
G1 X116.683 Y103.594 E4.175
;WIDTH:0.394058
G1 X117.278 Y104.28 E4.21234
G1 X117.806 Y105.024 E4.24985
G1 X118.258 Y105.818 E4.28742
G1 X118.63 Y106.652 E4.32497
G1 X118.918 Y107.518 E4.3625
;WIDTH:0.394167
G1 X119.119 Y108.409 E4.40007
G1 X119.199 Y108.909 E4.4209
;WIDTH:0.389302
G1 X119.258 Y109.708 E4.45337
;WIDTH:0.394174
G1 X119.232 Y110.749 E4.4962
;WIDTH:0.389291
G1 X119.136 Y111.519 E4.52765
;WIDTH:0.394096
G1 X118.91 Y112.535 E4.57045
;WIDTH:0.389547
G1 X118.645 Y113.327 E4.60432
;WIDTH:0.389654
G1 X118.271 Y114.172 E4.64181
;WIDTH:0.389766
G1 X117.814 Y114.975 E4.67931
;WIDTH:0.389884
G1 X117.28 Y115.728 E4.71679
;WIDTH:0.390063
G1 X116.678 Y116.42 E4.75405
;WIDTH:0.390266
G1 X116.013 Y117.047 E4.7912
;WIDTH:0.390464
G1 X115.974 Y117.077 E4.7932
G1 X115.974 Y117.077 F7800
G1 X115.659 Y116.778
;WIDTH:0.6
G1 F1800
G1 X115.029 Y117.261 E4.84623
G1 X114.259 Y117.74 E4.90681
G1 X113.747 Y117.99 E4.94487
G1 X113.196 Y118.228 E4.98497
G1 X112.641 Y118.43 E5.02443
G1 X111.953 Y118.61 E5.07194
G1 X110.918 Y118.787 E5.14209
G1 X110.038 Y118.835 E5.20097
G1 X109.172 Y118.796 E5.25888
G1 X108.314 Y118.673 E5.31678
G1 X107.472 Y118.466 E5.37471
G1 X106.948 Y118.283 E5.41179
G1 X106.371 Y118.048 E5.45341
G1 X105.869 Y117.81 E5.49052
G1 X105.316 Y117.483 E5.53344
G1 X104.627 Y117.005 E5.58946
G1 X104.071 Y116.54 E5.63788
G1 X103.521 Y115.995 E5.68961
G1 X103.162 Y115.598 E5.72537
G1 X102.675 Y114.941 E5.78
G1 X102.226 Y114.199 E5.83794
G1 X101.851 Y113.417 E5.89588
G1 X101.556 Y112.602 E5.95378
G1 X101.326 Y111.685 E6.01694
G1 X101.21 Y110.905 E6.06962
G1 X101.168 Y110.134 E6.1212
G1 X101.183 Y109.568 E6.15903
G1 X101.265 Y108.728 E6.21541
G1 X101.428 Y107.893 E6.27225
G1 X101.556 Y107.398 E6.30641
G1 X101.823 Y106.652 E6.35934
G1 X102.185 Y105.878 E6.41642
G1 X102.619 Y105.145 E6.47333
G1 X103.121 Y104.457 E6.53023
G1 X103.687 Y103.821 E6.58711
G1 X104.311 Y103.243 E6.64393
G1 X104.989 Y102.727 E6.70085
G1 X105.715 Y102.278 E6.75788
G1 X106.654 Y101.823 E6.82759
G1 X107.396 Y101.557 E6.88025
G1 X108.039 Y101.392 E6.9246
G1 X109.093 Y101.212 E6.99603
G1 X110.38 Y101.175 E7.08204
G1 X111.276 Y101.258 E7.14215
G1 X112.018 Y101.404 E7.19267
G1 X112.606 Y101.568 E7.23345
G1 X113.165 Y101.757 E7.27287
G1 X113.796 Y102.023 E7.31862
G1 X114.571 Y102.441 E7.37744
G1 X115.049 Y102.762 E7.41591
G1 X115.978 Y103.496 E7.49501
G1 X116.374 Y103.896 E7.53261
G1 X116.94 Y104.549 E7.59034
G1 X117.443 Y105.259 E7.64847
G1 X117.873 Y106.015 E7.70657
G1 X118.228 Y106.81 E7.76473
G1 X118.502 Y107.636 E7.82287
G1 X118.693 Y108.484 E7.88094
G1 X118.8 Y109.348 E7.9391
G1 X118.821 Y110.218 E7.99724
G1 X118.805 Y110.7 E8.02946
G1 X118.706 Y111.495 E8.08298
G1 X118.514 Y112.354 E8.14178
G1 X118.237 Y113.19 E8.20062
G1 X117.878 Y113.995 E8.2595
G1 X117.441 Y114.76 E8.31836
G1 X116.931 Y115.477 E8.37714
G1 X116.355 Y116.135 E8.43556
G1 X115.72 Y116.731 E8.49374
G1 X115.706 Y116.741 E8.49489
G1 X115.706 Y116.741 F7800
G1 X115.326 Y116.361
;TYPE:External perimeter
G1 F1800
G1 X114.706 Y116.834 E8.54699
G1 X113.98 Y117.283 E8.60402
G1 X113.013 Y117.725 E8.67505
G1 X112.458 Y117.927 E8.71451
G1 X111.821 Y118.09 E8.75844
G1 X110.838 Y118.257 E8.82505
G1 X110.012 Y118.3 E8.88031
G1 X109.198 Y118.261 E8.93475
G1 X108.392 Y118.143 E8.98917
G1 X107.602 Y117.946 E9.04356
G1 X106.6 Y117.564 E9.1152
G1 X106.098 Y117.326 E9.15231
G1 X105.591 Y117.024 E9.19173
G1 X104.946 Y116.575 E9.24423
G1 X104.431 Y116.143 E9.28914
G1 X103.917 Y115.636 E9.33737
G1 X103.58 Y115.263 E9.37095
G1 X103.105 Y114.622 E9.42425
G1 X102.685 Y113.924 E9.47867
G1 X102.336 Y113.188 E9.53309
G1 X102.06 Y112.422 E9.58748
G1 X101.861 Y111.632 E9.6419
G1 X101.74 Y110.828 E9.69622
G1 X101.703 Y110.107 E9.74445
G1 X101.718 Y109.594 E9.77874
G1 X101.794 Y108.806 E9.83163
G1 X101.947 Y108.023 E9.88493
G1 X102.175 Y107.258 E9.93826
G1 X102.474 Y106.518 E9.99158
G1 X102.844 Y105.81 E10.04495
G1 X103.105 Y105.378 E10.07867
G1 X103.574 Y104.745 E10.1313
G1 X104.084 Y104.181 E10.1821
G1 X104.671 Y103.64 E10.23543
G1 X105.308 Y103.157 E10.28883
G1 X105.99 Y102.737 E10.34234
G1 X106.741 Y102.37 E10.39818
G1 X107.405 Y102.123 E10.44551
G1 X108.392 Y101.857 E10.5138
G1 X109.172 Y101.742 E10.56647
G1 X110.393 Y101.71 E10.64807
G1 X111.222 Y101.791 E10.70372
G1 X111.912 Y101.929 E10.75073
G1 X112.448 Y102.08 E10.78793
G1 X112.957 Y102.251 E10.8238
G1 X113.588 Y102.516 E10.86952
G1 X114.315 Y102.911 E10.92479
G1 X114.748 Y103.205 E10.95975
G1 X115.634 Y103.907 E11.03527
G1 X115.99 Y104.27 E11.06924
G1 X116.521 Y104.883 E11.12342
G1 X116.993 Y105.55 E11.17801
G1 X117.397 Y106.26 E11.23258
G1 X117.729 Y107.006 E11.28713
G1 X117.986 Y107.781 E11.34168
G1 X118.166 Y108.577 E11.3962
G1 X118.266 Y109.388 E11.45079
G1 X118.286 Y110.204 E11.50532
G1 X118.274 Y110.634 E11.53406
G1 X118.174 Y111.428 E11.58752
G1 X117.992 Y112.235 E11.64279
G1 X117.729 Y113.02 E11.6981
G1 X117.39 Y113.775 E11.75339
G1 X116.978 Y114.492 E11.80863
G1 X116.496 Y115.164 E11.86388
G1 X115.954 Y115.781 E11.91874
G1 X115.372 Y116.323 E11.97187
G1 X115.056 Y116.567 F7800
G1 E9.97187 F2400
G92 E0
G1 X113.207 Y119.522 F7800
G1 E2 F2400
;TYPE:Perimeter
G1 F1800
G1 X113.182 Y119.568 E2.0035
G1 X113.027 Y120.076 E2.03898
G1 X112.987 Y120.655 E2.07775
G1 X107.01 Y120.655 E2.47705
G1 X106.977 Y120.108 E2.51366
G1 X106.831 Y119.611 E2.54827
G1 X106.515 Y119.107 E2.58801
G1 X106.416 Y119.011 E2.59722
;WIDTH:0.566229
G1 X106.317 Y118.916 E2.60581
;WIDTH:0.532458
G1 X106.217 Y118.864 E2.61239
;WIDTH:0.493686
G1 X106.118 Y118.812 E2.61838
;WIDTH:0.454915
G1 X106.019 Y118.76 E2.62383
;WIDTH:0.416144
G1 X105.335 Y118.38 E2.65816
;WIDTH:0.391906
G1 X104.531 Y117.878 E2.69688
;WIDTH:0.391542
G1 X103.97 Y117.451 E2.72565
;WIDTH:0.39345
G1 X103.555 Y117.099 E2.74798
;WIDTH:0.393552
G1 X102.955 Y116.505 E2.78264
G1 X102.379 Y115.82 E2.81938
;WIDTH:0.393245
G1 X101.882 Y115.105 E2.8551
;WIDTH:0.392647
G1 X101.439 Y114.323 E2.8919
;WIDTH:0.392091
G1 X101.084 Y113.532 E2.92734
;WIDTH:0.39078
G1 X100.842 Y112.84 E2.95718
;WIDTH:0.393899
G1 X100.687 Y112.286 E2.98082
G1 X100.58 Y111.796 E3.00143
;WIDTH:0.388605
G1 X100.452 Y110.866 E3.03939
;WIDTH:0.388237
G1 X100.411 Y110.066 E3.07175
;WIDTH:0.393951
G1 X100.422 Y109.527 E3.09391
G1 X100.463 Y108.988 E3.11613
;WIDTH:0.389492
G1 X100.579 Y108.201 E3.14839
;WIDTH:0.393904
G1 X100.689 Y107.704 E3.16931
G1 X100.954 Y106.818 E3.20732
G1 X101.303 Y105.961 E3.24535
G1 X101.732 Y105.141 E3.28339
;WIDTH:0.393765
G1 X102.239 Y104.367 E3.3214
