; generated by PrusaSlicer 2.8.1+linux-x64-GTK3 on 2024-10-27 at 18:37:29 UTC

; 

; external perimeters extrusion width = 0.45mm
; perimeters extrusion width = 0.45mm
; infill extrusion width = 0.45mm
; solid infill extrusion width = 0.45mm
; top infill extrusion width = 0.40mm
; support material extrusion width = 0.40mm
; first layer extrusion width = 0.60mm

M190 S60 ; set bed temperature and wait for it to be reached
M104 S200 ; set temperature
;TYPE:Custom
G28 ; home all axes
G1 Z5 F5000 ; lift nozzle
M109 S200 ; set temperature and wait for it to be reached
G21 ; set units to millimeters
G90 ; use absolute coordinates
M82 ; use absolute distances for extrusion
G92 E0
; Filament gcode
M107
;LAYER_CHANGE
;Z:0.3
;HEIGHT:0.3
G1 E-2 F2400
G1 Z.3 F7800
G1 X94.467 Y26.522
G1 E0 F2400
;TYPE:Skirt/Brim
;WIDTH:0.6
G1 F1800
G1 X97.811 Y14.61 E.82655
G1 X98.183 Y13.562 E.90084
G1 X99.059 Y11.828 E1.03062
G1 X99.693 Y10.882 E1.1067
G1 X101.023 Y9.356 E1.24193
G1 X102.256 Y8.304 E1.35021
G1 X103.952 Y7.242 E1.48389
G1 X104.986 Y6.762 E1.56005
G1 X106.045 Y6.384 E1.63517
G1 X107.149 Y6.1 E1.71132
G1 X108.258 Y5.92 E1.78638
G1 X109.396 Y5.84 E1.86259
G1 X110.52 Y5.864 E1.9377
G1 X111.653 Y5.992 E2.01387
G1 X112.754 Y6.219 E2.08897
G1 X113.846 Y6.55 E2.1652
G1 X114.888 Y6.973 E2.24033
G1 X115.901 Y7.497 E2.31652
G1 X116.849 Y8.102 E2.39165
G1 X117.751 Y8.8 E2.46784
G1 X118.574 Y9.567 E2.543
G1 X119.334 Y10.417 E2.61917
G1 X120.005 Y11.32 E2.69433
G1 X120.598 Y12.294 E2.77051
G1 X121.398 Y14.037 E2.89863
G1 X126.961 Y30.375 E4.05163
G1 X127.488 Y32.899 E4.22388
G1 X127.637 Y35.472 E4.39606
G1 X127.406 Y38.04 E4.56831
G1 X126.805 Y40.53 E4.73943
G1 X121.536 Y56.026 E5.83285
G1 X121.073 Y57.066 E5.9089
G1 X120.346 Y58.366 E6.0084
G1 X118.604 Y60.345 E6.18453
G1 X116.673 Y61.753 E6.34418
G1 X115.79 Y62.274 E6.41267
G1 X114.789 Y62.76 E6.48701
G1 X113.734 Y63.158 E6.56234
G1 X112.675 Y63.453 E6.63578
G1 X110.487 Y63.755 E6.78334
G1 X109.343 Y63.755 E6.85977
G1 X108.256 Y63.655 E6.93269
G1 X107.072 Y63.43 E7.0132
G1 X105.97 Y63.109 E7.08988
G1 X104.314 Y62.413 E7.20988
G1 X103.229 Y61.788 E7.29353
G1 X101.486 Y60.601 E7.43441
G1 X99.566 Y58.504 E7.62435
G1 X98.81 Y57.159 E7.72742
G1 X98.002 Y55.134 E7.87307
G1 X93.444 Y40.223 E8.91471
G1 X92.886 Y37.699 E9.0874
G1 X92.707 Y35.046 E9.26504
G1 X92.908 Y32.554 E9.43206
G1 X93.39 Y30.358 E9.58226
G1 X94.451 Y26.579 E9.84448
G1 E7.84448 F2400
G92 E0
G1 X94.451 Y26.579 F7800
G92 E0
G1 X114.647 Y47.587
G1 E2 F2400
;TYPE:Support material
G1 F1800
G1 X115.291 Y48.512 E2.0753
G1 X115.757 Y49.54 E2.1507
G1 X116.031 Y50.637 E2.22624
G1 X116.099 Y51.771 E2.30213
G1 X115.958 Y52.903 E2.37834
G1 X115.602 Y54.007 E2.45583
G1 X114.875 Y55.307 E2.55533
G1 X113.055 Y56.635 E2.70584
G1 X112.054 Y57.12 E2.78015
G1 X110.995 Y57.415 E2.85359
G1 X109.915 Y57.513 E2.92604
G1 X108.828 Y57.414 E2.99896
G1 X107.727 Y57.092 E3.07559
G1 X106.982 Y56.742 E3.13058
G1 X105.029 Y55.43 E3.28776
G1 X104.272 Y54.085 E3.39087
G1 X103.924 Y53.081 E3.46186
G1 X103.762 Y52.079 E3.52967
G1 X103.775 Y50.957 E3.60463
G1 X103.983 Y49.88 E3.67791
G1 X104.254 Y49.106 E3.7327
G1 X104.797 Y48.108 E3.8086
G1 X105.576 Y47.174 E3.88985
G1 X114.23 Y47.174 E4.46798
G1 X114.59 Y47.531 E4.50185
G1 X114.59 Y47.531 F7800
G1 X115.527 Y53.453
G1 F1800
G1 X115.527 Y50.611 E4.69171
G1 X115.3 Y49.699 E4.7545
G1 X114.932 Y48.889 E4.81394
G1 X114.932 Y54.217 E5.16988
G1 X114.505 Y54.982 E5.22841
G1 X114.337 Y55.106 E5.24236
G1 X114.337 Y47.986 E5.71801
G1 X114.031 Y47.656 E5.74808
G1 X113.742 Y47.656 E5.76739
G1 X113.742 Y55.546 E6.29448
G1 X113.147 Y55.973 E6.34341
G1 X113.147 Y47.656 E6.89903
G1 X112.552 Y47.656 E6.93878
G1 X112.552 Y56.343 E7.51912
G1 X111.957 Y56.632 E7.56331
G1 X111.957 Y47.656 E8.16296
G1 X111.361 Y47.656 E8.20278
G1 X111.361 Y56.812 E8.81445
G1 X110.766 Y56.951 E8.85527
G1 X110.766 Y47.656 E9.47623
G1 X110.171 Y47.656 E9.51598
G1 X110.171 Y57.006 E10.14061
G1 X109.576 Y56.998 E10.18036
G1 X109.576 Y47.656 E10.80446
G1 X108.981 Y47.656 E10.84421
G1 X108.981 Y56.944 E11.4647
G1 X108.386 Y56.782 E11.5059
G1 X108.386 Y47.656 E12.11557
G1 X107.791 Y47.656 E12.15532
G1 X107.791 Y56.589 E12.75209
G1 X107.195 Y56.307 E12.79614
G1 X107.195 Y47.656 E13.37407
G1 X106.6 Y47.656 E13.41382
G1 X106.6 Y55.919 E13.96583
G1 X106.005 Y55.45 E14.01644
G1 X106.005 Y47.656 E14.53712
G1 X105.792 Y47.656 E14.55135
G1 X105.41 Y48.121 E14.59155
G1 X105.41 Y55.096 E15.05752
G1 X104.815 Y54.067 E15.13693
G1 X104.815 Y48.58 E15.50349
G1 E13.50349 F2400
G92 E0
G1 X110.387 Y12.131 F7800
G1 E2 F2400
G1 F1800
G1 X111.488 Y12.358 E2.0751
G1 X112.53 Y12.781 E2.15023
G1 X113.478 Y13.386 E2.22536
G1 X114.301 Y14.152 E2.30047
G1 X114.972 Y15.056 E2.37568
G1 X115.467 Y16.065 E2.45076
G1 X115.772 Y17.148 E2.52592
G1 X115.875 Y18.267 E2.60099
G1 X115.825 Y18.822 E2.63822
G1 X115.773 Y19.39 E2.67632
G1 X115.47 Y20.472 E2.75138
G1 X114.976 Y21.482 E2.82649
G1 X114.307 Y22.386 E2.90162
G1 X113.383 Y23.219 E2.98473
G1 X106.009 Y23.219 E3.47735
G1 X105.271 Y22.589 E3.54217
G1 X104.561 Y21.715 E3.6174
G1 X104.05 Y20.777 E3.68876
G1 X103.68 Y19.661 E3.76731
G1 X103.529 Y18.548 E3.84235
G1 X103.582 Y17.426 E3.91739
G1 X103.682 Y16.878 E3.9546
G1 X104.05 Y15.766 E4.03285
G1 X104.561 Y14.83 E4.10409
G1 X105.242 Y13.991 E4.17628
G1 X106.163 Y13.205 E4.25717
G1 X107.095 Y12.665 E4.32913
G1 X108.153 Y12.287 E4.40419
G1 X109.263 Y12.107 E4.47931
G1 X110.306 Y12.129 E4.549
G1 X110.306 Y12.129 F7800
G1 X114.932 Y21.023
G1 F1800
G1 X114.932 Y16.069 E4.87995
G1 X114.337 Y15.01 E4.9611
G1 X114.337 Y21.535 E5.39701
G1 X113.742 Y22.254 E5.45936
G1 X113.742 Y14.29 E5.9914
G1 X113.147 Y13.746 E6.04526
G1 X113.147 Y22.737 E6.64591
G1 X112.552 Y22.737 E6.68566
G1 X112.552 Y13.366 E7.31169
G1 X112.308 Y13.211 E7.331
G1 X111.957 Y13.068 E7.35632
G1 X111.957 Y22.737 E8.00226
G1 X111.361 Y22.737 E8.04208
G1 X111.361 Y12.827 E8.70412
G1 X110.766 Y12.701 E8.74475
G1 X110.766 Y22.737 E9.41521
G1 X110.171 Y22.737 E9.45496
G1 X110.171 Y12.608 E10.13163
G1 X109.576 Y12.596 E10.17139
G1 X109.576 Y22.737 E10.84886
G1 X108.981 Y22.737 E10.88861
G1 X108.981 Y12.641 E11.56308
G1 X108.386 Y12.737 E11.60334
G1 X108.386 Y22.737 E12.27139
G1 X107.791 Y22.737 E12.31114
G1 X107.791 Y12.928 E12.96643
G1 X107.195 Y13.164 E13.00925
G1 X107.195 Y22.737 E13.64878
G1 X106.6 Y22.737 E13.68853
G1 X106.6 Y13.508 E14.30508
G1 X106.005 Y13.948 E14.35452
G1 X106.005 Y22.582 E14.93132
G1 X105.41 Y21.996 E14.98711
G1 X105.41 Y14.549 E15.48461
G1 X104.815 Y15.371 E15.5524
G1 X104.815 Y21.174 E15.94007
G1 X104.489 Y20.576 E15.98557
G1 X104.22 Y19.796 E16.04069
G1 X104.22 Y16 E16.29428
G1 E14.29428 F2400
G92 E0
G1 X104.22 Y16 F7800
G1 X119.321 Y32.657
G1 E2 F2400
;TYPE:Perimeter
;WIDTH:0.465745
G1 F1800
G1 X119.449 Y33.146 E2.0253
;WIDTH:0.46095
G1 X119.591 Y33.954 E2.06588
;WIDTH:0.46582
G1 X119.672 Y35.025 E2.11966
;WIDTH:0.46081
G1 X119.651 Y35.845 E2.16022
;WIDTH:0.465814
G1 X119.524 Y36.876 E2.21223
;WIDTH:0.461039
G1 X119.335 Y37.71 E2.25454
;WIDTH:0.461164
G1 X119.039 Y38.61 E2.30143
;WIDTH:0.461299
G1 X118.655 Y39.476 E2.34833
;WIDTH:0.46144
G1 X118.187 Y40.299 E2.39522
;WIDTH:0.461659
G1 X117.645 Y41.064 E2.44168
;WIDTH:0.461904
G1 X117.031 Y41.77 E2.48807
;WIDTH:0.46214
G1 X116.352 Y42.412 E2.53443
;WIDTH:0.462368
G1 X115.612 Y42.985 E2.58089
;WIDTH:0.462587
G1 X114.82 Y43.481 E2.6273
G1 X113.931 Y43.923 E2.67661
;WIDTH:0.503072
G1 X113.758 Y44.008 E2.68716
;WIDTH:0.54365
G1 X113.586 Y44.094 E2.69866
;WIDTH:0.584228
G1 X113.413 Y44.18 E2.71119
;WIDTH:0.624806
G1 X113.241 Y44.266 E2.72463
;WIDTH:0.665384
G1 X113.068 Y44.352 E2.73911
;WIDTH:0.705737
G1 X113 Y44.393 E2.74546
;WIDTH:0.74609
G1 X112.933 Y44.433 E2.75209
;WIDTH:0.786444
G1 X112.865 Y44.474 E2.75924
G1 X112.505 Y44.542 E2.79223
;WIDTH:0.740697
G1 X112.146 Y44.609 E2.82304
;WIDTH:0.694951
G1 X111.67 Y44.665 E2.86073
;WIDTH:0.655757
G1 X111.193 Y44.72 E2.89615
;WIDTH:0.616563
G1 X110.239 Y44.76 E2.96191
;WIDTH:0.607843
G1 X109.3 Y44.731 E3.02559
;WIDTH:0.641542
G1 X108.832 Y44.682 E3.05946
;WIDTH:0.675242
G1 X108.365 Y44.633 E3.09524
;WIDTH:0.712056
G1 X108.069 Y44.58 E3.11953
;WIDTH:0.74887
G1 X107.774 Y44.527 E3.14512
;WIDTH:0.785684
G1 X107.479 Y44.474 E3.17208
G1 X107.352 Y44.407 E3.185
;WIDTH:0.741267
G1 X107.226 Y44.34 E3.19705
;WIDTH:0.69685
G1 X107.099 Y44.273 E3.20838
;WIDTH:0.652434
G1 X106.972 Y44.206 E3.21891
;WIDTH:0.608017
G1 X106.846 Y44.138 E3.22862
;WIDTH:0.563601
G1 X106.719 Y44.071 E3.23756
;WIDTH:0.519184
G1 X106.592 Y44.004 E3.24571
;WIDTH:0.474768
G1 X105.939 Y43.696 E3.28267
;WIDTH:0.464873
G1 X105.141 Y43.249 E3.32836
;WIDTH:0.465018
G1 X104.389 Y42.727 E3.3741
;WIDTH:0.465148
G1 X103.691 Y42.135 E3.41985
G1 X103.064 Y41.49 E3.46481
;WIDTH:0.465365
G1 X102.309 Y40.526 E3.52605
;WIDTH:0.465454
G1 X101.982 Y39.999 E3.55708
G1 X101.558 Y39.188 E3.60286
;WIDTH:0.465584
G1 X101.214 Y38.34 E3.64865
G1 X100.953 Y37.463 E3.69444
G1 X100.78 Y36.58 E3.73947
G1 X100.712 Y36.066 E3.76541
;WIDTH:0.460877
G1 X100.673 Y35.259 E3.80537
;WIDTH:0.46567
G1 X100.72 Y34.237 E3.85658
;WIDTH:0.46104
G1 X100.843 Y33.404 E3.89824
;WIDTH:0.461215
G1 X101.063 Y32.499 E3.94434
;WIDTH:0.461408
G1 X101.372 Y31.619 E3.99053
;WIDTH:0.46171
G1 X101.76 Y30.784 E4.03616
;WIDTH:0.462041
G1 X102.224 Y29.995 E4.08156
;WIDTH:0.462359
G1 X102.762 Y29.254 E4.12701
;WIDTH:0.462662
G1 X103.369 Y28.569 E4.17248
;WIDTH:0.462949
G1 X104.039 Y27.945 E4.21799
;WIDTH:0.463224
G1 X104.765 Y27.388 E4.26351
;WIDTH:0.463483
G1 X105.542 Y26.904 E4.30908
;WIDTH:0.46361
G1 X106.413 Y26.473 E4.35747
;WIDTH:0.507798
G1 X106.594 Y26.382 E4.36867
;WIDTH:0.551987
G1 X106.775 Y26.291 E4.38099
;WIDTH:0.596176
G1 X106.956 Y26.2 E4.39443
;WIDTH:0.640365
G1 X107.137 Y26.109 E4.40898
;WIDTH:0.684554
G1 X107.318 Y26.018 E4.42465
;WIDTH:0.718264
G1 X107.371 Y25.985 E4.42974
;WIDTH:0.751974
G1 X107.425 Y25.952 E4.43517
;WIDTH:0.785685
G1 X107.479 Y25.919 E4.44086
G1 X107.855 Y25.849 E4.47527
;WIDTH:0.738637
G1 X108.23 Y25.779 E4.50735
;WIDTH:0.691589
G1 X108.699 Y25.726 E4.54427
;WIDTH:0.653619
G1 X109.168 Y25.672 E4.57897
;WIDTH:0.61565
G1 X109.334 Y25.662 E4.5904
;WIDTH:0.607101
G1 X110.554 Y25.64 E4.673
;WIDTH:0.637332
G1 X111.538 Y25.706 E4.74348
;WIDTH:0.684632
G1 X112.012 Y25.774 E4.78052
;WIDTH:0.731933
G1 X112.485 Y25.843 E4.82032
;WIDTH:0.759985
G1 X112.666 Y25.88 E4.83635
;WIDTH:0.788038
G1 X112.846 Y25.917 E4.85294
G1 X112.953 Y25.975 E4.86393
;WIDTH:0.741143
G1 X113.059 Y26.032 E4.87409
;WIDTH:0.694249
G1 X113.166 Y26.09 E4.88365
;WIDTH:0.647354
G1 X113.272 Y26.147 E4.8924
;WIDTH:0.60046
G1 X113.379 Y26.205 E4.90054
;WIDTH:0.553566
G1 X113.658 Y26.342 E4.9195
;WIDTH:0.510008
G1 X113.937 Y26.48 E4.9368
;WIDTH:0.46645
G1 X114.406 Y26.694 E4.96265
;WIDTH:0.462642
G1 X115.075 Y27.059 E5.00051
;WIDTH:0.465484
G1 X115.617 Y27.418 E5.03303
G1 X116.356 Y27.991 E5.07981
;WIDTH:0.465611
G1 X117.034 Y28.634 E5.12657
G1 X117.646 Y29.341 E5.17337
G1 X118.185 Y30.104 E5.22012
;WIDTH:0.465745
G1 X118.647 Y30.916 E5.26689
G1 X119.027 Y31.77 E5.31368
G1 X119.302 Y32.6 E5.35745
G1 X119.302 Y32.6 F7800
G1 X118.866 Y32.774
;WIDTH:0.6
G1 F1800
G1 X118.87 Y32.784 E5.35817
G1 X119.065 Y33.65 E5.41747
G1 X119.174 Y34.531 E5.47677
G1 X119.196 Y35.419 E5.53611
G1 X119.13 Y36.304 E5.5954
G1 X119.063 Y36.806 E5.62923
G1 X118.88 Y37.606 E5.68405
G1 X118.597 Y38.461 E5.74422
G1 X118.23 Y39.284 E5.80442
G1 X117.783 Y40.066 E5.86459
G1 X117.266 Y40.792 E5.92413
G1 X116.682 Y41.461 E5.98346
G1 X116.034 Y42.07 E6.04287
G1 X115.33 Y42.612 E6.10222
G1 X114.576 Y43.083 E6.16161
G1 X113.728 Y43.502 E6.2248
G1 X112.874 Y43.818 E6.28563
G1 X112.002 Y44.044 E6.34581
G1 X111.112 Y44.183 E6.40599
G1 X110.213 Y44.231 E6.46613
G1 X109.327 Y44.192 E6.52538
G1 X108.449 Y44.066 E6.58464
G1 X107.632 Y43.865 E6.64085
G1 X106.752 Y43.559 E6.70309
G1 X106.139 Y43.273 E6.74828
G1 X105.382 Y42.848 E6.80628
G1 X104.668 Y42.351 E6.8644
G1 X104.006 Y41.789 E6.92241
G1 X103.411 Y41.176 E6.97948
G1 X102.683 Y40.249 E7.05822
G1 X102.384 Y39.758 E7.09662
G1 X101.981 Y38.987 E7.15474
G1 X101.655 Y38.182 E7.21276
G1 X101.407 Y37.349 E7.27082
G1 X101.243 Y36.511 E7.32786
G1 X101.158 Y35.631 E7.38692
G1 X101.158 Y34.762 E7.44497
G1 X101.241 Y33.897 E7.50302
G1 X101.319 Y33.395 E7.53696
G1 X101.516 Y32.612 E7.5909
G1 X101.811 Y31.776 E7.65012
G1 X102.181 Y30.983 E7.70858
G1 X102.624 Y30.235 E7.76666
G1 X103.137 Y29.532 E7.8248
G1 X103.715 Y28.882 E7.88291
G1 X104.352 Y28.291 E7.94096
G1 X105.044 Y27.764 E7.99907
G1 X105.783 Y27.305 E8.05719
G1 X106.613 Y26.896 E8.11901
G1 X107.512 Y26.563 E8.18306
G1 X108.372 Y26.343 E8.24236
G1 X109.347 Y26.201 E8.30818
G1 X110.567 Y26.172 E8.38971
G1 X111.483 Y26.257 E8.45117
G1 X112.366 Y26.432 E8.51131
G1 X113.228 Y26.694 E8.5715
G1 X113.755 Y26.912 E8.6096
G1 X114.602 Y27.332 E8.67276
G1 X115.353 Y27.805 E8.73205
G1 X116.054 Y28.35 E8.79137
G1 X116.699 Y28.961 E8.85072
G1 X117.28 Y29.633 E8.91007
G1 X117.792 Y30.358 E8.96936
G1 X118.23 Y31.13 E9.02866
G1 X118.591 Y31.941 E9.08796
G1 X118.848 Y32.717 E9.14257
G1 X118.848 Y32.717 F7800
G1 X118.347 Y32.906
;TYPE:External perimeter
G1 F1800
G1 X118.354 Y32.929 E9.14418
G1 X118.537 Y33.743 E9.19992
G1 X118.64 Y34.571 E9.25566
G1 X118.66 Y35.405 E9.31139
G1 X118.599 Y36.237 E9.36712
G1 X118.456 Y37.059 E9.42286
G1 X118.233 Y37.863 E9.4786
G1 X117.932 Y38.642 E9.53439
G1 X117.557 Y39.387 E9.59011
G1 X117.305 Y39.82 E9.62358
G1 X116.826 Y40.486 E9.67838
G1 X116.28 Y41.107 E9.73362
G1 X115.67 Y41.678 E9.78944
G1 X115.007 Y42.185 E9.8452
G1 X114.297 Y42.626 E9.90104
G1 X113.496 Y43.019 E9.96064
G1 X112.691 Y43.315 E10.01794
G1 X111.87 Y43.525 E10.07455
G1 X111.032 Y43.653 E10.13118
G1 X110.186 Y43.696 E10.18777
G1 X109.353 Y43.657 E10.24348
G1 X108.528 Y43.536 E10.29918
G1 X107.762 Y43.345 E10.35192
G1 X106.932 Y43.054 E10.41068
G1 X106.368 Y42.789 E10.45231
G1 X105.657 Y42.388 E10.50684
G1 X104.987 Y41.921 E10.5614
G1 X104.366 Y41.392 E10.6159
G1 X103.808 Y40.816 E10.66948
G1 X103.113 Y39.93 E10.74471
G1 X102.843 Y39.482 E10.77965
G1 X102.466 Y38.758 E10.83418
G1 X102.159 Y38.002 E10.88869
G1 X101.927 Y37.219 E10.94325
G1 X101.773 Y36.433 E10.99676
G1 X101.693 Y35.605 E11.05233
G1 X101.693 Y34.788 E11.10691
G1 X101.771 Y33.976 E11.16141
G1 X101.927 Y33.174 E11.21599
G1 X102.159 Y32.392 E11.27048
G1 X102.466 Y31.635 E11.32505
G1 X102.683 Y31.178 E11.35885
G1 X103.098 Y30.485 E11.41281
G1 X103.567 Y29.851 E11.46549
G1 X104.112 Y29.242 E11.52009
G1 X104.712 Y28.688 E11.57465
G1 X105.363 Y28.194 E11.62924
G1 X106.058 Y27.765 E11.6838
G1 X106.842 Y27.38 E11.74215
G1 X107.693 Y27.067 E11.80272
G1 X108.502 Y26.863 E11.85846
G1 X109.36 Y26.736 E11.9164
G1 X110.58 Y26.707 E11.99793
G1 X111.429 Y26.79 E12.05492
G1 X112.26 Y26.957 E12.11155
G1 X113.07 Y27.206 E12.16816
G1 X113.547 Y27.406 E12.20271
G1 X114.346 Y27.802 E12.26228
G1 X115.052 Y28.248 E12.31807
G1 X115.71 Y28.76 E12.37377
G1 X116.315 Y29.335 E12.42953
G1 X116.861 Y29.966 E12.48527
G1 X117.342 Y30.648 E12.54102
G1 X117.754 Y31.374 E12.59679
G1 X118.092 Y32.137 E12.65254
G1 X118.328 Y32.849 E12.70265
G1 X118.423 Y33.238 F7800
G1 E10.70265 F2400
G92 E0
G1 X113.532 Y44.701 F7800
G1 E2 F2400
;TYPE:Perimeter
;WIDTH:0.665384
G1 F1800
G1 X113.435 Y44.778 E2.00928
;WIDTH:0.705737
G1 X113.388 Y44.834 E2.01513
;WIDTH:0.74609
G1 X113.341 Y44.89 E2.02135
;WIDTH:0.786444
G1 X113.293 Y44.946 E2.02799
G1 X113.252 Y45.184 E2.04974
G1 X112.654 Y45.203 E2.10362
;WIDTH:0.750313
G1 X112.355 Y45.221 E2.12925
;WIDTH:0.714182
G1 X112.055 Y45.239 E2.15361
;WIDTH:0.678052
G1 X111.564 Y45.256 E2.19121
;WIDTH:0.643277
G1 X111.073 Y45.273 E2.22668
;WIDTH:0.608503
G1 X110.095 Y45.284 E2.29306
;WIDTH:0.61565
G1 X109.128 Y45.27 E2.35956
;WIDTH:0.653619
G1 X108.641 Y45.251 E2.39538
;WIDTH:0.691588
G1 X108.154 Y45.232 E2.43351
;WIDTH:0.738636
G1 X107.624 Y45.208 E2.47813
;WIDTH:0.785684
G1 X107.094 Y45.185 E2.52586
G1 X107.052 Y44.947 E2.5476
G1 X107.014 Y44.9 E2.55304
;WIDTH:0.751972
G1 X106.975 Y44.854 E2.55821
;WIDTH:0.718262
G1 X106.937 Y44.807 E2.56314
;WIDTH:0.684551
G1 X106.831 Y44.72 E2.57375
;WIDTH:0.642594
