; generated by PrusaSlicer 2.9.0 on 2025-01-06 at 17:32:56 UTC

; 

; external perimeters extrusion width = 0.42mm
; perimeters extrusion width = 0.44mm
; infill extrusion width = 0.44mm
; solid infill extrusion width = 0.44mm
; top infill extrusion width = 0.40mm
; first layer extrusion width = 0.42mm


; printing object C_v11.stl id:0 copy 0
; stop printing object C_v11.stl id:0 copy 0

;TYPE:Custom
G90 ; use absolute coordinates
M83 ; extruder relative mode
M104 S150 ; set temporary nozzle temp to prevent oozing during homing
M140 S60 ; set final bed temp
G4 S30 ; allow partial nozzle warmup
G28 ; home all axis
G1 Z50 F240
G1 X2.0 Y10 F3000
M104 S205 ; set final nozzle temp
M190 S60 ; wait for bed temp to stabilize
M109 S205 ; wait for nozzle temp to stabilize
G1 Z0.28 F240
G92 E0
G1 X2.0 Y140 E10 F1500 ; prime the nozzle
G1 X2.3 Y140 F5000
G92 E0
G1 X2.3 Y10 E10 F1200 ; prime the nozzle
G92 E0
G21 ; set units to millimeters
G90 ; use absolute coordinates
M83 ; use relative distances for extrusion
; Filament gcode
M107
;LAYER_CHANGE
;Z:0.2
;HEIGHT:0.2
G1 E-5 F3600
G1 Z.2 F9000
G1 X96.526 Y38.965
G1 Z.2
G1 E5 F2400
M204 S500
;TYPE:Skirt/Brim
;WIDTH:0.42
G1 F1200
G1 X97.052 Y37.829 E.03925
G1 X97.763 Y36.6 E.04452
G1 X99.046 Y34.895 E.0669
G1 X103.037 Y30.51 E.18591
G1 X104.426 Y29.571 E.05257
G1 X105.673 Y29.346 E.03973
G1 X114.673 Y29.346 E.28219
G1 X116.303 Y29.74 E.05258
G1 X117.309 Y30.511 E.03974
G1 X121.739 Y35.422 E.20737
G1 X123.043 Y37.365 E.07337
G1 X123.968 Y39.338 E.06832
G1 X124.376 Y40.565 E.04054
G1 X124.704 Y41.981 E.04557
G1 X124.89 Y43.412 E.04525
G1 X124.935 Y44.876 E.04592
G1 X124.704 Y47.219 E.07382
G1 X124.376 Y48.635 E.04557
G1 X123.91 Y50.012 E.04558
G1 X123.39 Y51.18 E.04009
G1 X122.679 Y52.448 E.04558
G1 X121.388 Y54.204 E.06834
G1 X117.309 Y58.689 E.19008
G1 X115.92 Y59.629 E.05259
G1 X114.673 Y59.854 E.03973
G1 X105.673 Y59.854 E.28219
G1 X104.043 Y59.46 E.05258
G1 X103.037 Y58.69 E.03972
G1 X98.602 Y53.772 E.20764
G1 X97.388 Y51.986 E.06771
G1 X96.813 Y50.887 E.03889
G1 X96.274 Y49.581 E.0443
G1 X95.666 Y47.346 E.07262
G1 X95.469 Y45.936 E.04464
G1 X95.408 Y44.514 E.04463
G1 X95.485 Y43.093 E.04462
G1 X95.696 Y41.699 E.04421
G1 X96.046 Y40.305 E.04506
G1 X96.516 Y38.993 E.0437
G1 X96.516 Y38.993 F9000
G1 X96.866 Y39.128
G1 F1200
G1 X97.39 Y37.996 E.03911
G1 X98.084 Y36.798 E.04341
G1 X99.335 Y35.137 E.0652
G1 X103.316 Y30.764 E.18542
G1 X104.641 Y29.895 E.04968
G1 X105.673 Y29.723 E.0328
G1 X114.673 Y29.723 E.28219
G1 X116.208 Y30.117 E.04969
G1 X117.031 Y30.765 E.03284
G1 X121.544 Y35.786 E.21168
G1 X122.272 Y36.814 E.0395
G1 X122.966 Y38.017 E.04355
G1 X123.804 Y39.995 E.06736
G1 X124.361 Y42.21 E.07161
G1 X124.526 Y43.602 E.04395
G1 X124.554 Y45.033 E.04488
G1 X124.442 Y46.445 E.04441
G1 X124.226 Y47.686 E.0395
G1 X123.854 Y49.053 E.04442
G1 X123.35 Y50.377 E.04442
G1 X122.356 Y52.254 E.06659
G1 X121.097 Y53.964 E.06658
G1 X117.031 Y58.435 E.18949
G1 X115.706 Y59.305 E.0497
G1 X114.673 Y59.477 E.03283
G1 X105.673 Y59.477 E.28219
G1 X104.138 Y59.084 E.04968
G1 X103.316 Y58.436 E.03282
G1 X98.902 Y53.543 E.20662
G1 X97.718 Y51.803 E.06599
G1 X97.151 Y50.72 E.03833
G1 X96.626 Y49.448 E.04315
G1 X96.037 Y47.283 E.07035
G1 X95.845 Y45.909 E.0435
G1 X95.785 Y44.523 E.0435
G1 X95.858 Y43.152 E.04305
G1 X96.064 Y41.78 E.0435
G1 X96.405 Y40.421 E.04393
G1 X96.856 Y39.156 E.04211
G1 E-3.5 F3600
;WIPE_START
G1 F7200
G1 X96.866 Y39.128 E-.01412
G1 X97.39 Y37.996 E-.59251
G1 X98.084 Y36.798 E-.65764
G1 X98.383 Y36.402 E-.23573
;WIPE_END
; printing object C_v11.stl id:0 copy 0
G1 X101.624 Y41.031 F9000
G1 E5 F2400
;TYPE:Perimeter
G1 F1200
G1 X102.002 Y40.232 E.02771
G1 X102.469 Y39.453 E.02848
G1 X103.011 Y38.722 E.02853
G1 X103.621 Y38.049 E.02848
G1 X104.295 Y37.438 E.02852
G1 X105.025 Y36.896 E.02851
G1 X105.805 Y36.429 E.0285
G1 X106.627 Y36.04 E.02851
G1 X107.483 Y35.734 E.0285
G1 X108.365 Y35.513 E.02851
G1 X109.264 Y35.379 E.0285
G1 X110.149 Y35.336 E.02778
G1 X110.649 Y35.348 E.01568
G1 X111.556 Y35.439 E.02858
G1 X112.461 Y35.622 E.02895
G1 X113.343 Y35.894 E.02894
G1 X114.194 Y36.253 E.02896
G1 X115.006 Y36.695 E.02899
G1 X115.769 Y37.215 E.02895
G1 X116.476 Y37.809 E.02895
G1 X117.121 Y38.47 E.02896
G1 X117.697 Y39.193 E.02898
G1 X118.198 Y39.969 E.02896
G1 X118.619 Y40.791 E.02896
G1 X118.956 Y41.65 E.02893
G1 X119.206 Y42.54 E.02899
G1 X119.366 Y43.449 E.02894
G1 X119.435 Y44.37 E.02896
G1 X119.412 Y45.294 E.02898
G1 X119.297 Y46.21 E.02895
G1 X119.092 Y47.11 E.02894
G1 X118.797 Y47.986 E.02898
G1 X118.418 Y48.828 E.02895
G1 X117.956 Y49.628 E.02897
G1 X117.416 Y50.377 E.02895
G1 X116.805 Y51.07 E.02897
G1 X116.128 Y51.698 E.02895
G1 X115.392 Y52.256 E.02896
G1 X114.604 Y52.737 E.02895
G1 X113.772 Y53.138 E.02896
G1 X112.904 Y53.454 E.02896
G1 X112.009 Y53.682 E.02896
G1 X111.095 Y53.819 E.02898
G1 X110.173 Y53.865 E.02894
G1 X109.265 Y53.821 E.0285
G1 X108.365 Y53.687 E.02853
G1 X107.483 Y53.467 E.0285
G1 X106.627 Y53.16 E.02851
G1 X105.805 Y52.771 E.02851
G1 X105.025 Y52.304 E.0285
G1 X104.295 Y51.762 E.02851
G1 X103.621 Y51.152 E.0285
G1 X103.011 Y50.478 E.0285
G1 X102.469 Y49.748 E.02851
G1 X102.002 Y48.968 E.0285
G1 X101.613 Y48.146 E.02851
G1 X101.306 Y47.29 E.02851
G1 X101.086 Y46.408 E.0285
G1 X100.952 Y45.508 E.02853
G1 X100.907 Y44.6 E.0285
G1 X100.952 Y43.692 E.0285
G1 X101.086 Y42.793 E.0285
G1 X101.306 Y41.911 E.0285
G1 X101.611 Y41.058 E.0284
G1 X101.611 Y41.058 F9000
G1 X101.969 Y41.184
G1 F1200
G1 X102.334 Y40.41 E.02683
G1 X102.783 Y39.662 E.02735
G1 X103.302 Y38.962 E.02732
G1 X103.888 Y38.315 E.02737
G1 X104.534 Y37.73 E.02733
G1 X105.235 Y37.21 E.02737
G1 X105.983 Y36.762 E.02734
G1 X106.772 Y36.389 E.02736
G1 X107.593 Y36.095 E.02734
G1 X108.439 Y35.883 E.02735
G1 X109.302 Y35.755 E.02735
G1 X110.154 Y35.713 E.02675
G1 X110.626 Y35.724 E.0148
G1 X111.499 Y35.812 E.02751
G1 X112.368 Y35.988 E.0278
G1 X113.214 Y36.249 E.02776
G1 X114.031 Y36.593 E.02779
G1 X114.809 Y37.017 E.02778
G1 X115.541 Y37.516 E.02778
G1 X116.219 Y38.086 E.02777
G1 X116.838 Y38.72 E.02778
G1 X117.39 Y39.413 E.02778
G1 X117.871 Y40.157 E.02778
G1 X118.275 Y40.946 E.02779
G1 X118.598 Y41.771 E.02778
G1 X118.838 Y42.623 E.02775
G1 X118.992 Y43.496 E.02779
G1 X119.058 Y44.38 E.02779
G1 X119.036 Y45.265 E.02776
G1 X118.925 Y46.144 E.02778
G1 X118.728 Y47.008 E.02779
G1 X118.446 Y47.848 E.02778
G1 X118.082 Y48.655 E.02776
G1 X117.639 Y49.423 E.0278
G1 X117.121 Y50.142 E.02779
G1 X116.535 Y50.806 E.02777
G1 X115.885 Y51.409 E.0278
G1 X115.179 Y51.944 E.02777
G1 X114.423 Y52.406 E.02778
G1 X113.625 Y52.79 E.02777
G1 X112.792 Y53.093 E.02779
G1 X111.934 Y53.312 E.02776
G1 X111.058 Y53.444 E.02778
G1 X110.173 Y53.488 E.02778
G1 X109.302 Y53.445 E.02734
G1 X108.439 Y53.317 E.02735
G1 X107.593 Y53.105 E.02735
G1 X106.772 Y52.811 E.02734
G1 X105.983 Y52.438 E.02736
G1 X105.235 Y51.99 E.02734
G1 X104.534 Y51.47 E.02737
G1 X103.888 Y50.885 E.02733
G1 X103.302 Y50.238 E.02737
G1 X102.783 Y49.538 E.02732
G1 X102.334 Y48.79 E.02735
G1 X101.962 Y48.001 E.02735
G1 X101.668 Y47.18 E.02734
G1 X101.456 Y46.334 E.02735
G1 X101.328 Y45.471 E.02735
G1 X101.285 Y44.6 E.02734
G1 X101.328 Y43.729 E.02734
G1 X101.456 Y42.866 E.02735
G1 X101.668 Y42.02 E.02735
G1 X101.957 Y41.211 E.02694
G1 X101.957 Y41.211 F9000
G1 X102.314 Y41.336
;TYPE:External perimeter
G1 F1200
G1 X102.667 Y40.588 E.02593
G1 X103.097 Y39.872 E.02619
G1 X103.594 Y39.201 E.02618
G1 X104.155 Y38.582 E.02619
G1 X104.774 Y38.022 E.02617
G1 X105.445 Y37.524 E.0262
G1 X106.161 Y37.095 E.02617
G1 X106.916 Y36.738 E.02619
G1 X107.702 Y36.456 E.02618
G1 X108.513 Y36.253 E.02621
G1 X109.339 Y36.131 E.02618
G1 X110.159 Y36.09 E.02574
G1 X110.602 Y36.101 E.01389
G1 X111.443 Y36.185 E.0265
G1 X112.274 Y36.353 E.02658
G1 X113.085 Y36.604 E.02662
G1 X113.867 Y36.933 E.0266
G1 X114.612 Y37.339 E.0266
G1 X115.313 Y37.817 E.0266
G1 X115.962 Y38.363 E.02659
G1 X116.555 Y38.97 E.02661
G1 X117.083 Y39.633 E.02657
G1 X117.544 Y40.346 E.02662
G1 X117.93 Y41.101 E.02659
G1 X118.24 Y41.891 E.02661
G1 X118.47 Y42.707 E.02658
G1 X118.617 Y43.543 E.02661
G1 X118.68 Y44.389 E.0266
G1 X118.659 Y45.237 E.0266
G1 X118.554 Y46.079 E.0266
G1 X118.365 Y46.906 E.0266
G1 X118.095 Y47.71 E.02659
G1 X117.746 Y48.483 E.02659
G1 X117.321 Y49.218 E.02662
G1 X116.826 Y49.907 E.0266
G1 X116.265 Y50.543 E.02659
G1 X115.643 Y51.12 E.0266
G1 X114.967 Y51.632 E.02659
G1 X114.243 Y52.074 E.0266
G1 X113.478 Y52.442 E.02662
G1 X112.681 Y52.732 E.02659
G1 X111.859 Y52.942 E.0266
G1 X111.02 Y53.068 E.0266
G1 X110.173 Y53.11 E.02659
G1 X109.339 Y53.069 E.02618
G1 X108.513 Y52.947 E.02618
G1 X107.702 Y52.744 E.02621
G1 X106.916 Y52.463 E.02617
G1 X106.161 Y52.106 E.02619
G1 X105.445 Y51.676 E.02619
G1 X104.774 Y51.179 E.02618
G1 X104.155 Y50.618 E.02619
G1 X103.594 Y49.999 E.02619
G1 X103.097 Y49.328 E.02618
G1 X102.667 Y48.612 E.02619
G1 X102.31 Y47.857 E.02619
G1 X102.029 Y47.071 E.02617
G1 X101.826 Y46.26 E.02621
G1 X101.704 Y45.434 E.02618
G1 X101.663 Y44.6 E.02618
G1 X101.704 Y43.766 E.02618
G1 X101.826 Y42.94 E.02618
G1 X102.029 Y42.13 E.02618
G1 X102.303 Y41.364 E.02551
G1 E-3.5 F3600
;WIPE_START
G1 F7200
G1 X102.314 Y41.336 E-.01429
G1 X102.667 Y40.588 E-.39288
G1 X103.097 Y39.872 E-.39672
G1 X103.594 Y39.201 E-.39663
G1 X104.018 Y38.734 E-.29948
;WIPE_END
G1 X106.641 Y35.066 F9000
G1 E5 F2400
;TYPE:Perimeter
G1 F1200
G1 X106.737 Y35.021 E.00332
G1 X106.737 Y34.366 E.02054
G1 X113.609 Y34.366 E.21547
G1 X113.609 Y35.021 E.02054
G1 X114.697 Y35.53 E.03766
G1 X115.567 Y36.019 E.03129
G1 X116.385 Y36.591 E.0313
G1 X116.771 Y36.907 E.01564
G1 X117.496 Y37.593 E.03129
G1 X118.15 Y38.347 E.0313
G1 X118.726 Y39.162 E.03129
G1 X119.219 Y40.029 E.03127
G1 X119.625 Y40.941 E.0313
G1 X119.939 Y41.888 E.03128
G1 X120.158 Y42.862 E.0313
G1 X120.281 Y43.852 E.03128
G1 X120.305 Y44.85 E.0313
G1 X120.232 Y45.845 E.03128
G1 X120.06 Y46.828 E.03129
G1 X119.793 Y47.789 E.03127
G1 X119.433 Y48.72 E.0313
G1 X118.983 Y49.611 E.0313
G1 X118.448 Y50.453 E.03128
G1 X117.832 Y51.238 E.03129
G1 X117.142 Y51.959 E.03129
G1 X116.771 Y52.293 E.01565
G1 X115.983 Y52.905 E.03128
G1 X115.138 Y53.436 E.03129
G1 X114.697 Y53.67 E.01565
G1 X113.609 Y54.18 E.03768
G1 X113.609 Y54.834 E.02051
G1 X106.737 Y54.834 E.21547
G1 X106.737 Y54.179 E.02054
G1 X105.658 Y53.674 E.03735
G1 X104.805 Y53.198 E.03063
G1 X104.002 Y52.641 E.03064
G1 X103.622 Y52.334 E.01532
G1 X102.907 Y51.667 E.03066
G1 X102.261 Y50.935 E.03061
G1 X101.687 Y50.143 E.03067
G1 X101.43 Y49.728 E.01531
G1 X100.977 Y48.862 E.03064
G1 X100.609 Y47.957 E.03063
G1 X100.33 Y47.02 E.03065
G1 X100.143 Y46.061 E.03064
G1 X100.049 Y45.089 E.03062
G1 X100.049 Y44.112 E.03063
G1 X100.143 Y43.139 E.03065
G1 X100.33 Y42.18 E.03064
G1 X100.609 Y41.243 E.03065
G1 X100.977 Y40.338 E.03063
G1 X101.43 Y39.472 E.03064
G1 X101.964 Y38.654 E.03063
G1 X102.575 Y37.892 E.03062
G1 X103.256 Y37.191 E.03064
G1 X103.622 Y36.866 E.01535
G1 X104.397 Y36.271 E.03064
G1 X105.226 Y35.754 E.03063
G1 X105.658 Y35.526 E.01532
G1 X106.614 Y35.078 E.0331
G1 X106.614 Y35.078 F9000
G1 X106.298 Y34.81
G1 F1200
G1 X106.36 Y34.781 E.00215
G1 X106.36 Y33.989 E.02483
G1 X113.986 Y33.989 E.23911
G1 X113.986 Y34.781 E.02483
G1 X114.865 Y35.193 E.03044
G1 X115.323 Y35.435 E.01624
G1 X115.768 Y35.7 E.01624
G1 X116.199 Y35.986 E.01622
G1 X116.616 Y36.293 E.01624
G1 X117.017 Y36.621 E.01624
G1 X117.402 Y36.967 E.01623
G1 X117.769 Y37.332 E.01623
G1 X118.117 Y37.715 E.01623
G1 X118.446 Y38.114 E.01621
G1 X118.756 Y38.53 E.01627
G1 X119.044 Y38.959 E.0162
G1 X119.311 Y39.403 E.01624
G1 X119.556 Y39.859 E.01623
G1 X119.778 Y40.327 E.01624
G1 X119.977 Y40.805 E.01623
G1 X120.151 Y41.292 E.01621
G1 X120.302 Y41.787 E.01623
G1 X120.428 Y42.289 E.01623
G1 X120.53 Y42.797 E.01625
G1 X120.606 Y43.309 E.01623
G1 X120.657 Y43.824 E.01623
G1 X120.682 Y44.341 E.01623
G1 X120.682 Y44.859 E.01624
G1 X120.657 Y45.376 E.01623
G1 X120.606 Y45.891 E.01623
G1 X120.53 Y46.403 E.01623
G1 X120.428 Y46.911 E.01625
G1 X120.302 Y47.413 E.01623
G1 X120.151 Y47.908 E.01623
G1 X119.977 Y48.395 E.01621
G1 X119.778 Y48.873 E.01623
G1 X119.556 Y49.341 E.01624
G1 X119.311 Y49.797 E.01623
G1 X119.044 Y50.241 E.01624
G1 X118.756 Y50.671 E.01623
G1 X118.446 Y51.086 E.01624
G1 X118.117 Y51.485 E.01621
G1 X117.769 Y51.868 E.01623
G1 X117.402 Y52.233 E.01623
G1 X117.017 Y52.58 E.01625
G1 X116.616 Y52.907 E.01622
G1 X116.199 Y53.214 E.01624
G1 X115.768 Y53.5 E.01622
G1 X115.323 Y53.765 E.01624
G1 X114.865 Y54.007 E.01624
G1 X113.986 Y54.419 E.03044
G1 X113.986 Y55.211 E.02483
G1 X106.36 Y55.211 E.23911
G1 X106.36 Y54.419 E.02483
G1 X105.49 Y54.012 E.03012
G1 X105.042 Y53.776 E.01588
G1 X104.182 Y53.239 E.03179
G1 X103.772 Y52.94 E.01591
G1 X102.999 Y52.285 E.03177
G1 X102.292 Y51.558 E.0318
G1 X101.966 Y51.17 E.01589
G1 X101.372 Y50.35 E.03175
G1 X100.859 Y49.475 E.0318
G1 X100.433 Y48.556 E.03176
G1 X100.097 Y47.6 E.03177
G1 X99.855 Y46.615 E.0318
G1 X99.709 Y45.612 E.03178
G1 X99.66 Y44.6 E.03177
G1 X99.709 Y43.588 E.03177
G1 X99.855 Y42.585 E.03178
G1 X99.964 Y42.09 E.01589
G1 X100.253 Y41.118 E.03179
G1 X100.635 Y40.179 E.03178
G1 X101.105 Y39.282 E.03175
G1 X101.659 Y38.433 E.03179
G1 X102.292 Y37.642 E.03177
G1 X102.999 Y36.915 E.0318
G1 X103.378 Y36.579 E.01588
G1 X104.182 Y35.962 E.03178
G1 X105.042 Y35.425 E.03179
G1 X105.49 Y35.188 E.01589
G1 X106.271 Y34.823 E.02703
G1 X106.271 Y34.823 F9000
G1 X105.955 Y34.554
;TYPE:External perimeter
G1 F1200
G1 X105.983 Y34.541 E.00097
G1 X105.983 Y33.612 E.02913
G1 X114.363 Y33.612 E.26275
G1 X114.363 Y34.541 E.02913
G1 X115.034 Y34.855 E.02323
G1 X115.508 Y35.106 E.01682
G1 X115.969 Y35.381 E.01683
G1 X116.415 Y35.677 E.01678
G1 X116.847 Y35.995 E.01682
G1 X117.263 Y36.334 E.01683
G1 X117.661 Y36.693 E.01681
G1 X118.041 Y37.071 E.01681
G1 X118.402 Y37.468 E.01682
G1 X118.743 Y37.882 E.01682
G1 X119.064 Y38.312 E.01682
G1 X119.362 Y38.757 E.01679
G1 X119.639 Y39.217 E.01684
G1 X119.892 Y39.689 E.01679
G1 X120.122 Y40.173 E.0168
G1 X120.328 Y40.669 E.01684
G1 X120.51 Y41.173 E.0168
G1 X120.666 Y41.686 E.01681
G1 X120.796 Y42.206 E.01681
G1 X120.901 Y42.732 E.01682
G1 X120.98 Y43.263 E.01683
G1 X121.033 Y43.796 E.01679
G1 X121.059 Y44.332 E.01683
G1 X121.059 Y44.868 E.01681
G1 X121.033 Y45.404 E.01683
G1 X120.98 Y45.938 E.01683
G1 X120.901 Y46.468 E.0168
G1 X120.796 Y46.994 E.01682
G1 X120.666 Y47.514 E.01681
G1 X120.51 Y48.027 E.01681
G1 X120.328 Y48.532 E.01683
G1 X120.122 Y49.027 E.01681
G1 X119.892 Y49.511 E.0168
G1 X119.639 Y49.984 E.01682
G1 X119.362 Y50.443 E.01681
G1 X119.064 Y50.889 E.01682
G1 X118.743 Y51.319 E.01682
G1 X118.402 Y51.732 E.01679
G1 X118.041 Y52.129 E.01682
G1 X117.661 Y52.507 E.01681
G1 X117.263 Y52.866 E.01681
G1 X116.847 Y53.205 E.01683
G1 X116.415 Y53.523 E.01682
G1 X115.969 Y53.82 E.0168
G1 X115.508 Y54.094 E.01681
G1 X115.034 Y54.345 E.01682
G1 X114.363 Y54.659 E.02323
G1 X114.363 Y55.588 E.02913
G1 X105.983 Y55.588 E.26275
G1 X105.983 Y54.659 E.02913
G1 X105.322 Y54.35 E.02288
G1 X104.857 Y54.105 E.01648
G1 X104.405 Y53.837 E.01648
G1 X103.967 Y53.549 E.01644
G1 X103.543 Y53.239 E.01647
G1 X103.134 Y52.91 E.01646
G1 X102.742 Y52.561 E.01646
G1 X102.367 Y52.193 E.01647
G1 X102.01 Y51.808 E.01646
G1 X101.672 Y51.406 E.01647
G1 X101.354 Y50.988 E.01647
G1 X101.056 Y50.556 E.01646
G1 X100.779 Y50.109 E.01649
G1 X100.525 Y49.65 E.01645
G1 X100.293 Y49.179 E.01646
G1 X100.083 Y48.698 E.01646
G1 X99.897 Y48.207 E.01646
G1 X99.736 Y47.707 E.01647
G1 X99.598 Y47.2 E.01647
G1 X99.485 Y46.688 E.01644
G1 X99.397 Y46.17 E.01647
G1 X99.334 Y45.649 E.01645
G1 X99.296 Y45.125 E.01647
G1 X99.283 Y44.6 E.01647
G1 X99.296 Y44.075 E.01647
G1 X99.334 Y43.551 E.01647
G1 X99.397 Y43.03 E.01645
G1 X99.485 Y42.513 E.01644
G1 X99.598 Y42 E.01647
G1 X99.736 Y41.493 E.01647
G1 X99.897 Y40.994 E.01644
G1 X100.083 Y40.503 E.01646
G1 X100.293 Y40.021 E.01648
G1 X100.525 Y39.55 E.01646
G1 X100.779 Y39.091 E.01645
G1 X101.056 Y38.644 E.01649
G1 X101.354 Y38.212 E.01646
G1 X101.672 Y37.794 E.01647
G1 X102.01 Y37.392 E.01647
G1 X102.367 Y37.007 E.01646
G1 X102.742 Y36.64 E.01645
