; generated by PrusaSlicer 2.8.1+linux-x64-GTK3 on 2024-10-28 at 17:19:05 UTC

; 

; external perimeters extrusion width = 0.45mm
; perimeters extrusion width = 0.45mm
; infill extrusion width = 0.45mm
; solid infill extrusion width = 0.45mm
; top infill extrusion width = 0.40mm
; support material extrusion width = 0.40mm
; first layer extrusion width = 0.60mm

M190 S60 ; set bed temperature and wait for it to be reached
M104 S200 ; set temperature
;TYPE:Custom
G28 ; home all axes
G1 Z5 F5000 ; lift nozzle
M109 S200 ; set temperature and wait for it to be reached
G21 ; set units to millimeters
G90 ; use absolute coordinates
M82 ; use absolute distances for extrusion
G92 E0
; Filament gcode
M107
;LAYER_CHANGE
;Z:0.3
;HEIGHT:0.3
G1 E-2 F2400
G1 Z.3 F7800
G1 X94.895 Y27.108
G1 E0 F2400
;TYPE:Skirt/Brim
;WIDTH:0.6
G1 F1800
G1 X97.881 Y16.656 E.72619
G1 X98.249 Y15.619 E.7997
G1 X99.125 Y13.887 E.92936
G1 X99.758 Y12.942 E1.00535
G1 X100.465 Y12.07 E1.08035
G1 X101.259 Y11.255 E1.15636
G1 X102.112 Y10.525 E1.23136
G1 X103.041 Y9.867 E1.30741
G1 X104.012 Y9.304 E1.38239
G1 X105.045 Y8.824 E1.45849
G1 X106.103 Y8.445 E1.53357
G1 X107.206 Y8.161 E1.60966
G1 X108.288 Y7.984 E1.6829
G1 X109.919 Y7.903 E1.79199
G1 X111.741 Y8.056 E1.91414
G1 X112.81 Y8.276 E1.98705
G1 X113.902 Y8.606 E2.06326
G1 X114.944 Y9.028 E2.13836
G1 X115.958 Y9.55 E2.21455
G1 X116.907 Y10.155 E2.28974
G1 X117.809 Y10.852 E2.36589
G1 X118.633 Y11.619 E2.44109
G1 X119.394 Y12.468 E2.51726
G1 X120.065 Y13.371 E2.59242
G1 X120.66 Y14.345 E2.66867
G1 X121.468 Y16.11 E2.79835
G1 X126.961 Y32.394 E3.94644
G1 X127.488 Y34.918 E4.11869
G1 X127.637 Y37.492 E4.29093
G1 X127.406 Y40.06 E4.46318
G1 X126.805 Y42.55 E4.6343
G1 X121.54 Y58.034 E5.72688
G1 X121.105 Y59.023 E5.79906
G1 X120.403 Y60.306 E5.89676
G1 X118.669 Y62.31 E6.0738
G1 X116.646 Y63.792 E6.24133
G1 X115.792 Y64.294 E6.30751
G1 X114.791 Y64.779 E6.38182
G1 X113.736 Y65.178 E6.45717
G1 X112.678 Y65.473 E6.53055
G1 X110.504 Y65.774 E6.67717
G1 X109.372 Y65.776 E6.75279
G1 X107.221 Y65.488 E6.89777
G1 X106.226 Y65.218 E6.96665
G1 X104.35 Y64.453 E7.102
G1 X103.509 Y63.986 E7.16626
G1 X101.436 Y62.577 E7.33371
G1 X99.531 Y60.473 E7.52332
G1 X98.793 Y59.146 E7.62476
G1 X98.002 Y57.154 E7.76794
G1 X93.444 Y42.242 E8.80964
G1 X92.886 Y39.718 E8.98233
G1 X92.707 Y37.065 E9.15997
G1 X92.908 Y34.574 E9.32692
G1 X93.39 Y32.378 E9.47712
G1 X94.879 Y27.166 E9.83924
G1 E7.83924 F2400
G92 E0
G1 X94.879 Y27.166 F7800
G92 E0
G1 X114.705 Y49.689
G1 E2 F2400
;TYPE:Support material
G1 F1800
G1 X115.291 Y50.534 E2.0687
G1 X115.757 Y51.56 E2.14398
G1 X116.031 Y52.658 E2.21958
G1 X116.1 Y53.791 E2.29541
G1 X115.958 Y54.924 E2.37169
G1 X115.606 Y56.015 E2.44827
G1 X114.904 Y57.299 E2.54603
G1 X113.056 Y58.655 E2.69916
G1 X112.055 Y59.14 E2.77347
G1 X110.997 Y59.435 E2.84685
G1 X109.929 Y59.533 E2.9185
G1 X108.859 Y59.438 E2.99026
G1 X107.864 Y59.168 E3.05914
G1 X106.962 Y58.755 E3.12541
G1 X105.008 Y57.427 E3.28324
G1 X104.27 Y56.099 E3.38474
G1 X103.924 Y55.101 E3.4553
G1 X103.755 Y54.055 E3.52608
G1 X103.768 Y52.991 E3.59717
G1 X103.959 Y51.967 E3.66676
G1 X104.254 Y51.127 E3.72624
G1 X104.797 Y50.128 E3.8022
G1 X105.577 Y49.193 E3.88354
G1 X114.222 Y49.193 E4.46107
G1 X114.649 Y49.632 E4.50198
G1 X114.649 Y49.632 F7800
G1 X115.527 Y55.474
G1 F1800
G1 X115.527 Y52.631 E4.69191
G1 X115.3 Y51.719 E4.7547
G1 X114.932 Y50.909 E4.81414
G1 X114.932 Y56.243 E5.17048
G1 X114.531 Y56.976 E5.2263
G1 X114.337 Y57.122 E5.24252
G1 X114.337 Y50.005 E5.71797
G1 X114.019 Y49.676 E5.74854
G1 X113.742 Y49.676 E5.76705
G1 X113.742 Y57.569 E6.29435
G1 X113.147 Y57.994 E6.3432
G1 X113.147 Y49.676 E6.89889
G1 X112.552 Y49.676 E6.93864
G1 X112.552 Y58.363 E7.51898
G1 X111.957 Y58.652 E7.56317
G1 X111.957 Y49.676 E8.16282
G1 X111.361 Y49.676 E8.20264
G1 X111.361 Y58.833 E8.81438
G1 X110.766 Y58.972 E8.8552
G1 X110.766 Y49.676 E9.47622
G1 X110.171 Y49.676 E9.51597
G1 X110.171 Y59.027 E10.14067
G1 X109.576 Y59.018 E10.18042
G1 X109.576 Y49.676 E10.80452
G1 X108.981 Y49.676 E10.84427
G1 X108.981 Y58.965 E11.46483
G1 X108.386 Y58.81 E11.50591
G1 X108.386 Y49.676 E12.11611
G1 X107.791 Y49.676 E12.15586
G1 X107.791 Y58.604 E12.7523
G1 X107.195 Y58.331 E12.79609
G1 X107.195 Y49.676 E13.37429
G1 X106.6 Y49.676 E13.41404
G1 X106.6 Y57.939 E13.96605
G1 X106.005 Y57.468 E14.01675
G1 X106.005 Y49.676 E14.5373
G1 X105.793 Y49.676 E14.55146
G1 X105.41 Y50.142 E14.59176
G1 X105.41 Y57.107 E15.05706
G1 X104.815 Y56.088 E15.13589
G1 X104.815 Y50.6 E15.50252
G1 E13.50252 F2400
G92 E0
G1 X104.815 Y50.6 F7800
G1 X109.919 Y14.17
G1 E2 F2400
G1 F1800
G1 X110.48 Y14.196 E2.03752
G1 X111.549 Y14.415 E2.11042
G1 X112.591 Y14.837 E2.18552
G1 X113.54 Y15.442 E2.26071
G1 X114.364 Y16.208 E2.33587
G1 X115.035 Y17.111 E2.41103
G1 X115.531 Y18.12 E2.48614
G1 X115.837 Y19.203 E2.56132
G1 X115.94 Y20.323 E2.63646
G1 X115.84 Y21.443 E2.71158
G1 X115.538 Y22.526 E2.78669
G1 X115.044 Y23.537 E2.86186
G1 X114.385 Y24.429 E2.93595
G1 X113.509 Y25.239 E3.01566
G1 X106.029 Y25.239 E3.51536
G1 X105.338 Y24.649 E3.57606
G1 X104.628 Y23.775 E3.65129
G1 X104.115 Y22.835 E3.72283
G1 X103.898 Y22.255 E3.7642
G1 X103.646 Y21.163 E3.83907
G1 X103.595 Y20.043 E3.91397
G1 X103.748 Y18.933 E3.98883
G1 X103.905 Y18.385 E4.02691
G1 X104.116 Y17.824 E4.06695
G1 X104.626 Y16.889 E4.1381
G1 X105.333 Y16.018 E4.21304
G1 X106.186 Y15.289 E4.288
G1 X107.157 Y14.725 E4.36302
G1 X108.215 Y14.347 E4.43808
G1 X109.296 Y14.17 E4.51126
G1 X109.838 Y14.17 E4.54747
G1 X109.838 Y14.17 F7800
G1 X114.932 Y23.217
G1 F1800
G1 X114.932 Y17.994 E4.89639
G1 X114.622 Y17.363 E4.94336
G1 X114.337 Y16.98 E4.97525
G1 X114.337 Y23.683 E5.42305
G1 X113.742 Y24.377 E5.48412
G1 X113.742 Y16.288 E6.02451
G1 X113.147 Y15.763 E6.07752
G1 X113.147 Y24.757 E6.67837
G1 X112.552 Y24.757 E6.71812
G1 X112.552 Y15.384 E7.34429
G1 X112.37 Y15.268 E7.35871
G1 X111.957 Y15.1 E7.3885
G1 X111.957 Y24.757 E8.03364
G1 X111.361 Y24.757 E8.07346
G1 X111.361 Y14.869 E8.73403
G1 X110.766 Y14.747 E8.77461
G1 X110.766 Y24.757 E9.44333
G1 X110.171 Y24.757 E9.48308
G1 X110.171 Y14.664 E10.15735
G1 X109.576 Y14.652 E10.19711
G1 X109.576 Y24.757 E10.87218
G1 X108.981 Y24.757 E10.91193
G1 X108.981 Y14.71 E11.58312
G1 X108.386 Y14.807 E11.62339
G1 X108.386 Y24.757 E12.2881
G1 X107.791 Y24.757 E12.32785
G1 X107.791 Y15.011 E12.97894
G1 X107.195 Y15.26 E13.02209
G1 X107.195 Y24.757 E13.65654
G1 X106.6 Y24.757 E13.69629
G1 X106.6 Y15.606 E14.30763
G1 X106.005 Y16.078 E14.35837
G1 X106.005 Y24.585 E14.92668
G1 X105.41 Y23.973 E14.9837
G1 X105.41 Y16.688 E15.47038
G1 X104.815 Y17.55 E15.54035
G1 X104.815 Y23.111 E15.91185
G1 X104.554 Y22.634 E15.94817
G1 X104.22 Y21.622 E16.01936
G1 X104.22 Y18.234 E16.2457
G1 E14.2457 F2400
G92 E0
G1 X104.22 Y18.234 F7800
G1 X119.419 Y39.361
G1 E2 F2400
;TYPE:Perimeter
;WIDTH:0.461039
G1 F1800
G1 X119.335 Y39.73 E2.01872
;WIDTH:0.461164
G1 X119.039 Y40.629 E2.06556
;WIDTH:0.461299
G1 X118.655 Y41.495 E2.11246
;WIDTH:0.46144
G1 X118.187 Y42.318 E2.15935
;WIDTH:0.461659
G1 X117.645 Y43.084 E2.20585
;WIDTH:0.461904
G1 X117.031 Y43.79 E2.25224
;WIDTH:0.46214
G1 X116.352 Y44.432 E2.2986
;WIDTH:0.462368
G1 X115.612 Y45.004 E2.34503
;WIDTH:0.462587
G1 X114.82 Y45.501 E2.39147
G1 X113.931 Y45.942 E2.44076
;WIDTH:0.503072
G1 X113.758 Y46.028 E2.45133
;WIDTH:0.54365
G1 X113.586 Y46.114 E2.46283
;WIDTH:0.584228
G1 X113.413 Y46.2 E2.47536
;WIDTH:0.624806
G1 X113.241 Y46.286 E2.4888
;WIDTH:0.665384
G1 X113.068 Y46.372 E2.50328
;WIDTH:0.705737
G1 X113 Y46.412 E2.50959
;WIDTH:0.74609
G1 X112.933 Y46.453 E2.51627
;WIDTH:0.786444
G1 X112.865 Y46.493 E2.52338
G1 X112.505 Y46.561 E2.55637
;WIDTH:0.740697
G1 X112.146 Y46.629 E2.58719
;WIDTH:0.694951
G1 X111.67 Y46.684 E2.62488
;WIDTH:0.655757
G1 X111.193 Y46.74 E2.6603
;WIDTH:0.616563
G1 X110.239 Y46.78 E2.72606
;WIDTH:0.607843
G1 X109.3 Y46.75 E2.78974
;WIDTH:0.641542
G1 X108.832 Y46.701 E2.82361
;WIDTH:0.675242
G1 X108.365 Y46.652 E2.85939
;WIDTH:0.712056
G1 X108.069 Y46.599 E2.88368
;WIDTH:0.74887
G1 X107.774 Y46.547 E2.90925
;WIDTH:0.785684
G1 X107.479 Y46.494 E2.93621
G1 X107.352 Y46.427 E2.94913
;WIDTH:0.741267
G1 X107.226 Y46.36 E2.96118
;WIDTH:0.69685
G1 X107.099 Y46.292 E2.97254
;WIDTH:0.652434
G1 X106.972 Y46.225 E2.98307
;WIDTH:0.608017
G1 X106.846 Y46.158 E2.99275
;WIDTH:0.563601
G1 X106.719 Y46.091 E3.00169
;WIDTH:0.519184
G1 X106.592 Y46.024 E3.00984
;WIDTH:0.474768
G1 X105.939 Y45.716 E3.0468
;WIDTH:0.464873
G1 X105.141 Y45.269 E3.09249
;WIDTH:0.465018
G1 X104.389 Y44.747 E3.13823
;WIDTH:0.465148
G1 X103.691 Y44.155 E3.18398
G1 X103.064 Y43.51 E3.22894
;WIDTH:0.465365
G1 X102.309 Y42.546 E3.29018
;WIDTH:0.465454
G1 X101.982 Y42.018 E3.32125
G1 X101.558 Y41.207 E3.36703
;WIDTH:0.465584
G1 X101.214 Y40.359 E3.41282
G1 X100.953 Y39.482 E3.45861
G1 X100.78 Y38.599 E3.50364
G1 X100.712 Y38.085 E3.52958
;WIDTH:0.460877
G1 X100.673 Y37.279 E3.56949
;WIDTH:0.46567
G1 X100.72 Y36.257 E3.6207
;WIDTH:0.46104
G1 X100.843 Y35.424 E3.66236
;WIDTH:0.461215
G1 X101.063 Y34.518 E3.70851
;WIDTH:0.461408
G1 X101.372 Y33.638 E3.7547
;WIDTH:0.46171
G1 X101.76 Y32.803 E3.80033
;WIDTH:0.462041
G1 X102.224 Y32.014 E3.84573
;WIDTH:0.462359
G1 X102.762 Y31.274 E3.89114
;WIDTH:0.462662
G1 X103.369 Y30.588 E3.93664
;WIDTH:0.462949
G1 X104.039 Y29.964 E3.98215
;WIDTH:0.463224
G1 X104.765 Y29.408 E4.02764
;WIDTH:0.463483
G1 X105.542 Y28.924 E4.07321
;WIDTH:0.46361
G1 X106.413 Y28.493 E4.1216
;WIDTH:0.507798
G1 X106.594 Y28.402 E4.1328
;WIDTH:0.551987
G1 X106.775 Y28.311 E4.14512
;WIDTH:0.596176
G1 X106.956 Y28.22 E4.15856
;WIDTH:0.640365
G1 X107.137 Y28.129 E4.17311
;WIDTH:0.684554
G1 X107.318 Y28.038 E4.18878
;WIDTH:0.718264
G1 X107.371 Y28.005 E4.19387
;WIDTH:0.751974
G1 X107.425 Y27.972 E4.1993
;WIDTH:0.785685
G1 X107.479 Y27.939 E4.20499
G1 X107.855 Y27.869 E4.2394
;WIDTH:0.738637
G1 X108.23 Y27.799 E4.27148
;WIDTH:0.691589
G1 X108.699 Y27.745 E4.30841
;WIDTH:0.653619
G1 X109.168 Y27.691 E4.34311
;WIDTH:0.61565
G1 X109.334 Y27.681 E4.35454
;WIDTH:0.607101
G1 X110.554 Y27.659 E4.43714
;WIDTH:0.637332
G1 X111.538 Y27.725 E4.50762
;WIDTH:0.684632
G1 X112.012 Y27.794 E4.54468
;WIDTH:0.731933
G1 X112.485 Y27.862 E4.58447
;WIDTH:0.759985
G1 X112.666 Y27.899 E4.6005
;WIDTH:0.788038
G1 X112.846 Y27.937 E4.6171
G1 X112.953 Y27.994 E4.62804
;WIDTH:0.741143
G1 X113.059 Y28.052 E4.63824
;WIDTH:0.694249
G1 X113.166 Y28.109 E4.64776
;WIDTH:0.647354
G1 X113.272 Y28.167 E4.65655
;WIDTH:0.60046
G1 X113.379 Y28.224 E4.66466
;WIDTH:0.553566
G1 X113.658 Y28.362 E4.68365
;WIDTH:0.510008
G1 X113.937 Y28.5 E4.70095
;WIDTH:0.46645
G1 X114.406 Y28.713 E4.72678
;WIDTH:0.462642
G1 X115.075 Y29.079 E4.76466
;WIDTH:0.465484
G1 X115.617 Y29.438 E4.79718
G1 X116.356 Y30.011 E4.84396
;WIDTH:0.465611
G1 X117.034 Y30.654 E4.89072
G1 X117.646 Y31.36 E4.93748
G1 X118.185 Y32.123 E4.98423
;WIDTH:0.465745
G1 X118.647 Y32.936 E5.03104
G1 X119.027 Y33.789 E5.07779
G1 X119.321 Y34.677 E5.12462
G1 X119.449 Y35.166 E5.14992
;WIDTH:0.46095
G1 X119.591 Y35.974 E5.1905
;WIDTH:0.46582
G1 X119.672 Y37.044 E5.24423
;WIDTH:0.46081
G1 X119.651 Y37.865 E5.28484
;WIDTH:0.465814
G1 X119.524 Y38.895 E5.3368
;WIDTH:0.461039
G1 X119.432 Y39.302 E5.35744
G1 X119.432 Y39.302 F7800
G1 X118.967 Y39.246
;WIDTH:0.6
G1 F1800
G1 X118.88 Y39.626 E5.38348
G1 X118.597 Y40.481 E5.44365
G1 X118.23 Y41.303 E5.50379
G1 X117.783 Y42.085 E5.56396
G1 X117.266 Y42.812 E5.62356
G1 X116.682 Y43.481 E5.68289
G1 X116.034 Y44.09 E5.7423
G1 X115.33 Y44.632 E5.80165
G1 X114.576 Y45.102 E5.86101
G1 X113.728 Y45.521 E5.9242
G1 X112.874 Y45.838 E5.98506
G1 X112.002 Y46.064 E6.04524
G1 X111.112 Y46.202 E6.10541
G1 X110.213 Y46.251 E6.16556
G1 X109.327 Y46.211 E6.22481
G1 X108.449 Y46.085 E6.28407
G1 X107.632 Y45.884 E6.34028
G1 X106.752 Y45.578 E6.40252
G1 X106.139 Y45.293 E6.44768
G1 X105.382 Y44.867 E6.50571
G1 X104.668 Y44.371 E6.56379
G1 X104.006 Y43.808 E6.62185
G1 X103.411 Y43.196 E6.67887
G1 X102.683 Y42.268 E6.75767
G1 X102.384 Y41.777 E6.79607
G1 X101.981 Y41.007 E6.85413
G1 X101.655 Y40.202 E6.91215
G1 X101.407 Y39.369 E6.97021
G1 X101.243 Y38.531 E7.02725
G1 X101.158 Y37.651 E7.08631
G1 X101.158 Y36.782 E7.14436
G1 X101.241 Y35.917 E7.20241
G1 X101.319 Y35.415 E7.23635
G1 X101.516 Y34.631 E7.29035
G1 X101.811 Y33.795 E7.34957
G1 X102.181 Y33.003 E7.40797
G1 X102.624 Y32.254 E7.4661
G1 X103.137 Y31.552 E7.52419
G1 X103.715 Y30.902 E7.5823
G1 X104.352 Y30.31 E7.6404
G1 X105.044 Y29.783 E7.69851
G1 X105.783 Y29.325 E7.75659
G1 X106.613 Y28.915 E7.81843
G1 X107.512 Y28.582 E7.88248
G1 X108.372 Y28.363 E7.94177
G1 X109.347 Y28.22 E8.0076
G1 X110.567 Y28.191 E8.08913
G1 X111.483 Y28.277 E8.15059
G1 X112.366 Y28.452 E8.21073
G1 X113.228 Y28.714 E8.27092
G1 X113.755 Y28.932 E8.30902
G1 X114.602 Y29.351 E8.37215
G1 X115.353 Y29.825 E8.43148
G1 X116.054 Y30.37 E8.4908
G1 X116.699 Y30.981 E8.55015
G1 X117.28 Y31.652 E8.60945
G1 X117.792 Y32.377 E8.66874
G1 X118.23 Y33.149 E8.72804
G1 X118.591 Y33.961 E8.78741
G1 X118.87 Y34.803 E8.84667
G1 X119.065 Y35.669 E8.90597
G1 X119.174 Y36.551 E8.96534
G1 X119.196 Y37.438 E9.02461
G1 X119.13 Y38.323 E9.0839
G1 X119.063 Y38.826 E9.1178
G1 X118.98 Y39.187 E9.14255
G1 X118.98 Y39.187 F7800
G1 X118.446 Y39.113
;TYPE:External perimeter
G1 F1800
G1 X118.233 Y39.883 E9.19592
G1 X117.932 Y40.661 E9.25165
G1 X117.557 Y41.407 E9.30743
G1 X117.305 Y41.84 E9.3409
G1 X116.826 Y42.506 E9.3957
G1 X116.28 Y43.127 E9.45094
G1 X115.67 Y43.697 E9.50671
G1 X115.007 Y44.205 E9.56251
G1 X114.297 Y44.645 E9.61831
G1 X113.496 Y45.039 E9.67794
G1 X112.691 Y45.334 E9.73522
G1 X111.87 Y45.545 E9.79185
G1 X111.032 Y45.672 E9.84847
G1 X110.186 Y45.716 E9.90506
G1 X109.353 Y45.676 E9.96077
G1 X108.528 Y45.555 E10.01647
G1 X107.762 Y45.365 E10.06919
G1 X106.932 Y45.074 E10.12795
G1 X106.368 Y44.809 E10.16958
G1 X105.657 Y44.408 E10.22411
G1 X104.987 Y43.941 E10.27867
G1 X104.366 Y43.411 E10.33321
G1 X103.808 Y42.836 E10.38674
G1 X103.113 Y41.949 E10.46202
G1 X102.843 Y41.502 E10.49691
G1 X102.466 Y40.778 E10.55144
G1 X102.159 Y40.021 E10.60601
G1 X101.927 Y39.238 E10.66057
G1 X101.773 Y38.452 E10.71408
G1 X101.693 Y37.624 E10.76965
G1 X101.693 Y36.808 E10.82416
G1 X101.771 Y35.995 E10.87872
G1 X101.927 Y35.194 E10.93324
G1 X102.159 Y34.411 E10.9878
G1 X102.466 Y33.654 E11.04237
G1 X102.683 Y33.198 E11.07611
G1 X103.098 Y32.505 E11.13007
G1 X103.567 Y31.871 E11.18275
G1 X104.112 Y31.261 E11.2374
G1 X104.712 Y30.707 E11.29196
G1 X105.363 Y30.213 E11.34655
G1 X106.058 Y29.784 E11.40111
G1 X106.842 Y29.4 E11.45943
G1 X107.693 Y29.086 E11.52003
G1 X108.502 Y28.882 E11.57577
G1 X109.36 Y28.756 E11.6337
G1 X110.58 Y28.727 E11.71523
G1 X111.429 Y28.81 E11.77222
G1 X112.26 Y28.977 E11.82885
G1 X113.07 Y29.225 E11.88544
G1 X113.547 Y29.425 E11.91999
G1 X114.346 Y29.822 E11.97959
G1 X115.052 Y30.267 E12.03534
G1 X115.71 Y30.78 E12.09108
G1 X116.315 Y31.355 E12.14684
G1 X116.861 Y31.986 E12.20258
G1 X117.342 Y32.668 E12.25833
G1 X117.754 Y33.394 E12.3141
G1 X118.092 Y34.156 E12.36979
G1 X118.354 Y34.948 E12.42552
G1 X118.537 Y35.762 E12.48126
G1 X118.64 Y36.591 E12.53707
G1 X118.66 Y37.425 E12.5928
G1 X118.599 Y38.257 E12.64853
G1 X118.46 Y39.055 E12.70264
G1 X118.355 Y39.441 F7800
G1 E10.70264 F2400
G92 E0
G1 X113.532 Y46.72 F7800
G1 E2 F2400
;TYPE:Perimeter
;WIDTH:0.665384
G1 F1800
G1 X113.435 Y46.798 E2.00933
;WIDTH:0.705737
G1 X113.388 Y46.854 E2.01518
;WIDTH:0.74609
G1 X113.341 Y46.91 E2.0214
;WIDTH:0.786444
G1 X113.293 Y46.966 E2.02804
G1 X113.252 Y47.204 E2.04979
G1 X112.654 Y47.222 E2.10367
;WIDTH:0.750313
G1 X112.355 Y47.24 E2.1293
;WIDTH:0.714182
G1 X112.055 Y47.258 E2.15366
;WIDTH:0.678052
G1 X111.564 Y47.276 E2.19127
;WIDTH:0.643277
G1 X111.073 Y47.293 E2.22674
;WIDTH:0.608503
G1 X110.095 Y47.303 E2.29312
;WIDTH:0.61565
G1 X109.128 Y47.289 E2.35962
;WIDTH:0.653619
G1 X108.641 Y47.27 E2.39544
;WIDTH:0.691588
G1 X108.154 Y47.251 E2.43357
;WIDTH:0.738636
G1 X107.624 Y47.228 E2.47818
;WIDTH:0.785684
G1 X107.094 Y47.204 E2.52591
G1 X107.052 Y46.966 E2.54765
G1 X107.014 Y46.92 E2.55302
;WIDTH:0.751972
G1 X106.975 Y46.873 E2.55826
;WIDTH:0.718262
