; generated by PrusaSlicer 2.9.0 on 2025-01-07 at 08:28:20 UTC

; 

; external perimeters extrusion width = 0.23mm
; perimeters extrusion width = 0.23mm
; infill extrusion width = 0.23mm
; solid infill extrusion width = 0.23mm
; top infill extrusion width = 0.20mm
; support material extrusion width = 0.20mm
; first layer extrusion width = 0.40mm

;TYPE:Custom
G90 ; use absolute coordinates
M83 ; extruder relative mode
M104 S200 ; set temporary nozzle temp to prevent oozing during homing
M140 S60 ; set final bed temp
G4 S30 ; allow partial nozzle warmup
G28 ; home all axis
G1 Z50 F240
G1 X2.0 Y10 F3000
M104 S205 ; set final nozzle temp
M190 S60 ; wait for bed temp to stabilize
M109 S205 ; wait for nozzle temp to stabilize
G1 Z0.28 F240
G92 E0
G1 X2.0 Y140 E10 F1500 ; prime the nozzle
G1 X2.3 Y140 F5000
G92 E0
G1 X2.3 Y10 E10 F1200 ; prime the nozzle
G92 E0
G21 ; set units to millimeters
G90 ; use absolute coordinates
M83 ; use relative distances for extrusion
; Filament gcode
M107
;LAYER_CHANGE
;Z:0.2
;HEIGHT:0.2
G1 E-5 F3600
G1 Z.2 F7800
G1 X96.039 Y24.372
G1 Z.2
G1 E5 F2400
;TYPE:Skirt/Brim
;WIDTH:0.4
G1 F1800
G1 X97.865 Y17.179 E.24238
G1 X98.473 Y15.449 E.05989
G1 X98.954 Y14.451 E.03618
G1 X99.545 Y13.462 E.03763
G1 X100.196 Y12.566 E.03617
G1 X100.954 Y11.698 E.03764
G1 X101.755 Y10.933 E.03618
G1 X102.656 Y10.214 E.03765
G1 X103.58 Y9.604 E.03616
G1 X104.595 Y9.058 E.03764
G1 X105.613 Y8.623 E.03616
G1 X106.709 Y8.267 E.03764
G1 X107.789 Y8.02 E.03618
G1 X108.931 Y7.866 E.03764
G1 X110.704 Y7.846 E.05791
G1 X112.286 Y8.016 E.05197
G1 X113.409 Y8.273 E.03763
G1 X114.463 Y8.615 E.03619
G1 X115.522 Y9.068 E.03762
G1 X116.498 Y9.593 E.0362
G1 X117.459 Y10.227 E.0376
G1 X118.325 Y10.918 E.03618
G1 X119.158 Y11.714 E.03763
G1 X119.887 Y12.549 E.0362
G1 X120.564 Y13.481 E.03762
G1 X121.132 Y14.432 E.03618
G1 X121.632 Y15.47 E.03763
G1 X122.021 Y16.507 E.03617
G1 X122.328 Y17.617 E.03761
G1 X126.869 Y35.831 E.61309
G1 X127.28 Y38.178 E.07782
G1 X127.375 Y40.149 E.06445
G1 X127.215 Y42.358 E.07234
G1 X126.838 Y44.29 E.06429
G1 X121.838 Y62.719 E.62366
G1 X121.449 Y63.756 E.03617
G1 X120.949 Y64.794 E.03763
G1 X120.381 Y65.745 E.03618
G1 X119.704 Y66.677 E.03762
G1 X118.975 Y67.511 E.03618
G1 X118.142 Y68.307 E.03763
G1 X117.276 Y68.998 E.03618
G1 X116.315 Y69.633 E.03762
G1 X115.339 Y70.157 E.03618
G1 X114.28 Y70.61 E.03762
G1 X113.226 Y70.953 E.0362
G1 X112.103 Y71.209 E.03762
G1 X111.005 Y71.358 E.03619
G1 X109.854 Y71.409 E.03763
G1 X108.748 Y71.36 E.03616
G1 X107.606 Y71.205 E.03764
G1 X106.526 Y70.958 E.03618
G1 X105.43 Y70.602 E.03764
G1 X104.412 Y70.167 E.03616
G1 X103.397 Y69.621 E.03764
G1 X102.473 Y69.011 E.03616
G1 X101.572 Y68.293 E.03763
G1 X100.771 Y67.527 E.0362
G1 X100.013 Y66.659 E.03764
G1 X99.362 Y65.763 E.03617
G1 X98.771 Y64.774 E.03763
G1 X98.29 Y63.776 E.03618
G1 X97.683 Y62.051 E.05973
G1 X93.08 Y43.968 E.60943
G1 X92.737 Y42 E.06524
G1 X92.623 Y39.73 E.07423
G1 X92.734 Y38.017 E.05606
G1 X93.08 Y36.032 E.06581
G1 X96.032 Y24.401 E.39192
G1 E-3.5 F3600
;WIPE_START
G1 F6240
G1 X96.039 Y24.372 E-.01635
G1 X96.705 Y21.748 E-1.48365
;WIPE_END
G1 X110.427 Y14.018 F7800
G1 E5 F2400
;TYPE:Support material
G1 F1800
G1 X110.911 Y14.04 E.01582
G1 X112.034 Y14.296 E.03762
G1 X113.094 Y14.749 E.03765
G1 X114.055 Y15.384 E.03762
G1 X114.888 Y16.18 E.03763
G1 X115.565 Y17.112 E.03762
G1 X116.065 Y18.15 E.03763
G1 X116.372 Y19.261 E.03765
G1 X116.475 Y20.409 E.03764
G1 X116.372 Y21.556 E.03761
G1 X116.065 Y22.667 E.03765
G1 X115.565 Y23.705 E.03763
G1 X114.888 Y24.637 E.03762
G1 X114.055 Y25.433 E.03763
G1 X113.094 Y26.068 E.03762
G1 X112.034 Y26.521 E.03765
G1 X110.911 Y26.777 E.03762
G1 X109.76 Y26.829 E.03763
G1 X108.618 Y26.674 E.03764
G1 X107.522 Y26.318 E.03764
G1 X106.508 Y25.772 E.03761
G1 X105.607 Y25.054 E.03763
G1 X104.849 Y24.186 E.03764
G1 X104.258 Y23.197 E.03763
G1 X103.853 Y22.118 E.03764
G1 X103.647 Y20.985 E.03761
G1 X103.647 Y19.833 E.03762
G1 X103.853 Y18.699 E.03764
G1 X104.258 Y17.62 E.03764
G1 X104.849 Y16.631 E.03763
G1 X105.607 Y15.763 E.03764
G1 X106.508 Y15.045 E.03763
G1 X107.522 Y14.499 E.03761
G1 X108.618 Y14.143 E.03764
G1 X109.76 Y13.988 E.03764
G1 X110.373 Y14.016 E.02004
G1 X110.373 Y14.016 F7800
G1 X115.951 Y22.476
G1 F1800
G1 X115.951 Y18.945 E.11532
G1 X115.763 Y18.264 E.02307
G1 X115.555 Y17.83 E.01572
G1 X115.555 Y22.987 E.16843
G1 X115.158 Y23.719 E.0272
G1 X115.158 Y17.098 E.21624
G1 X114.761 Y16.552 E.02205
G1 X114.761 Y24.265 E.25191
G1 X114.364 Y24.693 E.01907
G1 X114.364 Y16.124 E.27987
G1 X113.968 Y15.745 E.0179
G1 X113.968 Y25.073 E.30466
G1 X113.571 Y25.368 E.01615
G1 X113.571 Y15.449 E.32396
G1 X113.174 Y15.187 E.01554
G1 X113.174 Y25.63 E.34107
G1 X112.777 Y25.854 E.01489
G1 X112.777 Y14.963 E.3557
G1 X112.381 Y14.794 E.01406
G1 X112.381 Y26.023 E.36674
G1 X111.984 Y26.193 E.0141
G1 X111.935 Y14.603 E.37854
G1 X111.587 Y14.524 E.01166
G1 X111.587 Y26.293 E.38438
G1 X111.19 Y26.384 E.0133
G1 X111.19 Y14.433 E.39032
G1 X110.794 Y14.356 E.01318
G1 X110.794 Y26.461 E.39535
G1 X110.397 Y26.479 E.01298
G1 X110.397 Y14.339 E.3965
G1 X110 Y14.321 E.01298
G1 X110 Y26.496 E.39764
G1 X109.603 Y26.483 E.01297
G1 X109.603 Y14.334 E.39679
G1 X109.206 Y14.388 E.01309
G1 X109.206 Y26.43 E.3933
G1 X108.81 Y26.376 E.01305
G1 X108.81 Y14.441 E.3898
G1 X108.413 Y14.548 E.01343
G1 X108.413 Y26.27 E.38285
G1 X108.016 Y26.141 E.01363
G1 X108.016 Y14.676 E.37445
G1 X107.619 Y14.812 E.01371
G1 X107.619 Y26.006 E.3656
G1 X107.223 Y25.792 E.0147
G1 X107.223 Y15.025 E.35165
G1 X106.826 Y15.239 E.01473
G1 X106.826 Y25.579 E.33771
G1 X106.429 Y25.299 E.01587
G1 X106.429 Y15.519 E.31942
G1 X106.032 Y15.835 E.01657
G1 X106.032 Y24.982 E.29874
G1 X105.636 Y24.598 E.01802
G1 X105.636 Y16.219 E.27366
G1 X105.239 Y16.673 E.0197
G1 X105.239 Y24.144 E.24401
G1 X104.842 Y23.548 E.02339
G1 X104.842 Y17.269 E.20507
G1 X104.445 Y18.035 E.02818
G1 X104.445 Y22.782 E.15504
G1 X104.164 Y22.033 E.02613
G1 X104.049 Y21.396 E.02114
G1 X104.049 Y18.635 E.09018
G1 E-3.5 F3600
;WIPE_START
G1 F6240
G1 X104.049 Y21.372 E-1.5
;WIPE_END
G1 X110.244 Y52.426 F7800
G1 E5 F2400
G1 F1800
G1 X110.728 Y52.448 E.01582
G1 X111.851 Y52.704 E.03762
G1 X112.911 Y53.157 E.03765
G1 X113.872 Y53.792 E.03762
G1 X114.705 Y54.588 E.03763
G1 X115.382 Y55.52 E.03762
G1 X115.882 Y56.558 E.03763
G1 X116.189 Y57.669 E.03765
G1 X116.292 Y58.817 E.03764
G1 X116.189 Y59.964 E.03761
G1 X115.882 Y61.075 E.03765
G1 X115.382 Y62.113 E.03763
G1 X114.705 Y63.045 E.03762
G1 X113.872 Y63.841 E.03763
G1 X112.911 Y64.476 E.03762
G1 X111.851 Y64.929 E.03765
G1 X110.728 Y65.185 E.03762
G1 X109.577 Y65.237 E.03763
G1 X108.435 Y65.082 E.03764
G1 X107.34 Y64.726 E.03761
G1 X106.325 Y64.18 E.03764
G1 X105.424 Y63.462 E.03763
G1 X104.666 Y62.594 E.03764
G1 X104.075 Y61.605 E.03763
G1 X103.67 Y60.526 E.03764
G1 X103.464 Y59.393 E.03761
G1 X103.464 Y58.241 E.03762
G1 X103.67 Y57.107 E.03764
G1 X104.075 Y56.028 E.03764
G1 X104.666 Y55.039 E.03763
G1 X105.424 Y54.171 E.03764
G1 X106.325 Y53.453 E.03763
G1 X107.339 Y52.907 E.03761
G1 X108.435 Y52.551 E.03764
G1 X109.577 Y52.396 E.03764
G1 X110.19 Y52.424 E.02004
G1 X110.19 Y52.424 F7800
G1 X115.951 Y60.221
G1 F1800
G1 X115.951 Y58.614 E.05249
G1 X115.871 Y57.727 E.02909
G1 X115.555 Y56.618 E.03766
G1 X115.555 Y61.015 E.14361
G1 X115.158 Y61.839 E.02987
G1 X115.158 Y55.795 E.1974
G1 X114.761 Y55.212 E.02304
G1 X114.761 Y62.422 E.23548
G1 X114.364 Y62.926 E.02095
G1 X114.364 Y54.707 E.26844
G1 X113.968 Y54.328 E.0179
G1 X113.968 Y63.306 E.29323
G1 X113.571 Y63.655 E.01726
G1 X113.571 Y53.978 E.31605
G1 X113.174 Y53.716 E.01554
G1 X113.174 Y63.917 E.33317
G1 X112.777 Y64.179 E.01554
G1 X112.777 Y53.454 E.35028
G1 X112.381 Y53.28 E.01413
G1 X112.381 Y64.353 E.36165
G1 X111.984 Y64.523 E.0141
G1 X111.984 Y53.11 E.37275
G1 X111.587 Y52.974 E.01371
G1 X111.587 Y64.66 E.38167
G1 X111.19 Y64.75 E.0133
G1 X111.19 Y52.883 E.38758
G1 X110.794 Y52.793 E.01326
G1 X110.794 Y64.841 E.39349
G1 X110.397 Y64.878 E.01302
G1 X110.397 Y52.755 E.39594
G1 X110 Y52.737 E.01298
G1 X110 Y64.896 E.39712
G1 X109.603 Y64.914 E.01298
G1 X109.603 Y52.719 E.39829
G1 X109.206 Y52.771 E.01308
G1 X109.206 Y64.863 E.39493
G1 X108.81 Y64.809 E.01305
G1 X108.81 Y52.825 E.3914
G1 X108.413 Y52.896 E.01317
G1 X108.413 Y64.737 E.38673
G1 X108.016 Y64.608 E.01363
G1 X108.016 Y53.025 E.37831
G1 X107.619 Y53.154 E.01363
G1 X107.619 Y64.479 E.36988
G1 X107.223 Y64.299 E.01421
G1 X107.223 Y53.335 E.35809
G1 X106.826 Y53.548 E.01471
G1 X106.826 Y64.085 E.34414
G1 X106.429 Y63.852 E.01503
G1 X106.429 Y53.781 E.32892
G1 X106.032 Y54.097 E.01657
G1 X106.032 Y63.536 E.30828
G1 X105.636 Y63.216 E.01663
G1 X105.636 Y54.418 E.28735
G1 X105.239 Y54.872 E.0197
G1 X105.239 Y62.762 E.25769
G1 X104.842 Y62.263 E.02083
G1 X104.842 Y55.371 E.2251
G1 X104.445 Y56.035 E.02527
G1 X104.445 Y61.599 E.18172
G1 X104.049 Y60.62 E.03449
G1 X104.049 Y56.556 E.13273
G1 E-3.5 F3600
;WIPE_START
G1 F6240
G1 X104.049 Y59.293 E-1.5
;WIPE_END
G1 X110.022 Y49.114 F7800
G1 E5 F2400
;TYPE:Perimeter
G1 F1800
G1 X109.998 Y49.115 E.00078
G1 X109.089 Y49.07 E.02972
G1 X108.19 Y48.934 E.0297
G1 X107.31 Y48.71 E.02966
G1 X106.456 Y48.399 E.02968
G1 X105.637 Y48.004 E.0297
G1 X104.862 Y47.53 E.02967
G1 X104.138 Y46.982 E.02966
G1 X103.487 Y46.378 E.029
G1 X103.156 Y46.022 E.01588
G1 X102.596 Y45.32 E.02933
G1 X102.104 Y44.556 E.02968
G1 X101.689 Y43.748 E.02967
G1 X101.357 Y42.902 E.02968
G1 X101.111 Y42.027 E.02969
G1 X100.954 Y41.132 E.02968
G1 X100.886 Y40.226 E.02967
G1 X100.909 Y39.318 E.02967
G1 X101.022 Y38.416 E.02969
G1 X101.224 Y37.53 E.02968
G1 X101.513 Y36.669 E.02966
G1 X101.887 Y35.841 E.02967
G1 X102.342 Y35.054 E.02969
G1 X102.872 Y34.316 E.02968
G1 X103.473 Y33.635 E.02966
G1 X104.139 Y33.017 E.02967
G1 X104.864 Y32.468 E.0297
G1 X105.639 Y31.995 E.02965
G1 X106.458 Y31.6 E.0297
G1 X107.312 Y31.29 E.02967
G1 X108.192 Y31.065 E.02967
G1 X109.091 Y30.93 E.02969
G1 X109.988 Y30.885 E.02933
G1 X110.891 Y30.929 E.02953
G1 X111.777 Y31.06 E.02925
G1 X112.644 Y31.277 E.02919
G1 X113.487 Y31.579 E.02925
G1 X114.295 Y31.961 E.02919
G1 X115.062 Y32.421 E.02921
G1 X115.781 Y32.954 E.02923
G1 X116.444 Y33.555 E.02923
G1 X117.044 Y34.217 E.02918
G1 X117.577 Y34.936 E.02923
G1 X118.037 Y35.703 E.02921
G1 X118.42 Y36.512 E.02923
G1 X118.721 Y37.354 E.0292
G1 X118.938 Y38.222 E.02922
G1 X119.07 Y39.107 E.02922
G1 X119.114 Y40 E.0292
G1 X119.07 Y40.893 E.0292
G1 X118.938 Y41.778 E.02922
G1 X118.721 Y42.646 E.02922
G1 X118.42 Y43.488 E.0292
G1 X118.037 Y44.297 E.02923
G1 X117.577 Y45.064 E.02921
G1 X117.044 Y45.783 E.02923
G1 X116.444 Y46.445 E.02918
G1 X115.781 Y47.046 E.02923
G1 X115.062 Y47.579 E.02923
G1 X114.295 Y48.039 E.02921
G1 X113.487 Y48.421 E.02919
G1 X112.644 Y48.723 E.02925
G1 X111.777 Y48.94 E.02919
G1 X110.892 Y49.071 E.02922
G1 X110.052 Y49.113 E.02747
G1 X110.052 Y49.113 F7800
G1 X110.013 Y48.757
G1 F1800
G1 X109.998 Y48.758 E.00049
G1 X109.124 Y48.714 E.02858
G1 X108.261 Y48.584 E.0285
G1 X107.415 Y48.368 E.02852
G1 X106.595 Y48.069 E.02851
G1 X105.808 Y47.69 E.02853
G1 X105.064 Y47.235 E.02848
G1 X104.368 Y46.708 E.02851
G1 X103.74 Y46.125 E.02799
G1 X103.427 Y45.789 E.015
G1 X102.887 Y45.111 E.02831
G1 X102.413 Y44.378 E.02851
G1 X102.015 Y43.601 E.02851
G1 X101.696 Y42.788 E.02852
G1 X101.46 Y41.948 E.0285
G1 X101.308 Y41.088 E.02852
G1 X101.243 Y40.217 E.02853
G1 X101.265 Y39.345 E.02849
G1 X101.374 Y38.478 E.02854
G1 X101.568 Y37.627 E.02851
G1 X101.846 Y36.8 E.0285
G1 X102.205 Y36.004 E.02852
G1 X102.642 Y35.248 E.02852
G1 X103.152 Y34.539 E.02852
G1 X103.729 Y33.885 E.02848
G1 X104.369 Y33.291 E.02852
G1 X105.065 Y32.764 E.02851
G1 X105.81 Y32.309 E.02851
G1 X106.597 Y31.93 E.02853
G1 X107.417 Y31.631 E.02851
G1 X108.263 Y31.416 E.02851
G1 X109.126 Y31.286 E.0285
G1 X109.989 Y31.242 E.02822
G1 X110.856 Y31.284 E.02835
G1 X111.707 Y31.411 E.0281
G1 X112.541 Y31.619 E.02807
G1 X113.35 Y31.909 E.02807
G1 X114.127 Y32.276 E.02807
G1 X114.864 Y32.718 E.02807
G1 X115.554 Y33.23 E.02806
G1 X116.191 Y33.807 E.02807
G1 X116.768 Y34.444 E.02807
G1 X117.28 Y35.134 E.02806
G1 X117.722 Y35.872 E.0281
G1 X118.089 Y36.649 E.02807
G1 X118.379 Y37.458 E.02807
G1 X118.588 Y38.291 E.02805
G1 X118.714 Y39.142 E.0281
G1 X118.756 Y40 E.02806
G1 X118.714 Y40.858 E.02806
G1 X118.588 Y41.709 E.0281
G1 X118.379 Y42.542 E.02805
G1 X118.089 Y43.351 E.02807
G1 X117.722 Y44.128 E.02807
G1 X117.28 Y44.866 E.0281
G1 X116.768 Y45.556 E.02806
G1 X116.191 Y46.193 E.02807
G1 X115.554 Y46.77 E.02807
G1 X114.864 Y47.282 E.02806
G1 X114.127 Y47.724 E.02807
G1 X113.35 Y48.091 E.02807
G1 X112.541 Y48.381 E.02807
G1 X111.707 Y48.589 E.02807
G1 X110.857 Y48.716 E.02807
G1 X110.043 Y48.756 E.02662
G1 X110.043 Y48.756 F7800
G1 X110.004 Y48.4
;TYPE:External perimeter
G1 F1800
G1 X109.998 Y48.4 E.0002
G1 X109.16 Y48.358 E.0274
G1 X108.332 Y48.233 E.02735
G1 X107.521 Y48.027 E.02733
G1 X106.734 Y47.74 E.02736
G1 X105.979 Y47.377 E.02736
G1 X105.265 Y46.94 E.02734
G1 X104.598 Y46.434 E.02734
G1 X103.992 Y45.872 E.02699
G1 X103.698 Y45.555 E.01412
G1 X103.177 Y44.903 E.02726
G1 X102.723 Y44.199 E.02736
G1 X102.341 Y43.454 E.02734
G1 X102.035 Y42.674 E.02737
G1 X101.808 Y41.868 E.02735
G1 X101.663 Y41.044 E.02733
G1 X101.601 Y40.208 E.02738
G1 X101.622 Y39.371 E.02735
G1 X101.726 Y38.54 E.02735
G1 X101.912 Y37.724 E.02733
G1 X102.179 Y36.93 E.02736
G1 X102.523 Y36.167 E.02734
G1 X102.942 Y35.442 E.02735
G1 X103.431 Y34.762 E.02736
G1 X103.985 Y34.134 E.02735
G1 X104.599 Y33.565 E.02734
G1 X105.267 Y33.059 E.02737
G1 X105.981 Y32.623 E.02732
G1 X106.736 Y32.259 E.02737
G1 X107.522 Y31.973 E.02732
G1 X108.334 Y31.766 E.02737
G1 X109.162 Y31.641 E.02735
G1 X109.989 Y31.6 E.02704
G1 X110.822 Y31.64 E.02724
G1 X111.637 Y31.761 E.02691
G1 X112.437 Y31.961 E.02693
G1 X113.213 Y32.239 E.02692
G1 X113.958 Y32.592 E.02693
G1 X114.665 Y33.015 E.02691
G1 X115.327 Y33.507 E.02694
G1 X115.938 Y34.06 E.02692
G1 X116.492 Y34.671 E.02694
G1 X116.983 Y35.333 E.02692
G1 X117.407 Y36.04 E.02693
G1 X117.759 Y36.785 E.02691
G1 X118.037 Y37.562 E.02695
G1 X118.237 Y38.361 E.0269
G1 X118.358 Y39.177 E.02694
G1 X118.399 Y40 E.02691
G1 X118.358 Y40.823 E.02691
G1 X118.237 Y41.639 E.02694
G1 X118.037 Y42.438 E.0269
G1 X117.759 Y43.215 E.02695
G1 X117.407 Y43.96 E.02691
G1 X116.983 Y44.667 E.02693
G1 X116.492 Y45.329 E.02692
G1 X115.938 Y45.94 E.02694
G1 X115.327 Y46.493 E.02692
G1 X114.665 Y46.985 E.02694
G1 X113.958 Y47.408 E.02691
G1 X113.213 Y47.761 E.02693
G1 X112.437 Y48.039 E.02692
G1 X111.637 Y48.239 E.02693
G1 X110.822 Y48.36 E.02691
G1 X110.034 Y48.398 E.02577
G1 X110.034 Y48.398 F7800
G1 X110 Y50.384
;TYPE:Perimeter
G1 F1800
G1 X106.412 Y50.384 E.11719
G1 X106.412 Y49.675 E.02316
G1 X105.407 Y49.204 E.03625
G1 X104.96 Y48.967 E.01652
G1 X104.102 Y48.428 E.03309
G1 X103.302 Y47.807 E.03308
G1 X102.567 Y47.111 E.03306
G1 X102.226 Y46.736 E.01655
G1 X101.601 Y45.939 E.03308
G1 X101.058 Y45.085 E.03305
G1 X100.601 Y44.181 E.03308
G1 X100.235 Y43.237 E.03307
G1 X100.088 Y42.752 E.01655
G1 X99.865 Y41.764 E.03308
G1 X99.741 Y40.759 E.03307
G1 X99.716 Y39.747 E.03306
G1 X99.791 Y38.737 E.03308
G1 X99.964 Y37.739 E.03308
G1 X100.235 Y36.763 E.03308
G1 X100.601 Y35.819 E.03307
G1 X101.058 Y34.915 E.03308
G1 X101.601 Y34.061 E.03305
G1 X102.226 Y33.264 E.03308
G1 X102.926 Y32.532 E.03308
G1 X103.694 Y31.873 E.03305
G1 X104.102 Y31.572 E.01656
G1 X104.96 Y31.033 E.03309
G1 X105.407 Y30.796 E.01652
G1 X106.412 Y30.325 E.03625
G1 X106.412 Y29.616 E.02316
G1 X113.584 Y29.616 E.23424
G1 X113.584 Y30.325 E.02316
G1 X114.58 Y30.791 E.03591
G1 X115.446 Y31.275 E.0324
G1 X116.26 Y31.84 E.03236
G1 X117.017 Y32.481 E.0324
G1 X117.708 Y33.192 E.03238
G1 X118.328 Y33.966 E.03239
G1 X118.87 Y34.796 E.03238
G1 X119.33 Y35.675 E.0324
G1 X119.703 Y36.594 E.03239
G1 X119.986 Y37.544 E.03237
G1 X120.176 Y38.517 E.03238
G1 X120.272 Y39.504 E.03239
G1 X120.272 Y40.496 E.0324
G1 X120.176 Y41.483 E.03239
G1 X119.986 Y42.456 E.03238
G1 X119.703 Y43.406 E.03237
G1 X119.33 Y44.325 E.03239
G1 X118.87 Y45.204 E.0324
G1 X118.328 Y46.034 E.03238
