; generated by PrusaSlicer 2.9.0 on 2025-01-08 at 16:17:17 UTC

; 

; external perimeters extrusion width = 0.42mm
; perimeters extrusion width = 0.44mm
; infill extrusion width = 0.44mm
; solid infill extrusion width = 0.44mm
; top infill extrusion width = 0.40mm
; support material extrusion width = 0.36mm
; first layer extrusion width = 0.42mm

M201 X500 Y500 Z100 E5000 ; sets maximum accelerations, mm/sec^2
M203 X500 Y500 Z10 E60 ; sets maximum feedrates, mm / sec
M204 S500 T1000 ; sets acceleration (S) and retract acceleration (R), mm/sec^2
M205 X8.00 Y8.00 Z0.40 E5.00 ; sets the jerk limits, mm/sec
M205 S0 T0 ; sets the minimum extruding and travel feed rate, mm/sec

; printing object C_v11.stl id:0 copy 0
; stop printing object C_v11.stl id:0 copy 0

;TYPE:Custom
G90 ; use absolute coordinates
M83 ; extruder relative mode
M104 S150 ; set temporary nozzle temp to prevent oozing during homing
M140 S60 ; set final bed temp
G4 S30 ; allow partial nozzle warmup
G28 ; home all axis
G1 Z50 F240
G1 X2.0 Y10 F3000
M104 S205 ; set final nozzle temp
M190 S60 ; wait for bed temp to stabilize
M109 S205 ; wait for nozzle temp to stabilize
G1 Z0.28 F240
G92 E0
G1 X2.0 Y140 E10 F1500 ; prime the nozzle
G1 X2.3 Y140 F5000
G92 E0
G1 X2.3 Y10 E10 F1200 ; prime the nozzle
G92 E0
G21 ; set units to millimeters
G90 ; use absolute coordinates
M83 ; use relative distances for extrusion
; Filament gcode
M107
;LAYER_CHANGE
;Z:0.2
;HEIGHT:0.2
G1 E-5 F3600
G1 Z.2 F9000
G1 X105.698 Y34.351
G1 Z.2
G1 E5 F2400
M204 S500
;TYPE:Skirt/Brim
;WIDTH:0.42
G1 F1200
G1 X106.457 Y32.414 E.06523
G1 X107.045 Y31.431 E.03591
G1 X108.134 Y30.106 E.05378
G1 X109.442 Y28.997 E.05377
G1 X109.919 Y28.683 E.01791
G1 X111.453 Y27.915 E.05379
G1 X112.542 Y27.561 E.0359
G1 X114.235 Y27.28 E.05381
G1 X115.95 Y27.306 E.05378
G1 X117.632 Y27.638 E.05376
G1 X119.229 Y28.264 E.05378
G1 X119.732 Y28.535 E.01791
G1 X120.688 Y29.166 E.03592
G1 X121.963 Y30.314 E.05379
G1 X122.339 Y30.744 E.01791
G1 X123.305 Y32.162 E.0538
G1 X126.189 Y38.826 E.22767
G1 X129.557 Y50.054 E.36754
G1 X129.942 Y51.983 E.06168
G1 X130.058 Y54.103 E.06657
G1 X129.942 Y55.673 E.04936
G1 X129.522 Y57.73 E.06583
G1 X126.212 Y68.901 E.36531
G1 X124.52 Y73.979 E.16782
G1 X123.87 Y75.387 E.04862
G1 X123.577 Y75.878 E.01793
G1 X122.527 Y77.234 E.05377
G1 X121.7 Y78.025 E.03588
G1 X120.297 Y79.011 E.05377
G1 X119.794 Y79.282 E.01791
G1 X118.198 Y79.908 E.05375
G1 X117.082 Y80.163 E.03589
G1 X115.372 Y80.291 E.05377
G1 X113.667 Y80.112 E.05375
G1 X113.11 Y79.985 E.01791
G1 X112.021 Y79.631 E.0359
G1 X110.488 Y78.864 E.05375
G1 X110.011 Y78.55 E.01791
G1 X108.702 Y77.441 E.05379
G1 X107.613 Y76.117 E.05375
G1 X107.025 Y75.134 E.03591
G1 X106.295 Y73.306 E.06172
G1 X101.723 Y57.348 E.52048
G1 X101.424 Y55.826 E.04863
G1 X101.285 Y53.751 E.06521
G1 X101.424 Y51.833 E.0603
G1 X101.703 Y50.382 E.04633
G1 X105.684 Y34.409 E.51614
G1 E-3.5 F3600
;WIPE_START
G1 F7200
G1 X105.698 Y34.351 E-.02834
G1 X106.457 Y32.414 E-.98819
G1 X106.979 Y31.541 E-.48347
;WIPE_END
; printing object C_v11.stl id:0 copy 0
G1 X115.344 Y30.471 F9000
G1 E5 F2400
;TYPE:Support material
G1 F1200
G1 X115.806 Y30.492 E.0145
G1 X116.923 Y30.746 E.03592
G1 X117.976 Y31.196 E.0359
G1 X118.931 Y31.827 E.03589
G1 X119.759 Y32.619 E.03593
G1 X120.432 Y33.545 E.03589
G1 X120.929 Y34.577 E.03591
G1 X121.234 Y35.68 E.03588
G1 X121.336 Y36.821 E.03592
G1 X121.174 Y38.177 E.04282
G1 X122.081 Y38.531 E.03053
G1 X123.135 Y39.743 E.05036
G1 X123.494 Y41.318 E.05065
G1 X123.078 Y42.846 E.04965
G1 X121.965 Y44.011 E.05052
G1 X120.635 Y43.278 E.04762
G1 X120.635 Y42.338 E.02947
G1 X120.364 Y42.068 E.01199
G1 X110.981 Y42.068 E.2942
G1 X110.711 Y42.338 E.01197
G1 X110.711 Y43.278 E.02947
G1 X109.638 Y43.852 E.03815
G1 X108.961 Y43.326 E.02688
G1 X108.34 Y41.987 E.04628
G1 X108.313 Y40.557 E.04484
G1 X109.018 Y39.122 E.05013
G1 X108.792 Y38.52 E.02016
G1 X108.588 Y37.394 E.03588
G1 X108.588 Y36.248 E.03593
G1 X108.792 Y35.122 E.03588
G1 X109.194 Y34.05 E.0359
G1 X109.782 Y33.067 E.03591
G1 X110.535 Y32.204 E.03591
G1 X111.43 Y31.49 E.0359
G1 X112.439 Y30.948 E.03591
G1 X113.528 Y30.594 E.0359
G1 X114.663 Y30.44 E.03591
G1 X115.288 Y30.468 E.01962
G1 X115.288 Y30.468 F9000
G1 X122.794 Y42.908
G1 F1200
G1 X122.794 Y39.868 E.09532
G1 X122.375 Y39.386 E.02002
G1 X122.375 Y43.118 E.11701
G1 X121.956 Y43.546 E.01878
G1 X121.956 Y38.904 E.14555
G1 X121.537 Y38.683 E.01485
G1 X121.537 Y43.357 E.14655
G1 X121.118 Y43.135 E.01487
G1 X121.118 Y38.52 E.1447
G1 X120.765 Y38.383 E.01187
G1 X120.898 Y37.901 E.01568
G1 X120.996 Y36.821 E.034
G1 X120.898 Y35.741 E.034
G1 X120.699 Y35.018 E.02351
G1 X120.699 Y41.922 E.21647
G1 X120.505 Y41.728 E.0086
G1 X120.28 Y41.728 E.00705
G1 X120.28 Y34.011 E.24196
G1 X119.861 Y33.336 E.02491
G1 X119.861 Y41.728 E.26313
G1 X119.442 Y41.728 E.01314
G1 X119.442 Y32.785 E.2804
G1 X119.023 Y32.384 E.01818
G1 X119.023 Y41.728 E.29297
G1 X118.604 Y41.728 E.01314
G1 X118.604 Y32.018 E.30445
G1 X118.185 Y31.741 E.01575
G1 X118.185 Y41.728 E.31314
G1 X117.766 Y41.728 E.01314
G1 X117.766 Y31.476 E.32144
G1 X117.347 Y31.297 E.01429
G1 X117.347 Y41.728 E.32706
G1 X116.928 Y41.728 E.01314
G1 X116.928 Y31.118 E.33267
G1 X116.818 Y31.07 E.00376
G1 X116.509 Y31 E.00993
G1 X116.509 Y41.728 E.33637
G1 X116.09 Y41.728 E.01314
G1 X116.09 Y30.904 E.33938
G1 X115.671 Y30.825 E.01337
G1 X115.671 Y41.728 E.34186
G1 X115.252 Y41.728 E.01314
G1 X115.252 Y30.806 E.34245
G1 X114.833 Y30.788 E.01315
G1 X114.833 Y41.728 E.34302
G1 X114.414 Y41.728 E.01314
G1 X114.414 Y30.816 E.34214
G1 X113.995 Y30.873 E.01326
G1 X113.995 Y41.728 E.34035
G1 X113.576 Y41.728 E.01314
G1 X113.576 Y30.935 E.33841
G1 X113.157 Y31.071 E.01381
G1 X113.157 Y41.728 E.33414
G1 X112.738 Y41.728 E.01314
G1 X112.738 Y31.207 E.32988
G1 X112.319 Y31.397 E.01443
G1 X112.319 Y41.728 E.32392
G1 X111.9 Y41.728 E.01314
G1 X111.9 Y31.623 E.31684
G1 X111.481 Y31.884 E.01548
G1 X111.481 Y41.728 E.30865
G1 X111.062 Y41.728 E.01314
G1 X111.062 Y32.218 E.29818
G1 X110.643 Y32.596 E.01769
G1 X110.643 Y41.926 E.29254
G1 X110.371 Y42.198 E.01206
G1 X110.371 Y43.062 E.02709
G1 X110.224 Y43.137 E.00517
G1 X110.224 Y33.076 E.31546
G1 X109.805 Y33.689 E.02328
G1 X109.805 Y43.358 E.30316
G1 X109.664 Y43.442 E.00515
G1 X109.386 Y43.227 E.01102
G1 X109.386 Y34.504 E.2735
G1 X109.121 Y35.212 E.0237
G1 X108.967 Y36.056 E.0269
G1 X108.967 Y38.505 E.07679
G1 X108.967 Y38.505 F9000
G1 X108.967 Y42.937
G1 F1200
G1 X108.967 Y39.609 E.10435
G1 E-3.5 F3600
;WIPE_START
G1 F7200
G1 X108.967 Y42.767 E-1.5
;WIPE_END
G1 X122.038 Y63.631 F9000
G1 E5 F2400
G1 F1200
G1 X123.112 Y64.764 E.04895
G1 X123.539 Y66.32 E.05059
G1 X123.187 Y67.893 E.05054
G1 X122.137 Y69.113 E.05047
G1 X121.716 Y69.278 E.01418
G1 X121.903 Y70.727 E.04581
G1 X121.8 Y71.868 E.03592
G1 X121.495 Y72.971 E.03588
G1 X120.998 Y74.003 E.03591
G1 X120.325 Y74.929 E.03589
G1 X119.497 Y75.72 E.0359
G1 X118.541 Y76.35 E.0359
G1 X117.489 Y76.8 E.03588
G1 X116.373 Y77.054 E.03589
G1 X115.229 Y77.106 E.03591
G1 X114.095 Y76.952 E.03588
G1 X113.006 Y76.598 E.0359
G1 X111.998 Y76.056 E.03588
G1 X111.103 Y75.343 E.03588
G1 X110.35 Y74.481 E.03589
G1 X109.762 Y73.498 E.03591
G1 X109.359 Y72.426 E.03591
G1 X109.154 Y71.3 E.03589
G1 X109.154 Y70.155 E.0359
G1 X109.438 Y68.814 E.04298
G1 X109.055 Y68.526 E.01502
G1 X108.408 Y67.24 E.04514
G1 X108.359 Y65.971 E.03982
G1 X108.586 Y65.193 E.02541
G1 X109.078 Y64.281 E.03249
G1 X109.67 Y63.823 E.02347
G1 X110.711 Y64.378 E.03699
G1 X110.711 Y65.317 E.02944
G1 X110.981 Y65.588 E.01199
G1 X120.364 Y65.588 E.2942
G1 X120.635 Y65.317 E.01202
G1 X120.635 Y64.378 E.02944
G1 X121.987 Y63.63 E.04845
G1 X121.987 Y63.63 F9000
G1 X122.794 Y68.09
G1 F1200
G1 X122.794 Y64.921 E.09936
G1 X122.375 Y64.48 E.01907
G1 X122.375 Y68.317 E.12031
G1 X121.956 Y68.803 E.02012
G1 X121.956 Y64.051 E.149
G1 X121.537 Y64.299 E.01527
G1 X121.537 Y68.984 E.14689
G1 X121.307 Y69.074 E.00774
G1 X121.466 Y69.647 E.01864
G1 X121.537 Y71.009 E.04276
G1 X121.465 Y71.807 E.02512
G1 X121.118 Y72.972 E.03811
G1 X121.118 Y64.521 E.26498
G1 X120.974 Y64.593 E.00505
G1 X120.974 Y65.458 E.02712
G1 X120.699 Y65.733 E.01219
G1 X120.699 Y73.837 E.2541
G1 X120.28 Y74.413 E.02233
G1 X120.28 Y65.927 E.26607
G1 X119.861 Y65.927 E.01314
G1 X119.861 Y74.902 E.2814
G1 X119.442 Y75.303 E.01818
G1 X119.442 Y65.927 E.29398
G1 X119.023 Y65.927 E.01314
G1 X119.023 Y75.626 E.30411
G1 X118.604 Y75.902 E.01573
G1 X118.604 Y65.927 E.31276
G1 X118.185 Y65.927 E.01314
G1 X118.185 Y76.133 E.32
G1 X117.766 Y76.312 E.01429
G1 X117.766 Y65.927 E.32561
G1 X117.347 Y65.927 E.01314
G1 X117.347 Y76.484 E.33101
G1 X116.928 Y76.58 E.01348
G1 X116.928 Y65.927 E.33402
G1 X116.509 Y65.927 E.01314
G1 X116.509 Y76.675 E.337
G1 X116.09 Y76.727 E.01324
G1 X116.09 Y65.927 E.33863
G1 X115.671 Y65.927 E.01314
G1 X115.671 Y76.746 E.33922
G1 X115.252 Y76.765 E.01315
G1 X115.252 Y65.927 E.33982
G1 X114.833 Y65.927 E.01314
G1 X114.833 Y76.71 E.33809
G1 X114.414 Y76.653 E.01326
G1 X114.414 Y65.927 E.33631
G1 X113.995 Y65.927 E.01314
G1 X113.995 Y76.563 E.33348
G1 X113.576 Y76.427 E.01381
G1 X113.576 Y65.927 E.32922
G1 X113.157 Y65.927 E.01314
G1 X113.157 Y76.291 E.32496
G1 X112.738 Y76.069 E.01487
G1 X112.738 Y65.927 E.318
G1 X112.319 Y65.927 E.01314
G1 X112.319 Y75.844 E.31094
G1 X111.9 Y75.544 E.01616
G1 X111.9 Y65.927 E.30153
G1 X111.481 Y65.927 E.01314
G1 X111.481 Y75.21 E.29106
G1 X111.062 Y74.781 E.0188
G1 X111.062 Y65.927 E.27761
G1 X110.841 Y65.927 E.00693
G1 X110.643 Y65.73 E.00876
G1 X110.643 Y74.301 E.26874
G1 X110.224 Y73.61 E.02534
G1 X110.224 Y64.519 E.28504
G1 X109.805 Y64.297 E.01487
G1 X109.805 Y73.131 E.27698
G1 X109.805 Y73.131 F9000
G1 X109.386 Y68.563
G1 F1200
G1 X109.386 Y64.471 E.1283
G1 X108.967 Y65.201 E.02639
G1 X108.967 Y67.975 E.08698
G1 E-3.5 F3600
;WIPE_START
G1 F7200
G1 X108.967 Y65.201 E-1.31765
G1 X109.158 Y64.868 E-.18235
;WIPE_END
G1 X106.819 Y51.115 F9000
G1 E5 F2400
;TYPE:Perimeter
;WIDTH:0.419999
G1 F1200
G1 X107.097 Y50.326 E.02623
G1 X107.475 Y49.517 E.028
G1 X107.928 Y48.748 E.02798
G1 X108.453 Y48.027 E.02796
G1 X109.045 Y47.36 E.02796
G1 X109.699 Y46.753 E.02798
G1 X110.408 Y46.211 E.02798
G1 X111.165 Y45.74 E.02795
G1 X112.067 Y45.296 E.03152
G1 X112.94 Y44.977 E.02914
G1 X113.82 Y44.752 E.02848
G1 X114.835 Y44.604 E.03216
G1 X116.068 Y44.574 E.03867
G1 X117.009 Y44.661 E.02963
G1 X117.915 Y44.84 E.02896
G1 X118.799 Y45.108 E.02896
G1 X119.792 Y45.534 E.03388
G1 X120.464 Y45.9 E.02399
G1 X120.982 Y46.248 E.01957
G1 X121.701 Y46.806 E.02854
G1 X122.362 Y47.433 E.02857
G1 X122.958 Y48.121 E.02854
G1 X123.484 Y48.865 E.02857
G1 X123.934 Y49.657 E.02856
G1 X124.303 Y50.489 E.02854
G1 X124.59 Y51.353 E.02855
G1 X124.79 Y52.241 E.02854
G1 X124.901 Y53.145 E.02856
G1 X124.934 Y53.645 E.01571
G1 X124.913 Y54.474 E.026
G1 X124.803 Y55.391 E.02896
G1 X124.602 Y56.292 E.02894
G1 X124.312 Y57.169 E.02896
G1 X123.937 Y58.012 E.02893
G1 X123.48 Y58.814 E.02894
G1 X122.951 Y59.556 E.02857
G1 X122.353 Y60.244 E.02858
G1 X121.69 Y60.869 E.02857
G1 X120.968 Y61.426 E.02859
G1 X120.196 Y61.909 E.02855
G1 X119.314 Y62.345 E.03085
G1 X118.448 Y62.665 E.02895
G1 X117.554 Y62.898 E.02897
G1 X116.642 Y63.04 E.02894
G1 X115.72 Y63.091 E.02895
G1 X114.811 Y63.051 E.02853
G1 X113.911 Y62.922 E.02851
G1 X113.028 Y62.705 E.02851
G1 X112.171 Y62.403 E.02849
G1 X111.542 Y62.111 E.02174
G1 X110.764 Y61.675 E.02796
G1 X110.032 Y61.166 E.02795
G1 X109.352 Y60.589 E.02796
G1 X108.731 Y59.949 E.02796
G1 X107.997 Y59.012 E.03732
G1 X107.688 Y58.506 E.01859
G1 X107.275 Y57.716 E.02795
G1 X106.94 Y56.89 E.02795
G1 X106.686 Y56.036 E.02794
G1 X106.515 Y55.161 E.02795
G1 X106.429 Y54.273 E.02797
G1 X106.429 Y53.382 E.02794
G1 X106.459 Y52.874 E.01596
G1 X106.579 Y52.066 E.02561
G1 X106.795 Y51.183 E.0285
G1 X106.799 Y51.171 E.0004
G1 X106.799 Y51.171 F9000
G1 X107.164 Y51.272
G1 F1200
G1 X107.177 Y51.222 E.00162
G1 X107.452 Y50.452 E.02564
G1 X107.816 Y49.678 E.02682
G1 X108.252 Y48.942 E.02682
G1 X108.756 Y48.252 E.02679
G1 X109.325 Y47.613 E.02683
G1 X109.952 Y47.032 E.0268
G1 X110.632 Y46.514 E.0268
G1 X111.359 Y46.064 E.02681
G1 X112.228 Y45.637 E.03036
G1 X113.067 Y45.332 E.02799
G1 X113.912 Y45.117 E.02734
G1 X114.844 Y44.981 E.02953
G1 X116.077 Y44.951 E.03867
G1 X116.971 Y45.037 E.02816
G1 X117.84 Y45.21 E.02778
G1 X118.687 Y45.468 E.02776
G1 X119.505 Y45.81 E.0278
G1 X120.031 Y46.094 E.01874
G1 X120.77 Y46.559 E.02738
G1 X121.459 Y47.095 E.02737
G1 X122.092 Y47.696 E.02737
G1 X122.663 Y48.356 E.02736
G1 X123.167 Y49.069 E.02738
G1 X123.598 Y49.829 E.02739
G1 X123.952 Y50.626 E.02734
G1 X124.227 Y51.455 E.02739
G1 X124.418 Y52.307 E.02738
G1 X124.525 Y53.173 E.02736
G1 X124.547 Y54.046 E.02738
G1 X124.483 Y54.917 E.02738
G1 X124.333 Y55.777 E.02737
G1 X124.1 Y56.618 E.02736
G1 X123.934 Y57.101 E.01601
G1 X123.591 Y57.861 E.02614
G1 X123.153 Y58.625 E.02761
G1 X122.645 Y59.336 E.0274
G1 X122.07 Y59.994 E.0274
G1 X121.433 Y60.592 E.02739
G1 X120.74 Y61.125 E.02741
G1 X119.999 Y61.587 E.02738
G1 X119.15 Y62.006 E.02969
G1 X118.319 Y62.311 E.02775
G1 X117.461 Y62.532 E.02778
G1 X116.586 Y62.667 E.02776
G1 X115.701 Y62.714 E.02779
G1 X114.829 Y62.674 E.02737
G1 X113.966 Y62.549 E.02734
G1 X113.12 Y62.34 E.02732
G1 X112.298 Y62.048 E.02735
G1 X111.703 Y61.77 E.02059
G1 X110.958 Y61.351 E.0268
G1 X110.257 Y60.863 E.02678
G1 X109.606 Y60.309 E.0268
G1 X109.011 Y59.696 E.02679
G1 X108.299 Y58.788 E.03618
G1 X108.011 Y58.312 E.01744
G1 X107.616 Y57.555 E.02677
G1 X107.295 Y56.763 E.02679
G1 X107.052 Y55.944 E.02679
G1 X106.888 Y55.105 E.0268
G1 X106.806 Y54.255 E.02677
G1 X106.806 Y53.401 E.02678
G1 X106.888 Y52.55 E.02681
G1 X107.052 Y51.711 E.0268
G1 X107.149 Y51.33 E.01233
G1 X107.149 Y51.33 F9000
G1 X107.527 Y51.435
;TYPE:External perimeter
G1 F1200
G1 X107.65 Y51.019 E.0136
G1 X107.957 Y50.262 E.02561
G1 X108.172 Y49.808 E.01575
G1 X108.592 Y49.108 E.0256
G1 X109.059 Y48.476 E.02464
G1 X109.604 Y47.866 E.02565
G1 X110.205 Y47.311 E.02565
G1 X110.857 Y46.817 E.02565
G1 X111.553 Y46.387 E.02565
G1 X112.389 Y45.978 E.02918
G1 X113.194 Y45.687 E.02684
G1 X114.004 Y45.483 E.02619
G1 X114.853 Y45.358 E.02691
G1 X116.086 Y45.328 E.03867
G1 X116.934 Y45.412 E.02672
G1 X117.765 Y45.579 E.02658
G1 X118.576 Y45.828 E.0266
G1 X119.358 Y46.157 E.0266
G1 X119.851 Y46.425 E.01759
G1 X120.557 Y46.871 E.02618
G1 X121.217 Y47.384 E.02621
G1 X121.822 Y47.959 E.02617
G1 X122.368 Y48.591 E.02619
G1 X122.85 Y49.274 E.02621
G1 X123.262 Y50.001 E.0262
G1 X123.601 Y50.764 E.02618
G1 X123.864 Y51.557 E.0262
G1 X124.047 Y52.372 E.02619
G1 X124.149 Y53.201 E.02619
G1 X124.17 Y54.036 E.02619
G1 X124.108 Y54.87 E.02622
G1 X123.965 Y55.693 E.02619
G1 X123.742 Y56.498 E.02619
G1 X123.441 Y57.277 E.02618
G1 X123.065 Y58.023 E.02619
G1 X122.618 Y58.728 E.02617
G1 X122.324 Y59.136 E.01577
G1 X121.787 Y59.745 E.02546
G1 X121.177 Y60.316 E.0262
G1 X120.513 Y60.824 E.02621
G1 X119.802 Y61.265 E.02623
G1 X118.987 Y61.666 E.02848
G1 X118.19 Y61.957 E.0266
G1 X117.368 Y62.167 E.0266
G1 X116.529 Y62.294 E.02661
G1 X115.682 Y62.338 E.02659
G1 X114.848 Y62.297 E.02618
G1 X114.022 Y62.176 E.02618
G1 X113.211 Y61.974 E.02621
G1 X112.425 Y61.693 E.02617
G1 X111.864 Y61.429 E.01944
G1 X111.152 Y61.028 E.02562
G1 X110.481 Y60.56 E.02565
G1 X109.859 Y60.03 E.02562
G1 X109.29 Y59.443 E.02563
G1 X108.602 Y58.563 E.03502
G1 X108.335 Y58.118 E.01627
G1 X107.957 Y57.394 E.02561
G1 X107.65 Y56.636 E.02564
G1 X107.417 Y55.852 E.02564
G1 X107.261 Y55.05 E.02562
G1 X107.183 Y54.236 E.02564
G1 X107.183 Y53.419 E.02562
G1 X107.261 Y52.605 E.02564
G1 X107.417 Y51.803 E.02562
G1 X107.51 Y51.492 E.01018
G1 E-3.5 F3600
;WIPE_START
G1 F7200
G1 X107.527 Y51.435 E-.02825
G1 X107.65 Y51.019 E-.20606
G1 X107.957 Y50.262 E-.38802
G1 X108.172 Y49.808 E-.23861
G1 X108.592 Y49.108 E-.38776
G1 X108.906 Y48.683 E-.2513
;WIPE_END
G1 X112.069 Y44.145 F9000
G1 E5 F2400
;TYPE:Perimeter
G1 F1200
G1 X112.137 Y44.071 E.00315
G1 X112.237 Y43.594 E.01528
G1 X119.109 Y43.594 E.21547
G1 X119.185 Y44.019 E.01354
G1 X119.342 Y44.27 E.00928
G1 X119.651 Y44.502 E.01212
