; generated by PrusaSlicer 2.9.0 on 2025-01-06 at 19:59:17 UTC

; 

; external perimeters extrusion width = 0.23mm
; perimeters extrusion width = 0.23mm
; infill extrusion width = 0.23mm
; solid infill extrusion width = 0.23mm
; top infill extrusion width = 0.20mm
; support material extrusion width = 0.20mm
; first layer extrusion width = 0.04mm

;TYPE:Custom
G90 ; use absolute coordinates
M83 ; extruder relative mode
M104 S150 ; set temporary nozzle temp to prevent oozing during homing
M140 S60 ; set final bed temp
G4 S30 ; allow partial nozzle warmup
G28 ; home all axis
G1 Z50 F240
G1 X2.0 Y10 F3000
M104 S205 ; set final nozzle temp
M190 S60 ; wait for bed temp to stabilize
M109 S205 ; wait for nozzle temp to stabilize
G1 Z0.28 F240
G92 E0
G1 X2.0 Y140 E10 F1500 ; prime the nozzle
G1 X2.3 Y140 F5000
G92 E0
G1 X2.3 Y10 E10 F1200 ; prime the nozzle
G92 E0
G21 ; set units to millimeters
G90 ; use absolute coordinates
M83 ; use relative distances for extrusion
; Filament gcode
M107
;LAYER_CHANGE
;Z:0.02
;HEIGHT:0.02
G1 E-5 F3600
G1 Z.02 F7800
G1 X96.427 Y22.333
G1 Z.02
G1 E5 F2400
;TYPE:Skirt/Brim
;WIDTH:0.04
G1 F1800
G1 X97.335 Y18.414 E.00131
G1 X97.979 Y16.55 E.00064
G1 X98.447 Y15.578 E.00035
G1 X99.055 Y14.561 E.00039
G1 X99.689 Y13.688 E.00035
G1 X100.468 Y12.796 E.00039
G1 X101.248 Y12.051 E.00035
G1 X102.174 Y11.312 E.00039
G1 X103.075 Y10.718 E.00035
G1 X104.118 Y10.156 E.00039
G1 X105.11 Y9.732 E.00035
G1 X106.237 Y9.366 E.00039
G1 X107.288 Y9.126 E.00035
G1 X108.462 Y8.967 E.00039
G1 X109.54 Y8.919 E.00035
G1 X110.723 Y8.972 E.00039
G1 X111.792 Y9.117 E.00035
G1 X112.947 Y9.38 E.00039
G1 X113.973 Y9.714 E.00035
G1 X115.062 Y10.179 E.00039
G1 X116.012 Y10.691 E.00035
G1 X117.001 Y11.343 E.00039
G1 X117.844 Y12.016 E.00035
G1 X118.701 Y12.834 E.00039
G1 X119.41 Y13.647 E.00035
G1 X120.107 Y14.605 E.00039
G1 X120.66 Y15.531 E.00035
G1 X121.542 Y17.569 E.00073
G1 X126.63 Y35.536 E.0061
G1 X127.106 Y38.033 E.00083
G1 X127.216 Y40.276 E.00073
G1 X127.069 Y42.261 E.00065
G1 X126.63 Y44.464 E.00073
G1 X122.177 Y61.623 E.00579
G1 X121.798 Y62.633 E.00035
G1 X121.284 Y63.7 E.00039
G1 X120.73 Y64.626 E.00035
G1 X120.034 Y65.584 E.00039
G1 X119.324 Y66.397 E.00035
G1 X118.468 Y67.215 E.00039
G1 X117.624 Y67.888 E.00035
G1 X116.636 Y68.541 E.00039
G1 X115.686 Y69.052 E.00035
G1 X114.597 Y69.518 E.00039
G1 X113.571 Y69.851 E.00035
G1 X112.416 Y70.115 E.00039
G1 X111.347 Y70.259 E.00035
G1 X110.163 Y70.312 E.00039
G1 X109.085 Y70.264 E.00035
G1 X107.911 Y70.105 E.00039
G1 X106.86 Y69.865 E.00035
G1 X105.734 Y69.499 E.00039
G1 X104.741 Y69.075 E.00035
G1 X103.698 Y68.514 E.00039
G1 X102.798 Y67.919 E.00035
G1 X101.872 Y67.181 E.00039
G1 X101.092 Y66.435 E.00035
G1 X100.313 Y65.543 E.00039
G1 X99.678 Y64.67 E.00035
G1 X99.071 Y63.653 E.00039
G1 X98.603 Y62.682 E.00035
G1 X98.026 Y61.08 E.00056
G1 X93.318 Y44.252 E.00571
G1 X92.88 Y41.803 E.00081
G1 X92.786 Y39.855 E.00064
G1 X92.879 Y38.199 E.00054
G1 X93.132 Y36.559 E.00054
G1 X96.42 Y22.362 E.00476
G1 E-3.5 F3600
;WIPE_START
G1 F6240
G1 X96.427 Y22.333 E-.01635
G1 X97.038 Y19.696 E-1.48365
;WIPE_END
G1 X110.088 Y14.967 F7800
G1 E5 F2400
;TYPE:Support material
G1 F1800
G1 X110.453 Y14.984 E.00012
G1 X111.608 Y15.247 E.00039
G1 X112.697 Y15.713 E.00039
G1 X113.686 Y16.365 E.00039
G1 X114.542 Y17.184 E.00039
G1 X115.238 Y18.142 E.00039
G1 X115.752 Y19.21 E.00039
G1 X116.067 Y20.352 E.00039
G1 X116.173 Y21.531 E.00039
G1 X116.067 Y22.711 E.00039
G1 X115.752 Y23.853 E.00039
G1 X115.238 Y24.92 E.00039
G1 X114.542 Y25.878 E.00039
G1 X113.686 Y26.697 E.00039
G1 X112.697 Y27.35 E.00039
G1 X111.608 Y27.815 E.00039
G1 X110.453 Y28.079 E.00039
G1 X109.27 Y28.132 E.00039
G1 X108.096 Y27.973 E.00039
G1 X106.969 Y27.607 E.00039
G1 X105.926 Y27.045 E.00039
G1 X105 Y26.307 E.00039
G1 X104.221 Y25.415 E.00039
G1 X103.613 Y24.398 E.00039
G1 X103.197 Y23.289 E.00039
G1 X102.986 Y22.124 E.00039
G1 X102.986 Y20.939 E.00039
G1 X103.197 Y19.773 E.00039
G1 X103.613 Y18.664 E.00039
G1 X104.221 Y17.648 E.00039
G1 X105 Y16.756 E.00039
G1 X105.926 Y16.017 E.00039
G1 X106.969 Y15.456 E.00039
G1 X108.096 Y15.09 E.00039
G1 X109.27 Y14.931 E.00039
G1 X110.083 Y14.967 E.00027
G1 X110.083 Y14.967 F7800
G1 X116.11 Y22.057
G1 F1800
G1 X116.07 Y20.744 E.00043
G1 X116.031 Y22.723 E.00065
G1 X115.991 Y20.196 E.00083
G1 X115.951 Y23.01 E.00092
G1 X115.912 Y19.908 E.00101
G1 X115.872 Y23.298 E.00111
G1 X115.832 Y19.621 E.0012
G1 X115.793 Y23.585 E.00129
G1 X115.753 Y19.333 E.00139
G1 X115.713 Y23.86 E.00148
G1 X115.674 Y19.121 E.00155
G1 X115.634 Y24.024 E.0016
G1 X115.594 Y18.956 E.00166
G1 X115.555 Y24.189 E.00171
G1 X115.515 Y18.791 E.00176
G1 X115.475 Y24.354 E.00182
G1 X115.435 Y18.626 E.00187
G1 X115.396 Y24.519 E.00192
G1 X115.356 Y18.461 E.00198
G1 X115.316 Y24.683 E.00203
G1 X115.277 Y18.297 E.00209
G1 X115.237 Y24.848 E.00214
G1 X115.197 Y18.141 E.00219
G1 X115.158 Y24.976 E.00223
G1 X115.118 Y18.032 E.00227
G1 X115.078 Y25.085 E.0023
G1 X115.039 Y17.923 E.00234
G1 X114.999 Y25.194 E.00237
G1 X114.959 Y17.813 E.00241
G1 X114.92 Y25.304 E.00245
G1 X114.88 Y17.704 E.00248
G1 X114.84 Y25.413 E.00252
G1 X114.801 Y17.595 E.00255
G1 X114.761 Y25.522 E.00259
G1 X114.721 Y17.486 E.00262
G1 X114.682 Y25.631 E.00266
G1 X114.642 Y17.377 E.0027
G1 X114.602 Y25.741 E.00273
G1 X114.563 Y17.267 E.00277
G1 X114.523 Y25.85 E.0028
G1 X114.483 Y17.173 E.00283
G1 X114.444 Y25.928 E.00286
G1 X114.404 Y17.097 E.00288
G1 X114.364 Y26.004 E.00291
G1 X114.325 Y17.021 E.00293
G1 X114.285 Y26.08 E.00296
G1 X114.245 Y16.945 E.00298
G1 X114.206 Y26.156 E.00301
G1 X114.166 Y16.869 E.00303
G1 X114.126 Y26.231 E.00306
G1 X114.087 Y16.793 E.00308
G1 X114.047 Y26.307 E.00311
G1 X114.007 Y16.717 E.00313
G1 X113.968 Y26.383 E.00316
G1 X113.928 Y16.641 E.00318
G1 X113.888 Y26.459 E.00321
G1 X113.848 Y16.566 E.00323
G1 X113.809 Y26.535 E.00326
G1 X113.769 Y16.49 E.00328
G1 X113.729 Y26.611 E.00331
G1 X113.69 Y16.414 E.00333
G1 X113.65 Y26.682 E.00335
G1 X113.61 Y16.354 E.00337
G1 X113.571 Y26.734 E.00339
G1 X113.531 Y16.302 E.00341
G1 X113.491 Y26.787 E.00342
G1 X113.452 Y16.25 E.00344
G1 X113.412 Y26.839 E.00346
G1 X113.372 Y16.197 E.00348
G1 X113.333 Y26.891 E.00349
G1 X113.293 Y16.145 E.00351
G1 X113.253 Y26.944 E.00353
G1 X113.214 Y16.092 E.00354
G1 X113.174 Y26.996 E.00356
G1 X113.134 Y16.04 E.00358
G1 X113.095 Y27.049 E.0036
G1 X113.055 Y15.988 E.00361
G1 X113.015 Y27.101 E.00363
G1 X112.976 Y15.935 E.00365
G1 X112.936 Y27.153 E.00366
G1 X112.896 Y15.883 E.00368
G1 X112.857 Y27.206 E.0037
G1 X112.817 Y15.831 E.00372
G1 X112.777 Y27.258 E.00373
G1 X112.738 Y15.778 E.00375
G1 X112.698 Y27.311 E.00377
G1 X112.658 Y15.731 E.00378
G1 X112.619 Y27.348 E.00379
G1 X112.579 Y15.697 E.00381
G1 X112.539 Y27.382 E.00382
G1 X112.5 Y15.663 E.00383
G1 X112.46 Y27.416 E.00384
G1 X112.42 Y15.63 E.00385
G1 X112.381 Y27.45 E.00386
G1 X112.341 Y15.596 E.00387
G1 X112.301 Y27.484 E.00388
G1 X112.261 Y15.562 E.00389
G1 X112.222 Y27.518 E.0039
G1 X112.182 Y15.528 E.00392
G1 X112.142 Y27.552 E.00393
G1 X112.103 Y15.494 E.00394
G1 X112.063 Y27.586 E.00395
G1 X112.023 Y15.46 E.00396
G1 X111.984 Y27.619 E.00397
G1 X111.944 Y15.426 E.00398
G1 X111.904 Y27.653 E.00399
G1 X111.865 Y15.392 E.004
G1 X111.825 Y27.687 E.00402
G1 X111.785 Y15.358 E.00403
G1 X111.746 Y27.721 E.00404
G1 X111.706 Y15.324 E.00405
G1 X111.666 Y27.755 E.00406
G1 X111.627 Y15.29 E.00407
G1 X111.587 Y27.787 E.00408
G1 X111.547 Y15.267 E.00409
G1 X111.508 Y27.805 E.00409
G1 X111.468 Y15.248 E.0041
G1 X111.428 Y27.823 E.00411
G1 X111.389 Y15.23 E.00411
G1 X111.349 Y27.841 E.00412
G1 X111.309 Y15.212 E.00412
G1 X111.27 Y27.859 E.00413
G1 X111.23 Y15.194 E.00414
G1 X111.19 Y27.877 E.00414
G1 X111.151 Y15.176 E.00415
G1 X111.111 Y27.896 E.00415
G1 X111.071 Y15.158 E.00416
G1 X111.032 Y27.914 E.00417
G1 X110.992 Y15.14 E.00417
G1 X110.952 Y27.932 E.00418
G1 X110.913 Y15.122 E.00418
G1 X110.873 Y27.95 E.00419
G1 X110.833 Y15.104 E.0042
G1 X110.794 Y27.968 E.0042
G1 X110.754 Y15.085 E.00421
G1 X110.714 Y27.986 E.00421
G1 X110.674 Y15.067 E.00422
G1 X110.635 Y28.004 E.00423
G1 X110.595 Y15.049 E.00423
G1 X110.555 Y28.022 E.00424
G1 X110.516 Y15.031 E.00424
G1 X110.476 Y28.04 E.00425
G1 X110.436 Y15.015 E.00425
G1 X110.397 Y28.049 E.00426
G1 X110.357 Y15.012 E.00426
G1 X110.317 Y28.053 E.00426
G1 X110.278 Y15.008 E.00426
G1 X110.238 Y28.056 E.00426
G1 X110.198 Y15.005 E.00426
G1 X110.159 Y28.06 E.00426
G1 X110.119 Y15.001 E.00427
G1 X110.079 Y28.063 E.00427
G1 X110.04 Y14.997 E.00427
G1 X110 Y28.067 E.00427
G1 X109.96 Y14.994 E.00427
G1 X109.921 Y28.07 E.00427
G1 X109.881 Y14.99 E.00427
G1 X109.841 Y28.074 E.00427
G1 X109.802 Y14.987 E.00427
G1 X109.762 Y28.078 E.00428
G1 X109.722 Y14.983 E.00428
G1 X109.683 Y28.081 E.00428
G1 X109.643 Y14.98 E.00428
G1 X109.603 Y28.085 E.00428
G1 X109.564 Y14.976 E.00428
G1 X109.524 Y28.088 E.00428
G1 X109.484 Y14.972 E.00428
G1 X109.445 Y28.092 E.00429
G1 X109.405 Y14.969 E.00429
G1 X109.365 Y28.095 E.00429
G1 X109.326 Y14.965 E.00429
G1 X109.286 Y28.099 E.00429
G1 X109.271 Y14.963 E.00429
G1 X109.246 Y28.096 E.00429
G1 X109.207 Y14.972 E.00429
G1 X109.167 Y28.085 E.00428
G1 X109.127 Y14.982 E.00428
G1 X109.087 Y28.075 E.00428
G1 X109.048 Y14.993 E.00427
G1 X109.008 Y28.064 E.00427
G1 X108.968 Y15.004 E.00427
G1 X108.929 Y28.053 E.00426
G1 X108.889 Y15.015 E.00426
G1 X108.849 Y28.042 E.00425
G1 X108.81 Y15.025 E.00425
G1 X108.77 Y28.032 E.00425
G1 X108.73 Y15.036 E.00424
G1 X108.691 Y28.021 E.00424
G1 X108.651 Y15.047 E.00424
G1 X108.611 Y28.01 E.00423
G1 X108.572 Y15.058 E.00423
G1 X108.532 Y27.999 E.00423
G1 X108.492 Y15.068 E.00422
G1 X108.453 Y27.989 E.00422
G1 X108.413 Y15.079 E.00422
G1 X108.373 Y27.978 E.00421
G1 X108.334 Y15.09 E.00421
G1 X108.294 Y27.967 E.00421
G1 X108.254 Y15.101 E.0042
G1 X108.215 Y27.956 E.0042
G1 X108.175 Y15.111 E.0042
G1 X108.135 Y27.946 E.00419
G1 X108.096 Y15.124 E.00419
G1 X108.056 Y27.926 E.00418
G1 X108.016 Y15.149 E.00417
G1 X107.977 Y27.9 E.00416
G1 X107.937 Y15.175 E.00416
G1 X107.897 Y27.874 E.00415
G1 X107.858 Y15.201 E.00414
G1 X107.818 Y27.849 E.00413
G1 X107.778 Y15.227 E.00412
G1 X107.739 Y27.823 E.00411
G1 X107.699 Y15.253 E.00411
G1 X107.659 Y27.797 E.0041
G1 X107.62 Y15.278 E.00409
G1 X107.58 Y27.771 E.00408
G1 X107.54 Y15.304 E.00407
G1 X107.5 Y27.746 E.00406
G1 X107.461 Y15.33 E.00406
G1 X107.421 Y27.72 E.00405
G1 X107.381 Y15.356 E.00404
G1 X107.342 Y27.694 E.00403
G1 X107.302 Y15.381 E.00402
G1 X107.262 Y27.668 E.00401
G1 X107.223 Y15.407 E.004
G1 X107.183 Y27.642 E.004
G1 X107.143 Y15.433 E.00399
G1 X107.104 Y27.617 E.00398
G1 X107.064 Y15.459 E.00397
G1 X107.024 Y27.591 E.00396
G1 X106.985 Y15.485 E.00395
G1 X106.945 Y27.557 E.00394
G1 X106.905 Y15.527 E.00393
G1 X106.866 Y27.514 E.00392
G1 X106.826 Y15.569 E.0039
G1 X106.786 Y27.472 E.00389
G1 X106.747 Y15.612 E.00387
G1 X106.707 Y27.429 E.00386
G1 X106.667 Y15.655 E.00385
G1 X106.628 Y27.386 E.00383
G1 X106.588 Y15.697 E.00382
G1 X106.548 Y27.344 E.0038
G1 X106.509 Y15.74 E.00379
G1 X106.469 Y27.301 E.00378
G1 X106.429 Y15.783 E.00376
G1 X106.39 Y27.258 E.00375
G1 X106.35 Y15.826 E.00373
G1 X106.31 Y27.216 E.00372
G1 X106.271 Y15.868 E.00371
G1 X106.231 Y27.173 E.00369
G1 X106.191 Y15.911 E.00368
G1 X106.152 Y27.13 E.00366
G1 X106.112 Y15.954 E.00365
G1 X106.072 Y27.087 E.00364
G1 X106.033 Y15.996 E.00362
G1 X105.993 Y27.045 E.00361
G1 X105.953 Y16.039 E.00359
G1 X105.913 Y26.994 E.00358
G1 X105.874 Y16.1 E.00356
G1 X105.834 Y26.931 E.00354
G1 X105.794 Y16.163 E.00352
G1 X105.755 Y26.868 E.0035
G1 X105.715 Y16.227 E.00348
G1 X105.675 Y26.804 E.00345
G1 X105.636 Y16.29 E.00343
G1 X105.596 Y26.741 E.00341
G1 X105.556 Y16.353 E.00339
G1 X105.517 Y26.678 E.00337
G1 X105.477 Y16.416 E.00335
G1 X105.437 Y26.614 E.00333
G1 X105.398 Y16.48 E.00331
G1 X105.358 Y26.551 E.00329
G1 X105.318 Y16.543 E.00327
G1 X105.279 Y26.488 E.00325
G1 X105.239 Y16.606 E.00323
G1 X105.199 Y26.425 E.00321
G1 X105.16 Y16.67 E.00319
G1 X105.12 Y26.361 E.00317
G1 X105.08 Y16.733 E.00314
G1 X105.041 Y26.298 E.00312
G1 X105.001 Y16.804 E.0031
G1 X104.961 Y26.214 E.00307
G1 X104.922 Y16.894 E.00304
G1 X104.882 Y26.123 E.00301
G1 X104.842 Y16.985 E.00298
G1 X104.803 Y26.032 E.00295
G1 X104.763 Y17.076 E.00293
G1 X104.723 Y25.941 E.0029
G1 X104.684 Y17.167 E.00287
G1 X104.644 Y25.85 E.00284
G1 X104.604 Y17.258 E.00281
G1 X104.565 Y25.759 E.00278
G1 X104.525 Y17.348 E.00275
G1 X104.485 Y25.669 E.00272
G1 X104.446 Y17.439 E.00269
G1 X104.406 Y25.578 E.00266
G1 X104.366 Y17.53 E.00263
G1 X104.326 Y25.487 E.0026
G1 X104.287 Y17.621 E.00257
G1 X104.247 Y25.396 E.00254
G1 X104.207 Y17.733 E.0025
G1 X104.168 Y25.263 E.00246
G1 X104.128 Y17.866 E.00242
G1 X104.088 Y25.131 E.00237
G1 X104.049 Y17.998 E.00233
G1 X104.009 Y24.998 E.00229
G1 X103.969 Y18.131 E.00224
G1 X103.93 Y24.865 E.0022
G1 X103.89 Y18.264 E.00216
G1 X103.85 Y24.732 E.00211
G1 X103.811 Y18.397 E.00207
G1 X103.771 Y24.599 E.00203
G1 X103.731 Y18.53 E.00198
G1 X103.692 Y24.467 E.00194
G1 X103.652 Y18.662 E.0019
G1 X103.612 Y24.304 E.00184
G1 X103.573 Y18.864 E.00178
G1 X103.533 Y24.093 E.00171
G1 X103.493 Y19.076 E.00164
G1 X103.454 Y23.881 E.00157
G1 X103.414 Y19.287 E.0015
G1 X103.374 Y23.67 E.00143
G1 X103.335 Y19.498 E.00136
G1 X103.295 Y23.458 E.00129
G1 X103.255 Y19.71 E.00122
G1 X103.216 Y23.211 E.00114
G1 X103.176 Y20.07 E.00103
G1 X103.136 Y22.774 E.00088
G1 X103.097 Y20.507 E.00074
G1 X103.057 Y22.427 E.00063
G1 E-3.5 F3600
;WIPE_START
G1 F6240
G1 X103.097 Y20.507 E-1.05254
G1 X103.111 Y21.323 E-.44746
;WIPE_END
G1 X110.712 Y51.136 F7800
G1 E5 F2400
G1 F1800
G1 X111.076 Y51.153 E.00012
G1 X112.231 Y51.416 E.00039
G1 X113.321 Y51.882 E.00039
G1 X114.309 Y52.534 E.00039
G1 X115.165 Y53.353 E.00039
G1 X115.862 Y54.311 E.00039
G1 X116.376 Y55.379 E.00039
G1 X116.691 Y56.52 E.00039
G1 X116.797 Y57.7 E.00039
G1 X116.691 Y58.88 E.00039
G1 X116.376 Y60.022 E.00039
G1 X115.862 Y61.089 E.00039
G1 X115.165 Y62.047 E.00039
G1 X114.309 Y62.866 E.00039
G1 X113.321 Y63.518 E.00039
G1 X112.231 Y63.984 E.00039
G1 X111.077 Y64.248 E.00039
G1 X109.893 Y64.301 E.00039
G1 X108.72 Y64.142 E.00039
G1 X107.593 Y63.776 E.00039
G1 X106.55 Y63.214 E.00039
G1 X105.624 Y62.476 E.00039
G1 X104.844 Y61.584 E.00039
G1 X104.237 Y60.567 E.00039
G1 X103.821 Y59.458 E.00039
G1 X103.609 Y58.292 E.00039
G1 X103.609 Y57.108 E.00039
G1 X103.821 Y55.942 E.00039
G1 X104.237 Y54.833 E.00039
G1 X104.844 Y53.816 E.00039
G1 X105.624 Y52.924 E.00039
G1 X106.55 Y52.186 E.00039
G1 X107.593 Y51.625 E.00039
G1 X108.72 Y51.259 E.00039
G1 X109.893 Y51.1 E.00039
G1 X110.706 Y51.136 E.00027
G1 X110.706 Y51.136 F7800
G1 X116.745 Y58.1
G1 F1800
G1 X116.705 Y57.038 E.00035
G1 X116.665 Y58.803 E.00058
G1 X116.626 Y56.406 E.00078
G1 X116.586 Y59.138 E.00089
G1 X116.546 Y56.118 E.00099
G1 X116.507 Y59.426 E.00108
G1 X116.467 Y55.83 E.00117
G1 X116.427 Y59.714 E.00127
G1 X116.388 Y55.543 E.00136
G1 X116.348 Y60.001 E.00146
G1 X116.308 Y55.313 E.00153
G1 X116.269 Y60.17 E.00159
G1 X116.229 Y55.148 E.00164
G1 X116.189 Y60.335 E.00169
G1 X116.15 Y54.983 E.00175
G1 X116.11 Y60.499 E.0018
G1 X116.07 Y54.819 E.00186
G1 X116.031 Y60.664 E.00191
G1 X115.991 Y54.654 E.00196
G1 X115.951 Y60.829 E.00202
G1 X115.912 Y54.489 E.00207
G1 X115.872 Y60.994 E.00212
G1 X115.832 Y54.325 E.00218
G1 X115.793 Y61.129 E.00222
G1 X115.753 Y54.216 E.00226
G1 X115.713 Y61.239 E.00229
G1 X115.674 Y54.107 E.00233
G1 X115.634 Y61.348 E.00236
G1 X115.594 Y53.998 E.0024
G1 X115.554 Y61.457 E.00244
G1 X115.515 Y53.889 E.00247
G1 X115.475 Y61.566 E.00251
G1 X115.435 Y53.779 E.00254
G1 X115.396 Y61.676 E.00258
G1 X115.356 Y53.67 E.00261
G1 X115.316 Y61.785 E.00265
G1 X115.277 Y53.561 E.00269
G1 X115.237 Y61.894 E.00272
G1 X115.197 Y53.452 E.00276
G1 X115.158 Y62.003 E.00279
G1 X115.118 Y53.352 E.00283
G1 X115.078 Y62.086 E.00285
G1 X115.039 Y53.276 E.00288
G1 X114.999 Y62.162 E.0029
G1 X114.959 Y53.2 E.00293
G1 X114.92 Y62.238 E.00295
G1 X114.88 Y53.125 E.00298
G1 X114.84 Y62.314 E.003
G1 X114.801 Y53.049 E.00303
G1 X114.761 Y62.39 E.00305
G1 X114.721 Y52.973 E.00308
G1 X114.682 Y62.465 E.0031
