; generated by PrusaSlicer 2.9.0 on 2025-01-08 at 13:28:07 UTC

; 

; external perimeters extrusion width = 0.23mm
; perimeters extrusion width = 0.23mm
; infill extrusion width = 0.23mm
; solid infill extrusion width = 0.23mm
; top infill extrusion width = 0.20mm
; support material extrusion width = 0.20mm
; first layer extrusion width = 0.32mm

;TYPE:Custom
G90 ; use absolute coordinates
M83 ; extruder relative mode
M104 S200 ; set temporary nozzle temp to prevent oozing during homing
M140 S60 ; set final bed temp
G4 S30 ; allow partial nozzle warmup
G28 ; home all axis
G1 Z50 F240
G1 X2.0 Y10 F3000
M104 S205 ; set final nozzle temp
M190 S60 ; wait for bed temp to stabilize
M109 S205 ; wait for nozzle temp to stabilize
G1 Z0.28 F240
G92 E0
G1 X2.0 Y140 E10 F1500 ; prime the nozzle
G1 X2.3 Y140 F5000
G92 E0
G1 X2.3 Y10 E10 F1200 ; prime the nozzle
G92 E0
G21 ; set units to millimeters
G90 ; use absolute coordinates
M83 ; use relative distances for extrusion
; Filament gcode
M107
;LAYER_CHANGE
;Z:0.16
;HEIGHT:0.16
G1 E-5 F3600
G1 Z.16 F7800
G1 X97.851 Y34.081
G1 Z.16
G1 E5 F2400
;TYPE:Skirt/Brim
;WIDTH:0.32
G1 F1800
G1 X98.422 Y32.493 E.03207
G1 X98.9 Y31.501 E.02092
G1 X99.495 Y30.506 E.02203
G1 X100.142 Y29.615 E.02092
G1 X100.906 Y28.741 E.02206
G1 X101.702 Y27.98 E.02093
G1 X102.608 Y27.257 E.02203
G1 X103.527 Y26.65 E.02093
G1 X104.549 Y26.101 E.02205
G1 X105.561 Y25.668 E.02092
G1 X106.664 Y25.31 E.02204
G1 X107.738 Y25.064 E.02094
G1 X108.887 Y24.909 E.02203
G1 X109.988 Y24.859 E.02094
G1 X111.146 Y24.911 E.02203
G1 X112.238 Y25.059 E.02094
G1 X113.368 Y25.317 E.02203
G1 X114.416 Y25.658 E.02094
G1 X115.482 Y26.114 E.02203
G1 X116.452 Y26.635 E.02092
G1 X117.42 Y27.274 E.02204
G1 X118.281 Y27.961 E.02093
G1 X119.119 Y28.762 E.02203
G1 X119.844 Y29.592 E.02094
G1 X120.525 Y30.53 E.02203
G1 X121.09 Y31.475 E.02092
G1 X121.972 Y33.521 E.04234
G1 X126.751 Y50.506 E.33529
G1 X127.193 Y52.72 E.0429
G1 X127.341 Y55.276 E.04865
G1 X127.193 Y57.28 E.03818
G1 X126.751 Y59.494 E.0429
G1 X122.32 Y76.515 E.33422
G1 X121.933 Y77.546 E.02093
G1 X121.43 Y78.591 E.02204
G1 X120.865 Y79.536 E.02092
G1 X120.183 Y80.475 E.02205
G1 X119.459 Y81.304 E.02091
G1 X118.62 Y82.105 E.02204
G1 X117.759 Y82.792 E.02093
G1 X116.791 Y83.431 E.02204
G1 X115.822 Y83.953 E.02092
G1 X114.755 Y84.409 E.02205
G1 X113.708 Y84.749 E.02092
G1 X112.577 Y85.007 E.02204
G1 X111.486 Y85.155 E.02092
G1 X110.327 Y85.207 E.02205
G1 X109.227 Y85.157 E.02092
G1 X108.078 Y85.002 E.02203
G1 X107.004 Y84.757 E.02093
G1 X105.901 Y84.398 E.02204
G1 X104.888 Y83.965 E.02093
G1 X103.867 Y83.416 E.02203
G1 X102.948 Y82.809 E.02093
G1 X102.041 Y82.086 E.02204
G1 X101.245 Y81.325 E.02093
G1 X100.482 Y80.452 E.02203
G1 X99.835 Y79.561 E.02092
G1 X99.24 Y78.565 E.02205
G1 X98.762 Y77.573 E.02092
G1 X98.222 Y76.093 E.02994
G1 X93.339 Y59.806 E.3231
G1 X92.82 Y57.353 E.04764
G1 X92.661 Y54.852 E.04762
G1 X92.819 Y52.66 E.04176
G1 X93.195 Y50.728 E.0374
G1 X97.843 Y34.11 E.3279
G1 E-3.5 F3600
;WIPE_START
G1 F6240
G1 X97.851 Y34.081 E-.01649
G1 X98.422 Y32.493 E-.9249
G1 X98.865 Y31.575 E-.55861
;WIPE_END
G1 X110.457 Y31.03 F7800
G1 E5 F2400
;TYPE:Support material
G1 F1800
G1 X110.871 Y31.048 E.00787
G1 X112.001 Y31.306 E.02203
G1 X113.068 Y31.762 E.02205
G1 X114.036 Y32.401 E.02204
G1 X114.874 Y33.202 E.02203
G1 X115.556 Y34.141 E.02205
G1 X116.059 Y35.186 E.02204
G1 X116.368 Y36.304 E.02204
G1 X116.472 Y37.459 E.02204
G1 X116.368 Y38.614 E.02204
G1 X116.059 Y39.732 E.02204
G1 X115.556 Y40.777 E.02204
G1 X114.874 Y41.715 E.02204
G1 X114.036 Y42.517 E.02204
G1 X113.068 Y43.156 E.02204
G1 X112.258 Y43.502 E.01674
G1 X107.75 Y43.502 E.08566
G1 X106.438 Y42.858 E.02777
G1 X105.532 Y42.135 E.02203
G1 X104.768 Y41.261 E.02206
G1 X104.174 Y40.266 E.02202
G1 X103.766 Y39.18 E.02204
G1 X103.559 Y38.039 E.02204
G1 X103.559 Y36.879 E.02204
G1 X103.766 Y35.738 E.02204
G1 X104.174 Y34.652 E.02204
G1 X104.768 Y33.656 E.02204
G1 X105.532 Y32.783 E.02204
G1 X106.438 Y32.06 E.02203
G1 X107.46 Y31.51 E.02205
G1 X108.563 Y31.152 E.02204
G1 X109.712 Y30.996 E.02203
G1 X110.414 Y31.028 E.01335
G1 X110.414 Y31.028 F7800
G1 X116.031 Y39.351
G1 F1800
G1 X116.031 Y36.049 E.06275
G1 X115.713 Y35.06 E.01974
G1 X115.713 Y39.857 E.09115
G1 X115.396 Y40.516 E.0139
G1 X115.396 Y34.401 E.1162
G1 X115.078 Y33.921 E.01094
G1 X115.078 Y40.996 E.13444
G1 X114.761 Y41.433 E.01026
G1 X114.761 Y33.484 E.15105
G1 X114.444 Y33.147 E.00879
G1 X114.444 Y41.771 E.16388
G1 X114.126 Y42.074 E.00835
G1 X114.126 Y32.843 E.17541
G1 X113.809 Y32.559 E.00809
G1 X113.809 Y42.358 E.1862
G1 X113.491 Y42.568 E.00724
G1 X113.491 Y32.35 E.19417
G1 X113.174 Y32.14 E.00723
G1 X113.174 Y42.777 E.20213
G1 X112.857 Y42.966 E.00701
G1 X112.857 Y31.951 E.20931
G1 X112.539 Y31.816 E.00656
G1 X112.539 Y43.102 E.21446
G1 X112.222 Y43.238 E.00655
G1 X112.222 Y31.68 E.21963
G1 X111.922 Y31.552 E.0062
G1 X111.904 Y43.245 E.2222
G1 X111.587 Y43.245 E.00602
G1 X111.587 Y31.475 E.22366
G1 X111.27 Y31.403 E.00618
G1 X111.27 Y43.245 E.22503
G1 X110.952 Y43.245 E.00604
G1 X110.952 Y31.33 E.22641
G1 X110.635 Y31.295 E.00606
G1 X110.635 Y43.245 E.22708
G1 X110.317 Y43.245 E.00604
G1 X110.317 Y31.281 E.22735
G1 X110 Y31.266 E.00603
G1 X110 Y43.245 E.22763
G1 X109.683 Y43.245 E.00602
G1 X109.683 Y31.259 E.22776
G1 X109.365 Y31.302 E.0061
G1 X109.365 Y43.245 E.22695
G1 X109.048 Y43.245 E.00602
G1 X109.048 Y31.345 E.22613
G1 X108.73 Y31.388 E.0061
G1 X108.73 Y43.245 E.22531
G1 X108.413 Y43.245 E.00602
G1 X108.413 Y31.471 E.22373
G1 X108.096 Y31.574 E.00633
G1 X108.096 Y43.245 E.22178
G1 X107.778 Y43.241 E.00604
G1 X107.778 Y31.677 E.21974
G1 X107.461 Y31.801 E.00647
G1 X107.461 Y43.116 E.21501
G1 X107.143 Y42.945 E.00686
G1 X107.143 Y31.972 E.20851
G1 X106.826 Y32.143 E.00684
G1 X106.826 Y42.775 E.20203
G1 X106.509 Y42.585 E.00702
G1 X106.509 Y32.333 E.19481
G1 X106.191 Y32.586 E.00772
G1 X106.191 Y42.332 E.1852
G1 X105.874 Y42.079 E.00771
G1 X105.874 Y32.839 E.17558
G1 X105.556 Y33.145 E.00839
G1 X105.556 Y41.772 E.16393
G1 X105.239 Y41.409 E.00916
G1 X105.239 Y33.509 E.15012
G1 X104.922 Y33.901 E.00958
G1 X104.922 Y41.016 E.1352
G1 X104.604 Y40.485 E.01176
G1 X104.604 Y34.433 E.115
G1 X104.287 Y35.082 E.01373
G1 X104.287 Y39.836 E.09034
G1 X103.969 Y38.86 E.01951
G1 X103.969 Y35.562 E.06267
G1 E-3.5 F3600
;WIPE_START
G1 F6240
G1 X103.969 Y38.299 E-1.5
;WIPE_END
G1 X113.407 Y66.911 F7800
G1 E5 F2400
G1 F1800
G1 X114.375 Y67.55 E.02204
G1 X115.214 Y68.351 E.02204
G1 X115.895 Y69.289 E.02203
G1 X116.399 Y70.334 E.02205
G1 X116.707 Y71.452 E.02204
G1 X116.811 Y72.607 E.02204
G1 X116.707 Y73.763 E.02206
G1 X116.399 Y74.881 E.02204
G1 X115.895 Y75.926 E.02205
G1 X115.214 Y76.864 E.02203
G1 X114.375 Y77.665 E.02204
G1 X113.407 Y78.304 E.02204
G1 X112.341 Y78.76 E.02203
G1 X111.21 Y79.018 E.02204
G1 X110.051 Y79.07 E.02205
G1 X108.902 Y78.915 E.02203
G1 X107.799 Y78.556 E.02204
G1 X106.778 Y78.007 E.02203
G1 X105.871 Y77.283 E.02205
G1 X105.108 Y76.41 E.02203
G1 X104.513 Y75.414 E.02205
G1 X104.106 Y74.329 E.02202
G1 X103.898 Y73.187 E.02206
G1 X103.898 Y72.028 E.02202
G1 X104.106 Y70.886 E.02206
G1 X104.513 Y69.801 E.02202
G1 X105.108 Y68.805 E.02205
G1 X105.871 Y67.931 E.02205
G1 X106.778 Y67.208 E.02204
G1 X107.799 Y66.659 E.02203
G1 X108.293 Y66.498 E.00987
G1 X112.443 Y66.498 E.07886
G1 X113.368 Y66.894 E.01912
G1 X113.368 Y66.894 F7800
G1 X116.348 Y74.58
G1 F1800
G1 X116.348 Y71.118 E.06579
G1 X116.031 Y70.163 E.01912
G1 X116.031 Y75.052 E.0929
G1 X115.713 Y75.711 E.0139
G1 X115.713 Y69.504 E.11795
G1 X115.396 Y69.039 E.01069
G1 X115.396 Y76.176 E.13562
G1 X115.078 Y76.612 E.01025
G1 X115.078 Y68.602 E.15221
G1 X114.761 Y68.274 E.00867
G1 X114.761 Y76.941 E.16469
G1 X114.444 Y77.244 E.00833
G1 X114.444 Y67.971 E.17621
G1 X114.126 Y67.693 E.00803
G1 X114.126 Y77.522 E.18677
G1 X113.809 Y77.731 E.00722
G1 X113.809 Y67.484 E.19472
G1 X113.491 Y67.274 E.00724
G1 X113.491 Y77.941 E.2027
G1 X113.174 Y78.124 E.00696
G1 X113.174 Y67.091 E.20965
G1 X112.857 Y66.955 E.00655
G1 X112.857 Y78.26 E.21482
G1 X112.539 Y78.396 E.00657
G1 X112.539 Y66.819 E.21999
G1 X112.39 Y66.755 E.00308
G1 X112.222 Y66.755 E.00319
G1 X112.222 Y78.524 E.22364
G1 X111.904 Y78.596 E.0062
G1 X111.904 Y66.755 E.22501
G1 X111.587 Y66.755 E.00602
G1 X111.587 Y78.668 E.22638
G1 X111.27 Y78.741 E.00618
G1 X111.27 Y66.755 E.22776
G1 X110.952 Y66.755 E.00604
G1 X110.952 Y78.772 E.22835
G1 X110.635 Y78.787 E.00603
G1 X110.635 Y66.755 E.22864
G1 X110.317 Y66.755 E.00604
G1 X110.317 Y78.801 E.2289
G1 X110 Y78.804 E.00602
G1 X110 Y66.755 E.22896
G1 X109.683 Y66.755 E.00602
G1 X109.683 Y78.761 E.22814
G1 X109.365 Y78.718 E.0061
G1 X109.365 Y66.755 E.22733
G1 X109.048 Y66.755 E.00602
G1 X109.048 Y78.675 E.22651
G1 X108.73 Y78.588 E.00626
G1 X108.73 Y66.755 E.22486
G1 X108.413 Y66.755 E.00602
G1 X108.413 Y78.485 E.2229
G1 X108.096 Y78.382 E.00633
G1 X108.096 Y66.833 E.21946
G1 X107.778 Y66.962 E.00652
G1 X107.778 Y78.253 E.21456
G1 X107.461 Y78.082 E.00684
G1 X107.461 Y67.133 E.20806
G1 X107.143 Y67.304 E.00686
G1 X107.143 Y77.911 E.20156
G1 X106.826 Y77.716 E.00707
G1 X106.826 Y67.499 E.19415
G1 X106.509 Y67.752 E.00771
G1 X106.509 Y77.463 E.18453
G1 X106.191 Y77.21 E.00772
G1 X106.191 Y68.005 E.17492
G1 X105.874 Y68.319 E.00848
G1 X105.874 Y76.896 E.16298
G1 X105.556 Y76.532 E.00918
G1 X105.556 Y68.682 E.14917
G1 X105.239 Y69.087 E.00977
G1 X105.239 Y76.128 E.1338
G1 X104.922 Y75.597 E.01175
G1 X104.922 Y69.618 E.11362
G1 X104.604 Y70.29 E.01413
G1 X104.604 Y74.925 E.08808
G1 X104.287 Y73.887 E.02062
G1 X104.287 Y70.77 E.05923
G1 E-3.5 F3600
;WIPE_START
G1 F6240
G1 X104.287 Y73.507 E-1.5
;WIPE_END
G1 X109.968 Y64.503 F7800
G1 E5 F2400
;TYPE:Perimeter
G1 F1800
G1 X109.07 Y64.458 E.01709
G1 X108.147 Y64.322 E.01773
G1 X107.243 Y64.095 E.01771
G1 X106.365 Y63.781 E.01772
G1 X105.521 Y63.382 E.01774
G1 X104.721 Y62.902 E.01773
G1 X103.972 Y62.347 E.01771
G1 X103.281 Y61.721 E.01772
G1 X102.655 Y61.029 E.01773
G1 X102.099 Y60.28 E.01773
G1 X101.62 Y59.48 E.01772
G1 X101.221 Y58.637 E.01772
G1 X100.907 Y57.759 E.01772
G1 X100.68 Y56.854 E.01773
G1 X100.543 Y55.932 E.01771
G1 X100.497 Y55 E.01773
G1 X100.543 Y54.068 E.01773
G1 X100.68 Y53.146 E.01771
G1 X100.907 Y52.241 E.01773
G1 X101.221 Y51.363 E.01772
G1 X101.62 Y50.52 E.01772
G1 X102.099 Y49.72 E.01772
G1 X102.655 Y48.971 E.01773
G1 X103.281 Y48.28 E.01772
G1 X103.972 Y47.653 E.01773
G1 X104.721 Y47.098 E.01771
G1 X105.521 Y46.618 E.01773
G1 X106.365 Y46.219 E.01774
G1 X107.243 Y45.905 E.01772
G1 X108.147 Y45.678 E.01771
G1 X109.07 Y45.542 E.01773
G1 X109.978 Y45.497 E.01728
G1 X110.493 Y45.509 E.00979
G1 X111.42 Y45.602 E.0177
G1 X112.348 Y45.79 E.01799
G1 X113.254 Y46.069 E.01801
G1 X114.127 Y46.438 E.01801
G1 X114.959 Y46.891 E.018
G1 X115.741 Y47.425 E.01799
G1 X116.467 Y48.034 E.01801
G1 X117.129 Y48.712 E.01801
G1 X117.719 Y49.453 E.018
G1 X118.233 Y50.249 E.01801
G1 X118.665 Y51.092 E.018
G1 X119.011 Y51.974 E.018
G1 X119.268 Y52.886 E.01801
G1 X119.432 Y53.819 E.018
G1 X119.503 Y54.764 E.01801
G1 X119.479 Y55.711 E.018
G1 X119.361 Y56.651 E.018
G1 X119.151 Y57.575 E.01801
G1 X118.849 Y58.473 E.018
G1 X118.459 Y59.336 E.018
G1 X117.985 Y60.157 E.01801
G1 X117.432 Y60.926 E.018
G1 X116.805 Y61.637 E.01801
G1 X116.111 Y62.281 E.01799
G1 X115.355 Y62.853 E.01801
G1 X114.547 Y63.347 E.018
G1 X113.693 Y63.758 E.01801
G1 X112.803 Y64.082 E.018
G1 X111.885 Y64.316 E.018
G1 X110.948 Y64.457 E.01801
G1 X110.002 Y64.504 E.018
G1 X109.998 Y64.504 E.00008
G1 X109.998 Y64.504 F7800
G1 X109.975 Y64.217
G1 F1800
G1 X109.098 Y64.174 E.01669
G1 X108.203 Y64.041 E.01719
G1 X107.326 Y63.821 E.01718
G1 X106.474 Y63.517 E.01719
G1 X105.656 Y63.13 E.0172
G1 X104.88 Y62.665 E.01719
G1 X104.154 Y62.126 E.01718
G1 X103.483 Y61.518 E.01721
G1 X102.876 Y60.848 E.01718
G1 X102.337 Y60.121 E.0172
G1 X101.872 Y59.345 E.01719
G1 X101.485 Y58.528 E.01718
G1 X101.18 Y57.676 E.0172
G1 X100.961 Y56.798 E.0172
G1 X100.828 Y55.904 E.01718
G1 X100.783 Y55 E.0172
G1 X100.828 Y54.096 E.0172
G1 X100.961 Y53.202 E.01718
G1 X101.18 Y52.324 E.0172
G1 X101.485 Y51.472 E.0172
G1 X101.872 Y50.655 E.01718
G1 X102.337 Y49.879 E.01719
G1 X102.876 Y49.152 E.0172
G1 X103.483 Y48.482 E.01718
G1 X104.154 Y47.874 E.01721
G1 X104.88 Y47.335 E.01718
G1 X105.656 Y46.87 E.01719
G1 X106.474 Y46.483 E.0172
G1 X107.326 Y46.179 E.01719
G1 X108.203 Y45.959 E.01718
G1 X109.098 Y45.826 E.01719
G1 X109.982 Y45.783 E.01682
G1 X110.475 Y45.795 E.00937
G1 X111.377 Y45.885 E.01723
G1 X112.278 Y46.067 E.01747
G1 X113.156 Y46.338 E.01746
G1 X114.003 Y46.695 E.01747
G1 X114.81 Y47.135 E.01747
G1 X115.569 Y47.653 E.01746
G1 X116.273 Y48.243 E.01745
G1 X116.914 Y48.901 E.01746
G1 X117.487 Y49.62 E.01747
G1 X117.985 Y50.392 E.01746
G1 X118.405 Y51.21 E.01747
G1 X118.74 Y52.065 E.01745
G1 X118.989 Y52.95 E.01747
G1 X119.149 Y53.855 E.01746
G1 X119.217 Y54.771 E.01745
G1 X119.194 Y55.69 E.01747
G1 X119.08 Y56.602 E.01747
G1 X118.875 Y57.497 E.01745
G1 X118.582 Y58.368 E.01746
G1 X118.205 Y59.206 E.01746
G1 X117.745 Y60.002 E.01747
G1 X117.209 Y60.748 E.01746
G1 X116.6 Y61.437 E.01747
G1 X115.927 Y62.062 E.01745
G1 X115.194 Y62.617 E.01747
G1 X114.41 Y63.096 E.01746
G1 X113.582 Y63.494 E.01746
G1 X112.719 Y63.809 E.01746
G1 X111.828 Y64.036 E.01747
G1 X110.92 Y64.172 E.01745
G1 X110.005 Y64.218 E.01741
G1 X110.005 Y64.218 F7800
G1 X109.982 Y63.931
G1 F1800
G1 X109.126 Y63.889 E.01629
G1 X108.259 Y63.761 E.01665
G1 X107.409 Y63.548 E.01665
G1 X106.583 Y63.252 E.01667
G1 X105.791 Y62.877 E.01665
G1 X105.039 Y62.427 E.01665
G1 X104.335 Y61.905 E.01665
G1 X103.686 Y61.316 E.01665
G1 X103.097 Y60.667 E.01665
G1 X102.575 Y59.962 E.01667
G1 X102.124 Y59.211 E.01665
G1 X101.749 Y58.418 E.01667
G1 X101.454 Y57.593 E.01665
G1 X101.241 Y56.743 E.01665
G1 X101.112 Y55.876 E.01666
G1 X101.069 Y55 E.01667
G1 X101.112 Y54.125 E.01665
G1 X101.241 Y53.257 E.01668
G1 X101.454 Y52.407 E.01665
G1 X101.749 Y51.582 E.01665
G1 X102.124 Y50.789 E.01667
G1 X102.575 Y50.038 E.01665
G1 X103.097 Y49.333 E.01667
G1 X103.686 Y48.684 E.01665
G1 X104.335 Y48.095 E.01665
G1 X105.039 Y47.573 E.01665
G1 X105.791 Y47.123 E.01665
G1 X106.583 Y46.748 E.01665
G1 X107.409 Y46.452 E.01667
G1 X108.259 Y46.239 E.01665
G1 X109.126 Y46.111 E.01665
G1 X109.985 Y46.068 E.01634
G1 X110.457 Y46.08 E.00897
G1 X111.334 Y46.168 E.01675
G1 X112.207 Y46.344 E.01692
G1 X113.058 Y46.607 E.01693
G1 X113.878 Y46.953 E.01691
G1 X114.66 Y47.379 E.01692
G1 X115.396 Y47.881 E.01693
G1 X116.078 Y48.453 E.01691
G1 X116.7 Y49.091 E.01693
G1 X117.255 Y49.787 E.01692
G1 X117.738 Y50.535 E.01692
G1 X118.144 Y51.327 E.01691
G1 X118.469 Y52.156 E.01692
G1 X118.71 Y53.013 E.01692
G1 X118.865 Y53.89 E.01692
G1 X118.931 Y54.778 E.01692
G1 X118.909 Y55.668 E.01692
G1 X118.798 Y56.552 E.01693
G1 X118.6 Y57.42 E.01692
G1 X118.316 Y58.264 E.01692
G1 X117.95 Y59.075 E.01691
G1 X117.505 Y59.847 E.01693
G1 X116.985 Y60.57 E.01692
G1 X116.396 Y61.237 E.01691
G1 X115.743 Y61.843 E.01693
G1 X115.033 Y62.38 E.01692
G1 X114.273 Y62.845 E.01693
G1 X113.471 Y63.231 E.01691
G1 X112.634 Y63.535 E.01692
G1 X111.771 Y63.755 E.01692
G1 X110.891 Y63.888 E.01691
G1 X110.012 Y63.932 E.01672
G1 X110.012 Y63.932 F7800
G1 X109.989 Y63.646
G1 F1800
G1 X109.154 Y63.605 E.01589
G1 X108.315 Y63.48 E.01612
G1 X107.492 Y63.274 E.01612
G1 X106.693 Y62.988 E.01613
G1 X105.926 Y62.625 E.01612
G1 X105.198 Y62.189 E.01612
G1 X104.517 Y61.684 E.01611
G1 X103.888 Y61.114 E.01613
G1 X103.318 Y60.485 E.01613
G1 X102.813 Y59.804 E.01611
G1 X102.376 Y59.076 E.01613
G1 X102.014 Y58.309 E.01612
G1 X101.728 Y57.51 E.01613
G1 X101.522 Y56.687 E.01612
G1 X101.397 Y55.847 E.01614
G1 X101.355 Y55 E.01611
G1 X101.397 Y54.153 E.01611
G1 X101.522 Y53.313 E.01614
G1 X101.728 Y52.49 E.01612
G1 X102.014 Y51.691 E.01613
G1 X102.376 Y50.924 E.01612
G1 X102.813 Y50.196 E.01613
G1 X103.318 Y49.515 E.01611
G1 X103.888 Y48.886 E.01613
G1 X104.517 Y48.316 E.01613
G1 X105.198 Y47.811 E.01611
G1 X105.926 Y47.375 E.01612
G1 X106.693 Y47.012 E.01612
G1 X107.492 Y46.726 E.01613
G1 X108.315 Y46.52 E.01612
G1 X109.154 Y46.395 E.01612
