; generated by PrusaSlicer 2.9.0 on 2025-01-08 at 12:13:04 UTC

; 

; external perimeters extrusion width = 0.23mm
; perimeters extrusion width = 0.23mm
; infill extrusion width = 0.23mm
; solid infill extrusion width = 0.23mm
; top infill extrusion width = 0.20mm
; support material extrusion width = 0.20mm
; first layer extrusion width = 0.40mm

;TYPE:Custom
G90 ; use absolute coordinates
M83 ; extruder relative mode
M104 S200 ; set temporary nozzle temp to prevent oozing during homing
M140 S60 ; set final bed temp
G4 S30 ; allow partial nozzle warmup
G28 ; home all axis
G1 Z50 F240
G1 X2.0 Y10 F3000
M104 S205 ; set final nozzle temp
M190 S60 ; wait for bed temp to stabilize
M109 S205 ; wait for nozzle temp to stabilize
G1 Z0.28 F240
G92 E0
G1 X2.0 Y140 E10 F1500 ; prime the nozzle
G1 X2.3 Y140 F5000
G92 E0
G1 X2.3 Y10 E10 F1200 ; prime the nozzle
G92 E0
G21 ; set units to millimeters
G90 ; use absolute coordinates
M83 ; use relative distances for extrusion
; Filament gcode
M107
;LAYER_CHANGE
;Z:0.2
;HEIGHT:0.2
G1 E-5 F3600
G1 Z.2 F7800
G1 X95.931 Y25.146
G1 Z.2
G1 E5 F2400
;TYPE:Skirt/Brim
;WIDTH:0.4
G1 F1800
G1 X97.999 Y17.259 E.24209
G1 X98.596 Y15.576 E.05302
G1 X99.076 Y14.578 E.03288
G1 X99.667 Y13.589 E.03421
G1 X100.318 Y12.693 E.03288
G1 X101.076 Y11.825 E.03422
G1 X101.877 Y11.06 E.03289
G1 X102.778 Y10.341 E.03423
G1 X103.702 Y9.731 E.03287
G1 X104.717 Y9.185 E.03422
G1 X105.735 Y8.75 E.03287
G1 X106.831 Y8.394 E.03422
G1 X107.911 Y8.147 E.03289
G1 X109.053 Y7.993 E.03421
G1 X110.159 Y7.943 E.03287
G1 X111.31 Y7.995 E.03421
G1 X112.408 Y8.143 E.0329
G1 X113.531 Y8.4 E.03421
G1 X114.585 Y8.742 E.0329
G1 X115.644 Y9.195 E.0342
G1 X116.62 Y9.72 E.03291
G1 X117.581 Y10.355 E.0342
G1 X118.447 Y11.045 E.03288
G1 X119.28 Y11.841 E.03421
G1 X120.009 Y12.676 E.03291
G1 X120.686 Y13.608 E.0342
G1 X121.254 Y14.559 E.03289
G1 X121.754 Y15.597 E.03421
G1 X122.143 Y16.634 E.03288
G1 X122.45 Y17.744 E.03419
G1 X126.93 Y36.072 E.5602
G1 X127.266 Y38.017 E.0586
G1 X127.377 Y40.276 E.06715
G1 X127.32 Y41.434 E.03442
G1 X127.095 Y43.13 E.0508
G1 X123.277 Y61.945 E.57003
G1 X122.871 Y63.47 E.04686
G1 X122.482 Y64.507 E.03288
G1 X121.982 Y65.546 E.03424
G1 X121.414 Y66.496 E.03286
G1 X120.737 Y67.429 E.03423
G1 X120.008 Y68.263 E.03289
G1 X119.175 Y69.059 E.03421
G1 X118.309 Y69.75 E.03289
G1 X117.347 Y70.384 E.03421
G1 X116.372 Y70.909 E.03288
G1 X115.313 Y71.362 E.0342
G1 X114.259 Y71.704 E.0329
G1 X113.136 Y71.961 E.03421
G1 X112.038 Y72.109 E.0329
G1 X110.887 Y72.161 E.03421
G1 X109.78 Y72.111 E.0329
G1 X108.639 Y71.957 E.03418
G1 X107.559 Y71.71 E.03289
G1 X106.463 Y71.354 E.03422
G1 X105.445 Y70.919 E.03287
G1 X104.43 Y70.373 E.03422
G1 X103.505 Y69.763 E.0329
G1 X102.605 Y69.044 E.0342
G1 X101.804 Y68.279 E.03289
G1 X101.046 Y67.411 E.03422
G1 X100.395 Y66.515 E.03288
G1 X99.804 Y65.526 E.03421
G1 X99.323 Y64.528 E.03289
G1 X98.786 Y63.057 E.0465
G1 X93.305 Y44.815 E.56555
G1 X92.788 Y42.374 E.07408
G1 X92.625 Y39.851 E.07507
G1 X92.784 Y37.648 E.06558
G1 X93.147 Y35.77 E.05679
G1 X95.924 Y25.175 E.32521
G1 E-3.5 F3600
;WIPE_START
G1 F6240
G1 X95.931 Y25.146 E-.01635
G1 X96.617 Y22.528 E-1.48365
;WIPE_END
G1 X110.549 Y14.145 F7800
G1 E5 F2400
;TYPE:Support material
G1 F1800
G1 X111.033 Y14.167 E.01439
G1 X112.157 Y14.423 E.03423
G1 X113.216 Y14.876 E.0342
G1 X114.178 Y15.511 E.03422
G1 X115.01 Y16.307 E.03419
G1 X115.688 Y17.239 E.03422
G1 X116.188 Y18.277 E.03421
G1 X116.494 Y19.388 E.03422
G1 X116.597 Y20.536 E.03422
G1 X116.494 Y21.683 E.03419
G1 X116.188 Y22.794 E.03422
G1 X115.688 Y23.832 E.03421
G1 X115.01 Y24.764 E.03422
G1 X114.66 Y25.099 E.01438
G1 X114.178 Y25.56 E.0198
G1 X113.216 Y26.195 E.03422
G1 X112.157 Y26.648 E.0342
G1 X111.033 Y26.904 E.03423
G1 X109.882 Y26.956 E.03421
G1 X108.74 Y26.801 E.03422
G1 X107.645 Y26.445 E.03419
G1 X106.63 Y25.899 E.03422
G1 X105.729 Y25.181 E.03421
G1 X105.29 Y24.678 E.01982
G1 X104.971 Y24.313 E.01439
G1 X104.38 Y23.324 E.03421
G1 X103.975 Y22.245 E.03422
G1 X103.77 Y21.112 E.03419
G1 X103.77 Y19.96 E.0342
G1 X103.975 Y18.826 E.03422
G1 X104.38 Y17.747 E.03422
G1 X104.971 Y16.758 E.03421
G1 X105.729 Y15.89 E.03422
G1 X106.63 Y15.172 E.03421
G1 X107.645 Y14.626 E.03422
G1 X108.74 Y14.27 E.03419
G1 X109.882 Y14.115 E.03422
G1 X110.496 Y14.143 E.01825
G1 X110.496 Y14.143 F7800
G1 X115.951 Y22.914
G1 F1800
G1 X115.951 Y18.629 E.12723
G1 X115.555 Y17.704 E.02988
G1 X115.555 Y23.368 E.16817
G1 X115.158 Y24.014 E.02251
G1 X115.158 Y17.057 E.20656
G1 X114.761 Y16.513 E.02
G1 X114.761 Y24.558 E.23887
G1 X114.364 Y24.937 E.0163
G1 X114.364 Y16.134 E.26137
G1 X113.968 Y15.757 E.01623
G1 X113.968 Y25.314 E.28376
G1 X113.571 Y25.576 E.01412
G1 X113.571 Y15.495 E.29932
G1 X113.174 Y15.234 E.01411
G1 X113.174 Y25.838 E.31485
G1 X112.777 Y26.033 E.01313
G1 X112.777 Y15.038 E.32646
G1 X112.381 Y14.869 E.01278
G1 X112.381 Y26.203 E.33652
G1 X111.984 Y26.358 E.01265
G1 X111.984 Y14.714 E.34573
G1 X111.587 Y14.623 E.01209
G1 X111.587 Y26.448 E.3511
G1 X111.19 Y26.539 E.01209
G1 X111.19 Y14.532 E.3565
G1 X110.794 Y14.478 E.01187
G1 X110.794 Y26.593 E.35971
G1 X110.397 Y26.611 E.0118
G1 X110.397 Y14.46 E.36078
G1 X110 Y14.442 E.0118
G1 X110 Y26.629 E.36185
G1 X109.603 Y26.594 E.01183
G1 X109.603 Y14.477 E.35977
G1 X109.206 Y14.531 E.0119
G1 X109.206 Y26.54 E.35656
G1 X108.81 Y26.486 E.01187
G1 X108.81 Y14.585 E.35336
G1 X108.413 Y14.714 E.01239
G1 X108.413 Y26.357 E.3457
G1 X108.016 Y26.228 E.01239
G1 X108.016 Y14.843 E.33804
G1 X107.619 Y15.005 E.01273
G1 X107.619 Y26.067 E.32845
G1 X107.223 Y25.853 E.01336
G1 X107.223 Y15.218 E.31577
G1 X106.826 Y15.432 E.01339
G1 X106.826 Y25.64 E.30309
G1 X106.429 Y25.328 E.01499
G1 X106.429 Y15.743 E.28459
G1 X106.032 Y16.06 E.01508
G1 X106.032 Y25.012 E.2658
G1 X105.636 Y24.585 E.01729
G1 X105.636 Y16.486 E.24047
G1 X105.239 Y16.94 E.01791
G1 X105.239 Y24.131 E.21351
G1 X104.842 Y23.471 E.02287
G1 X104.842 Y17.601 E.17429
G1 X104.445 Y18.488 E.02885
G1 X104.445 Y23.041 E.13518
G1 E-3.5 F3600
;WIPE_START
G1 F6240
G1 X104.445 Y20.304 E-1.5
;WIPE_END
G1 X111.277 Y53.178 F7800
G1 E5 F2400
G1 F1800
G1 X111.761 Y53.2 E.01439
G1 X112.884 Y53.456 E.0342
G1 X113.944 Y53.909 E.03423
G1 X114.905 Y54.544 E.0342
G1 X115.738 Y55.34 E.03421
G1 X116.415 Y56.272 E.0342
G1 X116.915 Y57.31 E.03421
G1 X117.222 Y58.421 E.03422
G1 X117.325 Y59.568 E.03419
G1 X117.222 Y60.716 E.03422
G1 X116.915 Y61.827 E.03422
G1 X116.415 Y62.865 E.03421
G1 X115.738 Y63.797 E.0342
G1 X114.905 Y64.593 E.03421
G1 X113.944 Y65.228 E.0342
G1 X112.884 Y65.681 E.03423
G1 X111.761 Y65.937 E.0342
G1 X110.61 Y65.989 E.03421
G1 X109.468 Y65.834 E.03422
G1 X108.372 Y65.478 E.03422
G1 X107.358 Y64.932 E.03419
G1 X106.457 Y64.214 E.03421
G1 X105.699 Y63.346 E.03422
G1 X105.108 Y62.357 E.03421
G1 X104.703 Y61.278 E.03422
G1 X104.497 Y60.145 E.03419
G1 X104.497 Y58.992 E.03423
G1 X104.703 Y57.859 E.03419
G1 X105.108 Y56.78 E.03422
G1 X105.699 Y55.791 E.03421
G1 X106.457 Y54.923 E.03422
G1 X107.358 Y54.205 E.03421
G1 X108.372 Y53.659 E.03419
G1 X109.468 Y53.303 E.03422
G1 X110.61 Y53.148 E.03422
G1 X111.223 Y53.176 E.01822
G1 X111.223 Y53.176 F7800
G1 X116.745 Y61.81
G1 F1800
G1 X116.745 Y57.901 E.11606
G1 X116.348 Y56.873 E.03272
G1 X116.348 Y62.264 E.16007
G1 X115.951 Y62.957 E.02371
G1 X115.951 Y56.18 E.20122
G1 X115.555 Y55.634 E.02003
G1 X115.555 Y63.503 E.23364
G1 X115.158 Y63.907 E.01682
G1 X115.158 Y55.23 E.25763
G1 X114.761 Y54.851 E.0163
G1 X114.761 Y64.286 E.28014
G1 X114.364 Y64.565 E.01441
G1 X114.364 Y54.572 E.29671
G1 X113.968 Y54.31 E.0141
G1 X113.968 Y64.827 E.31226
G1 X113.571 Y65.038 E.01335
G1 X113.571 Y54.099 E.32479
G1 X113.174 Y53.93 E.01281
G1 X113.174 Y65.207 E.33483
G1 X112.777 Y65.376 E.01281
G1 X112.777 Y53.761 E.34486
G1 X112.381 Y53.671 E.01206
G1 X112.381 Y65.466 E.35021
G1 X111.984 Y65.557 E.01209
G1 X111.984 Y53.58 E.35561
G1 X111.587 Y53.514 E.01195
G1 X111.587 Y65.623 E.35953
G1 X111.19 Y65.641 E.0118
G1 X111.19 Y53.496 E.3606
G1 X110.794 Y53.478 E.01177
G1 X110.794 Y65.659 E.36167
G1 X110.397 Y65.636 E.01181
G1 X110.397 Y53.501 E.3603
G1 X110 Y53.555 E.0119
G1 X110 Y65.582 E.3571
G1 X109.603 Y65.528 E.0119
G1 X109.603 Y53.609 E.35389
G1 X109.206 Y53.726 E.01229
G1 X109.206 Y65.411 E.34694
G1 X108.81 Y65.282 E.01237
G1 X108.81 Y53.855 E.33928
G1 X108.413 Y54.002 E.01257
G1 X108.413 Y65.135 E.33055
G1 X108.016 Y64.922 E.01338
G1 X108.016 Y54.215 E.3179
G1 X107.619 Y54.429 E.01339
G1 X107.619 Y64.708 E.3052
G1 X107.223 Y64.413 E.01466
G1 X107.223 Y54.724 E.28768
G1 X106.826 Y55.04 E.01507
G1 X106.826 Y64.097 E.26891
G1 X106.429 Y63.694 E.0168
G1 X106.429 Y55.443 E.24498
G1 X106.032 Y55.897 E.01791
G1 X106.032 Y63.239 E.21799
G1 X105.636 Y62.614 E.02197
G1 X105.636 Y56.523 E.18085
G1 X105.239 Y57.345 E.0271
G1 X105.239 Y61.792 E.13204
G1 X105.014 Y61.192 E.01903
G1 X104.842 Y60.245 E.02858
G1 X104.842 Y57.992 E.06689
G1 E-3.5 F3600
;WIPE_START
G1 F6240
G1 X104.842 Y60.245 E-1.23482
G1 X104.928 Y60.721 E-.26518
;WIPE_END
G1 X109.969 Y49.471 F7800
G1 E5 F2400
;TYPE:Perimeter
G1 F1800
G1 X109.073 Y49.427 E.02664
G1 X108.154 Y49.291 E.02758
G1 X107.252 Y49.065 E.02761
G1 X106.377 Y48.752 E.02759
G1 X105.536 Y48.354 E.02763
G1 X104.739 Y47.876 E.02759
G1 X103.992 Y47.323 E.0276
G1 X103.303 Y46.698 E.02762
G1 X102.679 Y46.009 E.0276
G1 X102.125 Y45.263 E.02759
G1 X101.647 Y44.465 E.02762
G1 X101.25 Y43.625 E.02759
G1 X100.937 Y42.75 E.02759
G1 X100.711 Y41.848 E.02761
G1 X100.575 Y40.928 E.02761
G1 X100.529 Y40 E.02759
G1 X100.575 Y39.072 E.02759
G1 X100.711 Y38.152 E.02761
G1 X100.937 Y37.25 E.02761
G1 X101.25 Y36.375 E.02759
G1 X101.647 Y35.535 E.02759
G1 X102.125 Y34.737 E.02762
G1 X102.679 Y33.991 E.02759
G1 X103.303 Y33.302 E.0276
G1 X103.992 Y32.677 E.02762
G1 X104.739 Y32.124 E.0276
G1 X105.536 Y31.646 E.02759
G1 X106.377 Y31.248 E.02763
G1 X107.252 Y30.935 E.02759
G1 X108.154 Y30.709 E.02761
G1 X109.073 Y30.573 E.02758
G1 X109.977 Y30.528 E.02687
G1 X110.491 Y30.541 E.01527
G1 X111.416 Y30.633 E.0276
G1 X112.341 Y30.821 E.02803
G1 X113.243 Y31.099 E.02802
G1 X114.113 Y31.466 E.02804
G1 X114.943 Y31.918 E.02806
G1 X115.723 Y32.45 E.02803
G1 X116.446 Y33.057 E.02803
G1 X117.105 Y33.733 E.02803
G1 X117.694 Y34.471 E.02804
G1 X118.206 Y35.265 E.02805
G1 X118.637 Y36.105 E.02803
G1 X118.982 Y36.984 E.02804
G1 X119.237 Y37.893 E.02803
G1 X119.401 Y38.823 E.02804
G1 X119.472 Y39.765 E.02805
G1 X119.448 Y40.709 E.02804
G1 X119.33 Y41.646 E.02804
G1 X119.12 Y42.566 E.02802
G1 X118.819 Y43.462 E.02806
G1 X118.431 Y44.322 E.02801
G1 X117.959 Y45.14 E.02804
G1 X117.407 Y45.907 E.02806
G1 X116.783 Y46.615 E.02802
G1 X116.09 Y47.257 E.02805
G1 X115.338 Y47.827 E.02802
G1 X114.532 Y48.319 E.02804
G1 X113.681 Y48.729 E.02805
G1 X112.794 Y49.052 E.02803
G1 X111.879 Y49.285 E.02803
G1 X110.945 Y49.426 E.02805
G1 X110.002 Y49.473 E.02803
G1 X109.999 Y49.473 E.00009
G1 X109.999 Y49.473 F7800
G1 X109.978 Y49.114
G1 F1800
G1 X109.108 Y49.071 E.02586
G1 X108.223 Y48.94 E.02656
G1 X107.356 Y48.723 E.02654
G1 X106.513 Y48.421 E.02659
G1 X105.705 Y48.039 E.02654
G1 X104.938 Y47.579 E.02655
G1 X104.219 Y47.046 E.02657
G1 X103.556 Y46.445 E.02657
G1 X102.956 Y45.783 E.02653
G1 X102.423 Y45.064 E.02657
G1 X101.963 Y44.297 E.02655
G1 X101.58 Y43.488 E.02658
G1 X101.279 Y42.646 E.02655
G1 X101.062 Y41.778 E.02657
G1 X100.93 Y40.893 E.02657
G1 X100.886 Y40 E.02655
G1 X100.93 Y39.107 E.02655
G1 X101.062 Y38.222 E.02657
G1 X101.279 Y37.354 E.02657
G1 X101.58 Y36.512 E.02655
G1 X101.963 Y35.703 E.02658
G1 X102.423 Y34.936 E.02655
G1 X102.956 Y34.217 E.02657
G1 X103.556 Y33.555 E.02653
G1 X104.219 Y32.954 E.02657
G1 X104.938 Y32.421 E.02657
G1 X105.705 Y31.961 E.02655
G1 X106.513 Y31.579 E.02654
G1 X107.356 Y31.277 E.02659
G1 X108.223 Y31.06 E.02654
G1 X109.108 Y30.929 E.02656
G1 X109.981 Y30.886 E.02595
G1 X110.469 Y30.897 E.01449
G1 X111.362 Y30.987 E.02665
G1 X112.253 Y31.167 E.02699
G1 X113.121 Y31.435 E.02697
G1 X113.958 Y31.788 E.02697
G1 X114.756 Y32.223 E.02699
G1 X115.507 Y32.735 E.02699
G1 X116.203 Y33.319 E.02698
G1 X116.837 Y33.97 E.02698
G1 X117.404 Y34.68 E.02698
G1 X117.896 Y35.444 E.02698
G1 X118.311 Y36.252 E.02697
G1 X118.643 Y37.098 E.02698
G1 X118.889 Y37.973 E.02699
G1 X119.046 Y38.868 E.02698
G1 X119.114 Y39.774 E.02698
G1 X119.091 Y40.682 E.02697
G1 X118.978 Y41.584 E.02699
G1 X118.776 Y42.47 E.02698
G1 X118.487 Y43.331 E.02697
G1 X118.113 Y44.159 E.02698
G1 X117.658 Y44.946 E.02699
G1 X117.128 Y45.684 E.02698
G1 X116.527 Y46.365 E.02697
G1 X115.861 Y46.983 E.02698
G1 X115.136 Y47.532 E.027
G1 X114.361 Y48.005 E.02696
G1 X113.542 Y48.4 E.027
G1 X112.688 Y48.71 E.02698
G1 X111.808 Y48.935 E.02697
G1 X110.909 Y49.07 E.02699
G1 X110.008 Y49.115 E.02679
G1 X109.987 Y48.757 F7800
G1 F1800
G1 X109.143 Y48.716 E.02509
G1 X108.293 Y48.589 E.02552
G1 X107.459 Y48.381 E.02552
G1 X106.65 Y48.091 E.02552
G1 X105.873 Y47.724 E.02551
G1 X105.136 Y47.282 E.02552
G1 X104.446 Y46.77 E.02551
G1 X103.809 Y46.193 E.02552
G1 X103.232 Y45.556 E.02552
G1 X102.72 Y44.866 E.02551
G1 X102.278 Y44.128 E.02554
G1 X101.911 Y43.351 E.02551
G1 X101.621 Y42.542 E.02552
G1 X101.412 Y41.709 E.0255
G1 X101.286 Y40.858 E.02554
G1 X101.244 Y40 E.02551
G1 X101.286 Y39.142 E.02551
G1 X101.412 Y38.291 E.02554
G1 X101.621 Y37.458 E.0255
G1 X101.911 Y36.649 E.02552
G1 X102.278 Y35.872 E.02551
G1 X102.72 Y35.134 E.02554
G1 X103.232 Y34.444 E.02551
G1 X103.809 Y33.807 E.02552
G1 X104.446 Y33.23 E.02552
G1 X105.136 Y32.718 E.02551
G1 X105.873 Y32.276 E.02552
G1 X106.65 Y31.909 E.02551
G1 X107.459 Y31.619 E.02552
G1 X108.293 Y31.411 E.02552
G1 X109.143 Y31.284 E.02552
G1 X109.986 Y31.243 E.02506
G1 X110.447 Y31.254 E.01369
G1 X111.309 Y31.34 E.02572
G1 X112.164 Y31.513 E.0259
G1 X112.999 Y31.771 E.02595
G1 X113.803 Y32.11 E.02591
G1 X114.57 Y32.528 E.02594
G1 X115.291 Y33.02 E.02592
G1 X115.96 Y33.581 E.02592
G1 X116.569 Y34.206 E.02591
G1 X117.113 Y34.889 E.02593
G1 X117.587 Y35.622 E.02592
G1 X117.985 Y36.399 E.02592
G1 X118.304 Y37.212 E.02593
G1 X118.54 Y38.052 E.02591
G1 X118.692 Y38.912 E.02593
G1 X118.757 Y39.783 E.02593
G1 X118.735 Y40.655 E.0259
G1 X118.626 Y41.522 E.02594
G1 X118.432 Y42.373 E.02592
G1 X118.154 Y43.2 E.0259
G1 X117.795 Y43.996 E.02593
G1 X117.358 Y44.752 E.02593
G1 X116.848 Y45.461 E.02593
G1 X116.271 Y46.115 E.0259
G1 X115.631 Y46.709 E.02593
G1 X114.935 Y47.236 E.02592
G1 X114.19 Y47.691 E.02592
G1 X113.403 Y48.07 E.02594
G1 X112.583 Y48.369 E.02591
G1 X111.737 Y48.584 E.02592
G1 X110.874 Y48.714 E.02591
G1 X110.017 Y48.757 E.02548
G1 X110.017 Y48.757 F7800
G1 X109.996 Y48.4
;TYPE:External perimeter
G1 F1800
G1 X109.178 Y48.36 E.02432
G1 X108.363 Y48.239 E.02446
G1 X107.563 Y48.039 E.02448
G1 X106.787 Y47.761 E.02447
G1 X106.042 Y47.408 E.02448
G1 X105.335 Y46.985 E.02446
G1 X104.673 Y46.493 E.02449
G1 X104.062 Y45.94 E.02447
G1 X103.508 Y45.329 E.02449
G1 X103.017 Y44.667 E.02447
G1 X102.593 Y43.96 E.02448
G1 X102.241 Y43.215 E.02446
G1 X101.963 Y42.438 E.0245
G1 X101.763 Y41.639 E.02446
G1 X101.642 Y40.823 E.02449
G1 X101.601 Y40 E.02447
G1 X101.642 Y39.177 E.02447
G1 X101.763 Y38.361 E.02449
G1 X101.963 Y37.562 E.02446
G1 X102.241 Y36.785 E.0245
G1 X102.593 Y36.04 E.02446
G1 X103.017 Y35.333 E.02448
G1 X103.508 Y34.671 E.02447
G1 X104.062 Y34.06 E.02449
G1 X104.673 Y33.507 E.02447
G1 X105.335 Y33.015 E.02449
G1 X106.042 Y32.592 E.02446
G1 X106.787 Y32.239 E.02448
G1 X107.563 Y31.961 E.02447
G1 X108.363 Y31.761 E.02448
G1 X109.178 Y31.64 E.02446
G1 X109.99 Y31.6 E.02414
G1 X110.425 Y31.611 E.01292
G1 X111.255 Y31.694 E.02477
G1 X112.076 Y31.86 E.02487
G1 X112.876 Y32.107 E.02486
G1 X113.648 Y32.432 E.02487
G1 X114.383 Y32.833 E.02486
G1 X115.075 Y33.305 E.02487
G1 X115.716 Y33.843 E.02485
G1 X116.301 Y34.443 E.02488
G1 X116.823 Y35.097 E.02485
G1 X117.277 Y35.801 E.02487
G1 X117.659 Y36.546 E.02486
G1 X117.965 Y37.326 E.02488
G1 X118.192 Y38.132 E.02486
G1 X118.337 Y38.956 E.02484
G1 X118.399 Y39.792 E.02489
G1 X118.378 Y40.629 E.02486
G1 X118.274 Y41.46 E.02487
G1 X118.088 Y42.276 E.02485
G1 X117.821 Y43.07 E.02487
G1 X117.477 Y43.833 E.02485
G1 X117.058 Y44.558 E.02486
