; generated by PrusaSlicer 2.8.1+linux-x64-GTK3 on 2024-10-28 at 09:08:48 UTC

; 

; external perimeters extrusion width = 0.45mm
; perimeters extrusion width = 0.45mm
; infill extrusion width = 0.45mm
; solid infill extrusion width = 0.45mm
; top infill extrusion width = 0.40mm
; support material extrusion width = 0.40mm
; first layer extrusion width = 0.60mm

M190 S60 ; set bed temperature and wait for it to be reached
M104 S200 ; set temperature
;TYPE:Custom
G28 ; home all axes
G1 Z5 F5000 ; lift nozzle
M109 S200 ; set temperature and wait for it to be reached
G21 ; set units to millimeters
G90 ; use absolute coordinates
M82 ; use absolute distances for extrusion
G92 E0
; Filament gcode
M107
;LAYER_CHANGE
;Z:0.3
;HEIGHT:0.3
G1 E-2 F2400
G1 Z.3 F7800
G1 X57.076 Y15.23
G1 E0 F2400
;TYPE:Skirt/Brim
;WIDTH:0.6
G1 F1800
G1 X57.45 Y13.958 E.08857
G1 X57.948 Y12.731 E.17703
G1 X58.567 Y11.559 E.26558
G1 X59.299 Y10.454 E.35413
G1 X60.137 Y9.428 E.44263
G1 X61.074 Y8.49 E.5312
G1 X62.099 Y7.65 E.61973
G1 X63.202 Y6.916 E.70824
G1 X64.092 Y6.432 E.77592
G1 X65.307 Y5.903 E.86445
G1 X66.569 Y5.497 E.95301
G1 X67.864 Y5.22 E1.04148
G1 X70 Y5.046 E1.18465
G1 X150.156 Y5.048 E6.5395
G1 X151.479 Y5.129 E6.62805
G1 X152.481 Y5.28 E6.69574
G1 X153.769 Y5.592 E6.78427
G1 X155.019 Y6.031 E6.87278
G1 X157.064 Y7.079 E7.02629
G1 X158.15 Y7.839 E7.11484
G1 X159.155 Y8.702 E7.20334
G1 X159.863 Y9.428 E7.27109
G1 X160.701 Y10.454 E7.35959
G1 X161.433 Y11.558 E7.44808
G1 X162.007 Y12.637 E7.52973
G1 X162.43 Y13.629 E7.60177
G1 X162.838 Y14.89 E7.69031
G1 X163.117 Y16.186 E7.77887
G1 X163.243 Y17.191 E7.84654
G1 X163.292 Y18.515 E7.93505
G1 X163.208 Y19.838 E8.02361
G1 X162.753 Y22.09 E8.1771
G1 X162.316 Y23.342 E8.26569
G1 X161.757 Y24.543 E8.35419
G1 X161.251 Y25.42 E8.42183
G1 X160.49 Y26.505 E8.51037
G1 X159.625 Y27.509 E8.5989
G1 X158.664 Y28.422 E8.68745
G1 X156.798 Y29.764 E8.841
G1 X155.908 Y30.248 E8.90868
G1 X154.693 Y30.777 E8.99721
G1 X153.431 Y31.183 E9.08577
G1 X152.136 Y31.46 E9.17424
G1 X150 Y31.634 E9.31741
G1 X70 Y31.634 E14.66184
G1 X68.521 Y31.551 E14.7608
G1 X66.331 Y31.116 E14.90996
G1 X64.374 Y30.384 E15.04954
G1 X62.641 Y29.41 E15.18235
G1 X60.845 Y27.978 E15.3358
G1 X59.361 Y26.309 E15.485
G1 X58.243 Y24.543 E15.62463
G1 X57.35 Y22.425 E15.77819
G1 X56.883 Y20.494 E15.91091
G1 X56.733 Y19.177 E15.99946
G1 X56.716 Y17.852 E16.08798
G1 X56.83 Y16.532 E16.17649
G1 X57.065 Y15.289 E16.261
G1 E14.261 F2400
G92 E0
G1 X57.065 Y15.289 F7800
G92 E0
G1 X105.247 Y15.629
G1 E2 F2400
;TYPE:External perimeter
;WIDTH:0.6
G1 F1800
G1 X105.028 Y15.816 E2.01924
G1 X104.716 Y15.991 E2.04314
G1 X104.374 Y16.1 E2.06712
G1 X104.018 Y16.139 E2.09104
G1 X103.661 Y16.107 E2.11499
G1 X103.187 Y15.937 E2.14863
G1 X103.046 Y15.865 E2.15921
G1 X102.725 Y15.609 E2.18664
G1 X102.428 Y15.202 E2.2203
G1 X102.242 Y14.723 E2.25463
G1 X102.204 Y14.297 E2.2832
G1 X102.296 Y13.77 E2.31894
G1 X102.479 Y13.379 E2.34778
G1 X102.7 Y13.097 E2.37172
G1 X102.972 Y12.864 E2.39565
G1 X103.284 Y12.689 E2.41955
G1 X103.626 Y12.58 E2.44353
G1 X103.982 Y12.541 E2.46745
G1 X104.339 Y12.573 E2.4914
G1 X104.682 Y12.675 E2.51531
G1 X104.998 Y12.843 E2.53922
G1 X105.275 Y13.071 E2.56319
G1 X105.501 Y13.349 E2.58712
G1 X105.668 Y13.666 E2.61106
G1 X105.768 Y14.009 E2.63493
G1 X105.796 Y14.383 E2.65999
G1 X105.704 Y14.91 E2.69573
G1 X105.521 Y15.301 E2.72457
G1 X105.301 Y15.583 E2.74846
G1 X105.293 Y15.59 E2.74917
G1 X104.976 Y15.835 F7800
G1 E.74917 F2400
G92 E0
G1 X94.577 Y21.253 F7800
G1 E2 F2400
G1 F1800
G1 X94.7 Y21.097 E2.01327
G1 X94.972 Y20.864 E2.0372
G1 X95.284 Y20.689 E2.0611
G1 X95.626 Y20.58 E2.08508
G1 X95.982 Y20.541 E2.109
G1 X96.339 Y20.573 E2.13295
G1 X96.813 Y20.743 E2.16659
G1 X97.237 Y21.034 E2.20094
G1 X97.501 Y21.349 E2.2284
G1 X97.713 Y21.813 E2.26248
G1 X97.799 Y22.31 E2.29618
G1 X97.704 Y22.91 E2.33676
G1 X97.521 Y23.301 E2.3656
G1 X97.3 Y23.583 E2.38954
G1 X97.028 Y23.816 E2.41347
G1 X96.716 Y23.991 E2.43737
G1 X96.374 Y24.1 E2.46135
G1 X96.018 Y24.139 E2.48527
G1 X95.661 Y24.107 E2.50922
G1 X95.318 Y24.005 E2.53313
G1 X95.002 Y23.837 E2.55704
G1 X94.725 Y23.609 E2.58101
G1 X94.499 Y23.331 E2.60494
G1 X94.332 Y23.014 E2.62888
G1 X94.232 Y22.67 E2.65281
G1 X94.204 Y22.297 E2.6778
G1 X94.296 Y21.77 E2.71354
G1 X94.479 Y21.379 E2.74238
G1 X94.54 Y21.301 E2.749
G1 X94.813 Y21.008 F7800
G1 E.749 F2400
G92 E0
G1 X150.529 Y23.967 F7800
G1 E2 F2400
;TYPE:Perimeter
G1 F1800
G1 X149.966 Y23.995 E2.03766
G1 X98.343 Y23.989 E5.48635
G1 X98.514 Y23.72 E5.50764
G1 X98.759 Y23.095 E5.55249
G1 X98.851 Y22.568 E5.58823
G1 X98.834 Y21.902 E5.63274
G1 X98.692 Y21.35 E5.67082
G1 X98.442 Y20.836 E5.709
G1 X98.096 Y20.382 E5.74713
G1 X97.666 Y20.006 E5.78529
G1 X97.171 Y19.722 E5.82341
G1 X96.629 Y19.542 E5.86156
G1 X95.962 Y19.469 E5.90639
G1 X95.428 Y19.527 E5.94227
G1 X94.943 Y19.674 E5.97613
G1 X94.436 Y19.936 E6.01426
G1 X93.991 Y20.294 E6.05241
G1 X93.625 Y20.732 E6.09054
G1 X93.354 Y21.235 E6.12871
G1 X93.241 Y21.585 E6.15328
G1 X93.149 Y22.112 E6.18902
G1 X93.135 Y22.477 E6.21342
G1 X93.218 Y23.038 E6.25131
G1 X93.412 Y23.576 E6.28952
G1 X93.657 Y23.989 E6.3216
G1 X69.992 Y23.986 E7.90255
G1 X69.426 Y23.957 E7.94041
G1 X68.858 Y23.87 E7.9788
G1 X68.254 Y23.71 E8.02054
G1 X67.648 Y23.479 E8.06387
G1 X67.067 Y23.15 E8.10847
G1 X66.55 Y22.81 E8.14981
G1 X66.142 Y22.463 E8.18559
G1 X65.71 Y22.012 E8.22731
G1 X65.314 Y21.498 E8.27066
G1 X64.847 Y20.658 E8.33487
G1 X64.554 Y19.855 E8.39197
G1 X64.433 Y19.322 E8.42848
G1 X64.364 Y18.779 E8.46505
G1 X64.365 Y17.901 E8.52371
G1 X64.433 Y17.358 E8.56027
G1 X64.558 Y16.809 E8.59788
G1 X64.737 Y16.275 E8.6355
G1 X64.969 Y15.761 E8.67317
G1 X65.251 Y15.273 E8.71082
G1 X65.58 Y14.815 E8.74849
G1 X65.953 Y14.393 E8.78612
G1 X66.366 Y14.009 E8.82379
G1 X66.815 Y13.669 E8.86142
G1 X67.296 Y13.375 E8.89908
G1 X67.804 Y13.131 E8.93673
G1 X68.334 Y12.938 E8.97441
G1 X68.88 Y12.799 E9.01205
G1 X69.437 Y12.715 E9.04968
G1 X70.034 Y12.685 E9.08961
G1 X101.659 Y12.687 E11.20233
G1 X101.486 Y12.96 E11.22392
G1 X101.241 Y13.585 E11.26877
G1 X101.149 Y14.112 E11.30451
G1 X101.166 Y14.778 E11.34902
G1 X101.308 Y15.33 E11.3871
G1 X101.558 Y15.844 E11.42528
G1 X101.904 Y16.298 E11.46341
G1 X102.334 Y16.674 E11.50157
G1 X102.829 Y16.958 E11.53969
G1 X103.371 Y17.138 E11.57784
G1 X104.038 Y17.211 E11.62267
G1 X104.572 Y17.153 E11.65855
G1 X105.057 Y17.006 E11.69241
G1 X105.564 Y16.744 E11.73054
G1 X106.009 Y16.386 E11.76869
G1 X106.375 Y15.948 E11.80682
G1 X106.646 Y15.445 E11.84499
G1 X106.759 Y15.095 E11.86956
G1 X106.851 Y14.568 E11.9053
G1 X106.865 Y14.202 E11.92977
G1 X106.782 Y13.642 E11.96759
G1 X106.588 Y13.104 E12.0058
G1 X106.341 Y12.688 E12.03812
G1 X150.168 Y12.691 E14.966
G1 X151.142 Y12.804 E15.0315
G1 X151.666 Y12.938 E15.06763
G1 X152.196 Y13.131 E15.10531
G1 X152.704 Y13.375 E15.14296
G1 X153.185 Y13.669 E15.18062
G1 X153.634 Y14.009 E15.21825
G1 X154.047 Y14.393 E15.25592
G1 X154.42 Y14.815 E15.29355
G1 X154.739 Y15.259 E15.33007
G1 X155.014 Y15.764 E15.36848
G1 X155.27 Y16.313 E15.40895
G1 X155.439 Y16.825 E15.44497
G1 X155.562 Y17.367 E15.4821
G1 X155.631 Y17.926 E15.51973
G1 X155.645 Y18.473 E15.55628
G1 X155.6 Y19.065 E15.59594
G1 X155.486 Y19.68 E15.63773
G1 X155.3 Y20.301 E15.68104
G1 X154.884 Y21.186 E15.74637
G1 X154.59 Y21.64 E15.7825
G1 X154.249 Y22.068 E15.81906
G1 X153.621 Y22.681 E15.87769
G1 X153.185 Y23.011 E15.91422
G1 X152.704 Y23.305 E15.95188
G1 X152.196 Y23.549 E15.98953
G1 X151.666 Y23.742 E16.02721
G1 X151.12 Y23.881 E16.06485
G1 X150.588 Y23.961 E16.10079
G1 X150.588 Y23.961 F7800
G1 X150.595 Y24.5
G1 F1800
G1 X149.979 Y24.531 E16.14199
G1 X96.807 Y24.525 E19.69416
G1 X97.296 Y24.28 E19.7307
G1 X97.655 Y23.985 E19.76174
G1 X98.031 Y23.488 E19.80337
G1 X98.231 Y23.003 E19.83842
G1 X98.324 Y22.475 E19.87424
G1 X98.301 Y21.956 E19.90895
G1 X98.18 Y21.508 E19.93995
G1 X97.972 Y21.093 E19.97096
G1 X97.708 Y20.753 E19.99972
G1 X97.332 Y20.425 E20.03305
G1 X96.926 Y20.199 E20.06409
G1 X96.484 Y20.057 E20.0951
G1 X96.022 Y20.007 E20.12614
G1 X95.559 Y20.049 E20.1572
G1 X95.114 Y20.182 E20.18823
G1 X94.704 Y20.4 E20.21925
G1 X94.345 Y20.695 E20.25029
G1 X93.969 Y21.192 E20.29192
G1 X93.769 Y21.677 E20.32697
G1 X93.676 Y22.205 E20.36279
G1 X93.699 Y22.724 E20.3975
G1 X93.82 Y23.172 E20.4285
G1 X94.028 Y23.587 E20.45951
G1 X94.315 Y23.953 E20.49058
G1 X94.668 Y24.255 E20.52161
G1 X95.184 Y24.525 E20.56052
G1 X69.692 Y24.522 E22.26352
G1 X69.077 Y24.46 E22.30481
G1 X68.473 Y24.338 E22.34598
G1 X67.881 Y24.156 E22.38736
G1 X67.413 Y23.961 E22.42123
G1 X66.502 Y23.446 E22.49114
G1 X66.021 Y23.081 E22.53148
G1 X65.569 Y22.662 E22.57265
G1 X65.16 Y22.198 E22.61397
G1 X64.861 Y21.787 E22.64792
G1 X64.358 Y20.881 E22.71715
G1 X64.039 Y20.007 E22.77931
G1 X63.904 Y19.415 E22.81987
G1 X63.829 Y18.812 E22.86046
G1 X63.829 Y17.867 E22.92359
G1 X63.904 Y17.265 E22.96412
G1 X64.042 Y16.664 E23.00531
G1 X64.238 Y16.079 E23.04653
G1 X64.492 Y15.516 E23.08779
G1 X64.801 Y14.982 E23.12901
G1 X65.161 Y14.481 E23.17022
G1 X65.569 Y14.018 E23.21145
G1 X66.021 Y13.598 E23.25267
G1 X66.513 Y13.226 E23.29388
G1 X67.04 Y12.904 E23.33514
G1 X67.596 Y12.636 E23.37637
G1 X68.176 Y12.425 E23.4176
G1 X68.774 Y12.273 E23.45882
G1 X69.384 Y12.181 E23.50003
G1 X70.021 Y12.149 E23.54264
G1 X102.637 Y12.152 E25.72156
G1 X103.026 Y12.134 E25.74758
;WIDTH:0.565178
G1 X103.414 Y12.117 E25.77184
G1 X103.264 Y12.149 E25.78142
;WIDTH:0.6
G1 X103.114 Y12.182 E25.79168
G1 X102.704 Y12.4 E25.8227
G1 X102.345 Y12.695 E25.85374
G1 X101.969 Y13.192 E25.89537
G1 X101.769 Y13.677 E25.93042
G1 X101.676 Y14.205 E25.96624
G1 X101.699 Y14.724 E26.00095
G1 X101.82 Y15.172 E26.03195
G1 X102.028 Y15.587 E26.06296
G1 X102.315 Y15.953 E26.09403
G1 X102.668 Y16.255 E26.12506
G1 X103.074 Y16.481 E26.1561
G1 X103.516 Y16.622 E26.18709
G1 X103.978 Y16.673 E26.21814
G1 X104.441 Y16.631 E26.2492
G1 X104.886 Y16.498 E26.28023
G1 X105.296 Y16.28 E26.31125
G1 X105.655 Y15.985 E26.34229
G1 X106.031 Y15.488 E26.38392
G1 X106.231 Y15.003 E26.41897
G1 X106.324 Y14.475 E26.45479
G1 X106.301 Y13.956 E26.4895
G1 X106.18 Y13.508 E26.5205
G1 X105.972 Y13.092 E26.55157
G1 X105.685 Y12.727 E26.58259
G1 X105.332 Y12.425 E26.61362
G1 X104.808 Y12.152 E26.65309
G1 X150.199 Y12.155 E29.68545
G1 X151.24 Y12.276 E29.75546
G1 X151.824 Y12.425 E29.79572
G1 X152.404 Y12.636 E29.83695
G1 X152.96 Y12.904 E29.87818
G1 X153.487 Y13.226 E29.91944
G1 X153.979 Y13.598 E29.96065
G1 X154.431 Y14.018 E30.00187
G1 X154.839 Y14.481 E30.0431
G1 X155.194 Y14.974 E30.08369
G1 X155.484 Y15.507 E30.12423
G1 X155.769 Y16.118 E30.16927
G1 X155.955 Y16.68 E30.20882
G1 X156.089 Y17.274 E30.2495
G1 X156.165 Y17.885 E30.29063
G1 X156.18 Y18.487 E30.33086
G1 X156.172 Y18.802 E30.35191
G1 X156.096 Y19.415 E30.39318
G1 X155.958 Y20.018 E30.43451
G1 X155.798 Y20.5 E30.46844
G1 X155.353 Y21.446 E30.53828
G1 X155.026 Y21.953 E30.57858
G1 X154.647 Y22.428 E30.61918
G1 X153.971 Y23.088 E30.6823
G1 X153.487 Y23.454 E30.72284
G1 X152.96 Y23.776 E30.7641
G1 X152.404 Y24.044 E30.80533
G1 X151.824 Y24.255 E30.84656
G1 X151.226 Y24.407 E30.88778
G1 X150.655 Y24.493 E30.92636
G1 E28.92636 F2400
G92 E0
G1 X96.471 Y24.575 F7800
G1 E2 F2400
;WIDTH:0.498815
G1 F1800
G1 X95.679 Y24.588 E2.04292
G1 E.04292 F2400
G92 E0
G1 X95.679 Y24.588 F7800
G1 X103.529 Y12.103
G1 E2 F2400
;WIDTH:0.502097
G1 F1800
G1 X104.322 Y12.091 E2.0433
G1 E.0433 F2400
G92 E0
G1 X104.322 Y12.091 F7800
G1 X150.662 Y25.033
G1 E2 F2400
;TYPE:External perimeter
;WIDTH:0.6
G1 F1800
G1 X149.993 Y25.066 E2.04475
G1 X69.665 Y25.058 E7.41109
G1 X68.998 Y24.991 E7.45587
G1 X68.34 Y24.858 E7.50072
G1 X67.699 Y24.66 E7.54554
G1 X67.177 Y24.443 E7.58331
G1 X66.208 Y23.894 E7.65771
G1 X65.677 Y23.492 E7.7022
G1 X65.185 Y23.036 E7.74701
G1 X64.741 Y22.533 E7.79183
G1 X64.409 Y22.075 E7.82962
G1 X63.869 Y21.105 E7.90379
G1 X63.525 Y20.158 E7.9711
G1 X63.376 Y19.508 E8.01565
G1 X63.293 Y18.845 E8.06029
G1 X63.293 Y17.834 E8.12783
G1 X63.376 Y17.172 E8.1724
G1 X63.525 Y16.518 E8.21721
G1 X63.739 Y15.883 E8.26198
G1 X64.015 Y15.271 E8.30683
G1 X64.35 Y14.691 E8.35158
G1 X64.741 Y14.146 E8.39639
G1 X65.185 Y13.644 E8.44116
G1 X65.677 Y13.188 E8.48597
G1 X66.211 Y12.783 E8.53074
G1 X66.783 Y12.433 E8.57554
G1 X67.387 Y12.142 E8.62033
G1 X68.017 Y11.913 E8.66511
G1 X68.667 Y11.747 E8.70993
G1 X69.33 Y11.647 E8.75472
G1 X70.007 Y11.614 E8.8
G1 X150.23 Y11.62 E14.15933
G1 X151.337 Y11.749 E14.23378
G1 X151.983 Y11.913 E14.27831
G1 X152.613 Y12.142 E14.32309
G1 X153.217 Y12.433 E14.36788
G1 X153.789 Y12.783 E14.41268
G1 X154.323 Y13.188 E14.45745
G1 X154.815 Y13.644 E14.50226
G1 X155.259 Y14.146 E14.54703
G1 X155.648 Y14.688 E14.5916
G1 X155.955 Y15.251 E14.63444
G1 X156.267 Y15.922 E14.68388
G1 X156.471 Y16.535 E14.72704
G1 X156.617 Y17.181 E14.77128
G1 X156.699 Y17.845 E14.81598
G1 X156.716 Y18.5 E14.85975
G1 X156.707 Y18.843 E14.88267
G1 X156.624 Y19.508 E14.92744
G1 X156.474 Y20.162 E14.97227
G1 X156.297 Y20.699 E15.01004
G1 X155.822 Y21.707 E15.08448
G1 X155.461 Y22.266 E15.12893
G1 X155.045 Y22.788 E15.17352
G1 X154.321 Y23.494 E15.24108
G1 X153.789 Y23.897 E15.28567
G1 X153.217 Y24.247 E15.33047
G1 X152.613 Y24.538 E15.37526
G1 X151.983 Y24.767 E15.42004
G1 X151.333 Y24.933 E15.46486
G1 X150.722 Y25.025 E15.50614
G1 X150.322 Y25.049 F7800
G1 E13.50614 F2400
G92 E0
G1 X154.809 Y15.724 F7800
G1 E2 F2400
;TYPE:Solid infill
;WIDTH:0.600938
G1 F1800
G1 X153.755 Y14.67 E2.09975
G1 X153.375 Y14.317 E2.13446
G1 X152.958 Y14.001 E2.16947
G1 X152.511 Y13.728 E2.20452
G1 X152.04 Y13.501 E2.23951
G1 X151.706 Y13.38 E2.26328
G1 X154.967 Y16.64 E2.57186
G1 X155.119 Y17.171 E2.60882
G1 X155.201 Y17.633 E2.64022
G1 X150.728 Y13.161 E3.06351
G1 X150.145 Y13.093 E3.10279
G1 X149.902 Y13.093 E3.11905
G1 X155.244 Y18.435 E3.62463
G1 X155.236 Y18.732 E3.64451
G1 X155.186 Y19.136 E3.67175
G1 X149.143 Y13.093 E4.24367
G1 X148.384 Y13.093 E4.29446
G1 X155.055 Y19.763 E4.92577
G1 X154.926 Y20.152 E4.9532
G1 X154.849 Y20.316 E4.96532
G1 X147.625 Y13.093 E5.64897
G1 X146.866 Y13.092 E5.69976
G1 X154.606 Y20.832 E6.43229
G1 X154.532 Y20.99 E6.44397
G1 X154.325 Y21.31 E6.46948
G1 X146.107 Y13.092 E7.24725
G1 X145.349 Y13.092 E7.29798
G1 X153.996 Y21.74 E8.1164
G1 X153.619 Y22.121 E8.15227
G1 X144.59 Y13.092 E9.0068
G1 X143.831 Y13.092 E9.05759
G1 X153.219 Y22.481 E9.94614
G1 X152.958 Y22.679 E9.96806
G1 X152.772 Y22.792 E9.98262
G1 X143.072 Y13.092 E10.90065
G1 X142.313 Y13.092 E10.95144
G1 X152.283 Y23.062 E11.89503
G1 X152.04 Y23.179 E11.91308
G1 X151.747 Y23.285 E11.93393
G1 X141.554 Y13.092 E12.89862
G1 X140.795 Y13.092 E12.94941
G1 X151.16 Y23.457 E13.93038
G1 X150.51 Y23.566 E13.97449
G1 X140.036 Y13.092 E14.96578
G1 X139.278 Y13.092 E15.01651
G1 X149.779 Y23.593 E16.01035
G1 X149.02 Y23.593 E16.06114
G1 X138.519 Y13.092 E17.05498
G1 X137.76 Y13.092 E17.10577
G1 X148.261 Y23.593 E18.09961
G1 X147.502 Y23.593 E18.1504
G1 X137.001 Y13.092 E19.14424
G1 X136.242 Y13.092 E19.19503
G1 X146.743 Y23.593 E20.18887
G1 X145.985 Y23.593 E20.2396
G1 X135.483 Y13.092 E21.23349
G1 X134.724 Y13.092 E21.28428
G1 X145.226 Y23.593 E22.27817
G1 X144.467 Y23.593 E22.32896
G1 X133.966 Y13.092 E23.3228
G1 X133.207 Y13.091 E23.37359
G1 X143.708 Y23.593 E24.36748
G1 X142.949 Y23.593 E24.41827
G1 X132.448 Y13.091 E25.41216
G1 X131.689 Y13.091 E25.46295
G1 X142.19 Y23.592 E26.45679
G1 X141.431 Y23.592 E26.50758
G1 X130.93 Y13.091 E27.50142
G1 X130.171 Y13.091 E27.55221
G1 X140.672 Y23.592 E28.54605
G1 X139.913 Y23.592 E28.59684
G1 X129.412 Y13.091 E29.59068
G1 X128.654 Y13.091 E29.64141
G1 X139.155 Y23.592 E30.63525
G1 X138.396 Y23.592 E30.68604
G1 X127.895 Y13.091 E31.67988
G1 X127.136 Y13.091 E31.73067
G1 X137.637 Y23.592 E32.72451
G1 X136.878 Y23.592 E32.7753
G1 X126.377 Y13.091 E33.76914
G1 X125.618 Y13.091 E33.81993
G1 X136.119 Y23.592 E34.81377
G1 X135.36 Y23.592 E34.86456
G1 X124.859 Y13.091 E35.8584
G1 X124.1 Y13.091 E35.90919
G1 X134.601 Y23.592 E36.90303
G1 X133.842 Y23.592 E36.95382
G1 X123.341 Y13.091 E37.94766
G1 X122.583 Y13.091 E37.99839
G1 X133.083 Y23.591 E38.99214
