; generated by PrusaSlicer 2.7.4 on 2025-01-04 at 09:49:59 UTC

; 

; external perimeters extrusion width = 0.45mm
; perimeters extrusion width = 0.45mm
; infill extrusion width = 0.45mm
; solid infill extrusion width = 0.45mm
; top infill extrusion width = 0.40mm
; first layer extrusion width = 0.42mm

M190 S60 ; set bed temperature and wait for it to be reached
M104 S200 ; set temperature
;TYPE:Custom
G28 ; home all axes
G1 Z5 F5000 ; lift nozzle
M109 S200 ; set temperature and wait for it to be reached
G21 ; set units to millimeters
G90 ; use absolute coordinates
M82 ; use absolute distances for extrusion
G92 E0
; Filament gcode
M107
;LAYER_CHANGE
;Z:0.35
;HEIGHT:0.35
G1 E-2 F2400
G1 Z.35 F7800
G1 X42.588 Y31.718
G1 E0 F2400
;TYPE:Skirt/Brim
;WIDTH:0.42
G1 F1800
G1 X44.451 Y29.358 E.1509
G1 X46.68 Y27.452 E.29808
G1 X47.516 Y26.916 E.34792
G1 X49.23 Y26.005 E.44533
G1 X50.22 Y25.611 E.4988
G1 X51.859 Y25.114 E.58475
G1 X53.125 Y24.858 E.64957
G1 X55.5 Y24.655 E.7692
G1 X145.086 Y24.682 E5.26516
G1 X146.875 Y24.858 E5.35538
G1 X147.991 Y25.07 E5.41239
G1 X149.78 Y25.611 E5.50619
G1 X150.77 Y26.005 E5.55966
G1 X152.484 Y26.916 E5.65707
G1 X153.321 Y27.452 E5.70695
G1 X155.549 Y29.359 E5.85413
G1 X157.412 Y31.718 E6.00499
G1 X158.719 Y34.238 E6.14746
G1 X159.555 Y37.041 E6.29425
G1 X159.812 Y39.33 E6.40985
G1 X159.812 Y40.67 E6.4771
G1 X159.572 Y42.864 E6.58786
G1 X159.389 Y43.638 E6.62777
G1 X158.754 Y45.672 E6.73471
G1 X158.396 Y46.468 E6.77851
G1 X157.454 Y48.212 E6.87799
G1 X156.879 Y49.037 E6.92846
G1 X155.582 Y50.606 E7.03062
G1 X154.881 Y51.277 E7.07932
G1 X153.321 Y52.548 E7.18031
G1 X152.484 Y53.084 E7.23019
G1 X150.77 Y53.995 E7.3276
G1 X149.78 Y54.389 E7.38107
G1 X147.991 Y54.93 E7.47487
G1 X146.875 Y55.142 E7.53188
G1 X144.5 Y55.345 E7.65151
G1 X55.5 Y55.345 E12.11806
G1 X53.125 Y55.142 E12.23769
G1 X52.009 Y54.93 E12.2947
G1 X50.22 Y54.389 E12.3885
G1 X49.027 Y53.891 E12.45338
G1 X46.68 Y52.548 E12.58909
G1 X44.451 Y50.642 E12.73627
G1 X42.588 Y48.282 E12.88717
G1 X41.604 Y46.468 E12.99074
G1 X41.093 Y45.228 E13.05805
G1 X40.428 Y42.864 E13.18129
G1 X40.157 Y39.952 E13.32806
G1 X40.445 Y37.041 E13.47486
G1 X41.281 Y34.238 E13.62165
G1 X42.56 Y31.771 E13.76111
G1 E11.76111 F2400
G92 E0
G1 X42.56 Y31.771 F7800
G92 E0
G1 X152.431 Y41.619
G1 E2 F2400
;TYPE:Perimeter
;WIDTH:0.42
G1 F1800
G1 X151.966 Y43.128 E2.07924
G1 X151.224 Y44.509 E2.15792
G1 X150.217 Y45.732 E2.23743
G1 X148.991 Y46.736 E2.31696
G1 X147.593 Y47.482 E2.39648
G1 X146.077 Y47.941 E2.47597
G1 X144.456 Y48.1 E2.55771
G1 X55.544 Y48.1 E7.01984
G1 X53.923 Y47.941 E7.10158
G1 X52.407 Y47.482 E7.18107
G1 X51.009 Y46.736 E7.26059
G1 X49.783 Y45.732 E7.34012
G1 X48.776 Y44.509 E7.41963
G1 X48.035 Y43.13 E7.49819
G1 X47.553 Y41.528 E7.58215
G1 X47.406 Y39.956 E7.66139
G1 X47.569 Y38.384 E7.74071
G1 X48.034 Y36.872 E7.8201
G1 X48.776 Y35.491 E7.89878
G1 X49.783 Y34.268 E7.97829
G1 X51.009 Y33.264 E8.05782
G1 X52.407 Y32.518 E8.13734
G1 X53.923 Y32.059 E8.21683
G1 X55.544 Y31.9 E8.29857
G1 X144.504 Y31.904 E12.7631
G1 X146.077 Y32.059 E12.84242
G1 X147.593 Y32.518 E12.92191
G1 X148.991 Y33.264 E13.00143
G1 X150.217 Y34.268 E13.08096
G1 X151.224 Y35.491 E13.16047
G1 X151.966 Y36.872 E13.23915
G1 X152.431 Y38.384 E13.31854
G1 X152.467 Y38.733 E13.33615
G1 X152.593 Y39.954 E13.39775
G1 X152.436 Y41.559 E13.47868
G1 X152.436 Y41.559 F7800
G1 X152.769 Y41.692
G1 F1800
G1 X152.286 Y43.262 E13.56112
G1 X151.512 Y44.702 E13.64317
G1 X150.462 Y45.977 E13.72606
G1 X149.183 Y47.024 E13.80901
G1 X147.726 Y47.802 E13.8919
G1 X146.144 Y48.281 E13.97485
G1 X144.473 Y48.445 E14.05911
G1 X55.527 Y48.445 E18.52294
G1 X53.856 Y48.281 E18.6072
G1 X52.274 Y47.802 E18.69015
G1 X50.817 Y47.024 E18.77304
G1 X49.538 Y45.977 E18.85599
G1 X48.488 Y44.702 E18.93888
G1 X47.715 Y43.263 E19.02086
G1 X47.212 Y41.595 E19.10829
G1 X47.06 Y39.955 E19.19095
G1 X47.229 Y38.315 E19.27369
G1 X47.714 Y36.738 E19.35649
G1 X48.488 Y35.298 E19.43854
G1 X49.538 Y34.023 E19.52143
G1 X50.817 Y32.976 E19.60438
G1 X52.274 Y32.198 E19.68727
G1 X53.856 Y31.719 E19.77022
G1 X55.527 Y31.555 E19.85448
G1 X144.521 Y31.559 E24.32072
G1 X146.144 Y31.719 E24.40257
G1 X147.726 Y32.198 E24.48552
G1 X149.183 Y32.976 E24.56841
G1 X150.462 Y34.023 E24.65136
G1 X151.512 Y35.298 E24.73425
G1 X152.286 Y36.738 E24.8163
G1 X152.771 Y38.315 E24.8991
G1 X152.81 Y38.698 E24.91842
G1 X152.94 Y39.953 E24.98174
G1 X152.776 Y41.633 E25.06645
G1 X152.776 Y41.633 F7800
G1 X153.098 Y41.793
;TYPE:External perimeter
G1 F1800
G1 X152.606 Y43.395 E25.15055
G1 X151.799 Y44.895 E25.23603
G1 X150.706 Y46.223 E25.32235
G1 X149.376 Y47.312 E25.40862
G1 X147.858 Y48.122 E25.49497
G1 X146.212 Y48.621 E25.58129
G1 X144.49 Y48.79 E25.66813
G1 X55.51 Y48.79 E30.13367
G1 X53.788 Y48.621 E30.22051
G1 X52.142 Y48.122 E30.30683
G1 X50.624 Y47.312 E30.39318
G1 X49.294 Y46.223 E30.47945
G1 X48.201 Y44.895 E30.56577
G1 X47.395 Y43.396 E30.65118
G1 X46.872 Y41.661 E30.74212
G1 X46.713 Y39.953 E30.82821
G1 X46.89 Y38.245 E30.91439
G1 X47.395 Y36.605 E31.00051
G1 X48.201 Y35.105 E31.08597
G1 X49.294 Y33.777 E31.17229
G1 X50.624 Y32.688 E31.25856
G1 X52.142 Y31.878 E31.34491
G1 X53.788 Y31.379 E31.43123
G1 X55.51 Y31.21 E31.51807
G1 X144.538 Y31.214 E35.98602
G1 X146.212 Y31.379 E36.07044
G1 X147.858 Y31.878 E36.15676
G1 X149.376 Y32.688 E36.24311
G1 X150.706 Y33.777 E36.32938
G1 X151.799 Y35.105 E36.4157
G1 X152.606 Y36.605 E36.50118
G1 X153.11 Y38.245 E36.58728
G1 X153.154 Y38.662 E36.60832
G1 X153.287 Y39.952 E36.6734
G1 X153.112 Y41.735 E36.76331
G1 X152.998 Y42.119 F7800
G1 E34.76331 F2400
G92 E0
G1 X135.98 Y36.404 F7800
G1 E2 F2400
;TYPE:Perimeter
G1 F1800
G1 X136.032 Y36.345 E2.00395
G1 X136.85 Y35.62 E2.05881
G1 X137.022 Y35.502 E2.06928
G1 X137.99 Y34.994 E2.12414
G1 X138.185 Y34.92 E2.13461
G1 X139.247 Y34.658 E2.18951
G1 X139.453 Y34.633 E2.19992
G1 X140.547 Y34.633 E2.25482
G1 X140.753 Y34.658 E2.26523
G1 X141.815 Y34.92 E2.32013
G1 X142.01 Y34.994 E2.3306
G1 X142.978 Y35.502 E2.38546
G1 X143.15 Y35.62 E2.39593
G1 X143.968 Y36.345 E2.45079
G1 X144.728 Y37.401 E2.51608
G1 X145.209 Y38.6 E2.58091
G1 X145.35 Y39.533 E2.62827
G1 X145.396 Y40.084 E2.65602
G1 X145.262 Y41.19 E2.71193
G1 X144.878 Y42.272 E2.76955
G1 X144.728 Y42.599 E2.7876
G1 X144.106 Y43.499 E2.8425
G1 X143.958 Y43.663 E2.85359
G1 X143.15 Y44.38 E2.9078
G1 X142.978 Y44.498 E2.91827
G1 X142.01 Y45.006 E2.97313
G1 X141.815 Y45.08 E2.9836
G1 X140.753 Y45.342 E3.0385
G1 X140.547 Y45.367 E3.04891
G1 X139.453 Y45.367 E3.10381
G1 X139.247 Y45.342 E3.11422
G1 X138.185 Y45.08 E3.16912
G1 X137.99 Y45.006 E3.17959
G1 X137.022 Y44.498 E3.23445
G1 X136.85 Y44.38 E3.24492
G1 X136.032 Y43.655 E3.29978
G1 X135.894 Y43.499 E3.31023
G1 X135.272 Y42.599 E3.36513
G1 X135.176 Y42.415 E3.37555
G1 X134.756 Y41.288 E3.43591
G1 X134.606 Y40.104 E3.49581
G1 X134.606 Y39.896 E3.50625
G1 X134.738 Y38.81 E3.56115
G1 X134.788 Y38.608 E3.57159
G1 X135.176 Y37.585 E3.6265
G1 X135.272 Y37.401 E3.63692
G1 X135.894 Y36.501 E3.69182
G1 X135.94 Y36.449 E3.6953
G1 X135.94 Y36.449 F7800
G1 X136.235 Y36.633
G1 F1800
G1 X136.26 Y36.604 E3.69722
G1 X137.079 Y35.878 E3.75215
G1 X137.182 Y35.807 E3.75843
G1 X138.15 Y35.299 E3.81329
G1 X138.267 Y35.255 E3.81956
G1 X139.329 Y34.993 E3.87446
G1 X139.453 Y34.978 E3.88073
G1 X140.547 Y34.978 E3.93563
G1 X140.671 Y34.993 E3.9419
G1 X141.733 Y35.255 E3.9968
G1 X141.85 Y35.299 E4.00307
G1 X142.818 Y35.807 E4.05793
G1 X142.921 Y35.878 E4.06421
G1 X143.74 Y36.604 E4.11914
G1 X144.444 Y37.597 E4.18023
G1 X144.887 Y38.722 E4.24091
G1 X145.007 Y39.574 E4.28409
G1 X145.051 Y40.062 E4.30868
G1 X144.92 Y41.148 E4.36358
G1 X144.556 Y42.15 E4.41708
G1 X144.444 Y42.403 E4.43097
G1 X143.822 Y43.303 E4.48587
G1 X143.73 Y43.405 E4.49276
G1 X142.921 Y44.122 E4.54701
G1 X142.818 Y44.193 E4.55329
G1 X141.85 Y44.701 E4.60815
G1 X141.733 Y44.745 E4.61442
G1 X140.671 Y45.007 E4.66932
G1 X140.547 Y45.022 E4.67559
G1 X139.453 Y45.022 E4.73049
G1 X139.329 Y45.007 E4.73676
G1 X138.267 Y44.745 E4.79166
G1 X138.15 Y44.701 E4.79793
G1 X137.182 Y44.193 E4.85279
G1 X137.079 Y44.122 E4.85907
G1 X136.26 Y43.396 E4.914
G1 X136.178 Y43.303 E4.92022
G1 X135.556 Y42.403 E4.97512
G1 X135.498 Y42.292 E4.98141
G1 X135.091 Y41.207 E5.03957
G1 X134.949 Y40.062 E5.09747
G1 X134.949 Y39.938 E5.10369
G1 X135.08 Y38.852 E5.15859
G1 X135.11 Y38.731 E5.16485
G1 X135.498 Y37.708 E5.21976
G1 X135.556 Y37.597 E5.22605
G1 X136.178 Y36.697 E5.28095
G1 X136.195 Y36.678 E5.28223
G1 X136.195 Y36.678 F7800
G1 X136.445 Y36.925
;TYPE:External perimeter
G1 F1800
G1 X136.489 Y36.862 E5.28609
G1 X137.308 Y36.136 E5.34102
G1 X138.35 Y35.59 E5.40006
G1 X139.412 Y35.328 E5.45496
G1 X140.547 Y35.323 E5.51192
G1 X141.689 Y35.604 E5.57094
G1 X142.658 Y36.113 E5.62587
G1 X143.511 Y36.862 E5.68284
G1 X144.16 Y37.793 E5.7398
G1 X144.564 Y38.845 E5.79635
G1 X144.709 Y40.021 E5.85582
G1 X144.577 Y41.107 E5.91072
G1 X144.16 Y42.207 E5.96976
G1 X143.539 Y43.107 E6.02464
G1 X142.692 Y43.864 E6.08165
G1 X141.65 Y44.41 E6.14069
G1 X140.547 Y44.677 E6.19764
G1 X139.412 Y44.672 E6.2546
G1 X138.35 Y44.41 E6.3095
G1 X137.342 Y43.887 E6.36649
G1 X136.461 Y43.107 E6.42554
G1 X135.821 Y42.17 E6.48249
G1 X135.426 Y41.126 E6.53851
G1 X135.291 Y40.021 E6.59438
G1 X135.423 Y38.893 E6.65138
G1 X135.84 Y37.793 E6.71042
G1 X136.411 Y36.974 E6.76053
G1 X136.691 Y36.689 F7800
G1 E4.76053 F2400
G92 E0
G1 X91.67 Y43.46 F7800
G1 E2 F2400
;TYPE:Perimeter
G1 F1800
G1 X91.68 Y43.386 E2.00375
G1 X91.86 Y42.914 E2.0291
G1 X92.139 Y42.49 E2.05457
G1 X92.555 Y42.089 E2.08357
G1 X93.054 Y41.799 E2.11253
G1 X93.608 Y41.636 E2.14151
G1 X94.29 Y41.617 E2.17575
G1 X94.852 Y41.756 E2.2048
G1 X95.365 Y42.026 E2.23389
G1 X95.798 Y42.411 E2.26297
G1 X96.124 Y42.883 E2.29176
G1 X96.328 Y43.418 E2.3205
G1 X96.4 Y43.994 E2.34963
G1 X96.299 Y44.674 E2.38413
G1 X96.071 Y45.204 E2.41309
G1 X95.723 Y45.665 E2.44208
G1 X95.274 Y46.029 E2.47109
G1 X94.752 Y46.275 E2.50005
G1 X94.185 Y46.389 E2.52907
G1 X93.608 Y46.364 E2.55805
G1 X93.07 Y46.207 E2.58618
G1 X92.555 Y45.911 E2.61599
G1 X92.139 Y45.51 E2.64499
G1 X91.832 Y45.02 E2.67401
G1 X91.651 Y44.472 E2.70297
G1 X91.606 Y43.896 E2.73197
G1 X91.661 Y43.519 E2.75109
G1 X92.013 Y43.514 F7800
G1 F1800
G1 X92.023 Y43.449 E2.75439
G1 X92.213 Y42.991 E2.77927
G1 X92.506 Y42.593 E2.80407
G1 X92.886 Y42.276 E2.82891
G1 X93.331 Y42.06 E2.85373
G1 X93.815 Y41.956 E2.87857
G1 X94.248 Y41.96 E2.9003
G1 X94.786 Y42.104 E2.92825
G1 X95.217 Y42.347 E2.95308
G1 X95.577 Y42.686 E2.9779
G1 X95.845 Y43.102 E3.00273
G1 X96.007 Y43.57 E3.02758
G1 X96.051 Y44.062 E3.05237
G1 X95.977 Y44.551 E3.07719
G1 X95.787 Y45.009 E3.10207
G1 X95.494 Y45.407 E3.12687
G1 X95.114 Y45.724 E3.15171
G1 X94.669 Y45.94 E3.17653
G1 X94.185 Y46.044 E3.20137
G1 X93.691 Y46.029 E3.22617
G1 X93.228 Y45.9 E3.25029
G1 X92.783 Y45.653 E3.27583
G1 X92.423 Y45.314 E3.30065
G1 X92.155 Y44.898 E3.32548
G1 X91.993 Y44.43 E3.35033
G1 X91.949 Y43.938 E3.37512
G1 X92.004 Y43.574 E3.3936
G1 X92.004 Y43.574 F7800
G1 X92.346 Y43.571
;TYPE:External perimeter
G1 F1800
G1 X92.496 Y43.187 E3.41429
G1 X92.735 Y42.851 E3.43498
G1 X93.046 Y42.582 E3.45562
G1 X93.413 Y42.395 E3.47629
G1 X93.815 Y42.301 E3.49701
G1 X94.206 Y42.302 E3.51663
G1 X94.625 Y42.409 E3.53833
G1 X94.988 Y42.605 E3.55903
G1 X95.293 Y42.882 E3.57971
G1 X95.523 Y43.224 E3.60039
G1 X95.664 Y43.611 E3.62106
G1 X95.709 Y44.021 E3.64176
G1 X95.654 Y44.429 E3.66242
G1 X95.504 Y44.813 E3.68311
G1 X95.265 Y45.149 E3.7038
G1 X94.954 Y45.418 E3.72444
G1 X94.587 Y45.605 E3.74511
G1 X94.185 Y45.699 E3.76583
G1 X93.773 Y45.694 E3.78651
G1 X93.386 Y45.594 E3.80657
G1 X93.012 Y45.395 E3.82783
G1 X92.707 Y45.118 E3.84851
G1 X92.477 Y44.776 E3.86919
G1 X92.336 Y44.389 E3.88986
G1 X92.301 Y43.899 E3.91451
G1 X92.337 Y43.63 E3.92813
G1 X92.472 Y43.254 F7800
G1 E1.92813 F2400
G92 E0
G1 X88.331 Y36.539 F7800
G1 E2 F2400
;TYPE:Perimeter
G1 F1800
G1 X88.322 Y36.606 E2.00339
G1 X88.144 Y37.075 E2.02857
G1 X87.864 Y37.505 E2.05432
G1 X87.445 Y37.911 E2.0836
G1 X86.955 Y38.196 E2.11205
G1 X86.275 Y38.384 E2.14746
G1 X85.71 Y38.383 E2.17582
G1 X85.148 Y38.244 E2.20487
G1 X84.632 Y37.972 E2.23414
G1 X84.194 Y37.579 E2.26367
G1 X83.876 Y37.117 E2.29182
G1 X83.672 Y36.582 E2.32056
G1 X83.6 Y36.006 E2.34969
G1 X83.701 Y35.326 E2.38419
G1 X83.929 Y34.796 E2.41315
G1 X84.267 Y34.348 E2.44131
G1 X84.726 Y33.971 E2.47112
G1 X85.248 Y33.725 E2.50008
G1 X85.815 Y33.611 E2.5291
G1 X86.392 Y33.636 E2.55808
G1 X86.946 Y33.799 E2.58706
G1 X87.445 Y34.089 E2.61602
G1 X87.861 Y34.49 E2.64502
G1 X88.168 Y34.98 E2.67404
G1 X88.349 Y35.528 E2.703
G1 X88.394 Y36.104 E2.732
G1 X88.34 Y36.48 E2.75106
G1 X87.987 Y36.486 F7800
G1 F1800
G1 X87.977 Y36.551 E2.75436
G1 X87.793 Y36.996 E2.77853
G1 X87.494 Y37.407 E2.80404
G1 X87.114 Y37.724 E2.82888
G1 X86.682 Y37.934 E2.85299
G1 X86.239 Y38.041 E2.87586
G1 X85.725 Y38.036 E2.90166
G1 X85.214 Y37.896 E2.92825
G1 X84.781 Y37.65 E2.95324
G1 X84.417 Y37.305 E2.97841
G1 X84.155 Y36.898 E3.0027
G1 X83.993 Y36.43 E3.02755
G1 X83.949 Y35.938 E3.05234
G1 X84.023 Y35.449 E3.07716
G1 X84.213 Y34.991 E3.10204
G1 X84.497 Y34.604 E3.12613
G1 X84.886 Y34.276 E3.15167
G1 X85.331 Y34.06 E3.17649
G1 X85.815 Y33.956 E3.20133
G1 X86.309 Y33.971 E3.22613
G1 X86.786 Y34.104 E3.25098
G1 X87.217 Y34.347 E3.27581
G1 X87.577 Y34.686 E3.30063
G1 X87.845 Y35.102 E3.32546
G1 X88.007 Y35.57 E3.35031
G1 X88.051 Y36.062 E3.3751
G1 X87.996 Y36.426 E3.39358
G1 X87.996 Y36.426 F7800
G1 X87.653 Y36.433
;TYPE:External perimeter
G1 F1800
G1 X87.508 Y36.802 E3.41348
G1 X87.266 Y37.149 E3.43471
G1 X86.954 Y37.418 E3.45538
G1 X86.597 Y37.6 E3.47549
G1 X86.203 Y37.698 E3.49587
G1 X85.773 Y37.694 E3.51745
G1 X85.375 Y37.591 E3.53808
G1 X85.011 Y37.394 E3.55885
G1 X84.701 Y37.109 E3.57998
G1 X84.477 Y36.776 E3.60012
G1 X84.336 Y36.389 E3.62079
G1 X84.291 Y35.979 E3.64149
G1 X84.346 Y35.571 E3.66215
G1 X84.496 Y35.187 E3.68284
G1 X84.728 Y34.861 E3.70292
G1 X85.046 Y34.582 E3.72415
G1 X85.413 Y34.395 E3.74482
G1 X85.815 Y34.301 E3.76554
G1 X86.227 Y34.306 E3.78622
G1 X86.625 Y34.409 E3.80685
G1 X86.988 Y34.605 E3.82755
G1 X87.293 Y34.882 E3.84823
G1 X87.523 Y35.224 E3.86891
G1 X87.664 Y35.611 E3.88958
G1 X87.699 Y36.102 E3.91428
G1 X87.662 Y36.374 E3.92806
G1 X87.525 Y36.75 F7800
G1 E1.92806 F2400
G92 E0
G1 X60.626 Y45.357 F7800
G1 E2 F2400
;TYPE:Perimeter
G1 F1800
G1 X60.547 Y45.367 E2.004
G1 X59.453 Y45.367 E2.0589
G1 X59.247 Y45.342 E2.06931
G1 X58.185 Y45.08 E2.12421
G1 X57.99 Y45.006 E2.13468
G1 X57.022 Y44.498 E2.18954
G1 X56.85 Y44.38 E2.20001
G1 X56.032 Y43.655 E2.25487
G1 X55.272 Y42.599 E2.32016
G1 X55.176 Y42.415 E2.33058
G1 X54.788 Y41.392 E2.38549
G1 X54.643 Y40.407 E2.43546
G1 X54.606 Y39.896 E2.46117
G1 X54.739 Y38.807 E2.51623
G1 X55.122 Y37.728 E2.57369
G1 X55.272 Y37.401 E2.59174
G1 X55.894 Y36.501 E2.64664
G1 X56.042 Y36.337 E2.65773
G1 X56.85 Y35.62 E2.71194
G1 X57.022 Y35.502 E2.72241
G1 X57.99 Y34.994 E2.77727
G1 X58.185 Y34.92 E2.78774
G1 X59.247 Y34.658 E2.84264
G1 X59.453 Y34.633 E2.85305
G1 X60.547 Y34.633 E2.90795
G1 X60.753 Y34.658 E2.91836
G1 X61.815 Y34.92 E2.97326
G1 X62.01 Y34.994 E2.98373
G1 X62.978 Y35.502 E3.03859
G1 X63.15 Y35.62 E3.04906
G1 X63.968 Y36.345 E3.10392
G1 X64.106 Y36.501 E3.11437
G1 X64.728 Y37.401 E3.16927
G1 X64.824 Y37.585 E3.17969
G1 X65.212 Y38.608 E3.2346
G1 X65.262 Y38.81 E3.24504
G1 X65.394 Y39.896 E3.29994
G1 X65.394 Y40.104 E3.31038
G1 X65.262 Y41.19 E3.36528
G1 X65.212 Y41.392 E3.37572
G1 X64.824 Y42.415 E3.43063
G1 X64.728 Y42.599 E3.44105
G1 X64.106 Y43.499 E3.49595
G1 X63.968 Y43.655 E3.5064
G1 X63.15 Y44.38 E3.56126
G1 X62.978 Y44.498 E3.57173
G1 X62.01 Y45.006 E3.62659
G1 X61.815 Y45.08 E3.63706
G1 X60.753 Y45.342 E3.69196
G1 X60.686 Y45.35 E3.69535
G1 X60.686 Y45.35 F7800
G1 X60.587 Y45.017
G1 F1800
G1 X60.547 Y45.022 E3.69737
G1 X59.453 Y45.022 E3.75227
G1 X59.329 Y45.007 E3.75854
G1 X58.267 Y44.745 E3.81344
G1 X58.15 Y44.701 E3.81971
G1 X57.182 Y44.193 E3.87457
G1 X57.079 Y44.122 E3.88085
G1 X56.26 Y43.396 E3.93578
G1 X55.556 Y42.403 E3.99687
G1 X55.498 Y42.292 E4.00316
