; generated by PrusaSlicer 2.7.4 on 2025-01-02 at 19:24:48 UTC

; 

; external perimeters extrusion width = 0.45mm
; perimeters extrusion width = 0.45mm
; infill extrusion width = 0.45mm
; solid infill extrusion width = 0.45mm
; top infill extrusion width = 0.40mm
; first layer extrusion width = 0.42mm

M190 S60 ; set bed temperature and wait for it to be reached
M104 S200 ; set temperature
;TYPE:Custom
G28 ; home all axes
G1 Z5 F5000 ; lift nozzle
M109 S200 ; set temperature and wait for it to be reached
G21 ; set units to millimeters
G90 ; use absolute coordinates
M82 ; use absolute distances for extrusion
G92 E0
; Filament gcode
M107
;LAYER_CHANGE
;Z:0.35
;HEIGHT:0.35
G1 E-2 F2400
G1 Z.35 F7800
G1 X43.945 Y35
G1 E0 F2400
;TYPE:Skirt/Brim
;WIDTH:0.42
G1 F1800
G1 X44.493 Y34.313 E.0441
G1 X46.718 Y32.423 E.19061
G1 X49.26 Y30.99 E.33706
G1 X50.221 Y30.611 E.3889
G1 X51.86 Y30.114 E.47485
G1 X53.126 Y29.858 E.53967
G1 X55.5 Y29.655 E.65925
G1 X145.08 Y29.682 E5.1549
G1 X146.874 Y29.858 E5.24537
G1 X147.972 Y30.065 E5.30144
G1 X149.779 Y30.611 E5.39618
G1 X150.74 Y30.99 E5.44802
G1 X153.282 Y32.423 E5.59447
G1 X155.507 Y34.313 E5.74098
G1 X157.377 Y36.661 E5.89162
G1 X158.693 Y39.174 E6.03398
G1 X159.548 Y42.006 E6.18244
G1 X159.812 Y44.328 E6.29972
G1 X159.812 Y45.672 E6.36717
G1 X159.649 Y47.325 E6.45053
G1 X159.388 Y48.642 E6.51791
G1 X158.73 Y50.734 E6.62797
G1 X158.393 Y51.473 E6.66873
G1 X157.418 Y53.272 E6.77142
G1 X156.878 Y54.04 E6.81854
G1 X155.54 Y55.651 E6.92364
G1 X154.879 Y56.278 E6.96936
G1 X153.321 Y57.548 E7.07024
G1 X152.482 Y58.085 E7.12023
G1 X150.74 Y59.01 E7.21921
G1 X149.779 Y59.389 E7.27105
G1 X147.972 Y59.935 E7.36579
G1 X146.874 Y60.142 E7.42186
G1 X144.5 Y60.345 E7.54144
G1 X55.5 Y60.345 E12.00799
G1 X53.126 Y60.142 E12.12757
G1 X52.028 Y59.935 E12.18364
G1 X50.221 Y59.389 E12.27838
G1 X49.028 Y58.892 E12.34324
G1 X46.718 Y57.577 E12.47664
G1 X44.493 Y55.687 E12.62315
G1 X42.623 Y53.339 E12.77379
G1 X41.607 Y51.473 E12.88042
G1 X41.094 Y50.232 E12.94781
G1 X40.434 Y47.896 E13.06963
G1 X40.157 Y44.95 E13.21813
G1 X40.452 Y42.006 E13.36662
G1 X41.307 Y39.174 E13.51508
G1 X42.623 Y36.661 E13.65744
G1 X43.908 Y35.047 E13.76098
G1 E11.76098 F2400
G92 E0
G1 X43.908 Y35.047 F7800
G92 E0
G1 X152.419 Y46.658
G1 E2 F2400
;TYPE:Perimeter
;WIDTH:0.42
G1 F1800
G1 X151.963 Y48.133 E2.07748
G1 X151.222 Y49.51 E2.15596
G1 X150.215 Y50.733 E2.23547
G1 X148.99 Y51.737 E2.31496
G1 X147.592 Y52.482 E2.39446
G1 X146.076 Y52.941 E2.47395
G1 X144.456 Y53.1 E2.55564
G1 X55.544 Y53.1 E7.01777
G1 X53.924 Y52.941 E7.09946
G1 X52.408 Y52.482 E7.17895
G1 X51.01 Y51.737 E7.25845
G1 X49.785 Y50.733 E7.33794
G1 X48.778 Y49.51 E7.41745
G1 X48.038 Y48.136 E7.49577
G1 X47.553 Y46.53 E7.57996
G1 X47.406 Y44.955 E7.65935
G1 X47.57 Y43.38 E7.73882
G1 X48.037 Y41.867 E7.81829
G1 X48.778 Y40.49 E7.89677
G1 X49.785 Y39.267 E7.97628
G1 X51.01 Y38.263 E8.05577
G1 X52.408 Y37.518 E8.13527
G1 X53.924 Y37.059 E8.21476
G1 X55.544 Y36.9 E8.29645
G1 X144.504 Y36.904 E12.76098
G1 X146.076 Y37.059 E12.84025
G1 X147.592 Y37.518 E12.91974
G1 X148.99 Y38.263 E12.99924
G1 X150.215 Y39.267 E13.07873
G1 X151.222 Y40.49 E13.15824
G1 X151.963 Y41.867 E13.23672
G1 X152.43 Y43.38 E13.31619
G1 X152.467 Y43.73 E13.33385
G1 X152.593 Y44.953 E13.39555
G1 X152.432 Y46.599 E13.47855
G1 X152.432 Y46.599 F7800
G1 X152.748 Y46.759
G1 F1800
G1 X152.283 Y48.267 E13.55775
G1 X151.51 Y49.704 E13.63964
G1 X150.46 Y50.979 E13.72253
G1 X149.182 Y52.025 E13.80541
G1 X147.725 Y52.802 E13.88828
G1 X146.144 Y53.281 E13.97119
G1 X144.473 Y53.445 E14.05545
G1 X55.527 Y53.445 E18.51928
G1 X53.856 Y53.281 E18.60354
G1 X52.275 Y52.802 E18.68645
G1 X50.818 Y52.025 E18.76932
G1 X49.54 Y50.979 E18.8522
G1 X48.49 Y49.704 E18.93509
G1 X47.718 Y48.269 E19.01687
G1 X47.213 Y46.596 E19.10457
G1 X47.06 Y44.953 E19.18738
G1 X47.23 Y43.311 E19.27023
G1 X47.717 Y41.733 E19.35311
G1 X48.49 Y40.296 E19.435
G1 X49.54 Y39.021 E19.51789
G1 X50.818 Y37.975 E19.60077
G1 X52.275 Y37.198 E19.68364
G1 X53.856 Y36.719 E19.76655
G1 X55.527 Y36.555 E19.85081
G1 X144.52 Y36.559 E24.317
G1 X146.144 Y36.719 E24.3989
G1 X147.725 Y37.198 E24.48181
G1 X149.182 Y37.975 E24.56468
G1 X150.46 Y39.021 E24.64756
G1 X151.51 Y40.296 E24.73045
G1 X152.283 Y41.733 E24.81234
G1 X152.77 Y43.311 E24.89522
G1 X152.81 Y43.695 E24.9146
G1 X152.94 Y44.952 E24.97802
G1 X152.769 Y46.69 E25.06566
G1 X152.766 Y46.702 E25.06628
G1 X152.766 Y46.702 F7800
G1 X153.078 Y46.861
;TYPE:External perimeter
G1 F1800
G1 X152.603 Y48.401 E25.14716
G1 X151.798 Y49.897 E25.23242
G1 X150.705 Y51.224 E25.3187
G1 X149.374 Y52.313 E25.40501
G1 X147.857 Y53.123 E25.49131
G1 X146.211 Y53.621 E25.57761
G1 X144.49 Y53.79 E25.6644
G1 X55.51 Y53.79 E30.12994
G1 X53.789 Y53.621 E30.21673
G1 X52.143 Y53.123 E30.30303
G1 X50.626 Y52.313 E30.38933
G1 X49.295 Y51.224 E30.47564
G1 X48.202 Y49.897 E30.56192
G1 X47.398 Y48.401 E30.64715
G1 X46.872 Y46.662 E30.73833
G1 X46.713 Y44.952 E30.82452
G1 X46.891 Y43.242 E30.9108
G1 X47.397 Y41.599 E30.99708
G1 X48.202 Y40.103 E31.08234
G1 X49.295 Y38.776 E31.16862
G1 X50.626 Y37.687 E31.25493
G1 X52.143 Y36.877 E31.34123
G1 X53.789 Y36.379 E31.42753
G1 X55.51 Y36.21 E31.51432
G1 X144.537 Y36.214 E35.98222
G1 X146.211 Y36.379 E36.06664
G1 X147.857 Y36.877 E36.15294
G1 X149.374 Y37.687 E36.23924
G1 X150.705 Y38.776 E36.32555
G1 X151.798 Y40.103 E36.41183
G1 X152.603 Y41.599 E36.49709
G1 X153.109 Y43.242 E36.58337
G1 X153.153 Y43.659 E36.60441
G1 X153.287 Y44.951 E36.6696
G1 X153.109 Y46.759 E36.76077
G1 X153.095 Y46.804 E36.76314
G1 X152.977 Y47.186 F7800
G1 E34.76314 F2400
G92 E0
G1 X135.98 Y48.596 F7800
G1 E2 F2400
;TYPE:Perimeter
G1 F1800
G1 X135.894 Y48.499 E2.00651
G1 X135.272 Y47.599 E2.06141
G1 X135.176 Y47.415 E2.07183
G1 X134.756 Y46.288 E2.13219
G1 X134.606 Y45.104 E2.19209
G1 X134.606 Y44.896 E2.20253
G1 X134.738 Y43.81 E2.25743
G1 X134.788 Y43.608 E2.26787
G1 X135.176 Y42.585 E2.32278
G1 X135.272 Y42.401 E2.3332
G1 X135.894 Y41.501 E2.3881
G1 X136.032 Y41.345 E2.39855
G1 X136.85 Y40.62 E2.45341
G1 X137.022 Y40.502 E2.46388
G1 X137.99 Y39.994 E2.51874
G1 X138.185 Y39.92 E2.52921
G1 X139.247 Y39.658 E2.58411
G1 X139.453 Y39.633 E2.59452
G1 X140.547 Y39.633 E2.64942
G1 X140.753 Y39.658 E2.65983
G1 X141.815 Y39.92 E2.71473
G1 X142.01 Y39.994 E2.7252
G1 X142.978 Y40.502 E2.78006
G1 X143.15 Y40.62 E2.79053
G1 X143.968 Y41.345 E2.84539
G1 X144.728 Y42.401 E2.91068
G1 X145.208 Y43.599 E2.97545
G1 X145.349 Y44.531 E3.02276
G1 X145.396 Y45.084 E3.05061
G1 X145.262 Y46.19 E3.10652
G1 X144.878 Y47.273 E3.16419
G1 X144.728 Y47.599 E3.1822
G1 X144.106 Y48.499 E3.2371
G1 X143.958 Y48.664 E3.24822
G1 X143.15 Y49.38 E3.3024
G1 X142.978 Y49.498 E3.31287
G1 X142.01 Y50.006 E3.36773
G1 X141.815 Y50.08 E3.3782
G1 X140.753 Y50.342 E3.4331
G1 X140.547 Y50.367 E3.44351
G1 X139.453 Y50.367 E3.49841
G1 X139.247 Y50.342 E3.50882
G1 X138.185 Y50.08 E3.56372
G1 X137.99 Y50.006 E3.57419
G1 X137.022 Y49.498 E3.62905
G1 X136.85 Y49.38 E3.63952
G1 X136.032 Y48.655 E3.69438
G1 X136.019 Y48.641 E3.69534
G1 X136.019 Y48.641 F7800
G1 X136.235 Y48.367
G1 F1800
G1 X136.178 Y48.303 E3.69964
G1 X135.556 Y47.403 E3.75454
G1 X135.498 Y47.292 E3.76083
G1 X135.091 Y46.207 E3.81899
G1 X134.949 Y45.062 E3.87689
G1 X134.949 Y44.938 E3.88311
G1 X135.08 Y43.852 E3.93801
G1 X135.11 Y43.731 E3.94427
G1 X135.498 Y42.708 E3.99918
G1 X135.556 Y42.597 E4.00547
G1 X136.178 Y41.697 E4.06037
G1 X136.26 Y41.604 E4.06659
G1 X137.079 Y40.878 E4.12152
G1 X137.182 Y40.807 E4.1278
G1 X138.15 Y40.299 E4.18266
G1 X138.267 Y40.255 E4.18893
G1 X139.329 Y39.993 E4.24383
G1 X139.453 Y39.978 E4.2501
G1 X140.547 Y39.978 E4.305
G1 X140.671 Y39.993 E4.31127
G1 X141.733 Y40.255 E4.36617
G1 X141.85 Y40.299 E4.37244
G1 X142.818 Y40.807 E4.4273
G1 X142.921 Y40.878 E4.43358
G1 X143.74 Y41.604 E4.48851
G1 X144.444 Y42.597 E4.5496
G1 X144.886 Y43.721 E4.61021
G1 X145.007 Y44.573 E4.6534
G1 X145.051 Y45.062 E4.67804
G1 X144.92 Y46.148 E4.73294
G1 X144.555 Y47.151 E4.78651
G1 X144.444 Y47.403 E4.80033
G1 X143.822 Y48.303 E4.85523
G1 X143.729 Y48.406 E4.86219
G1 X142.921 Y49.122 E4.91637
G1 X142.818 Y49.193 E4.92265
G1 X141.85 Y49.701 E4.97751
G1 X141.733 Y49.745 E4.98378
G1 X140.671 Y50.007 E5.03868
G1 X140.547 Y50.022 E5.04495
G1 X139.453 Y50.022 E5.09985
G1 X139.329 Y50.007 E5.10612
G1 X138.267 Y49.745 E5.16102
G1 X138.15 Y49.701 E5.16729
G1 X137.182 Y49.193 E5.22215
G1 X137.079 Y49.122 E5.22843
G1 X136.276 Y48.41 E5.28229
G1 X136.276 Y48.41 F7800
G1 X136.427 Y48.056
;TYPE:External perimeter
G1 F1800
G1 X135.821 Y47.17 E5.33616
G1 X135.426 Y46.126 E5.39218
G1 X135.291 Y45.021 E5.44805
G1 X135.423 Y43.893 E5.50505
G1 X135.84 Y42.793 E5.56409
G1 X136.489 Y41.862 E5.62105
G1 X137.308 Y41.136 E5.67598
G1 X138.35 Y40.59 E5.73502
G1 X139.412 Y40.328 E5.78992
G1 X140.547 Y40.323 E5.84688
G1 X141.689 Y40.604 E5.9059
G1 X142.658 Y41.113 E5.96083
G1 X143.511 Y41.862 E6.0178
G1 X144.16 Y42.793 E6.07476
G1 X144.564 Y43.843 E6.13122
G1 X144.709 Y45.021 E6.19079
G1 X144.577 Y46.107 E6.24569
G1 X144.16 Y47.207 E6.30473
G1 X143.539 Y48.107 E6.35961
G1 X142.692 Y48.864 E6.41662
G1 X141.65 Y49.41 E6.47566
G1 X140.547 Y49.677 E6.53261
G1 X139.412 Y49.672 E6.58957
G1 X138.35 Y49.41 E6.64447
G1 X137.342 Y48.887 E6.70146
G1 X136.461 Y48.107 E6.76051
G1 X136.236 Y47.777 F7800
G1 E4.76051 F2400
G92 E0
G1 X91.67 Y48.46 F7800
G1 E2 F2400
;TYPE:Perimeter
G1 F1800
G1 X91.68 Y48.386 E2.00375
G1 X91.86 Y47.914 E2.0291
G1 X92.139 Y47.49 E2.05457
G1 X92.555 Y47.089 E2.08357
G1 X93.054 Y46.799 E2.11253
G1 X93.608 Y46.636 E2.14151
G1 X94.29 Y46.617 E2.17575
G1 X94.852 Y46.756 E2.2048
G1 X95.365 Y47.026 E2.23389
G1 X95.798 Y47.411 E2.26297
G1 X96.124 Y47.883 E2.29176
G1 X96.328 Y48.418 E2.3205
G1 X96.4 Y48.994 E2.34963
G1 X96.299 Y49.674 E2.38413
G1 X96.071 Y50.204 E2.41309
G1 X95.723 Y50.665 E2.44208
G1 X95.274 Y51.029 E2.47109
G1 X94.752 Y51.275 E2.50005
G1 X94.185 Y51.389 E2.52907
G1 X93.608 Y51.364 E2.55805
G1 X93.07 Y51.207 E2.58618
G1 X92.555 Y50.911 E2.61599
G1 X92.139 Y50.51 E2.64499
G1 X91.832 Y50.02 E2.67401
G1 X91.651 Y49.472 E2.70297
G1 X91.606 Y48.896 E2.73197
G1 X91.661 Y48.519 E2.75109
G1 X92.013 Y48.514 F7800
G1 F1800
G1 X92.023 Y48.449 E2.75439
G1 X92.213 Y47.991 E2.77927
G1 X92.506 Y47.593 E2.80407
G1 X92.886 Y47.276 E2.82891
G1 X93.331 Y47.06 E2.85373
G1 X93.815 Y46.956 E2.87857
G1 X94.248 Y46.96 E2.9003
G1 X94.786 Y47.104 E2.92825
G1 X95.217 Y47.347 E2.95308
G1 X95.577 Y47.686 E2.9779
G1 X95.845 Y48.102 E3.00273
G1 X96.007 Y48.57 E3.02758
G1 X96.051 Y49.062 E3.05237
G1 X95.977 Y49.551 E3.07719
G1 X95.787 Y50.009 E3.10207
G1 X95.494 Y50.407 E3.12687
G1 X95.114 Y50.724 E3.15171
G1 X94.669 Y50.94 E3.17653
G1 X94.185 Y51.044 E3.20137
G1 X93.691 Y51.029 E3.22617
G1 X93.228 Y50.9 E3.25029
G1 X92.783 Y50.653 E3.27583
G1 X92.423 Y50.314 E3.30065
G1 X92.155 Y49.898 E3.32548
G1 X91.993 Y49.43 E3.35033
G1 X91.949 Y48.938 E3.37512
G1 X92.004 Y48.574 E3.3936
G1 X92.004 Y48.574 F7800
G1 X92.345 Y48.573
;TYPE:External perimeter
G1 F1800
G1 X92.346 Y48.571 E3.39371
G1 X92.496 Y48.187 E3.4144
G1 X92.735 Y47.851 E3.43509
G1 X93.046 Y47.582 E3.45573
G1 X93.413 Y47.395 E3.4764
G1 X93.815 Y47.301 E3.49712
G1 X94.206 Y47.302 E3.51674
G1 X94.625 Y47.409 E3.53844
G1 X94.988 Y47.605 E3.55914
G1 X95.293 Y47.882 E3.57982
G1 X95.523 Y48.224 E3.6005
G1 X95.664 Y48.611 E3.62117
G1 X95.709 Y49.021 E3.64187
G1 X95.654 Y49.429 E3.66253
G1 X95.504 Y49.813 E3.68322
G1 X95.265 Y50.149 E3.70391
G1 X94.954 Y50.418 E3.72455
G1 X94.587 Y50.605 E3.74522
G1 X94.185 Y50.699 E3.76594
G1 X93.773 Y50.694 E3.78662
G1 X93.386 Y50.594 E3.80668
G1 X93.012 Y50.395 E3.82794
G1 X92.707 Y50.118 E3.84862
G1 X92.477 Y49.776 E3.8693
G1 X92.336 Y49.389 E3.88997
G1 X92.301 Y48.899 E3.91462
G1 X92.337 Y48.633 E3.92809
G1 X92.471 Y48.256 F7800
G1 E1.92809 F2400
G92 E0
G1 X88.331 Y41.539 F7800
G1 E2 F2400
;TYPE:Perimeter
G1 F1800
G1 X88.322 Y41.606 E2.00339
G1 X88.144 Y42.075 E2.02857
G1 X87.864 Y42.505 E2.05432
G1 X87.445 Y42.911 E2.0836
G1 X86.955 Y43.196 E2.11205
G1 X86.275 Y43.384 E2.14746
G1 X85.71 Y43.383 E2.17582
G1 X85.148 Y43.244 E2.20487
G1 X84.632 Y42.972 E2.23414
G1 X84.194 Y42.579 E2.26367
G1 X83.876 Y42.117 E2.29182
G1 X83.672 Y41.582 E2.32056
G1 X83.6 Y41.006 E2.34969
G1 X83.701 Y40.326 E2.38419
G1 X83.929 Y39.796 E2.41315
G1 X84.267 Y39.348 E2.44131
G1 X84.726 Y38.971 E2.47112
G1 X85.248 Y38.725 E2.50008
G1 X85.815 Y38.611 E2.5291
G1 X86.392 Y38.636 E2.55808
G1 X86.946 Y38.799 E2.58706
G1 X87.445 Y39.089 E2.61602
G1 X87.861 Y39.49 E2.64502
G1 X88.168 Y39.98 E2.67404
G1 X88.349 Y40.528 E2.703
G1 X88.394 Y41.104 E2.732
G1 X88.34 Y41.48 E2.75106
G1 X87.987 Y41.486 F7800
G1 F1800
G1 X87.977 Y41.551 E2.75436
G1 X87.793 Y41.996 E2.77853
G1 X87.494 Y42.407 E2.80404
G1 X87.114 Y42.724 E2.82888
G1 X86.682 Y42.934 E2.85299
G1 X86.239 Y43.041 E2.87586
G1 X85.725 Y43.036 E2.90166
G1 X85.214 Y42.896 E2.92825
G1 X84.781 Y42.65 E2.95324
G1 X84.417 Y42.305 E2.97841
G1 X84.155 Y41.898 E3.0027
G1 X83.993 Y41.43 E3.02755
G1 X83.949 Y40.938 E3.05234
G1 X84.023 Y40.449 E3.07716
G1 X84.213 Y39.991 E3.10204
G1 X84.497 Y39.604 E3.12613
G1 X84.886 Y39.276 E3.15167
G1 X85.331 Y39.06 E3.17649
G1 X85.815 Y38.956 E3.20133
G1 X86.309 Y38.971 E3.22613
G1 X86.786 Y39.104 E3.25098
G1 X87.217 Y39.347 E3.27581
G1 X87.577 Y39.686 E3.30063
G1 X87.845 Y40.102 E3.32546
G1 X88.007 Y40.57 E3.35031
G1 X88.051 Y41.062 E3.3751
G1 X87.996 Y41.426 E3.39358
G1 X87.996 Y41.426 F7800
G1 X87.653 Y41.432
;TYPE:External perimeter
G1 F1800
G1 X87.508 Y41.802 E3.41352
G1 X87.266 Y42.149 E3.43475
G1 X86.954 Y42.418 E3.45542
G1 X86.597 Y42.6 E3.47553
G1 X86.203 Y42.698 E3.49591
G1 X85.773 Y42.694 E3.51749
G1 X85.375 Y42.591 E3.53812
G1 X85.011 Y42.394 E3.55889
G1 X84.701 Y42.109 E3.58002
G1 X84.477 Y41.776 E3.60016
G1 X84.336 Y41.389 E3.62083
G1 X84.291 Y40.979 E3.64153
G1 X84.346 Y40.571 E3.66219
G1 X84.496 Y40.187 E3.68288
G1 X84.728 Y39.861 E3.70296
G1 X85.046 Y39.582 E3.72419
G1 X85.413 Y39.395 E3.74486
G1 X85.815 Y39.301 E3.76558
G1 X86.227 Y39.306 E3.78626
G1 X86.625 Y39.409 E3.80689
G1 X86.988 Y39.605 E3.82759
G1 X87.293 Y39.882 E3.84827
G1 X87.523 Y40.224 E3.86895
G1 X87.664 Y40.611 E3.88962
G1 X87.699 Y41.102 E3.91432
G1 X87.662 Y41.373 E3.92805
G1 X87.526 Y41.749 F7800
G1 E1.92805 F2400
G92 E0
G1 X64.053 Y41.441 F7800
G1 E2 F2400
;TYPE:Perimeter
G1 F1800
G1 X64.106 Y41.501 E2.00402
G1 X64.728 Y42.401 E2.05892
G1 X64.824 Y42.585 E2.06934
G1 X65.212 Y43.608 E2.12425
G1 X65.262 Y43.81 E2.13469
G1 X65.394 Y44.896 E2.18959
G1 X65.394 Y45.104 E2.20003
G1 X65.262 Y46.19 E2.25493
G1 X65.212 Y46.392 E2.26537
G1 X64.824 Y47.415 E2.32028
G1 X64.728 Y47.599 E2.3307
G1 X64.106 Y48.499 E2.3856
G1 X63.968 Y48.655 E2.39605
G1 X63.15 Y49.38 E2.45091
G1 X62.978 Y49.498 E2.46138
G1 X62.01 Y50.006 E2.51624
G1 X61.815 Y50.08 E2.52671
G1 X60.753 Y50.342 E2.58161
G1 X60.547 Y50.367 E2.59202
G1 X59.453 Y50.367 E2.64692
G1 X59.247 Y50.342 E2.65733
G1 X58.185 Y50.08 E2.71223
G1 X57.99 Y50.006 E2.7227
G1 X57.022 Y49.498 E2.77756
G1 X56.85 Y49.38 E2.78803
G1 X56.032 Y48.655 E2.84289
G1 X55.272 Y47.599 E2.90818
G1 X55.176 Y47.415 E2.9186
G1 X54.788 Y46.392 E2.97351
G1 X54.643 Y45.407 E3.02348
G1 X54.606 Y44.896 E3.04919
G1 X54.739 Y43.806 E3.1043
G1 X55.122 Y42.727 E3.16176
G1 X55.272 Y42.401 E3.17977
G1 X55.894 Y41.501 E3.23467
G1 X56.042 Y41.336 E3.24579
G1 X56.85 Y40.62 E3.29997
G1 X57.022 Y40.502 E3.31044
G1 X57.99 Y39.994 E3.3653
G1 X58.185 Y39.92 E3.37577
G1 X59.247 Y39.658 E3.43067
G1 X59.453 Y39.633 E3.44108
G1 X60.547 Y39.633 E3.49598
G1 X60.753 Y39.658 E3.50639
G1 X61.815 Y39.92 E3.56129
G1 X62.01 Y39.994 E3.57176
G1 X62.978 Y40.502 E3.62662
G1 X63.15 Y40.62 E3.63709
G1 X63.968 Y41.345 E3.69195
G1 X64.014 Y41.397 E3.69543
G1 X64.014 Y41.397 F7800
G1 X63.796 Y41.667
G1 F1800
G1 X63.822 Y41.697 E3.69742
G1 X64.444 Y42.597 E3.75232
G1 X64.502 Y42.708 E3.75861
G1 X64.89 Y43.731 E3.81352
G1 X64.92 Y43.852 E3.81978
G1 X65.051 Y44.938 E3.87468
G1 X65.051 Y45.062 E3.8809
G1 X64.92 Y46.148 E3.9358
G1 X64.89 Y46.269 E3.94206
G1 X64.502 Y47.292 E3.99697
G1 X64.444 Y47.403 E4.00326
