; generated by PrusaSlicer 2.8.1+linux-x64-GTK3 on 2024-10-20 at 16:02:23 UTC

; 

; external perimeters extrusion width = 0.45mm
; perimeters extrusion width = 0.45mm
; infill extrusion width = 0.45mm
; solid infill extrusion width = 0.45mm
; top infill extrusion width = 0.40mm
; support material extrusion width = 0.40mm
; first layer extrusion width = 0.60mm

M190 S60 ; set bed temperature and wait for it to be reached
M104 S200 ; set temperature
;TYPE:Custom
G28 ; home all axes
G1 Z5 F5000 ; lift nozzle
M109 S200 ; set temperature and wait for it to be reached
G21 ; set units to millimeters
G90 ; use absolute coordinates
M82 ; use absolute distances for extrusion
G92 E0
; Filament gcode
M107
;LAYER_CHANGE
;Z:0.3
;HEIGHT:0.3
G1 E-2 F2400
G1 Z.3 F7800
G1 X85.612 Y81.333
G1 E0 F2400
;TYPE:Skirt/Brim
;WIDTH:0.6
G1 F1800
G1 X86.153 Y80.764 E.05245
G1 X87.055 Y79.979 E.13233
G1 X87.977 Y79.321 E.208
G1 X89.012 Y78.722 E.28789
G1 X90.043 Y78.251 E.36361
G1 X91.173 Y77.86 E.44349
G1 X92.274 Y77.593 E.51917
G1 X93.458 Y77.424 E.59907
G1 X94.757 Y77.366 E.68594
G1 X99.232 Y77.287 E.98494
G1 X100.189 Y77.349 E1.04901
G1 X102.148 Y77.718 E1.18218
G1 X111.309 Y80.263 E1.81736
G1 X112.556 Y80.706 E1.90577
G1 X127.186 Y88.072 E3.00002
G1 X128.326 Y88.821 E3.09115
G1 X129.341 Y89.726 E3.182
G1 X135.481 Y96.205 E3.77832
G1 X136.182 Y97.088 E3.85364
G1 X137.004 Y98.444 E3.95957
G1 X137.516 Y99.634 E4.04611
G1 X137.95 Y101.221 E4.15602
G1 X138.161 Y103.195 E4.28865
G1 X138.161 Y116.223 E5.15899
G1 X138.106 Y117.055 E5.21469
G1 X137.954 Y118.185 E5.29086
G1 X137.523 Y119.776 E5.40098
G1 X137.017 Y120.958 E5.48688
G1 X136.196 Y122.321 E5.59318
G1 X135.311 Y123.429 E5.68791
G1 X129.445 Y130.165 E6.28463
G1 X128.442 Y131.089 E6.37574
G1 X127.314 Y131.855 E6.46683
G1 X113.102 Y139.039 E7.53068
G1 X111.645 Y139.636 E7.63587
G1 X101.634 Y142.422 E8.33007
G1 X99.925 Y142.697 E8.44571
G1 X95.523 Y143.05 E8.74073
G1 X94.186 Y143.116 E8.83016
G1 X93.031 Y143.064 E8.9074
G1 X91.905 Y142.908 E8.98334
G1 X90.776 Y142.643 E9.06081
G1 X89.693 Y142.28 E9.13712
G1 X88.628 Y141.81 E9.21489
G1 X87.626 Y141.251 E9.29154
G1 X86.665 Y140.59 E9.36946
G1 X85.78 Y139.852 E9.44644
G1 X84.955 Y139.021 E9.52467
G1 X84.219 Y138.127 E9.60203
G1 X83.562 Y137.156 E9.68035
G1 X82.612 Y135.254 E9.82238
G1 X82.196 Y134.014 E9.90976
G1 X81.958 Y132.993 E9.9798
G1 X81.788 Y131.794 E10.0607
G1 X81.737 Y130.738 E10.13133
G1 X82.413 Y88.916 E12.92563
G1 X82.521 Y87.851 E12.99714
G1 X82.732 Y86.74 E13.07269
G1 X83.065 Y85.594 E13.15242
G1 X83.482 Y84.542 E13.22802
G1 X84.026 Y83.479 E13.30779
G1 X84.636 Y82.526 E13.38338
G1 X85.373 Y81.584 E13.46328
G1 X85.571 Y81.376 E13.48246
G1 E11.48246 F2400
G92 E0
G1 X85.571 Y81.376 F7800
G92 E0
G1 X93.793 Y124.469
G1 E2 F2400
;TYPE:Support material
G1 F1800
G1 X93.793 Y127.046 E2.17216
G1 X94.1 Y127.354 E2.20121
G1 X104.027 Y127.354 E2.86439
G1 X104.474 Y128.209 E2.92884
G1 X104.657 Y128.814 E2.97107
G1 X104.663 Y130.536 E3.08611
G1 X104.828 Y131.52 E3.15276
G1 X104.531 Y132.601 E3.22765
G1 X104.038 Y133.607 E3.30249
G1 X103.366 Y134.505 E3.37742
G1 X102.545 Y135.255 E3.45171
G1 X101.553 Y135.862 E3.5294
G1 X100.533 Y136.252 E3.60235
G1 X99.425 Y136.45 E3.67754
G1 X98.296 Y136.436 E3.75297
G1 X97.031 Y136.145 E3.83969
G1 X96.122 Y136.544 E3.90601
G1 X95.023 Y136.802 E3.98143
G1 X93.892 Y136.855 E4.05707
G1 X92.765 Y136.699 E4.13308
G1 X91.682 Y136.337 E4.20937
G1 X90.681 Y135.778 E4.28596
G1 X89.796 Y135.039 E4.36298
G1 X89.06 Y134.145 E4.44034
G1 X88.519 Y133.158 E4.51553
G1 X88.26 Y132.427 E4.56734
G1 X88.04 Y131.347 E4.64097
G1 X88.014 Y130.248 E4.71441
G1 X88.077 Y129.689 E4.75199
G1 X88.547 Y128.097 E4.86288
G1 X89.037 Y127.2 E4.93116
G1 X89.719 Y126.348 E5.00407
G1 X90.544 Y125.627 E5.07727
G1 X91.489 Y125.06 E5.15089
G1 X92.526 Y124.668 E5.22495
G1 X93.712 Y124.469 E5.30529
G1 E3.30529 F2400
G92 E0
G1 X93.712 Y124.469 F7800
G1 X104.049 Y133.038
G1 E2 F2400
G1 F1800
G1 X104.049 Y128.467 E2.30537
G1 X103.735 Y127.836 E2.35246
G1 X103.454 Y127.836 E2.37123
G1 X103.454 Y133.584 E2.75523
G1 X102.858 Y134.316 E2.81829
G1 X102.858 Y127.836 E3.25119
G1 X102.263 Y127.836 E3.29094
G1 X102.263 Y134.86 E3.76018
G1 X101.668 Y135.236 E3.8072
G1 X101.668 Y127.836 E4.30156
G1 X101.073 Y127.836 E4.34131
G1 X101.073 Y135.53 E4.85531
G1 X100.478 Y135.757 E4.89785
G1 X100.478 Y127.836 E5.42702
G1 X99.883 Y127.836 E5.46677
G1 X99.883 Y135.878 E6.00402
G1 X99.288 Y135.966 E6.0442
G1 X99.288 Y127.836 E6.58733
G1 X98.692 Y127.836 E6.62715
G1 X98.692 Y135.959 E7.16981
G1 X98.097 Y135.903 E7.20973
G1 X98.097 Y127.836 E7.74865
G1 X97.502 Y127.836 E7.7884
G1 X97.502 Y135.782 E8.31924
G1 X97.025 Y135.621 E8.35287
G1 X96.907 Y135.672 E8.36146
G1 X96.907 Y127.836 E8.88495
G1 X96.312 Y127.836 E8.9247
G1 X96.312 Y135.934 E9.46569
G1 X95.717 Y136.144 E9.50784
G1 X95.717 Y127.836 E10.06286
G1 X95.122 Y127.836 E10.10261
G1 X95.122 Y136.284 E10.66698
G1 X94.527 Y136.343 E10.70692
G1 X94.527 Y127.836 E11.27523
G1 X93.931 Y127.836 E11.31505
G1 X93.931 Y136.371 E11.88523
G1 X93.336 Y136.292 E11.92533
G1 X93.311 Y125.015 E12.6787
G1 X92.741 Y125.119 E12.71741
G1 X92.741 Y136.183 E13.45655
G1 X92.146 Y135.984 E13.49846
G1 X92.146 Y125.327 E14.21041
G1 X91.551 Y125.585 E14.25374
G1 X91.551 Y135.711 E14.93021
G1 X90.956 Y135.379 E14.97573
G1 X90.956 Y125.942 E15.60617
G1 X90.361 Y126.428 E15.65749
G1 X90.361 Y134.883 E16.22233
G1 X89.766 Y134.244 E16.28066
G1 X89.766 Y127.061 E16.76052
G1 X89.17 Y127.961 E16.83263
G1 X89.17 Y133.343 E17.19218
G1 X88.721 Y132.285 E17.26896
G1 X88.575 Y131.635 E17.31347
G1 X88.575 Y128.696 E17.50981
G1 E15.50981 F2400
G92 E0
G1 X88.575 Y128.696 F7800
G1 X127.929 Y111.98
G1 E2 F2400
G1 F1800
G1 X128.607 Y112.062 E2.04562
G1 X129.647 Y112.457 E2.11994
G1 X130.574 Y113.134 E2.19663
G1 X131.276 Y114.017 E2.27199
G1 X131.47 Y114.454 E2.30393
G1 X131.74 Y115.094 E2.35033
G1 X131.893 Y116.223 E2.42644
G1 X131.742 Y117.354 E2.50267
G1 X131.472 Y117.997 E2.54926
G1 X131.281 Y118.431 E2.58094
G1 X130.581 Y119.316 E2.65632
G1 X129.675 Y119.981 E2.7314
G1 X129.023 Y120.243 E2.77834
G1 X128.529 Y120.41 E2.81318
G1 X127.438 Y120.515 E2.8864
G1 X126.207 Y120.263 E2.97034
G1 X126.207 Y112.184 E3.51006
G1 X127.374 Y111.951 E3.58956
G1 X127.849 Y111.976 E3.62134
G1 X127.849 Y111.976 F7800
G1 X130.83 Y118.613
G1 F1800
G1 X130.83 Y114.23 E3.91415
G1 X130.234 Y113.483 E3.97799
G1 X130.234 Y118.972 E4.34468
G1 X129.639 Y119.409 E4.394
G1 X129.639 Y113.048 E4.81895
G1 X129.044 Y112.744 E4.86359
G1 X129.044 Y119.715 E5.32929
G1 X128.449 Y119.928 E5.37151
G1 X128.449 Y112.529 E5.8658
G1 X127.854 Y112.459 E5.90582
G1 X127.854 Y119.99 E6.40893
G1 X127.259 Y119.994 E6.44868
G1 X127.259 Y112.216 E6.96829
G1 E4.96829 F2400
G92 E0
G1 X127.259 Y112.216 F7800
G1 X127.928 Y98.951
G1 E2 F2400
G1 F1800
G1 X128.607 Y99.033 E2.04569
G1 X129.647 Y99.428 E2.12001
G1 X130.574 Y100.105 E2.1967
G1 X131.276 Y100.988 E2.27206
G1 X131.47 Y101.425 E2.304
G1 X131.739 Y102.065 E2.35038
G1 X131.893 Y103.195 E2.42657
G1 X131.742 Y104.325 E2.50273
G1 X131.472 Y104.969 E2.54938
G1 X131.281 Y105.402 E2.581
G1 X130.58 Y106.287 E2.65642
G1 X129.674 Y106.952 E2.7315
G1 X129.022 Y107.214 E2.77844
G1 X128.529 Y107.381 E2.81321
G1 X127.437 Y107.486 E2.8865
G1 X126.207 Y107.234 E2.97038
G1 X126.207 Y99.155 E3.5101
G1 X127.373 Y98.923 E3.58952
G1 X127.848 Y98.947 E3.62129
G1 X127.848 Y98.947 F7800
G1 X130.83 Y105.584
G1 F1800
G1 X130.83 Y101.201 E3.9141
G1 X130.234 Y100.454 E3.97794
G1 X130.234 Y105.943 E4.34463
G1 X129.639 Y106.379 E4.39391
G1 X129.639 Y100.019 E4.81879
G1 X129.044 Y99.715 E4.86343
G1 X129.044 Y106.685 E5.32906
G1 X128.449 Y106.899 E5.3713
G1 X128.449 Y99.5 E5.86559
G1 X127.854 Y99.43 E5.90561
G1 X127.854 Y106.961 E6.40872
G1 X127.259 Y106.965 E6.44847
G1 X127.259 Y99.187 E6.96808
G1 E4.96808 F2400
G92 E0
G1 X127.259 Y99.187 F7800
G1 X99.678 Y83.608
G1 E2 F2400
G1 F1800
G1 X100.47 Y83.757 E2.05384
G1 X101.509 Y84.155 E2.12817
G1 X102.463 Y84.746 E2.20314
G1 X103.29 Y85.504 E2.27808
G1 X103.954 Y86.393 E2.35221
G1 X104.454 Y87.414 E2.42816
G1 X104.768 Y88.737 E2.519
G1 X104.663 Y89.464 E2.56807
G1 X104.657 Y90.924 E2.66561
G1 X104.391 Y91.802 E2.7269
G1 X103.948 Y92.646 E2.79058
G1 X94.1 Y92.646 E3.44848
G1 X93.793 Y92.954 E3.47753
G1 X93.793 Y95.441 E3.64368
G1 X92.661 Y95.176 E3.72135
G1 X91.636 Y94.71 E3.79657
G1 X90.717 Y94.06 E3.87177
G1 X89.937 Y93.247 E3.94704
G1 X89.324 Y92.3 E4.0224
G1 X88.901 Y91.255 E4.09771
G1 X88.684 Y90.147 E4.17314
G1 X88.68 Y89.017 E4.24863
G1 X88.89 Y87.906 E4.32417
G1 X89.307 Y86.855 E4.39971
G1 X89.917 Y85.901 E4.47536
G1 X90.697 Y85.081 E4.55097
G1 X91.619 Y84.423 E4.62664
G1 X92.649 Y83.952 E4.7023
G1 X93.75 Y83.685 E4.77798
G1 X94.881 Y83.632 E4.85362
G1 X96.002 Y83.795 E4.9293
G1 X96.598 Y84.003 E4.97147
G1 X97.111 Y83.792 E5.00853
G1 X98.221 Y83.566 E5.08421
G1 X99.599 Y83.596 E5.17629
G1 X99.599 Y83.596 F7800
G1 X104.049 Y91.935
G1 F1800
G1 X104.049 Y87.76 E5.4552
G1 X103.454 Y86.528 E5.5466
G1 X103.454 Y92.164 E5.92312
G1 X102.858 Y92.164 E5.96294
G1 X102.858 Y85.762 E6.39063
G1 X102.263 Y85.217 E6.44453
G1 X102.263 Y92.164 E6.90863
G1 X101.668 Y92.164 E6.94838
G1 X101.668 Y84.821 E7.43893
G1 X101.073 Y84.504 E7.48397
G1 X101.073 Y92.164 E7.9957
G1 X100.478 Y92.164 E8.03545
G1 X100.478 Y84.276 E8.56241
G1 X99.883 Y84.137 E8.60323
G1 X99.883 Y92.164 E9.13948
G1 X99.288 Y92.164 E9.17923
G1 X99.27 Y84.036 E9.72223
G1 X98.692 Y84.043 E9.76085
G1 X98.692 Y92.164 E10.30338
G1 X98.097 Y92.164 E10.34313
G1 X98.097 Y84.083 E10.88298
G1 X97.502 Y84.204 E10.92354
G1 X97.502 Y92.164 E11.45531
G1 X96.907 Y92.164 E11.49506
G1 X96.907 Y84.397 E12.01394
G1 X96.612 Y84.519 E12.03527
G1 X96.312 Y84.414 E12.0565
G1 X96.312 Y92.164 E12.57424
G1 X95.717 Y92.164 E12.61399
G1 X95.717 Y84.241 E13.14329
G1 X95.122 Y84.154 E13.18346
G1 X95.122 Y92.164 E13.71857
G1 X94.527 Y92.164 E13.75832
G1 X94.527 Y84.131 E14.29497
G1 X93.931 Y84.159 E14.33483
G1 X93.931 Y92.164 E14.86961
G1 X93.336 Y92.729 E14.92443
G1 X93.336 Y84.281 E15.4888
G1 X92.741 Y84.439 E15.52993
G1 X92.741 Y94.683 E16.21428
G1 X92.146 Y94.413 E16.25793
G1 X92.146 Y84.712 E16.90601
G1 X91.551 Y85.063 E16.95216
G1 X91.551 Y94.059 E17.55314
G1 X90.956 Y93.612 E17.60286
G1 X90.956 Y85.508 E18.14425
G1 X90.361 Y86.134 E18.20195
G1 X90.361 Y92.992 E18.6601
G1 X89.766 Y92.095 E18.73201
G1 X89.766 Y87.033 E19.07018
G1 X89.355 Y88.041 E19.1429
G1 X89.17 Y89.017 E19.20926
G1 X89.17 Y91.277 E19.36024
G1 E17.36024 F2400
G92 E0
G1 X89.17 Y91.277 F7800
G1 X107.977 Y87.512
G1 E2 F2400
;TYPE:Perimeter
;WIDTH:0.497343
G1 F1800
G1 X108.248 Y87.433 E2.01524
;WIDTH:0.497548
G1 X108.72 Y87.391 E2.04084
G1 X109.152 Y87.44 E2.06433
G1 X109.599 Y87.583 E2.08969
G1 X109.981 Y87.797 E2.11335
;WIDTH:0.493886
G1 X110.325 Y88.09 E2.13756
;WIDTH:0.496228
G1 X110.632 Y88.497 E2.16502
G1 X110.851 Y88.984 E2.19378
;WIDTH:0.493044
G1 X110.954 Y89.483 E2.22102
;WIDTH:0.51049
G1 X110.945 Y90.03 E2.25146
;WIDTH:0.553425
G1 X110.922 Y90.212 E2.26265
;WIDTH:0.59636
G1 X110.899 Y90.393 E2.27476
;WIDTH:0.6
G1 X110.714 Y90.819 E2.30579
G1 X110.337 Y91.316 E2.34746
G1 X109.979 Y91.611 E2.37845
G1 X109.476 Y91.861 E2.41597
G1 X109.123 Y91.963 E2.44052
G1 X108.661 Y92.005 E2.47151
G1 X108.179 Y91.948 E2.50393
G1 X107.756 Y91.813 E2.53359
G1 X107.35 Y91.587 E2.56463
G1 X106.997 Y91.285 E2.59566
G1 X106.711 Y90.919 E2.62669
G1 X106.503 Y90.504 E2.6577
G1 X106.469 Y90.252 E2.67469
;WIDTH:0.566322
G1 X106.435 Y90.001 E2.69055
;WIDTH:0.532645
G1 X106.401 Y89.749 E2.7054
;WIDTH:0.498968
G1 X106.399 Y89.71 E2.70752
;WIDTH:0.4971
G1 X106.504 Y89.018 E2.7453
;WIDTH:0.492602
G1 X106.701 Y88.548 E2.77252
;WIDTH:0.495091
G1 X107.009 Y88.118 E2.80093
G1 X107.413 Y87.778 E2.8293
;WIDTH:0.497343
G1 X107.839 Y87.553 E2.85532
G1 X107.92 Y87.529 E2.85988
G1 X107.92 Y87.529 F7800
G1 X108.121 Y87.98
;TYPE:External perimeter
;WIDTH:0.6
G1 F1800
G1 X108.256 Y87.924 E2.86964
G1 X108.683 Y87.874 E2.89836
G1 X109.021 Y87.905 E2.92103
G1 X109.378 Y88.014 E2.94597
G1 X109.681 Y88.175 E2.96889
G1 X110.062 Y88.527 E3.00354
G1 X110.191 Y88.696 E3.01774
G1 X110.411 Y89.183 E3.05344
G1 X110.48 Y89.608 E3.0822
G1 X110.457 Y89.966 E3.10617
G1 X110.364 Y90.312 E3.13011
G1 X110.203 Y90.632 E3.15404
G1 X109.983 Y90.915 E3.17799
G1 X109.711 Y91.148 E3.20192
G1 X109.305 Y91.353 E3.2323
G1 X109.057 Y91.431 E3.24967
G1 X108.701 Y91.47 E3.27359
G1 X108.324 Y91.433 E3.2989
G1 X108 Y91.336 E3.32149
G1 X107.684 Y91.168 E3.3454
G1 X107.407 Y90.941 E3.36933
G1 X107.181 Y90.663 E3.39326
G1 X107.014 Y90.346 E3.4172
G1 X106.914 Y90.002 E3.44113
G1 X106.883 Y89.687 E3.46228
G1 X106.979 Y89.101 E3.50195
G1 X107.185 Y88.679 E3.53332
G1 X107.382 Y88.428 E3.55464
G1 X107.786 Y88.119 E3.58862
G1 X108.066 Y88.003 E3.60887
G1 X108.454 Y87.908 F7800
G1 E1.60887 F2400
G92 E0
G1 X108.494 Y132.59 F7800
G1 E2 F2400
;TYPE:Perimeter
;WIDTH:0.499362
G1 F1800
G1 X108.401 Y132.591 E2.00505
;WIDTH:0.498125
G1 X107.866 Y132.459 E2.03486
;WIDTH:0.49374
G1 X107.398 Y132.214 E2.06315
G1 X107.038 Y131.908 E2.08845
;WIDTH:0.496614
G1 X106.748 Y131.537 E2.11384
G1 X106.544 Y131.118 E2.13896
;WIDTH:0.499512
G1 X106.428 Y130.651 E2.16508
;WIDTH:0.503255
G1 X106.412 Y130.119 E2.19421
;WIDTH:0.542209
G1 X106.443 Y129.864 E2.20952
;WIDTH:0.581164
G1 X106.473 Y129.609 E2.22607
;WIDTH:0.6
G1 X106.651 Y129.181 E2.25704
G1 X107.028 Y128.684 E2.29871
G1 X107.386 Y128.389 E2.3297
G1 X107.889 Y128.139 E2.36722
G1 X108.242 Y128.037 E2.39177
G1 X108.704 Y127.995 E2.42276
G1 X109.186 Y128.052 E2.45518
G1 X109.609 Y128.187 E2.48484
G1 X110.015 Y128.413 E2.51588
G1 X110.368 Y128.715 E2.54691
G1 X110.654 Y129.081 E2.57794
G1 X110.855 Y129.499 E2.60893
;WIDTH:0.584469
G1 X110.899 Y129.752 E2.62559
;WIDTH:0.547242
G1 X110.942 Y130.006 E2.6411
;WIDTH:0.510014
G1 X110.948 Y130.538 E2.67067
;WIDTH:0.495211
G1 X110.848 Y131.037 E2.69802
;WIDTH:0.491834
G1 X110.639 Y131.502 E2.7252
;WIDTH:0.49374
G1 X110.316 Y131.921 E2.75353
G1 X109.952 Y132.222 E2.77882
;WIDTH:0.497342
G1 X109.526 Y132.447 E2.80484
;WIDTH:0.499362
G1 X108.978 Y132.587 E2.83553
G1 X108.554 Y132.59 E2.85853
G1 X108.554 Y132.59 F7800
G1 X108.542 Y132.105
;TYPE:External perimeter
;WIDTH:0.6
G1 F1800
G1 X108.396 Y132.105 E2.86828
G1 X107.975 Y131.98 E2.89762
G1 X107.684 Y131.825 E2.91965
G1 X107.309 Y131.481 E2.95365
G1 X107.035 Y131.052 E2.98766
G1 X106.913 Y130.639 E3.01643
G1 X106.899 Y130.107 E3.05198
G1 X107.001 Y129.688 E3.08079
G1 X107.161 Y129.368 E3.10469
G1 X107.382 Y129.085 E3.12868
G1 X107.654 Y128.852 E3.15261
G1 X108.06 Y128.647 E3.18299
G1 X108.308 Y128.569 E3.20036
G1 X108.664 Y128.53 E3.22428
G1 X109.041 Y128.567 E3.24959
G1 X109.364 Y128.664 E3.27212
G1 X109.681 Y128.832 E3.29609
G1 X109.958 Y129.059 E3.32002
G1 X110.184 Y129.337 E3.34395
G1 X110.35 Y129.654 E3.36786
G1 X110.452 Y130.018 E3.39311
G1 X110.465 Y130.55 E3.42866
G1 X110.364 Y130.969 E3.45745
G1 X110.186 Y131.312 E3.48327
G1 X109.983 Y131.572 E3.50531
G1 X109.579 Y131.881 E3.53929
G1 X109.109 Y132.076 E3.57328
G1 X108.918 Y132.106 E3.5862
G1 X108.602 Y132.105 E3.60731
G1 X108.207 Y132.042 F7800
G1 E1.60731 F2400
G92 E0
G1 X111.23 Y125.877 F7800
G1 E2 F2400
;TYPE:Perimeter
G1 F1800
G1 X111.001 Y126.109 E2.02178
G1 X110.829 Y126.581 E2.05534
G1 X110.811 Y126.795 E2.06969
G1 X110.809 Y128.408 E2.17745
G1 X110.587 Y128.185 E2.19847
G1 X110.125 Y127.85 E2.23659
G1 X109.605 Y127.613 E2.27477
G1 X109.049 Y127.484 E2.3129
G1 X108.478 Y127.468 E2.35106
G1 X107.915 Y127.565 E2.38923
G1 X107.383 Y127.772 E2.42737
G1 X106.902 Y128.08 E2.46553
G1 X106.556 Y128.409 E2.49743
G1 X106.536 Y126.58 E2.61962
G1 X106.363 Y126.108 E2.6532
G1 X105.917 Y125.656 E2.69562
G1 X105.683 Y125.613 E2.71151
;WIDTH:0.55365
G1 X105.449 Y125.57 E2.72603
;WIDTH:0.507301
G1 X105.215 Y125.527 E2.73917
;WIDTH:0.460952
G1 X95.619 Y125.527 E3.21381
G1 X95.619 Y125.13 E3.23345
G1 X105.215 Y125.13 E3.70809
;WIDTH:0.507301
G1 X105.492 Y125.153 E3.72345
;WIDTH:0.55365
G1 X105.769 Y125.177 E3.74042
;WIDTH:0.6
G1 X106.046 Y125.2 E3.75899
G1 X111.318 Y125.2 E4.11119
G1 X111.595 Y125.177 E4.12976
;WIDTH:0.55365
