; generated by PrusaSlicer 2.8.1+linux-x64-GTK3 on 2024-10-22 at 13:03:52 UTC

; 

; external perimeters extrusion width = 0.45mm
; perimeters extrusion width = 0.45mm
; infill extrusion width = 0.45mm
; solid infill extrusion width = 0.45mm
; top infill extrusion width = 0.40mm
; support material extrusion width = 0.40mm
; first layer extrusion width = 0.60mm

M190 S60 ; set bed temperature and wait for it to be reached
M104 S200 ; set temperature
;TYPE:Custom
G28 ; home all axes
G1 Z5 F5000 ; lift nozzle
M109 S200 ; set temperature and wait for it to be reached
G21 ; set units to millimeters
G90 ; use absolute coordinates
M82 ; use absolute distances for extrusion
G92 E0
; Filament gcode
M107
;LAYER_CHANGE
;Z:0.3
;HEIGHT:0.3
G1 E-2 F2400
G1 Z.3 F7800
G1 X66.742 Y39.477
G1 E0 F2400
;TYPE:Skirt/Brim
;WIDTH:0.6
G1 F1800
G1 X67.377 Y38.53 E.07617
G1 X68.086 Y37.657 E.1513
G1 X68.882 Y36.84 E.2275
G1 X69.737 Y36.11 E.30261
G1 X70.668 Y35.452 E.37877
G1 X71.641 Y34.888 E.4539
G1 X72.676 Y34.409 E.53009
G1 X79.884 Y32.079 E1.03616
G1 X109.56 Y24.157 E3.0881
G1 X110.838 Y23.954 E3.17455
G1 X111.965 Y23.893 E3.24995
G1 X113.317 Y23.966 E3.3404
G1 X115.267 Y24.344 E3.4731
G1 X142.233 Y32.675 E5.35859
G1 X143.55 Y33.213 E5.45363
G1 X144.806 Y33.88 E5.54864
G1 X145.99 Y34.668 E5.64365
G1 X147.089 Y35.57 E5.73863
G1 X148.086 Y36.569 E5.83292
G1 X148.993 Y37.68 E5.92873
G1 X149.771 Y38.856 E6.02293
G1 X150.435 Y40.114 E6.11796
G1 X150.974 Y41.443 E6.21377
G1 X151.374 Y42.807 E6.30873
G1 X151.636 Y44.205 E6.40375
G1 X151.758 Y45.622 E6.49876
G1 X151.738 Y47.045 E6.59383
G1 X151.577 Y48.458 E6.68884
G1 X151.276 Y49.848 E6.78385
G1 X150.838 Y51.201 E6.87886
G1 X150.44 Y52.144 E6.94724
G1 X149.777 Y53.403 E7.0423
G1 X148.993 Y54.589 E7.13728
G1 X148.094 Y55.691 E7.23229
G1 X146.79 Y56.962 E7.35394
G1 X145.408 Y58.009 E7.46977
G1 X143.831 Y58.92 E7.59144
G1 X142.233 Y59.593 E7.70728
G1 X114.603 Y67.935 E9.63541
G1 X112.695 Y68.301 E9.7652
G1 X111.342 Y68.375 E9.85572
G1 X88.566 Y66.579 E11.382
G1 X87.055 Y66.373 E11.48388
G1 X85.53 Y65.951 E11.58959
G1 X84.305 Y65.412 E11.679
G1 X83.317 Y64.855 E11.75477
G1 X70.327 Y56.181 E12.79826
G1 X68.882 Y55.004 E12.92276
G1 X68.086 Y54.188 E12.99891
G1 X67.377 Y53.315 E13.07404
G1 X66.742 Y52.367 E13.15027
G1 X66.231 Y51.43 E13.22157
G1 X65.65 Y50.059 E13.32105
G1 X65.335 Y49.029 E13.39301
G1 X65.097 Y47.883 E13.4712
G1 X64.971 Y46.78 E13.54537
G1 X64.944 Y45.643 E13.62135
G1 X65.197 Y43.411 E13.77141
G1 X65.49 Y42.272 E13.84998
G1 X65.865 Y41.214 E13.92497
G1 X66.715 Y39.531 E14.05093
G1 E12.05093 F2400
G92 E0
G1 X66.715 Y39.531 F7800
G92 E0
G1 X116.147 Y54.705
G1 E2 F2400
;TYPE:Support material
G1 F1800
G1 X116.506 Y55.778 E2.07559
G1 X116.626 Y56.902 E2.15111
G1 X116.502 Y58.025 E2.22659
G1 X116.14 Y59.095 E2.30205
G1 X115.556 Y60.063 E2.37757
G1 X114.779 Y60.882 E2.45299
G1 X113.844 Y61.516 E2.52846
G1 X112.795 Y61.933 E2.60387
G1 X111.681 Y62.116 E2.67929
G1 X110.553 Y62.055 E2.75476
G1 X109.465 Y61.753 E2.83019
G1 X108.467 Y61.224 E2.90565
G1 X107.607 Y60.495 E2.98097
G1 X106.922 Y59.595 E3.05653
G1 X106.446 Y58.571 E3.13197
G1 X106.202 Y57.468 E3.20744
G1 X106.2 Y56.338 E3.28293
G1 X106.44 Y55.233 E3.35847
G1 X106.704 Y54.659 E3.40068
G1 X116.093 Y54.659 E4.02792
G1 X116.093 Y54.659 F7800
G1 X115.951 Y58.9
G1 F1800
G1 X115.951 Y55.64 E4.24571
G1 X115.784 Y55.141 E4.28086
G1 X115.356 Y55.141 E4.30945
G1 X115.356 Y59.461 E4.59805
G1 X114.761 Y60.201 E4.66148
G1 X114.761 Y55.141 E4.99952
G1 X114.166 Y55.141 E5.03927
G1 X114.166 Y60.715 E5.41164
G1 X113.571 Y61.105 E5.45917
G1 X113.571 Y55.141 E5.8576
G1 X112.976 Y55.141 E5.89735
G1 X112.976 Y61.343 E6.31168
G1 X112.381 Y61.513 E6.35302
G1 X112.381 Y55.141 E6.7787
G1 X111.785 Y55.141 E6.81852
G1 X111.785 Y61.61 E7.25068
G1 X111.19 Y61.607 E7.29043
G1 X111.19 Y55.141 E7.72239
G1 X110.595 Y55.141 E7.76214
G1 X110.595 Y61.566 E8.19136
G1 X110 Y61.401 E8.23261
G1 X110 Y55.141 E8.65081
G1 X109.405 Y55.141 E8.69056
G1 X109.405 Y61.176 E9.09373
G1 X108.81 Y60.86 E9.13874
G1 X108.81 Y55.141 E9.5208
G1 X108.215 Y55.141 E9.56055
G1 X108.215 Y60.378 E9.91041
G1 X107.619 Y59.716 E9.96992
G1 X107.619 Y55.141 E10.27555
G1 X107.024 Y55.141 E10.3153
G1 X107.024 Y59.243 E10.58934
G1 E8.58934 F2400
G92 E0
G1 X107.024 Y59.243 F7800
G1 X103.227 Y54.845
G1 E2 F2400
G1 F1800
G1 X103.396 Y55.954 E2.07494
G1 X103.268 Y57.078 E2.15051
G1 X102.841 Y58.147 E2.22741
G1 X102.163 Y59.05 E2.30285
G1 X101.272 Y59.741 E2.37818
G1 X100.156 Y60.194 E2.45864
G1 X99.068 Y60.331 E2.5319
G1 X97.952 Y60.169 E2.60724
G1 X96.798 Y59.642 E2.69199
G1 X95.973 Y58.97 E2.76307
G1 X95.331 Y58.061 E2.83741
G1 X94.988 Y57.201 E2.89926
G1 X94.839 Y56.264 E2.96264
G1 X94.851 Y55.713 E2.99946
G1 X94.956 Y54.995 E3.04794
G1 X95.082 Y54.659 E3.07191
G1 X103.147 Y54.659 E3.6107
G1 X103.195 Y54.772 E3.6189
G1 X103.195 Y54.772 F7800
G1 X102.858 Y57.46
G1 F1800
G1 X102.858 Y55.625 E3.74149
G1 X102.785 Y55.141 E3.77419
G1 X102.263 Y55.141 E3.80906
G1 X102.263 Y58.113 E4.00761
G1 X101.668 Y58.823 E4.0695
G1 X101.668 Y55.141 E4.31548
G1 X101.073 Y55.141 E4.35523
G1 X101.073 Y59.286 E4.63214
G1 X100.478 Y59.556 E4.67579
G1 X100.478 Y55.141 E4.97074
G1 X99.883 Y55.141 E5.01049
G1 X99.883 Y59.742 E5.31786
G1 X99.288 Y59.817 E5.35792
G1 X99.288 Y55.141 E5.6703
G1 X98.692 Y55.141 E5.71012
G1 X98.692 Y59.789 E6.02063
G1 X98.097 Y59.703 E6.06079
G1 X98.097 Y55.141 E6.36556
G1 X97.502 Y55.141 E6.40531
G1 X97.502 Y59.459 E6.69378
G1 X96.907 Y59.109 E6.7399
G1 X96.907 Y55.141 E7.00498
G1 X96.312 Y55.141 E7.04473
G1 X96.312 Y58.614 E7.27675
G1 X95.717 Y57.728 E7.34805
G1 X95.717 Y54.9 E7.53698
G1 E5.53698 F2400
G92 E0
G1 X95.717 Y54.9 F7800
G1 X93.227 Y54.845
G1 E2 F2400
G1 F1800
G1 X93.396 Y55.954 E2.07494
G1 X93.268 Y57.078 E2.15051
G1 X92.841 Y58.147 E2.22741
G1 X92.163 Y59.05 E2.30285
G1 X91.272 Y59.741 E2.37818
G1 X90.156 Y60.194 E2.45864
G1 X89.068 Y60.331 E2.5319
G1 X87.952 Y60.169 E2.60724
G1 X86.798 Y59.642 E2.69199
G1 X85.973 Y58.97 E2.76307
G1 X85.331 Y58.061 E2.83741
G1 X84.988 Y57.201 E2.89926
G1 X84.839 Y56.264 E2.96264
G1 X84.851 Y55.713 E2.99946
G1 X84.956 Y54.995 E3.04794
G1 X85.082 Y54.659 E3.07191
G1 X93.147 Y54.659 E3.6107
G1 X93.195 Y54.772 E3.6189
G1 X93.195 Y54.772 F7800
G1 X92.741 Y57.752
G1 F1800
G1 X92.741 Y55.141 E3.79333
G1 X92.146 Y55.141 E3.83308
G1 X92.146 Y58.269 E4.04205
G1 X91.816 Y58.708 E4.07874
G1 X91.551 Y58.914 E4.10116
G1 X91.551 Y55.141 E4.35322
G1 X90.956 Y55.141 E4.39297
G1 X90.956 Y59.352 E4.67429
G1 X90.361 Y59.603 E4.71743
G1 X90.361 Y55.141 E5.01552
G1 X89.766 Y55.141 E5.05527
G1 X89.766 Y59.757 E5.36364
G1 X89.17 Y59.832 E5.40377
G1 X89.17 Y55.141 E5.71715
G1 X88.575 Y55.141 E5.7569
G1 X88.575 Y59.773 E6.06634
G1 X88.081 Y59.701 E6.09969
G1 X87.98 Y59.659 E6.107
G1 X87.98 Y55.141 E6.40883
G1 X87.385 Y55.141 E6.44858
G1 X87.385 Y59.406 E6.73351
G1 X86.79 Y59.014 E6.78111
G1 X86.79 Y55.141 E7.03985
G1 X86.195 Y55.141 E7.0796
G1 X86.195 Y58.448 E7.30053
G1 X85.757 Y57.829 E7.35119
G1 X85.6 Y57.433 E7.37965
G1 X85.6 Y54.9 E7.54887
G1 E5.54887 F2400
G92 E0
G1 X85.6 Y54.9 F7800
G1 X90.05 Y39.195
G1 E2 F2400
G1 F1800
G1 X91.101 Y39.444 E2.07216
G1 X92.206 Y40.028 E2.15566
G1 X93.05 Y40.817 E2.23284
G1 X93.675 Y41.783 E2.3097
G1 X94.047 Y42.869 E2.38639
G1 X94.146 Y44.006 E2.46264
G1 X93.967 Y45.153 E2.54019
G1 X93.774 Y45.609 E2.57327
G1 X86.526 Y45.609 E3.05748
G1 X86.526 Y40.206 E3.41843
G1 X86.712 Y40.028 E3.43563
G1 X87.788 Y39.452 E3.51716
G1 X88.905 Y39.188 E3.59384
G1 X89.97 Y39.195 E3.66499
G1 X89.97 Y39.195 F7800
G1 X93.336 Y45.368
G1 F1800
G1 X93.336 Y42.283 E3.87108
G1 X93.238 Y41.995 E3.8914
G1 X92.741 Y41.228 E3.95246
G1 X92.741 Y45.127 E4.21293
G1 X92.146 Y45.127 E4.25268
G1 X92.146 Y40.632 E4.55297
G1 X91.551 Y40.218 E4.60139
G1 X91.551 Y45.127 E4.92934
G1 X90.956 Y45.127 E4.96909
G1 X90.956 Y39.91 E5.31761
G1 X90.361 Y39.764 E5.35854
G1 X90.361 Y45.127 E5.71682
G1 X89.766 Y45.127 E5.75657
G1 X89.766 Y39.676 E6.12073
G1 X89.17 Y39.672 E6.16055
G1 X89.17 Y45.127 E6.52497
G1 X88.575 Y45.127 E6.56472
G1 X88.575 Y39.761 E6.9232
G1 X87.98 Y39.902 E6.96405
G1 X87.98 Y45.127 E7.31311
G1 X87.385 Y45.127 E7.35286
G1 X87.385 Y39.941 E7.69931
G1 E5.69931 F2400
G92 E0
G1 X87.385 Y39.941 F7800
G1 X77.52 Y39.761
G1 E2 F2400
G1 F1800
G1 X78.105 Y39.787 E2.03912
G1 X79.176 Y40.009 E2.11219
G1 X80.217 Y40.433 E2.18728
G1 X80.976 Y40.917 E2.24742
G1 X80.976 Y50.927 E2.91614
G1 X80.217 Y51.412 E2.97631
G1 X79.176 Y51.836 E3.0514
G1 X78.074 Y52.064 E3.12658
G1 X76.95 Y52.088 E3.20169
G1 X75.84 Y51.909 E3.2768
G1 X74.781 Y51.531 E3.35192
G1 X73.808 Y50.968 E3.42702
G1 X72.953 Y50.238 E3.50213
G1 X72.244 Y49.365 E3.57726
G1 X71.733 Y48.428 E3.64856
G1 X71.364 Y47.314 E3.72696
G1 X71.212 Y46.202 E3.80194
G1 X71.212 Y45.643 E3.83928
G1 X71.364 Y44.531 E3.91426
G1 X71.733 Y43.417 E3.99266
G1 X72.244 Y42.48 E4.06396
G1 X72.953 Y41.607 E4.13909
G1 X73.808 Y40.876 E4.21424
G1 X74.781 Y40.313 E4.28934
G1 X75.84 Y39.936 E4.36444
G1 X76.921 Y39.761 E4.4376
G1 X77.44 Y39.761 E4.47227
G1 X77.44 Y39.761 F7800
G1 X80.243 Y51.109
G1 F1800
G1 X80.243 Y41.022 E5.14614
G1 X79.648 Y40.722 E5.19066
G1 X79.648 Y51.123 E5.8855
G1 X79.053 Y51.365 E5.92841
G1 X79.053 Y40.48 E6.65559
G1 X78.458 Y40.353 E6.69623
G1 X78.458 Y51.492 E7.44038
G1 X77.863 Y51.586 E7.48062
G1 X77.863 Y40.259 E8.23732
G1 X77.268 Y40.243 E8.27708
G1 X77.268 Y51.599 E9.03572
G1 X76.673 Y51.555 E9.07558
G1 X76.673 Y40.289 E9.82821
G1 X76.077 Y40.385 E9.86854
G1 X76.077 Y51.459 E10.60834
G1 X75.482 Y51.27 E10.65005
G1 X75.482 Y40.575 E11.36453
G1 X74.887 Y40.808 E11.40722
G1 X74.887 Y51.036 E12.09051
G1 X74.292 Y50.692 E12.13642
G1 X74.292 Y41.153 E12.77368
G1 X73.697 Y41.605 E12.8236
G1 X73.697 Y50.24 E13.40046
G1 X73.102 Y49.657 E13.45611
G1 X73.102 Y42.188 E13.95508
G1 X72.507 Y43.005 E14.0226
G1 X72.507 Y48.84 E14.41241
G1 X72.172 Y48.227 E14.45908
G1 X71.912 Y47.477 E14.51211
G1 X71.912 Y43.626 E14.76938
G1 E12.76938 F2400
G92 E0
G1 X71.912 Y43.626 F7800
G1 X100.05 Y39.195
G1 E2 F2400
G1 F1800
G1 X101.101 Y39.444 E2.07216
G1 X102.206 Y40.028 E2.15566
G1 X102.476 Y40.281 E2.18038
G1 X102.476 Y45.609 E2.53632
G1 X95.145 Y45.609 E3.02607
G1 X94.891 Y44.875 E3.07796
G1 X94.785 Y43.845 E3.14713
G1 X94.853 Y43.101 E3.19704
G1 X95.291 Y41.715 E3.29415
G1 X95.851 Y40.848 E3.3631
G1 X96.712 Y40.028 E3.44253
G1 X97.788 Y39.452 E3.52406
G1 X98.905 Y39.188 E3.60074
G1 X99.97 Y39.195 E3.67189
G1 X99.97 Y39.195 F7800
G1 X101.668 Y45.368
G1 F1800
G1 X101.668 Y40.283 E4.0116
G1 X101.073 Y39.968 E4.05658
G1 X101.073 Y45.127 E4.40123
G1 X100.478 Y45.127 E4.44098
G1 X100.478 Y39.792 E4.79739
G1 X99.883 Y39.676 E4.83789
G1 X99.883 Y45.127 E5.20205
G1 X99.288 Y45.127 E5.2418
G1 X99.288 Y39.672 E5.60622
G1 X98.692 Y39.733 E5.64624
G1 X98.692 Y45.127 E6.00659
G1 X98.097 Y45.127 E6.04634
G1 X98.097 Y39.874 E6.39727
G1 X97.502 Y40.152 E6.44114
G1 X97.502 Y45.127 E6.7735
G1 X96.907 Y45.127 E6.81325
G1 X96.907 Y40.508 E7.12182
G1 X96.312 Y41.075 E7.17673
G1 X96.312 Y45.127 E7.44743
G1 X95.717 Y45.127 E7.48718
G1 X95.717 Y41.5 E7.72948
G1 E5.72948 F2400
G92 E0
G1 X95.717 Y41.5 F7800
G1 X112.731 Y30.221
G1 E2 F2400
G1 F1800
G1 X113.419 Y30.334 E2.04658
G1 X114.468 Y30.752 E2.12202
G1 X115.403 Y31.385 E2.19745
G1 X116.18 Y32.204 E2.27287
G1 X116.764 Y33.171 E2.34834
G1 X117.126 Y34.241 E2.4238
G1 X117.25 Y35.365 E2.49934
G1 X117.13 Y36.489 E2.57486
G1 X116.742 Y37.609 E2.65404
G1 X107.329 Y37.609 E3.28288
G1 X107.064 Y37.035 E3.32512
G1 X106.824 Y35.93 E3.40066
G1 X106.826 Y34.8 E3.47615
G1 X107.07 Y33.697 E3.55162
G1 X107.546 Y32.672 E3.62712
G1 X108.23 Y31.774 E3.70253
G1 X109.091 Y31.043 E3.77798
G1 X110.089 Y30.514 E3.85344
G1 X111.177 Y30.212 E3.92887
G1 X112.304 Y30.151 E4.00427
G1 X112.652 Y30.208 E4.02783
G1 X112.652 Y30.208 F7800
G1 X116.546 Y37.368
G1 F1800
G1 X116.546 Y34.034 E4.25056
G1 X116.324 Y33.376 E4.29695
G1 X115.951 Y32.758 E4.34517
G1 X115.951 Y37.127 E4.63704
G1 X115.356 Y37.127 E4.67679
G1 X115.356 Y32.036 E5.0169
G1 X114.761 Y31.532 E5.06899
G1 X114.761 Y37.127 E5.44277
G1 X114.166 Y37.127 E5.48252
G1 X114.166 Y31.15 E5.88182
G1 X113.571 Y30.913 E5.92461
G1 X113.571 Y37.127 E6.33974
G1 X112.976 Y37.127 E6.37949
G1 X112.976 Y30.75 E6.80551
G1 X112.381 Y30.652 E6.84579
G1 X112.381 Y37.127 E7.27836
G1 X111.785 Y37.127 E7.31818
G1 X111.785 Y30.662 E7.75008
G1 X111.19 Y30.709 E7.78995
G1 X111.19 Y37.127 E8.21871
G1 X110.595 Y37.127 E8.25846
G1 X110.595 Y30.874 E8.67619
G1 X110 Y31.107 E8.71888
G1 X110 Y37.127 E9.12105
G1 X109.405 Y37.127 E9.1608
G1 X109.405 Y31.422 E9.54192
G1 X108.81 Y31.914 E9.5935
G1 X108.81 Y37.127 E9.94176
G1 X108.215 Y37.127 E9.98151
G1 X108.215 Y32.59 E10.28461
G1 X107.961 Y32.923 E10.31259
G1 X107.619 Y33.659 E10.36681
G1 X107.619 Y37.368 E10.61459
G1 E8.61459 F2400
G92 E0
G1 X107.619 Y37.368 F7800
G1 X134.377 Y49.335
G1 E2 F2400
;TYPE:Perimeter
;WIDTH:0.6
G1 F1800
G1 X134.283 Y49.224 E2.00972
G1 X133.924 Y48.901 E2.04198
G1 X133.701 Y48.464 E2.07476
G1 X133.351 Y47.919 E2.11803
G1 X133.21 Y47.434 E2.15177
G1 X133.187 Y47.26 E2.1635
G1 X133.052 Y46.826 E2.19386
G1 X133.026 Y46.262 E2.23158
G1 X133.037 Y46.027 E2.2473
G1 X133.007 Y45.652 E2.27243
G1 X133.103 Y45.228 E2.30147
G1 X133.203 Y44.956 E2.32083
G1 X133.267 Y44.566 E2.34723
G1 X133.469 Y44.17 E2.37693
G1 X133.963 Y43.344 E2.44123
G1 X134.324 Y43.004 E2.47436
G1 X134.734 Y42.558 E2.51483
G1 X135.172 Y42.334 E2.5477
G1 X135.661 Y42.009 E2.58692
G1 X136.753 Y41.694 E2.66285
G1 X137.181 Y41.643 E2.69164
G1 X137.564 Y41.671 E2.71729
G1 X137.973 Y41.64 E2.74469
G1 X138.331 Y41.702 E2.76896
G1 X138.726 Y41.838 E2.79687
G1 X139.173 Y41.938 E2.82747
G1 X139.611 Y42.178 E2.86084
G1 X139.763 Y42.291 E2.87349
G1 X140.13 Y42.48 E2.90107
G1 X140.414 Y42.698 E2.92499
G1 X140.737 Y43.057 E2.95725
G1 X141.048 Y43.331 E2.98494
G1 X141.373 Y43.928 E3.03035
G1 X141.634 Y44.311 E3.06131
G1 X141.785 Y44.783 E3.09442
G1 X141.818 Y45.016 E3.11014
G1 X141.949 Y45.443 E3.13998
G1 X141.988 Y45.792 E3.16344
G1 X141.965 Y46.244 E3.19368
G1 X141.99 Y46.669 E3.22212
G1 X141.799 Y47.312 E3.26693
G1 X141.729 Y47.721 E3.29465
G1 X141.241 Y48.63 E3.36357
G1 X140.96 Y49.023 E3.39585
G1 X140.579 Y49.37 E3.43028
G1 X140.336 Y49.654 E3.45525
G1 X139.93 Y49.9 E3.48696
G1 X139.706 Y50.007 E3.50354
G1 X139.412 Y50.223 E3.52791
G1 X139.056 Y50.372 E3.55369
G1 X137.985 Y50.61 E3.62698
G1 X137.552 Y50.597 E3.65592
G1 X136.915 Y50.618 E3.6985
G1 X136.46 Y50.468 E3.73051
G1 X135.897 Y50.357 E3.76885
G1 X134.844 Y49.769 E3.84942
G1 X134.462 Y49.434 E3.88336
G1 X134.416 Y49.38 E3.8881
G1 X134.416 Y49.38 F7800
G1 X134.604 Y48.779
G1 F1800
G1 X134.488 Y48.715 E3.89695
G1 X134.251 Y48.411 E3.9227
G1 X134.111 Y48.053 E3.94838
G1 X133.936 Y47.875 E3.96506
G1 X133.752 Y47.438 E3.99674
G1 X133.759 Y47.15 E4.01599
G1 X133.613 Y46.892 E4.03579
G1 X133.556 Y46.335 E4.07319
G1 X133.627 Y46.112 E4.08882
G1 X133.541 Y45.774 E4.11212
G1 X133.599 Y45.431 E4.13536
G1 X133.747 Y45.095 E4.15989
G1 X133.752 Y44.825 E4.17793
G1 X133.875 Y44.526 E4.19953
G1 X134.091 Y44.232 E4.2239
G1 X134.142 Y44.2 E4.22792
G1 X134.197 Y43.96 E4.24437
G1 X134.396 Y43.659 E4.26848
G1 X134.613 Y43.455 E4.28838
G1 X134.777 Y43.379 E4.30046
G1 X134.922 Y43.119 E4.32035
G1 X135.061 Y42.982 E4.33339
G1 X135.324 Y42.848 E4.35311
G1 X135.581 Y42.746 E4.37158
G1 X135.73 Y42.591 E4.38594
G1 X136.074 Y42.434 E4.4112
G1 X136.454 Y42.379 E4.43685
G1 X136.86 Y42.22 E4.46598
G1 X137.287 Y42.186 E4.4946
G1 X137.517 Y42.254 E4.51062
G1 X137.769 Y42.178 E4.5282
G1 X138.193 Y42.22 E4.55666
G1 X138.564 Y42.378 E4.5836
G1 X138.821 Y42.388 E4.60078
G1 X139.235 Y42.565 E4.63086
G1 X139.429 Y42.771 E4.64976
G1 X139.656 Y42.823 E4.66532
G1 X140.05 Y43.09 E4.69712
G1 X140.228 Y43.333 E4.71724
G1 X140.255 Y43.411 E4.72275
G1 X140.501 Y43.544 E4.74143
G1 X140.737 Y43.828 E4.7661
G1 X140.89 Y44.215 E4.7939
G1 X141.096 Y44.438 E4.81418
G1 X141.254 Y44.859 E4.84422
G1 X141.242 Y45.119 E4.86161
G1 X141.366 Y45.317 E4.87722
G1 X141.452 Y45.805 E4.91032
G1 X141.409 Y46.085 E4.92924
G1 X141.375 Y46.157 E4.93456
G1 X141.456 Y46.438 E4.9541
