; generated by PrusaSlicer 2.8.1+linux-x64-GTK3 on 2024-10-22 at 17:49:48 UTC

; 

; external perimeters extrusion width = 0.45mm
; perimeters extrusion width = 0.45mm
; infill extrusion width = 0.45mm
; solid infill extrusion width = 0.45mm
; top infill extrusion width = 0.40mm
; support material extrusion width = 0.40mm
; first layer extrusion width = 0.60mm

M190 S60 ; set bed temperature and wait for it to be reached
M104 S200 ; set temperature
;TYPE:Custom
G28 ; home all axes
G1 Z5 F5000 ; lift nozzle
M109 S200 ; set temperature and wait for it to be reached
G21 ; set units to millimeters
G90 ; use absolute coordinates
M82 ; use absolute distances for extrusion
G92 E0
; Filament gcode
M107
;LAYER_CHANGE
;Z:0.3
;HEIGHT:0.3
G1 E-2 F2400
G1 Z.3 F7800
G1 X56.628 Y46.517
G1 E0 F2400
;TYPE:Skirt/Brim
;WIDTH:0.6
G1 F1800
G1 X58.101 Y44.88 E.14712
G1 X59.437 Y43.827 E.26076
G1 X60.355 Y43.273 E.33239
G1 X61.314 Y42.802 E.40377
G1 X62.568 Y42.344 E.49296
G1 X63.66 Y42.072 E.56814
G1 X64.982 Y41.89 E.65729
G1 X66.427 Y41.855 E.75385
G1 X156.481 Y43.718 E6.77123
G1 X157.647 Y43.803 E6.84933
G1 X159.072 Y44.104 E6.94663
G1 X160.28 Y44.542 E7.03247
G1 X161.569 Y45.228 E7.13002
G1 X162.742 Y46.098 E7.22758
G1 X163.57 Y46.905 E7.30482
G1 X164.465 Y48.047 E7.40175
G1 X165.113 Y49.168 E7.48825
G1 X165.658 Y50.522 E7.58576
G1 X165.942 Y51.634 E7.66243
G1 X166.102 Y52.91 E7.74834
G1 X166.078 Y54.37 E7.84589
G1 X165.84 Y55.801 E7.9428
G1 X165.499 Y56.906 E8.02006
G1 X164.97 Y58.078 E8.10596
G1 X164.189 Y59.312 E8.20352
G1 X163.108 Y60.537 E8.31266
G1 X161.917 Y61.511 E8.41544
G1 X151.925 Y68.504 E9.2302
G1 X132.832 Y81.469 E10.77199
G1 X131.16 Y82.371 E10.89891
G1 X129.986 Y82.822 E10.98293
G1 X127.872 Y83.302 E11.12775
G1 X125.964 Y83.405 E11.2554
G1 X96.127 Y82.762 E13.24914
G1 X94.998 Y82.711 E13.32464
G1 X93.816 Y82.544 E13.40439
G1 X92.717 Y82.28 E13.4799
G1 X91.587 Y81.892 E13.55972
G1 X89.95 Y81.108 E13.68098
G1 X59.869 Y63.251 E16.01797
G1 X59.175 Y62.773 E16.07427
G1 X58.293 Y62.074 E16.14945
G1 X57.342 Y61.138 E16.23859
G1 X56.628 Y60.268 E16.31378
G1 X55.896 Y59.152 E16.40294
G1 X55.032 Y57.293 E16.53989
G1 X54.689 Y56.14 E16.62025
G1 X54.451 Y54.876 E16.70618
G1 X54.36 Y53.685 E16.78598
G1 X54.394 Y52.445 E16.86885
G1 X54.689 Y50.645 E16.9907
G1 X55.032 Y49.492 E17.07106
G1 X55.416 Y48.569 E17.13784
G1 X55.896 Y47.633 E17.20811
G1 X56.595 Y46.567 E17.29327
G1 E15.29327 F2400
G92 E0
G1 X56.595 Y46.567 F7800
G92 E0
G1 X141.914 Y57.874
G1 E2 F2400
;TYPE:Support material
G1 F1800
G1 X142.326 Y58.714 E2.0625
G1 X142.347 Y60.891 E2.20794
G1 X142.452 Y61.484 E2.24817
G1 X142.715 Y62.209 E2.29969
G1 X142.413 Y63.289 E2.37461
G1 X141.919 Y64.299 E2.44972
G1 X141.26 Y65.191 E2.52381
G1 X140.416 Y65.98 E2.60099
G1 X139.482 Y66.578 E2.67508
G1 X138.441 Y67.002 E2.75017
G1 X137.34 Y67.232 E2.82531
G1 X136.216 Y67.257 E2.90042
G1 X135.105 Y67.079 E2.97559
G1 X134.045 Y66.702 E3.05075
G1 X133.424 Y66.344 E3.09864
G1 X133.415 Y67.668 E3.18709
G1 X133.203 Y68.801 E3.26409
G1 X132.972 Y69.434 E3.30911
G1 X132.516 Y70.237 E3.3708
G1 X131.864 Y71.039 E3.43985
G1 X131.917 Y71.571 E3.47557
G1 X131.804 Y72.675 E3.54971
G1 X131.467 Y73.755 E3.62529
G1 X130.935 Y74.724 E3.69914
G1 X130.226 Y75.563 E3.77252
G1 X129.312 Y76.283 E3.85025
G1 X128.336 Y76.776 E3.9233
G1 X127.291 Y77.061 E3.99566
G1 X126.099 Y77.139 E4.07546
G1 X125.023 Y76.991 E4.14802
G1 X124.021 Y76.639 E4.21897
G1 X122.975 Y76.019 E4.3002
G1 X122.177 Y75.29 E4.37241
G1 X121.567 Y74.454 E4.44155
G1 X121.047 Y73.344 E4.52344
G1 X120.801 Y72.303 E4.5949
G1 X120.774 Y71.509 E4.64797
G1 X123.169 Y71.509 E4.80797
G1 X123.476 Y71.202 E4.83697
G1 X123.476 Y61.734 E5.46948
G1 X124.655 Y61.016 E5.5617
G1 X125.602 Y60.67 E5.62906
G1 X126.612 Y60.475 E5.69778
G1 X127.642 Y60.448 E5.76661
G1 X128.749 Y60.611 E5.84136
G1 X129.747 Y60.937 E5.9115
G1 X130.471 Y61.322 E5.96628
G1 X130.524 Y60.245 E6.03832
G1 X130.78 Y59.151 E6.11338
G1 X130.993 Y58.582 E6.15397
G1 X131.616 Y57.509 E6.23686
G1 X141.643 Y57.509 E6.90672
G1 X141.866 Y57.809 E6.93169
G1 X141.866 Y57.809 F7800
G1 X141.703 Y64.186
G1 F1800
G1 X141.703 Y58.539 E7.30894
G1 X141.401 Y57.991 E7.35074
G1 X141.108 Y57.991 E7.37031
G1 X141.108 Y64.585 E7.81082
G1 X140.513 Y65.238 E7.86984
G1 X140.513 Y57.991 E8.35398
G1 X139.918 Y57.991 E8.39373
G1 X139.918 Y65.726 E8.91047
G1 X139.323 Y66.107 E8.95767
G1 X139.323 Y57.991 E9.49986
G1 X138.727 Y57.991 E9.53968
G1 X138.727 Y66.365 E10.09911
G1 X138.132 Y66.574 E10.14124
G1 X138.132 Y57.991 E10.71463
G1 X137.537 Y57.991 E10.75438
G1 X137.537 Y66.698 E11.33605
G1 X136.942 Y66.759 E11.37601
G1 X136.942 Y57.991 E11.96176
G1 X136.347 Y57.991 E12.00151
G1 X136.347 Y66.772 E12.58813
G1 X135.752 Y66.695 E12.62821
G1 X135.752 Y57.991 E13.20968
G1 X135.157 Y57.991 E13.24943
G1 X135.157 Y66.586 E13.82362
G1 X134.561 Y66.374 E13.86588
G1 X134.561 Y57.991 E14.42591
G1 X133.966 Y57.991 E14.46566
G1 X133.966 Y66.1 E15.00739
G1 X133.371 Y65.756 E15.0533
G1 X133.371 Y57.991 E15.57204
G1 X132.776 Y57.991 E15.61179
G1 X132.776 Y68.463 E16.31138
G1 X132.533 Y69.231 E16.36519
G1 X132.181 Y69.85 E16.41276
G1 X132.181 Y57.991 E17.20501
G1 X131.866 Y57.991 E17.22605
G1 X131.586 Y58.503 E17.26504
G1 X131.586 Y70.616 E18.07425
G1 X131.365 Y70.888 E18.09766
G1 X131.432 Y71.57 E18.14344
G1 X131.329 Y72.579 E18.2112
G1 X130.991 Y73.621 E18.28438
G1 X130.991 Y60.434 E19.16534
G1 X130.953 Y62.124 E19.27827
G1 X130.396 Y61.828 E19.32041
G1 X130.396 Y74.616 E20.17472
G1 X129.8 Y75.288 E20.23473
G1 X129.8 Y61.511 E21.15511
G1 X129.205 Y61.267 E21.19807
G1 X129.205 Y75.759 E22.16621
G1 X128.61 Y76.097 E22.21193
G1 X128.61 Y61.076 E23.21541
G1 X128.015 Y60.983 E23.25564
G1 X128.015 Y76.364 E24.28317
G1 X127.42 Y76.526 E24.32437
G1 X127.42 Y60.936 E25.36587
G1 X126.825 Y60.951 E25.40563
G1 X126.825 Y76.62 E26.4524
G1 X126.23 Y76.651 E26.4922
G1 X126.23 Y61.04 E27.5351
G1 X125.635 Y61.171 E27.5758
G1 X125.635 Y76.588 E28.60574
G1 X125.039 Y76.486 E28.64613
G1 X125.039 Y61.388 E29.65476
G1 X124.444 Y61.681 E29.69907
G1 X124.444 Y76.277 E30.67416
G1 X123.849 Y75.999 E30.71803
G1 X123.849 Y71.51 E31.01792
G1 X123.368 Y71.991 E31.06336
G1 X123.254 Y71.991 E31.07098
G1 X123.254 Y75.621 E31.31348
G1 X122.659 Y75.077 E31.36734
G1 X122.659 Y71.991 E31.5735
G1 X122.064 Y71.991 E31.61325
G1 X122.064 Y74.318 E31.76871
G1 X121.771 Y73.813 E31.80771
G1 X121.469 Y73.033 E31.86359
G1 X121.469 Y71.75 E31.9493
G1 E29.9493 F2400
G92 E0
G1 X121.469 Y71.75 F7800
G1 X91.914 Y57.874
G1 E2 F2400
G1 F1800
G1 X92.41 Y58.884 E2.07517
G1 X92.714 Y59.966 E2.15025
G1 X92.831 Y61.235 E2.23539
G1 X94.227 Y60.428 E2.34311
G1 X95.246 Y60.097 E2.41469
G1 X96.315 Y59.973 E2.48658
G1 X97.472 Y60.069 E2.56414
G1 X98.346 Y60.321 E2.62491
G1 X99.226 Y61.202 E2.7081
G1 X99.226 Y71.202 E3.37615
G1 X99.534 Y71.509 E3.4052
G1 X101.956 Y71.509 E3.567
G1 X101.94 Y71.684 E3.57874
G1 X101.625 Y72.765 E3.65396
G1 X101.111 Y73.768 E3.72925
G1 X100.417 Y74.656 E3.80454
G1 X99.567 Y75.397 E3.87987
G1 X98.591 Y75.964 E3.95528
G1 X97.526 Y76.336 E4.03064
G1 X96.408 Y76.5 E4.10613
G1 X95.279 Y76.45 E4.18163
G1 X94.18 Y76.186 E4.25714
G1 X93.15 Y75.718 E4.33272
G1 X92.227 Y75.063 E4.40833
G1 X91.445 Y74.245 E4.48393
G1 X90.833 Y73.293 E4.55954
G1 X90.412 Y72.242 E4.63518
G1 X90.199 Y71.13 E4.71082
G1 X90.2 Y69.999 E4.78638
G1 X90.416 Y68.888 E4.86199
G1 X90.839 Y67.839 E4.93755
G1 X91.162 Y67.34 E4.97726
G1 X90.939 Y66.513 E5.03448
G1 X90.847 Y65.586 E5.09671
G1 X90.416 Y65.98 E5.13572
G1 X89.482 Y66.578 E5.20981
G1 X88.441 Y67.003 E5.28493
G1 X87.34 Y67.232 E5.36006
G1 X86.216 Y67.258 E5.43517
G1 X85.106 Y67.079 E5.51028
G1 X84.046 Y66.703 E5.58542
G1 X83.071 Y66.14 E5.66063
G1 X82.215 Y65.41 E5.73579
G1 X81.506 Y64.536 E5.81097
G1 X80.993 Y63.598 E5.88239
G1 X80.776 Y63.018 E5.92376
G1 X80.623 Y62.481 E5.96106
G1 X80.472 Y61.367 E6.03616
G1 X80.525 Y60.245 E6.1112
G1 X80.625 Y59.694 E6.14861
G1 X80.994 Y58.582 E6.22688
G1 X81.617 Y57.509 E6.30977
G1 X91.643 Y57.509 E6.97956
G1 X91.866 Y57.809 E7.00453
G1 E5.00453 F2400
G92 E0
G1 X91.866 Y57.809 F7800
G1 X101.234 Y72.999
G1 E2 F2400
G1 F1800
G1 X101.234 Y71.991 E2.06734
G1 X100.639 Y71.991 E2.10709
G1 X100.639 Y73.589 E2.21385
G1 X100.044 Y74.341 E2.27791
G1 X100.044 Y71.991 E2.4349
G1 X99.449 Y71.991 E2.47465
G1 X99.449 Y74.86 E2.66631
G1 X98.854 Y75.254 E2.71398
G1 X98.854 Y71.51 E2.9641
G1 X98.744 Y71.401 E2.97445
G1 X98.744 Y61.401 E3.6425
G1 X98.258 Y60.915 E3.68842
G1 X98.258 Y75.569 E4.66739
G1 X97.663 Y75.777 E4.7095
G1 X97.663 Y60.626 E5.72167
G1 X97.068 Y60.511 E5.76215
G1 X97.068 Y75.916 E6.79129
G1 X96.473 Y76.003 E6.83146
G1 X96.473 Y60.465 E7.86948
G1 X95.878 Y60.509 E7.90934
G1 X95.878 Y75.994 E8.94382
G1 X95.347 Y75.97 E8.97933
G1 X95.283 Y75.955 E8.98372
G1 X95.283 Y60.592 E10.01005
G1 X94.688 Y60.785 E10.05184
G1 X94.688 Y75.812 E11.05572
G1 X94.093 Y75.617 E11.09755
G1 X94.093 Y61.044 E12.07111
G1 X93.497 Y61.392 E12.11722
G1 X93.497 Y75.346 E13.04942
G1 X92.902 Y74.951 E13.09713
G1 X92.902 Y61.756 E13.97863
G1 X92.422 Y62.051 E14.01627
G1 X92.307 Y60.804 E14.09993
G1 X92.307 Y74.449 E15.01149
G1 X91.712 Y73.769 E15.07185
G1 X91.712 Y58.556 E16.08816
G1 X91.401 Y57.991 E16.13125
G1 X91.117 Y57.991 E16.15022
G1 X91.117 Y64.687 E16.59755
G1 X90.522 Y65.23 E16.65136
G1 X90.522 Y57.991 E17.13496
G1 X89.927 Y57.991 E17.17471
G1 X89.927 Y65.721 E17.69112
G1 X89.331 Y66.102 E17.73838
G1 X89.331 Y57.991 E18.28024
G1 X88.736 Y57.991 E18.31999
G1 X88.736 Y66.361 E18.87915
G1 X88.141 Y66.573 E18.92135
G1 X88.141 Y57.991 E19.49467
G1 X87.546 Y57.991 E19.53442
G1 X87.546 Y66.696 E20.11596
G1 X87.285 Y66.751 E20.13378
G1 X86.951 Y66.758 E20.1561
G1 X86.951 Y57.991 E20.74178
G1 X86.356 Y57.991 E20.78153
G1 X86.356 Y66.772 E21.36815
G1 X85.761 Y66.696 E21.40822
G1 X85.761 Y57.991 E21.98976
G1 X85.166 Y57.991 E22.02951
G1 X85.166 Y66.589 E22.6039
G1 X84.57 Y66.377 E22.64616
G1 X84.57 Y57.991 E23.20639
G1 X83.975 Y57.991 E23.24614
G1 X83.975 Y66.105 E23.7882
G1 X83.38 Y65.761 E23.83411
G1 X83.38 Y57.991 E24.35319
G1 X82.785 Y57.991 E24.39294
G1 X82.785 Y65.262 E24.87868
G1 X82.19 Y64.614 E24.93745
G1 X82.19 Y57.991 E25.3799
G1 X81.866 Y57.991 E25.40154
G1 X81.595 Y58.488 E25.43936
G1 X81.595 Y63.694 E25.78715
G1 X81.234 Y62.868 E25.84737
G1 X81.001 Y61.861 E25.91642
G1 X81 Y59.26 E26.09018
G1 E24.09018 F2400
G92 E0
G1 X81 Y59.26 F7800
G1 X91.117 Y73.289
G1 E2 F2400
G1 F1800
G1 X91.117 Y67.854 E2.36309
G1 E.36309 F2400
G92 E0
G1 X91.117 Y67.854 F7800
G1 X67.404 Y48.326
G1 E2 F2400
G1 F1800
G1 X68.63 Y48.84 E2.08881
G1 X68.593 Y49.12 E2.10768
G1 X68.755 Y49.181 E2.11924
G1 X68.705 Y49.459 E2.13811
G1 X66.733 Y49.459 E2.26985
G1 X66.614 Y50.373 E2.33143
G1 X67.78 Y50.762 E2.41355
G1 X68.287 Y51.095 E2.45407
G1 X68.719 Y51.522 E2.49465
G1 X69.058 Y52.025 E2.53517
G1 X69.292 Y52.585 E2.57572
G1 X69.411 Y53.181 E2.61632
G1 X69.411 Y53.787 E2.6568
G1 X69.127 Y54.807 E2.72753
G1 X68.514 Y55.67 E2.79825
G1 X67.644 Y56.274 E2.869
G1 X66.613 Y56.596 E2.94116
G1 X66.733 Y57.509 E3.00268
G1 X68.705 Y57.509 E3.13442
G1 X68.755 Y57.787 E3.15329
G1 X68.593 Y57.848 E3.16485
G1 X68.643 Y58.229 E3.19052
G1 X66.297 Y58.664 E3.34992
G1 X65.171 Y58.63 E3.42518
G1 X64.079 Y58.358 E3.50036
G1 X63.069 Y57.861 E3.57556
G1 X62.187 Y57.162 E3.65074
G1 X61.473 Y56.292 E3.72593
G1 X60.993 Y55.356 E3.7962
G1 X60.684 Y54.22 E3.87485
G1 X60.628 Y53.1 E3.94977
G1 X60.81 Y51.993 E4.02472
G1 X60.993 Y51.429 E4.06433
G1 X61.473 Y50.492 E4.13466
G1 X62.158 Y49.658 E4.20676
G1 X63.121 Y48.898 E4.28871
G1 X64.079 Y48.427 E4.36003
G1 X65.172 Y48.155 E4.43528
G1 X66.297 Y48.121 E4.51047
G1 X67.325 Y48.312 E4.58032
G1 E2.58032 F2400
G92 E0
G1 X67.325 Y48.312 F7800
G1 X68.502 Y55.328
G1 E2 F2400
G1 F1800
G1 X68.502 Y52.036 E2.21992
G1 X67.907 Y51.411 E2.27757
G1 X67.907 Y55.558 E2.55461
G1 X67.312 Y55.892 E2.60019
G1 X67.312 Y51.076 E2.92192
G1 X66.716 Y50.899 E2.96345
G1 X66.716 Y56.319 E3.32554
G1 E1.32554 F2400
G92 E0
G1 X66.716 Y56.319 F7800
G1 X67.312 Y49.218
G1 E2 F2400
G1 F1800
G1 X67.312 Y48.81 E2.02726
G1 X66.716 Y48.689 E2.06789
G1 X66.716 Y49.218 E2.10323
G1 X66.716 Y49.218 F7800
G1 X66.716 Y58.341
G1 F1800
G1 X66.716 Y57.75 E2.14271
G1 X66.716 Y57.75 F7800
G1 X66.121 Y58.417
G1 F1800
G1 X66.121 Y48.609 E2.79794
G1 X65.526 Y48.627 E2.83771
G1 X65.526 Y58.158 E3.47443
G1 X64.931 Y58.073 E3.51458
G1 X64.931 Y48.712 E4.13995
G1 X64.336 Y48.86 E4.18091
G1 X64.336 Y57.925 E4.7865
G1 X63.741 Y57.655 E4.83015
G1 X63.741 Y49.13 E5.39967
G1 X63.146 Y49.476 E5.44565
G1 X63.146 Y57.307 E5.9688
G1 X62.551 Y56.835 E6.01954
G1 X62.551 Y49.957 E6.47903
G1 X61.955 Y50.665 E6.54086
G1 X61.955 Y56.12 E6.90528
G1 X61.36 Y54.926 E6.9944
G1 X61.36 Y51.241 E7.24058
G1 E5.24058 F2400
G92 E0
G1 X61.36 Y51.241 F7800
G1 X108.286 Y52.19
G1 E2 F2400
;TYPE:Perimeter
;WIDTH:0.6
G1 F1800
G1 X108.323 Y52.237 E2.004
G1 X108.531 Y52.652 E2.03501
G1 X108.653 Y53.1 E2.06603
G1 X108.683 Y53.564 E2.09709
G1 X108.621 Y54.025 E2.12816
G1 X108.469 Y54.464 E2.1592
G1 X108.233 Y54.864 E2.19023
G1 X107.922 Y55.209 E2.22126
G1 X107.549 Y55.486 E2.2523
G1 X107.129 Y55.684 E2.28332
G1 X106.873 Y55.717 E2.30056
;WIDTH:0.554091
G1 X106.618 Y55.751 E2.31627
;WIDTH:0.508182
G1 X106.085 Y55.751 E2.34577
;WIDTH:0.545646
G1 X105.831 Y55.713 E2.36119
;WIDTH:0.583167
G1 X105.576 Y55.676 E2.37786
;WIDTH:0.6
G1 X105.153 Y55.486 E2.40884
G1 X104.666 Y55.097 E2.45048
G1 X104.38 Y54.732 E2.48146
G1 X104.142 Y54.22 E2.51918
G1 X104.05 Y53.868 E2.54349
G1 X104.028 Y53.346 E2.57839
G1 X104.12 Y52.821 E2.614
G1 X104.32 Y52.336 E2.64905
G1 X104.697 Y51.839 E2.69072
G1 X105.056 Y51.544 E2.72176
G1 X105.465 Y51.326 E2.75272
G1 X105.69 Y51.28 E2.76806
;WIDTH:0.559311
G1 X105.915 Y51.233 E2.78225
;WIDTH:0.518623
G1 X106.37 Y51.202 E2.80809
;WIDTH:0.525457
G1 X106.6 Y51.213 E2.82133
;WIDTH:0.553755
G1 X106.83 Y51.224 E2.83538
;WIDTH:0.6
G1 X107.278 Y51.343 E2.86635
G1 X107.684 Y51.569 E2.89739
G1 X108.037 Y51.871 E2.92842
G1 X108.249 Y52.142 E2.95141
G1 X108.249 Y52.142 F7800
G1 X107.84 Y52.478
;TYPE:External perimeter
G1 F1800
G1 X107.853 Y52.493 E2.95274
G1 X108.019 Y52.81 E2.97665
G1 X108.12 Y53.154 E3.0006
G1 X108.15 Y53.511 E3.02453
G1 X108.109 Y53.867 E3.04847
G1 X107.999 Y54.207 E3.07234
G1 X107.823 Y54.519 E3.09627
G1 X107.588 Y54.79 E3.12023
G1 X107.305 Y55.01 E3.14418
G1 X106.984 Y55.168 E3.16808
G1 X106.618 Y55.261 E3.19331
G1 X106.085 Y55.261 E3.22892
G1 X105.669 Y55.149 E3.2577
G1 X105.353 Y54.981 E3.28161
G1 X105.076 Y54.753 E3.30558
G1 X104.85 Y54.475 E3.32951
G1 X104.654 Y54.063 E3.35999
G1 X104.583 Y53.814 E3.37729
G1 X104.555 Y53.439 E3.40241
G1 X104.648 Y52.914 E3.43803
G1 X104.83 Y52.523 E3.46684
G1 X105.051 Y52.241 E3.49078
G1 X105.324 Y52.008 E3.51476
G1 X105.636 Y51.833 E3.53866
G1 X105.977 Y51.724 E3.56258
G1 X106.333 Y51.685 E3.5865
G1 X106.691 Y51.717 E3.61051
G1 X107.033 Y51.819 E3.63435
G1 X107.35 Y51.987 E3.65832
G1 X107.626 Y52.215 E3.68224
G1 X107.802 Y52.431 E3.70085
G1 X107.997 Y52.781 F7800
G1 E1.70085 F2400
G92 E0
G1 X117.872 Y55.239 F7800
G1 E2 F2400
;TYPE:Perimeter
G1 F1800
G1 X117.648 Y55.424 E2.01941
G1 X117.237 Y55.642 E2.05049
G1 X117.012 Y55.689 E2.06585
;WIDTH:0.559772
G1 X116.787 Y55.735 E2.08004
;WIDTH:0.519545
G1 X116.333 Y55.766 E2.10587
;WIDTH:0.526171
G1 X116.104 Y55.755 E2.11907
;WIDTH:0.554256
G1 X115.874 Y55.745 E2.13314
;WIDTH:0.6
G1 X115.425 Y55.625 E2.16419
G1 X115.019 Y55.399 E2.19523
G1 X114.666 Y55.097 E2.22626
G1 X114.38 Y54.732 E2.25724
G1 X114.172 Y54.316 E2.28831
G1 X114.05 Y53.868 E2.31933
G1 X114.02 Y53.565 E2.33967
G1 X114.12 Y52.821 E2.38982
G1 X114.32 Y52.336 E2.42487
G1 X114.696 Y51.84 E2.46645
G1 X115.054 Y51.545 E2.49744
G1 X115.465 Y51.326 E2.52855
G1 X115.69 Y51.28 E2.54389
;WIDTH:0.559191
G1 X115.916 Y51.233 E2.55814
;WIDTH:0.518383
G1 X116.369 Y51.202 E2.58385
;WIDTH:0.52522
G1 X116.598 Y51.213 E2.59703
;WIDTH:0.553537
G1 X116.828 Y51.224 E2.61108
;WIDTH:0.6
G1 X117.278 Y51.343 E2.64218
G1 X117.684 Y51.569 E2.67322
G1 X118.037 Y51.871 E2.70425
G1 X118.323 Y52.237 E2.73528
G1 X118.531 Y52.652 E2.76629
G1 X118.656 Y53.16 E2.80124
