; generated by PrusaSlicer 2.8.1+linux-x64-GTK3 on 2024-10-21 at 10:07:19 UTC

; 

; external perimeters extrusion width = 0.45mm
; perimeters extrusion width = 0.45mm
; infill extrusion width = 0.45mm
; solid infill extrusion width = 0.45mm
; top infill extrusion width = 0.40mm
; support material extrusion width = 0.40mm
; first layer extrusion width = 0.60mm

M190 S60 ; set bed temperature and wait for it to be reached
M104 S200 ; set temperature
;TYPE:Custom
G28 ; home all axes
G1 Z5 F5000 ; lift nozzle
M109 S200 ; set temperature and wait for it to be reached
G21 ; set units to millimeters
G90 ; use absolute coordinates
M82 ; use absolute distances for extrusion
G92 E0
; Filament gcode
M107
;LAYER_CHANGE
;Z:0.3
;HEIGHT:0.3
G1 E-2 F2400
G1 Z.3 F7800
G1 X56.897 Y16.202
G1 E0 F2400
;TYPE:Skirt/Brim
;WIDTH:0.6
G1 F1800
G1 X57.382 Y14.919 E.09163
G1 X58 Y13.677 E.18431
G1 X58.732 Y12.515 E.27606
G1 X59.575 Y11.433 E.36769
G1 X60.522 Y10.439 E.45941
G1 X61.564 Y9.545 E.55113
G1 X62.689 Y8.759 E.64281
G1 X63.886 Y8.089 E.73445
G1 X65.145 Y7.542 E.82615
G1 X66.452 Y7.123 E.91784
G1 X67.775 Y6.839 E1.00824
G1 X69.981 Y6.657 E1.15611
G1 X150.156 Y6.658 E6.51223
G1 X151.493 Y6.739 E6.60171
G1 X152.575 Y6.9 E6.67479
G1 X153.908 Y7.224 E6.76643
G1 X155.203 Y7.679 E6.85813
G1 X157.311 Y8.759 E7.01636
G1 X158.436 Y9.545 E7.10804
G1 X159.478 Y10.439 E7.19976
G1 X160.425 Y11.433 E7.29148
G1 X161.086 Y12.262 E7.36231
G1 X161.843 Y13.406 E7.45395
G1 X162.483 Y14.62 E7.54563
G1 X163.294 Y16.846 E7.7039
G1 X163.53 Y17.88 E7.77475
G1 X163.716 Y19.24 E7.86645
G1 X163.765 Y20.611 E7.9581
G1 X163.678 Y21.981 E8.04981
G1 X163.209 Y24.303 E8.20806
G1 X162.757 Y25.599 E8.29975
G1 X162.321 Y26.565 E8.37055
G1 X161.648 Y27.762 E8.46229
G1 X160.86 Y28.885 E8.55394
G1 X159.249 Y30.622 E8.71221
G1 X158.187 Y31.492 E8.80392
G1 X157.045 Y32.252 E8.89556
G1 X156.114 Y32.759 E8.96638
G1 X154.855 Y33.307 E9.05811
G1 X153.548 Y33.726 E9.1498
G1 X152.206 Y34.013 E9.24148
G1 X150 Y34.192 E9.38934
G1 X70 Y34.192 E14.73377
G1 X68.474 Y34.106 E14.83588
G1 X66.452 Y33.726 E14.97333
G1 X65.177 Y33.318 E15.06276
G1 X64.182 Y32.901 E15.13483
G1 X62.375 Y31.886 E15.27329
G1 X60.522 Y30.409 E15.43159
G1 X59.782 Y29.65 E15.50241
G1 X58.925 Y28.602 E15.59285
G1 X57.821 Y26.843 E15.73159
G1 X57.001 Y24.957 E15.86898
G1 X56.416 Y22.661 E16.02727
G1 X56.261 Y21.297 E16.11898
G1 X56.242 Y19.925 E16.21065
G1 X56.36 Y18.558 E16.30231
G1 X56.545 Y17.513 E16.37321
G1 X56.881 Y16.26 E16.45987
G1 E14.45987 F2400
G92 E0
G1 X56.881 Y16.26 F7800
G92 E0
G1 X101.356 Y26.64
G1 E2 F2400
;TYPE:Perimeter
;WIDTH:0.6
G1 F1800
G1 X101.074 Y26.566 E2.01948
G1 X100.668 Y26.34 E2.05052
G1 X100.315 Y26.038 E2.08155
G1 X100.028 Y25.672 E2.11262
G1 X99.82 Y25.256 E2.14369
G1 X99.699 Y24.809 E2.17463
G1 X99.676 Y24.289 E2.2094
G1 X99.769 Y23.762 E2.24515
G1 X99.969 Y23.277 E2.2802
G1 X100.279 Y22.845 E2.31572
G1 X100.692 Y22.492 E2.35202
G1 X101.114 Y22.266 E2.384
G1 X101.559 Y22.133 E2.41503
G1 X102.022 Y22.091 E2.44609
G1 X102.484 Y22.142 E2.47714
G1 X102.777 Y22.224 E2.49747
G1 X103.332 Y22.509 E2.53915
G1 X103.685 Y22.811 E2.57018
G1 X103.972 Y23.177 E2.60125
G1 X104.18 Y23.592 E2.63226
G1 X104.301 Y24.04 E2.66326
G1 X104.324 Y24.56 E2.69803
G1 X104.231 Y25.087 E2.73378
G1 X104.031 Y25.572 E2.76883
G1 X103.655 Y26.069 E2.81046
G1 X103.296 Y26.364 E2.8415
G1 X102.886 Y26.583 E2.87255
G1 X102.661 Y26.629 E2.88789
;WIDTH:0.559773
G1 X102.436 Y26.676 E2.90209
;WIDTH:0.519546
G1 X101.982 Y26.707 E2.92792
;WIDTH:0.526166
G1 X101.752 Y26.696 E2.94118
;WIDTH:0.554248
G1 X101.522 Y26.685 E2.95525
;WIDTH:0.6
G1 X101.414 Y26.656 E2.96272
G1 X101.414 Y26.656 F7800
G1 X101.508 Y26.146
;TYPE:External perimeter
G1 F1800
G1 X101.318 Y26.089 E2.97597
G1 X101.002 Y25.921 E2.99988
G1 X100.725 Y25.693 E3.02385
G1 X100.499 Y25.416 E3.04773
G1 X100.332 Y25.098 E3.07173
G1 X100.232 Y24.755 E3.0956
G1 X100.204 Y24.381 E3.12066
G1 X100.296 Y23.854 E3.1564
G1 X100.479 Y23.464 E3.18518
G1 X100.7 Y23.181 E3.20917
G1 X100.993 Y22.936 E3.23469
G1 X101.284 Y22.774 E3.25694
G1 X101.626 Y22.665 E3.28092
G1 X101.982 Y22.625 E3.30485
G1 X102.339 Y22.657 E3.3288
G1 X102.632 Y22.74 E3.34914
G1 X102.998 Y22.928 E3.37663
G1 X103.275 Y23.155 E3.40056
G1 X103.501 Y23.433 E3.42449
G1 X103.668 Y23.75 E3.44843
G1 X103.768 Y24.094 E3.47236
G1 X103.796 Y24.467 E3.49735
G1 X103.704 Y24.995 E3.53315
G1 X103.521 Y25.385 E3.56193
G1 X103.301 Y25.667 E3.58582
G1 X103.028 Y25.9 E3.6098
G1 X102.716 Y26.075 E3.6337
G1 X102.374 Y26.184 E3.65768
G1 X102.018 Y26.223 E3.6816
G1 X101.661 Y26.191 E3.70555
G1 X101.566 Y26.163 E3.71217
G1 X101.194 Y26.016 F7800
G1 E1.71217 F2400
G92 E0
G1 X96.568 Y14.596 F7800
G1 E2 F2400
;TYPE:Perimeter
G1 F1800
G1 X96.704 Y14.484 E2.01177
G1 X97.114 Y14.266 E2.04279
G1 X97.339 Y14.22 E2.05813
;WIDTH:0.559011
G1 X97.564 Y14.174 E2.0723
;WIDTH:0.518022
G1 X98.018 Y14.143 E2.09805
;WIDTH:0.52496
G1 X98.248 Y14.154 E2.11128
;WIDTH:0.553383
G1 X98.477 Y14.164 E2.12526
;WIDTH:0.6
G1 X98.926 Y14.283 E2.15629
G1 X99.332 Y14.509 E2.18733
G1 X99.685 Y14.811 E2.21836
G1 X99.972 Y15.177 E2.24943
G1 X100.18 Y15.592 E2.28044
G1 X100.301 Y16.04 E2.31144
G1 X100.324 Y16.56 E2.34621
G1 X100.231 Y17.087 E2.38196
G1 X100.031 Y17.572 E2.41701
G1 X99.721 Y18.003 E2.45248
G1 X99.376 Y18.311 E2.48338
G1 X98.906 Y18.576 E2.51943
G1 X98.441 Y18.715 E2.55185
G1 X97.978 Y18.757 E2.58291
G1 X97.516 Y18.707 E2.61395
G1 X97.074 Y18.566 E2.64494
G1 X96.668 Y18.34 E2.67598
G1 X96.315 Y18.038 E2.70701
G1 X96.028 Y17.672 E2.73808
G1 X95.82 Y17.256 E2.76915
G1 X95.699 Y16.809 E2.80009
G1 X95.676 Y16.289 E2.83486
G1 X95.769 Y15.762 E2.87061
G1 X95.969 Y15.277 E2.90566
G1 X96.345 Y14.78 E2.94729
G1 X96.522 Y14.634 E2.96262
G1 X96.522 Y14.634 F7800
G1 X96.889 Y15.019
;TYPE:External perimeter
G1 F1800
G1 X96.972 Y14.948 E2.96992
G1 X97.284 Y14.774 E2.99379
G1 X97.626 Y14.665 E3.01777
G1 X97.982 Y14.625 E3.0417
G1 X98.339 Y14.657 E3.06565
G1 X98.682 Y14.76 E3.08958
G1 X98.998 Y14.928 E3.11349
G1 X99.275 Y15.155 E3.13742
G1 X99.501 Y15.433 E3.16135
G1 X99.668 Y15.75 E3.18529
G1 X99.768 Y16.094 E3.20922
G1 X99.796 Y16.467 E3.23421
G1 X99.704 Y16.995 E3.27001
G1 X99.521 Y17.385 E3.29879
G1 X99.3 Y17.667 E3.32273
G1 X99.055 Y17.883 E3.34455
G1 X98.716 Y18.075 E3.37058
G1 X98.374 Y18.184 E3.39456
G1 X98.018 Y18.223 E3.41848
G1 X97.661 Y18.191 E3.44243
G1 X97.318 Y18.089 E3.46634
G1 X97.002 Y17.921 E3.49025
G1 X96.725 Y17.693 E3.51422
G1 X96.499 Y17.416 E3.5381
G1 X96.332 Y17.098 E3.5621
G1 X96.232 Y16.755 E3.58597
G1 X96.204 Y16.381 E3.61103
G1 X96.296 Y15.854 E3.64677
G1 X96.479 Y15.464 E3.67555
G1 X96.7 Y15.181 E3.69954
G1 X96.843 Y15.058 E3.71214
G1 X97.177 Y14.838 F7800
G1 E1.71214 F2400
G92 E0
G1 X71.218 Y24.736 F7800
G1 E2 F2400
;TYPE:Perimeter
G1 F1800
G1 X70.748 Y24.864 E2.03254
G1 X70.32 Y24.915 E2.06133
G1 X69.909 Y24.884 E2.08886
G1 X69.518 Y24.918 E2.11508
G1 X69.219 Y24.866 E2.13535
G1 X68.822 Y24.722 E2.16356
G1 X68.411 Y24.652 E2.19141
G1 X68.082 Y24.51 E2.21535
G1 X67.209 Y23.962 E2.28421
G1 X66.782 Y23.514 E2.32556
G1 X66.465 Y23.243 E2.35342
G1 X66.128 Y22.63 E2.40015
G1 X65.877 Y22.269 E2.42952
G1 X65.733 Y21.75 E2.4655
G1 X65.713 Y21.598 E2.47574
G1 X65.609 Y21.366 E2.49272
G1 X65.513 Y20.771 E2.53298
G1 X65.524 Y19.791 E2.59845
G1 X65.666 Y19.384 E2.62725
G1 X65.795 Y18.775 E2.66884
G1 X66.053 Y18.303 E2.70478
G1 X66.149 Y18.187 E2.71484
G1 X66.365 Y17.768 E2.74633
G1 X66.599 Y17.479 E2.77117
G1 X66.91 Y17.208 E2.79873
G1 X67.216 Y16.861 E2.82964
G1 X67.794 Y16.552 E2.87343
G1 X68.147 Y16.305 E2.90221
G1 X69.15 Y16.007 E2.97211
G1 X69.613 Y15.935 E3.00341
G1 X70.6 Y15.947 E3.06935
G1 X71.104 Y16.099 E3.10452
G1 X71.672 Y16.228 E3.14343
G1 X72.102 Y16.461 E3.1761
G1 X72.274 Y16.585 E3.19027
G1 X72.63 Y16.77 E3.21707
G1 X73.047 Y17.132 E3.25396
G1 X73.209 Y17.33 E3.27105
G1 X73.578 Y17.659 E3.30408
G1 X73.8 Y18.095 E3.33677
G1 X74.148 Y18.635 E3.37969
G1 X74.449 Y19.733 E3.45575
G1 X74.482 Y20.237 E3.48949
G1 X74.44 Y20.454 E3.50426
G1 X74.494 Y20.753 E3.52456
G1 X74.473 Y21.074 E3.54605
G1 X74.334 Y21.465 E3.57377
G1 X74.196 Y22.097 E3.61699
G1 X73.949 Y22.543 E3.65105
G1 X73.848 Y22.672 E3.662
G1 X73.635 Y23.081 E3.69281
G1 X73.289 Y23.471 E3.72764
G1 X73.096 Y23.631 E3.74439
G1 X72.767 Y24.001 E3.77747
G1 X72.329 Y24.224 E3.8103
G1 X72.117 Y24.375 E3.82769
G1 X71.53 Y24.651 E3.87102
G1 X71.276 Y24.72 E3.8886
G1 X71.276 Y24.72 F7800
G1 X70.655 Y24.322
G1 F1800
G1 X70.445 Y24.37 E3.90299
G1 X70.146 Y24.36 E3.92298
G1 X69.978 Y24.298 E3.93494
G1 X69.698 Y24.379 E3.95441
G1 X69.371 Y24.352 E3.97633
G1 X68.937 Y24.181 E4.00749
G1 X68.583 Y24.144 E4.03127
G1 X68.216 Y23.956 E4.05882
G1 X68.072 Y23.789 E4.07355
G1 X67.809 Y23.72 E4.09171
G1 X67.451 Y23.468 E4.12096
G1 X67.273 Y23.226 E4.14103
G1 X67.245 Y23.148 E4.14657
G1 X66.982 Y23.001 E4.1667
G1 X66.82 Y22.826 E4.18263
G1 X66.611 Y22.344 E4.21773
G1 X66.447 Y22.181 E4.23318
G1 X66.299 Y21.851 E4.25734
G1 X66.246 Y21.546 E4.27802
G1 X66.268 Y21.428 E4.28604
G1 X66.149 Y21.275 E4.29899
G1 X66.055 Y20.839 E4.32879
G1 X66.066 Y20.566 E4.34704
G1 X66.126 Y20.402 E4.35871
G1 X66.043 Y20.103 E4.37944
G1 X66.051 Y19.884 E4.39408
G1 X66.231 Y19.466 E4.42448
G1 X66.299 Y18.957 E4.45879
G1 X66.469 Y18.641 E4.48276
G1 X66.636 Y18.496 E4.49754
G1 X66.688 Y18.269 E4.5131
G1 X66.981 Y17.854 E4.54704
G1 X67.201 Y17.695 E4.56517
G1 X67.277 Y17.669 E4.57054
G1 X67.449 Y17.376 E4.59324
G1 X67.669 Y17.202 E4.61198
G1 X68.095 Y17.016 E4.64303
G1 X68.259 Y16.859 E4.6582
G1 X68.554 Y16.728 E4.67976
G1 X68.879 Y16.667 E4.70185
G1 X68.998 Y16.691 E4.70996
G1 X69.155 Y16.57 E4.7232
G1 X69.64 Y16.47 E4.75628
G1 X69.861 Y16.49 E4.7711
G1 X70.016 Y16.544 E4.78207
G1 X70.368 Y16.462 E4.80622
G1 X70.809 Y16.551 E4.83628
G1 X71.063 Y16.668 E4.85496
G1 X71.244 Y16.666 E4.86705
G1 X71.578 Y16.769 E4.8904
G1 X71.817 Y16.923 E4.90939
G1 X71.927 Y17.061 E4.92118
G1 X72.161 Y17.115 E4.93722
G1 X72.475 Y17.32 E4.96227
G1 X72.683 Y17.543 E4.98264
G1 X72.755 Y17.701 E4.99424
G1 X73.009 Y17.841 E5.01362
G1 X73.247 Y18.141 E5.0392
G1 X73.389 Y18.505 E5.0653
G1 X73.561 Y18.678 E5.0816
G1 X73.701 Y18.998 E5.10493
G1 X73.756 Y19.359 E5.12933
G1 X73.743 Y19.417 E5.1333
G1 X73.877 Y19.637 E5.15051
G1 X73.951 Y20.144 E5.18474
G1 X73.874 Y20.447 E5.20563
G1 X73.96 Y20.782 E5.22874
G1 X73.899 Y21.133 E5.25254
G1 X73.754 Y21.463 E5.27662
G1 X73.749 Y21.73 E5.29446
G1 X73.565 Y22.165 E5.32601
G1 X73.364 Y22.352 E5.34435
G1 X73.294 Y22.618 E5.36273
G1 X73.083 Y22.921 E5.3874
G1 X72.799 Y23.153 E5.4119
G1 X72.723 Y23.18 E5.41729
G1 X72.585 Y23.431 E5.43643
G1 X72.44 Y23.576 E5.45013
G1 X72.177 Y23.711 E5.46988
G1 X71.92 Y23.813 E5.48835
G1 X71.779 Y23.96 E5.50196
G1 X71.427 Y24.125 E5.52793
G1 X71.128 Y24.178 E5.54822
G1 X71.004 Y24.155 E5.55665
G1 X70.846 Y24.278 E5.57003
G1 X70.714 Y24.308 E5.57907
G1 X70.714 Y24.308 F7800
G1 X70 Y23.65
;TYPE:External perimeter
G1 F1800
G1 X69.856 Y23.772 E5.59168
G1 X69.559 Y23.846 E5.61213
G1 X69.238 Y23.678 E5.63633
G1 X69.167 Y23.544 E5.64646
G1 X68.987 Y23.635 E5.65993
G1 X68.738 Y23.631 E5.67657
G1 X68.541 Y23.528 E5.69142
G1 X68.41 Y23.319 E5.7079
G1 X68.381 Y23.215 E5.71511
G1 X68.151 Y23.264 E5.73082
G1 X68.001 Y23.213 E5.7414
G1 X67.756 Y22.995 E5.76331
G1 X67.71 Y22.829 E5.77482
G1 X67.718 Y22.706 E5.78305
G1 X67.531 Y22.69 E5.79559
G1 X67.28 Y22.547 E5.81489
G1 X67.164 Y22.23 E5.83744
G1 X67.205 Y22.041 E5.85036
G1 X67.013 Y21.979 E5.86384
G1 X66.838 Y21.794 E5.88085
G1 X66.78 Y21.51 E5.90021
G1 X66.806 Y21.377 E5.90926
G1 X66.898 Y21.264 E5.91899
G1 X66.647 Y21.075 E5.93998
G1 X66.584 Y20.74 E5.96275
G1 X66.628 Y20.587 E5.97339
G1 X66.774 Y20.424 E5.98801
G1 X66.658 Y20.295 E5.9996
G1 X66.577 Y19.991 E6.02062
G1 X66.746 Y19.662 E6.04533
G1 X66.88 Y19.591 E6.05546
G1 X66.789 Y19.412 E6.06887
G1 X66.794 Y19.162 E6.08557
G1 X66.896 Y18.966 E6.10033
G1 X67.105 Y18.834 E6.11684
G1 X67.209 Y18.805 E6.12405
G1 X67.16 Y18.575 E6.13976
G1 X67.216 Y18.419 E6.15083
G1 X67.437 Y18.176 E6.17277
G1 X67.604 Y18.133 E6.18429
G1 X67.718 Y18.142 E6.19193
G1 X67.728 Y17.97 E6.20344
G1 X67.884 Y17.699 E6.22433
G1 X68.238 Y17.585 E6.24918
G1 X68.383 Y17.629 E6.2593
G1 X68.446 Y17.438 E6.27274
G1 X68.629 Y17.263 E6.28966
G1 X68.908 Y17.201 E6.30875
G1 X69.119 Y17.287 E6.32397
G1 X69.161 Y17.323 E6.32767
G1 X69.351 Y17.071 E6.34875
G1 X69.72 Y17.008 E6.37376
G1 X69.919 Y17.105 E6.38855
G1 X69.998 Y17.204 E6.39701
G1 X70.181 Y17.06 E6.41257
G1 X70.368 Y16.998 E6.42573
G1 X70.645 Y17.071 E6.44487
G1 X70.815 Y17.25 E6.46136
G1 X70.831 Y17.306 E6.46525
G1 X71.013 Y17.213 E6.4789
G1 X71.262 Y17.218 E6.49554
G1 X71.453 Y17.315 E6.50985
G1 X71.59 Y17.529 E6.52683
G1 X71.619 Y17.633 E6.53404
G1 X71.849 Y17.585 E6.54974
G1 X71.999 Y17.636 E6.56032
G1 X72.244 Y17.854 E6.58223
G1 X72.29 Y18.02 E6.59374
G1 X72.282 Y18.143 E6.60197
G1 X72.469 Y18.159 E6.61451
G1 X72.728 Y18.312 E6.63461
G1 X72.84 Y18.663 E6.65922
G1 X72.795 Y18.807 E6.6693
G1 X72.987 Y18.87 E6.6828
G1 X73.159 Y19.049 E6.69938
G1 X73.22 Y19.357 E6.72036
G1 X73.131 Y19.557 E6.73498
G1 X73.102 Y19.584 E6.73763
G1 X73.359 Y19.785 E6.75943
G1 X73.412 Y20.164 E6.785
G1 X73.315 Y20.35 E6.79901
G1 X73.226 Y20.424 E6.80674
G1 X73.342 Y20.553 E6.81833
G1 X73.425 Y20.841 E6.83835
G1 X73.282 Y21.152 E6.86122
G1 X73.12 Y21.258 E6.87415
G1 X73.211 Y21.437 E6.88756
G1 X73.206 Y21.687 E6.90426
G1 X73.105 Y21.882 E6.91893
G1 X72.894 Y22.015 E6.93559
G1 X72.791 Y22.043 E6.94272
G1 X72.84 Y22.273 E6.95843
G1 X72.784 Y22.429 E6.9695
G1 X72.563 Y22.672 E6.99144
G1 X72.396 Y22.716 E7.00298
G1 X72.282 Y22.707 E7.01062
G1 X72.272 Y22.879 E7.02213
G1 X72.113 Y23.152 E7.04324
G1 X71.762 Y23.264 E7.06785
G1 X71.617 Y23.22 E7.07797
G1 X71.554 Y23.411 E7.09141
G1 X71.441 Y23.544 E7.10307
G1 X71.088 Y23.644 E7.12758
G1 X70.952 Y23.619 E7.13682
G1 X70.84 Y23.527 E7.1465
G1 X70.649 Y23.778 E7.16757
G1 X70.277 Y23.841 E7.19278
G1 X70.081 Y23.743 E7.20742
G1 X70.039 Y23.695 E7.21168
G1 X69.659 Y23.821 F7800
G1 E5.21168 F2400
G92 E0
G1 X146.187 Y22.734 F7800
G1 E2 F2400
;TYPE:Perimeter
G1 F1800
G1 X145.86 Y22.231 E2.04008
G1 X145.551 Y21.116 E2.11738
G1 X145.518 Y20.611 E2.15119
G1 X145.56 Y20.395 E2.16589
G1 X145.505 Y20.096 E2.1862
G1 X145.527 Y19.775 E2.20769
G1 X145.706 Y19.311 E2.24091
G1 X145.724 Y19.022 E2.26025
G1 X145.794 Y18.777 E2.27727
G1 X146.365 Y17.768 E2.35472
G1 X146.711 Y17.377 E2.3896
G1 X146.904 Y17.217 E2.40635
G1 X147.233 Y16.848 E2.43938
G1 X148.438 Y16.205 E2.53062
G1 X149.515 Y15.948 E2.60459
G1 X149.982 Y15.969 E2.63582
G1 X150.532 Y15.937 E2.67263
G1 X151.033 Y16.064 E2.70716
G1 X151.202 Y16.127 E2.71921
G1 X151.618 Y16.207 E2.74751
G1 X152.057 Y16.427 E2.78031
G1 X152.237 Y16.573 E2.79579
G1 X152.63 Y16.77 E2.82516
G1 X152.913 Y16.988 E2.84902
G1 X153.622 Y17.721 E2.91715
G1 X153.8 Y18.094 E2.94476
G1 X154.104 Y18.541 E2.98087
G1 X154.256 Y18.931 E3.00883
G1 X154.467 Y19.87 E3.07312
G1 X154.46 Y20.513 E3.11608
G1 X154.486 Y20.992 E3.14813
G1 X154.298 Y21.602 E3.19077
G1 X154.211 Y22.059 E3.22185
G1 X153.697 Y22.993 E3.29307
G1 X153.38 Y23.391 E3.32706
G1 X153.091 Y23.64 E3.35254
G1 X152.856 Y23.926 E3.37727
G1 X152.601 Y24.11 E3.39828
G1 X152.206 Y24.296 E3.42745
G1 X151.853 Y24.543 E3.45623
G1 X151.412 Y24.698 E3.48746
G1 X151.141 Y24.729 E3.50568
G1 X150.691 Y24.873 E3.53724
G1 X150.376 Y24.91 E3.55843
G1 X149.368 Y24.901 E3.62577
G1 X148.887 Y24.719 E3.66013
G1 X148.732 Y24.718 E3.67049
G1 X148.216 Y24.574 E3.70628
G1 X147.818 Y24.318 E3.73789
G1 X147.343 Y24.059 E3.77403
G1 X146.953 Y23.714 E3.80882
G1 X146.794 Y23.521 E3.82553
G1 X146.424 Y23.191 E3.85865
G1 X146.217 Y22.786 E3.88904
G1 X146.217 Y22.786 F7800
G1 X146.384 Y22.049
G1 F1800
G1 X146.303 Y21.87 E3.90217
G1 X146.241 Y21.497 E3.92743
G1 X146.257 Y21.429 E3.9321
G1 X146.122 Y21.21 E3.94929
G1 X146.049 Y20.705 E3.98338
G1 X146.126 Y20.402 E4.00427
G1 X146.04 Y20.067 E4.02738
G1 X146.1 Y19.716 E4.05117
G1 X146.252 Y19.432 E4.07269
G1 X146.251 Y19.119 E4.0936
G1 X146.374 Y18.816 E4.11545
G1 X146.591 Y18.522 E4.13986
G1 X146.641 Y18.49 E4.14383
G1 X146.694 Y18.255 E4.15992
