; generated by PrusaSlicer 2.8.1+linux-x64-GTK3 on 2024-10-22 at 09:27:07 UTC

; 

; external perimeters extrusion width = 0.45mm
; perimeters extrusion width = 0.45mm
; infill extrusion width = 0.45mm
; solid infill extrusion width = 0.45mm
; top infill extrusion width = 0.40mm
; support material extrusion width = 0.40mm
; first layer extrusion width = 0.60mm

M190 S60 ; set bed temperature and wait for it to be reached
M104 S200 ; set temperature
;TYPE:Custom
G28 ; home all axes
G1 Z5 F5000 ; lift nozzle
M109 S200 ; set temperature and wait for it to be reached
G21 ; set units to millimeters
G90 ; use absolute coordinates
M82 ; use absolute distances for extrusion
G92 E0
; Filament gcode
M107
;LAYER_CHANGE
;Z:0.3
;HEIGHT:0.3
G1 E-2 F2400
G1 Z.3 F7800
G1 X58.411 Y31.577
G1 E0 F2400
;TYPE:Skirt/Brim
;WIDTH:0.6
G1 F1800
G1 X59.116 Y30.455 E.08852
G1 X59.93 Y29.409 E.17706
G1 X60.844 Y28.45 E.26556
G1 X61.85 Y27.586 E.35415
G1 X62.936 Y26.827 E.44266
G1 X64.092 Y26.179 E.53119
G1 X65.307 Y25.65 E.61972
G1 X66.569 Y25.245 E.70826
G1 X67.864 Y24.967 E.79674
G1 X70 Y24.793 E.93991
G1 X150.156 Y24.795 E6.29476
G1 X151.479 Y24.877 E6.38331
G1 X152.481 Y25.028 E6.451
G1 X153.769 Y25.34 E6.53953
G1 X155.019 Y25.778 E6.62801
G1 X157.064 Y26.827 E6.78155
G1 X158.15 Y27.586 E6.87006
G1 X159.155 Y28.45 E6.9586
G1 X159.863 Y29.175 E7.0263
G1 X160.701 Y30.201 E7.1148
G1 X161.9 Y32.162 E7.26835
G1 X162.316 Y33.086 E7.33605
G1 X162.753 Y34.337 E7.42458
G1 X163.063 Y35.625 E7.51308
G1 X163.243 Y36.938 E7.60162
G1 X163.292 Y38.263 E7.6902
G1 X163.208 Y39.585 E7.77869
G1 X162.753 Y41.838 E7.93224
G1 X162.316 Y43.089 E8.02077
G1 X161.757 Y44.29 E8.10927
G1 X161.251 Y45.168 E8.17697
G1 X160.49 Y46.253 E8.26551
G1 X159.624 Y47.257 E8.35409
G1 X158.664 Y48.169 E8.44255
G1 X156.798 Y49.511 E8.5961
G1 X155.908 Y49.995 E8.66378
G1 X154.693 Y50.525 E8.75233
G1 X153.431 Y50.93 E8.84087
G1 X152.136 Y51.208 E8.92935
G1 X150 Y51.382 E9.07252
G1 X70 Y51.382 E14.41695
G1 X68.521 Y51.298 E14.51591
G1 X67.213 Y51.085 E14.60444
G1 X66.231 Y50.835 E14.67214
G1 X64.374 Y50.131 E14.80481
G1 X62.641 Y49.158 E14.93758
G1 X60.844 Y47.725 E15.09113
G1 X60.137 Y47 E15.15878
G1 X59.299 Y45.974 E15.24728
G1 X58.243 Y44.29 E15.38007
G1 X57.45 Y42.469 E15.51276
G1 X56.883 Y40.242 E15.66628
G1 X56.733 Y38.925 E15.75483
G1 X56.716 Y37.6 E15.84335
G1 X56.792 Y36.59 E15.91101
G1 X57.006 Y35.282 E15.99955
G1 X57.35 Y34.002 E16.0881
G1 X57.82 Y32.763 E16.17663
G1 X58.384 Y31.63 E16.26118
G1 E14.26118 F2400
G92 E0
G1 X58.384 Y31.63 F7800
G92 E0
G1 X102.624 Y43.233
G1 E2 F2400
;TYPE:External perimeter
;WIDTH:0.6
G1 F1800
G1 X102.499 Y43.079 E2.01325
G1 X102.332 Y42.762 E2.03719
G1 X102.232 Y42.418 E2.06112
G1 X102.204 Y42.044 E2.08618
G1 X102.296 Y41.517 E2.12192
G1 X102.479 Y41.127 E2.1507
G1 X102.7 Y40.844 E2.17469
G1 X102.934 Y40.637 E2.19556
G1 X103.284 Y40.437 E2.22249
G1 X103.626 Y40.328 E2.24647
G1 X103.982 Y40.288 E2.2704
G1 X104.339 Y40.321 E2.29435
G1 X104.682 Y40.423 E2.31826
G1 X104.998 Y40.591 E2.34217
G1 X105.275 Y40.818 E2.3661
G1 X105.501 Y41.096 E2.39003
G1 X105.668 Y41.413 E2.41397
G1 X105.768 Y41.757 E2.4379
G1 X105.796 Y42.13 E2.46289
G1 X105.704 Y42.658 E2.49869
G1 X105.521 Y43.048 E2.52747
G1 X105.3 Y43.33 E2.55141
G1 X105.028 Y43.564 E2.57538
G1 X104.716 Y43.738 E2.59925
G1 X104.374 Y43.847 E2.62323
G1 X104.018 Y43.886 E2.64715
G1 X103.661 Y43.854 E2.6711
G1 X103.318 Y43.752 E2.69501
G1 X103.002 Y43.584 E2.71892
G1 X102.725 Y43.356 E2.74289
G1 X102.662 Y43.279 E2.74954
G1 X102.437 Y42.948 F7800
G1 E.74954 F2400
G92 E0
G1 X94.471 Y33.145 F7800
G1 E2 F2400
G1 F1800
G1 X94.479 Y33.127 E2.00132
G1 X94.7 Y32.844 E2.02531
G1 X94.972 Y32.611 E2.04924
G1 X95.284 Y32.437 E2.07311
G1 X95.626 Y32.328 E2.09709
G1 X95.982 Y32.288 E2.12102
G1 X96.339 Y32.321 E2.14497
G1 X96.682 Y32.423 E2.16888
G1 X96.998 Y32.591 E2.19279
G1 X97.275 Y32.818 E2.21672
G1 X97.501 Y33.096 E2.24065
G1 X97.668 Y33.413 E2.26459
G1 X97.768 Y33.757 E2.28852
G1 X97.796 Y34.13 E2.31351
G1 X97.704 Y34.658 E2.34931
G1 X97.521 Y35.048 E2.37809
G1 X97.3 Y35.33 E2.40203
G1 X97.072 Y35.532 E2.42238
G1 X96.716 Y35.738 E2.44986
G1 X96.374 Y35.847 E2.47384
G1 X96.018 Y35.886 E2.49776
G1 X95.661 Y35.854 E2.52171
G1 X95.318 Y35.752 E2.54562
G1 X95.002 Y35.584 E2.56953
G1 X94.725 Y35.356 E2.5935
G1 X94.499 Y35.079 E2.61738
G1 X94.332 Y34.762 E2.64132
G1 X94.232 Y34.418 E2.66525
G1 X94.204 Y34.044 E2.69031
G1 X94.296 Y33.517 E2.72605
G1 X94.445 Y33.199 E2.74951
G1 X94.682 Y32.877 F7800
G1 E.74951 F2400
G92 E0
G1 X155.565 Y37.141 F7800
G1 E2 F2400
;TYPE:Perimeter
G1 F1800
G1 X155.631 Y37.673 E2.03581
G1 X155.645 Y38.221 E2.07243
G1 X155.6 Y38.813 E2.11209
G1 X155.486 Y39.427 E2.15381
G1 X155.3 Y40.049 E2.19718
G1 X154.884 Y40.933 E2.26245
G1 X154.59 Y41.387 E2.29858
G1 X154.249 Y41.815 E2.33514
G1 X153.621 Y42.428 E2.39377
G1 X153.185 Y42.758 E2.4303
G1 X152.704 Y43.052 E2.46796
G1 X152.196 Y43.297 E2.50564
G1 X151.666 Y43.49 E2.54332
G1 X151.12 Y43.629 E2.58096
G1 X150.563 Y43.713 E2.61859
G1 X149.966 Y43.742 E2.65852
G1 X106.343 Y43.738 E5.57277
G1 X106.514 Y43.467 E5.59418
G1 X106.759 Y42.842 E5.63903
G1 X106.851 Y42.315 E5.67477
G1 X106.834 Y41.649 E5.71928
G1 X106.692 Y41.097 E5.75736
G1 X106.442 Y40.584 E5.79548
G1 X106.096 Y40.13 E5.83361
G1 X105.666 Y39.753 E5.87181
G1 X105.171 Y39.469 E5.90993
G1 X104.629 Y39.289 E5.94808
G1 X103.962 Y39.216 E5.99291
G1 X103.428 Y39.275 E6.0288
G1 X102.819 Y39.47 E6.07152
G1 X102.326 Y39.754 E6.10953
G1 X101.898 Y40.132 E6.14768
G1 X101.587 Y40.533 E6.18158
G1 X101.354 Y40.982 E6.21537
G1 X101.241 Y41.332 E6.23994
G1 X101.149 Y41.86 E6.27574
G1 X101.135 Y42.225 E6.30014
G1 X101.218 Y42.786 E6.33803
G1 X101.412 Y43.323 E6.37617
G1 X101.658 Y43.737 E6.40834
G1 X69.735 Y43.734 E8.54097
G1 X68.864 Y43.625 E8.59961
G1 X68.334 Y43.49 E8.63615
G1 X67.819 Y43.302 E8.67278
G1 X67.309 Y43.041 E8.71105
G1 X66.787 Y42.731 E8.75161
G1 X66.359 Y42.403 E8.78763
G1 X65.952 Y42.024 E8.82478
G1 X65.581 Y41.602 E8.86232
G1 X65.25 Y41.141 E8.90023
G1 X64.965 Y40.643 E8.93856
G1 X64.713 Y40.071 E8.98032
G1 X64.516 Y39.453 E9.02365
G1 X64.362 Y38.487 E9.089
G1 X64.348 Y37.946 E9.12515
G1 X64.391 Y37.384 E9.1628
G1 X64.488 Y36.829 E9.20044
G1 X64.641 Y36.287 E9.23806
G1 X64.847 Y35.762 E9.27574
G1 X65.104 Y35.261 E9.31336
G1 X65.41 Y34.787 E9.35105
G1 X65.751 Y34.359 E9.38761
G1 X66.379 Y33.747 E9.44619
G1 X66.815 Y33.416 E9.48276
G1 X67.296 Y33.122 E9.52042
G1 X67.804 Y32.878 E9.55807
G1 X68.334 Y32.685 E9.59575
G1 X68.88 Y32.546 E9.63339
G1 X69.437 Y32.462 E9.67102
G1 X70.034 Y32.432 E9.71095
G1 X93.66 Y32.434 E11.28929
G1 X93.486 Y32.707 E11.31092
G1 X93.241 Y33.332 E11.35577
G1 X93.149 Y33.86 E11.39157
G1 X93.166 Y34.525 E11.43601
G1 X93.308 Y35.077 E11.47409
G1 X93.558 Y35.591 E11.51227
G1 X93.904 Y36.045 E11.5504
G1 X94.334 Y36.422 E11.5886
G1 X94.829 Y36.705 E11.62669
G1 X95.371 Y36.885 E11.66484
G1 X96.038 Y36.958 E11.70967
G1 X96.572 Y36.9 E11.74555
G1 X97.181 Y36.705 E11.78827
G1 X97.674 Y36.42 E11.82631
G1 X98.102 Y36.043 E11.86441
G1 X98.413 Y35.641 E11.89836
G1 X98.646 Y35.192 E11.93215
G1 X98.759 Y34.842 E11.95672
G1 X98.851 Y34.315 E11.99246
G1 X98.865 Y33.95 E12.01686
G1 X98.782 Y33.389 E12.05475
G1 X98.588 Y32.852 E12.09289
G1 X98.34 Y32.434 E12.12536
G1 X150.168 Y32.438 E15.58775
G1 X150.835 Y32.516 E15.63261
G1 X151.442 Y32.628 E15.67385
G1 X151.95 Y32.789 E15.70945
G1 X152.46 Y33.005 E15.74645
G1 X152.951 Y33.273 E15.78382
G1 X153.419 Y33.594 E15.82173
G1 X153.858 Y33.964 E15.86008
G1 X154.29 Y34.415 E15.9018
G1 X154.686 Y34.929 E15.94515
G1 X155.011 Y35.513 E15.9898
G1 X155.275 Y36.072 E16.0311
G1 X155.441 Y36.578 E16.06668
G1 X155.554 Y37.082 E16.10119
G1 X155.554 Y37.082 F7800
G1 X156.091 Y37.035
G1 F1800
G1 X156.165 Y37.633 E16.14144
G1 X156.18 Y38.234 E16.1816
G1 X156.172 Y38.55 E16.20272
G1 X156.096 Y39.162 E16.24392
G1 X155.958 Y39.766 E16.28531
G1 X155.798 Y40.247 E16.31917
G1 X155.353 Y41.194 E16.38907
G1 X155.026 Y41.701 E16.42937
G1 X154.647 Y42.175 E16.46991
G1 X153.971 Y42.835 E16.53303
G1 X153.487 Y43.202 E16.57361
G1 X152.96 Y43.523 E16.61483
G1 X152.404 Y43.791 E16.65606
G1 X151.824 Y44.002 E16.69729
G1 X151.226 Y44.154 E16.73851
G1 X150.616 Y44.246 E16.77972
G1 X149.979 Y44.278 E16.82233
G1 X104.804 Y44.273 E19.84026
G1 X105.296 Y44.027 E19.87701
G1 X105.655 Y43.732 E19.90805
G1 X106.031 Y43.235 E19.94968
G1 X106.231 Y42.75 E19.98473
G1 X106.324 Y42.223 E20.02048
G1 X106.301 Y41.703 E20.05525
G1 X106.18 Y41.255 E20.08625
G1 X105.972 Y40.84 E20.11726
G1 X105.685 Y40.474 E20.14833
G1 X105.332 Y40.172 E20.17936
G1 X104.926 Y39.946 E20.2104
G1 X104.484 Y39.805 E20.24139
G1 X104.022 Y39.754 E20.27244
G1 X103.559 Y39.796 E20.3035
G1 X103.114 Y39.929 E20.33453
G1 X102.671 Y40.168 E20.36816
G1 X102.289 Y40.497 E20.40184
G1 X101.969 Y40.94 E20.43835
G1 X101.769 Y41.425 E20.4734
G1 X101.676 Y41.952 E20.50915
G1 X101.699 Y42.472 E20.54392
G1 X101.82 Y42.919 E20.57486
G1 X102.028 Y43.335 E20.60593
G1 X102.315 Y43.701 E20.637
G1 X102.668 Y44.003 E20.66803
G1 X103.186 Y44.273 E20.70705
G1 X69.701 Y44.269 E22.94403
G1 X68.764 Y44.152 E23.00711
G1 X68.176 Y44.002 E23.04765
G1 X67.605 Y43.794 E23.08825
G1 X66.764 Y43.363 E23.15138
G1 X66.263 Y43.021 E23.1919
G1 X65.79 Y42.625 E23.23311
G1 X65.359 Y42.183 E23.27435
G1 X64.974 Y41.701 E23.31556
G1 X64.64 Y41.182 E23.35679
G1 X64.358 Y40.633 E23.39802
G1 X64.132 Y40.057 E23.43936
G1 X63.992 Y39.569 E23.47328
G1 X63.827 Y38.536 E23.54316
G1 X63.812 Y37.933 E23.58346
G1 X63.858 Y37.318 E23.62466
G1 X63.966 Y36.71 E23.66591
G1 X64.133 Y36.116 E23.70713
G1 X64.358 Y35.542 E23.74832
G1 X64.64 Y34.993 E23.78955
G1 X64.974 Y34.474 E23.83078
G1 X65.353 Y33.999 E23.87138
G1 X66.029 Y33.34 E23.93445
G1 X66.513 Y32.973 E23.97503
G1 X67.04 Y32.652 E24.01625
G1 X67.596 Y32.384 E24.05748
G1 X68.176 Y32.173 E24.09871
G1 X68.774 Y32.02 E24.13995
G1 X69.384 Y31.928 E24.18116
G1 X70.021 Y31.897 E24.22377
G1 X94.637 Y31.899 E25.86825
G1 X95.026 Y31.881 E25.89427
;WIDTH:0.565402
G1 X95.414 Y31.864 E25.91854
G1 X95.264 Y31.897 E25.92814
;WIDTH:0.6
G1 X95.114 Y31.929 E25.93839
G1 X94.704 Y32.147 E25.96941
G1 X94.345 Y32.443 E26.00049
G1 X93.969 Y32.94 E26.04212
G1 X93.769 Y33.425 E26.07717
G1 X93.676 Y33.952 E26.11292
G1 X93.699 Y34.472 E26.14769
G1 X93.82 Y34.919 E26.17863
G1 X94.028 Y35.335 E26.2097
G1 X94.315 Y35.701 E26.24077
G1 X94.668 Y36.003 E26.2718
G1 X95.074 Y36.229 E26.30284
G1 X95.516 Y36.37 E26.33383
G1 X95.978 Y36.42 E26.36487
G1 X96.441 Y36.379 E26.39592
G1 X96.886 Y36.246 E26.42695
G1 X97.329 Y36.007 E26.46058
G1 X97.711 Y35.678 E26.49426
G1 X98.031 Y35.235 E26.53077
G1 X98.231 Y34.75 E26.56582
G1 X98.324 Y34.223 E26.60157
G1 X98.301 Y33.703 E26.63634
G1 X98.18 Y33.255 E26.66734
G1 X97.972 Y32.84 E26.69835
G1 X97.685 Y32.474 E26.72942
G1 X97.332 Y32.172 E26.76045
G1 X96.806 Y31.899 E26.80004
G1 X150.199 Y31.903 E30.36698
G1 X151.24 Y32.024 E30.43699
G1 X151.824 Y32.173 E30.47725
G1 X152.404 Y32.384 E30.51848
G1 X152.96 Y32.652 E30.55971
G1 X153.487 Y32.973 E30.60093
G1 X153.979 Y33.346 E30.64218
G1 X154.431 Y33.766 E30.6834
G1 X154.84 Y34.23 E30.72472
G1 X155.139 Y34.641 E30.75867
G1 X155.479 Y35.252 E30.80538
G1 X155.773 Y35.876 E30.85146
G1 X155.956 Y36.433 E30.89063
G1 X156.079 Y36.976 E30.92782
G1 E28.92782 F2400
G92 E0
G1 X95.529 Y31.85 F7800
G1 E2 F2400
;WIDTH:0.502713
G1 F1800
G1 X96.322 Y31.838 E2.04336
G1 E.04336 F2400
G92 E0
G1 X96.322 Y31.838 F7800
G1 X104.471 Y44.323
G1 E2 F2400
;WIDTH:0.499695
G1 F1800
G1 X103.679 Y44.335 E2.04301
G1 E.04301 F2400
G92 E0
G1 X103.679 Y44.335 F7800
G1 X156.617 Y36.928
G1 E2 F2400
;TYPE:External perimeter
;WIDTH:0.6
G1 F1800
G1 X156.617 Y36.932 E2.00027
G1 X156.699 Y37.593 E2.04477
G1 X156.716 Y38.247 E2.08848
G1 X156.707 Y38.59 E2.1114
G1 X156.624 Y39.255 E2.15617
G1 X156.474 Y39.91 E2.20106
G1 X156.297 Y40.446 E2.23877
G1 X155.822 Y41.454 E2.31321
G1 X155.461 Y42.014 E2.35772
G1 X155.045 Y42.536 E2.40231
G1 X154.321 Y43.242 E2.46987
G1 X153.789 Y43.645 E2.51446
G1 X153.217 Y43.994 E2.55922
G1 X152.613 Y44.285 E2.60401
G1 X151.983 Y44.515 E2.64881
G1 X151.333 Y44.68 E2.69361
G1 X150.67 Y44.78 E2.7384
G1 X149.993 Y44.814 E2.78368
G1 X69.668 Y44.805 E8.14982
G1 X68.664 Y44.679 E8.21742
G1 X68.017 Y44.515 E8.26201
G1 X67.39 Y44.286 E8.3066
G1 X66.49 Y43.825 E8.37415
G1 X65.939 Y43.449 E8.41871
G1 X65.425 Y43.018 E8.46352
G1 X64.957 Y42.538 E8.50831
G1 X64.539 Y42.014 E8.55309
G1 X64.175 Y41.45 E8.59793
G1 X63.869 Y40.854 E8.64269
G1 X63.624 Y40.229 E8.68754
G1 X63.469 Y39.685 E8.72533
G1 X63.293 Y38.585 E8.79975
G1 X63.276 Y37.92 E8.84419
G1 X63.326 Y37.251 E8.88901
G1 X63.443 Y36.591 E8.93379
G1 X63.624 Y35.945 E8.97861
G1 X63.869 Y35.321 E9.02339
G1 X64.175 Y34.724 E9.06821
G1 X64.539 Y34.161 E9.113
G1 X64.955 Y33.639 E9.15759
G1 X65.679 Y32.933 E9.22515
G1 X66.211 Y32.53 E9.26974
G1 X66.783 Y32.181 E9.3145
G1 X67.387 Y31.89 E9.35929
G1 X68.017 Y31.66 E9.40409
G1 X68.667 Y31.495 E9.44889
G1 X69.33 Y31.395 E9.49368
G1 X70.007 Y31.361 E9.53896
G1 X150.23 Y31.367 E14.89829
G1 X151.337 Y31.496 E14.97274
G1 X151.983 Y31.66 E15.01727
G1 X152.613 Y31.89 E15.06207
G1 X153.217 Y32.181 E15.10686
G1 X153.789 Y32.53 E15.15162
G1 X154.323 Y32.935 E15.19639
G1 X154.815 Y33.391 E15.2412
G1 X155.259 Y33.894 E15.28602
G1 X155.591 Y34.352 E15.32381
G1 X156.132 Y35.325 E15.39818
G1 X156.272 Y35.68 E15.42367
G1 X156.472 Y36.288 E15.46643
G1 X156.603 Y36.87 E15.50628
G1 X156.658 Y37.266 F7800
G1 E13.50628 F2400
G92 E0
G1 X152.579 Y33.241 F7800
G1 E2 F2400
;TYPE:Solid infill
;WIDTH:0.600911
G1 F1800
G1 X153.761 Y34.423 E2.11186
G1 X154.108 Y34.816 E2.14694
G1 X154.347 Y35.145 E2.17415
G1 X154.797 Y35.955 E2.23616
G1 X154.967 Y36.388 E2.26729
G1 X151.707 Y33.127 E2.57586
G1 X151.548 Y33.07 E2.58716
G1 X151.069 Y32.948 E2.62024
G1 X150.729 Y32.908 E2.64315
G1 X155.201 Y37.38 E3.06637
G1 X155.25 Y37.956 E3.10505
G1 X155.244 Y38.182 E3.12018
G1 X149.902 Y32.84 E3.62573
G1 X149.143 Y32.84 E3.67652
G1 X155.186 Y38.883 E4.24842
G1 X155.055 Y39.511 E4.29135
G1 X148.384 Y32.84 E4.92268
G1 X147.625 Y32.84 E4.97347
G1 X154.849 Y40.064 E5.65713
G1 X154.606 Y40.579 E5.69524
G1 X146.867 Y32.84 E6.42764
G1 X146.108 Y32.84 E6.47843
G1 X154.325 Y41.057 E7.25607
G1 X153.997 Y41.488 E7.29231
G1 X145.349 Y32.84 E8.11074
G1 X144.59 Y32.84 E8.16153
G1 X153.619 Y41.869 E9.01601
G1 X153.358 Y42.123 E9.04038
G1 X153.22 Y42.228 E9.05198
G1 X143.831 Y32.84 E9.94049
G1 X143.072 Y32.84 E9.99128
G1 X152.772 Y42.54 E10.90927
G1 X152.511 Y42.699 E10.92972
G1 X152.283 Y42.809 E10.94666
G1 X142.314 Y32.84 E11.8901
G1 X141.555 Y32.84 E11.94089
G1 X151.748 Y43.032 E12.90549
G1 X151.548 Y43.105 E12.91974
G1 X151.16 Y43.204 E12.94654
G1 X140.796 Y32.839 E13.92741
G1 X140.037 Y32.839 E13.9782
G1 X150.511 Y43.313 E14.96944
G1 X149.78 Y43.341 E15.01839
G1 X139.278 Y32.839 E16.01228
G1 X138.519 Y32.839 E16.06307
G1 X149.021 Y43.341 E17.05696
G1 X148.262 Y43.341 E17.10775
G1 X137.761 Y32.839 E18.10159
G1 X137.002 Y32.839 E18.15238
G1 X147.503 Y43.34 E19.14617
G1 X146.744 Y43.34 E19.19696
G1 X136.243 Y32.839 E20.19075
G1 X135.484 Y32.839 E20.24154
G1 X145.985 Y43.34 E21.23533
G1 X145.227 Y43.34 E21.28605
G1 X134.725 Y32.839 E22.27989
G1 X133.967 Y32.839 E22.33061
G1 X144.468 Y43.34 E23.3244
G1 X143.709 Y43.34 E23.37519
G1 X133.208 Y32.839 E24.36898
G1 X132.449 Y32.839 E24.41977
G1 X142.95 Y43.34 E25.41356
G1 X142.191 Y43.34 E25.46435
G1 X131.69 Y32.839 E26.45814
G1 X130.931 Y32.839 E26.50893
G1 X141.432 Y43.34 E27.50272
G1 X140.673 Y43.34 E27.55351
G1 X130.172 Y32.839 E28.5473
G1 X129.414 Y32.839 E28.59802
G1 X139.915 Y43.34 E29.59181
G1 X139.156 Y43.34 E29.6426
G1 X128.655 Y32.839 E30.63639
G1 X127.896 Y32.838 E30.68718
G1 X138.397 Y43.339 E31.68097
G1 X137.638 Y43.339 E31.73176
G1 X127.137 Y32.838 E32.72555
G1 X126.378 Y32.838 E32.77634
G1 X136.879 Y43.339 E33.77013
G1 X136.12 Y43.339 E33.82092
G1 X125.619 Y32.838 E34.81471
G1 X124.861 Y32.838 E34.86543
G1 X135.362 Y43.339 E35.85922
G1 X134.603 Y43.339 E35.91001
G1 X124.102 Y32.838 E36.9038
G1 X123.343 Y32.838 E36.95459
G1 X133.844 Y43.339 E37.94838
