; generated by PrusaSlicer 2.8.1+linux-x64-GTK3 on 2024-10-21 at 10:06:38 UTC

; 

; external perimeters extrusion width = 0.45mm
; perimeters extrusion width = 0.45mm
; infill extrusion width = 0.45mm
; solid infill extrusion width = 0.45mm
; top infill extrusion width = 0.40mm
; support material extrusion width = 0.40mm
; first layer extrusion width = 0.60mm

M190 S60 ; set bed temperature and wait for it to be reached
M104 S200 ; set temperature
;TYPE:Custom
G28 ; home all axes
G1 Z5 F5000 ; lift nozzle
M109 S200 ; set temperature and wait for it to be reached
G21 ; set units to millimeters
G90 ; use absolute coordinates
M82 ; use absolute distances for extrusion
G92 E0
; Filament gcode
M107
;LAYER_CHANGE
;Z:0.3
;HEIGHT:0.3
G1 E-2 F2400
G1 Z.3 F7800
G1 X57.82 Y27.793
G1 E0 F2400
;TYPE:Skirt/Brim
;WIDTH:0.6
G1 F1800
G1 X58.411 Y26.606 E.08858
G1 X59.116 Y25.485 E.17705
G1 X59.93 Y24.439 E.26559
G1 X60.844 Y23.48 E.35409
G1 X61.85 Y22.616 E.44268
G1 X62.936 Y21.857 E.53119
G1 X64.092 Y21.209 E.61972
G1 X65.307 Y20.68 E.70825
G1 X66.569 Y20.275 E.79679
G1 X67.864 Y19.997 E.88527
G1 X70 Y19.823 E1.02844
G1 X150.156 Y19.825 E6.38329
G1 X151.479 Y19.907 E6.47184
G1 X152.481 Y20.058 E6.53953
G1 X153.769 Y20.37 E6.62806
G1 X155.019 Y20.808 E6.71654
G1 X157.064 Y21.857 E6.87008
G1 X158.15 Y22.616 E6.95859
G1 X159.155 Y23.48 E7.04713
G1 X159.863 Y24.205 E7.11483
G1 X160.701 Y25.231 E7.20333
G1 X161.9 Y27.192 E7.35688
G1 X162.316 Y28.116 E7.42458
G1 X162.753 Y29.367 E7.51311
G1 X163.063 Y30.655 E7.60161
G1 X163.243 Y31.968 E7.69015
G1 X163.292 Y33.292 E7.77866
G1 X163.208 Y34.615 E7.86722
G1 X162.753 Y36.868 E8.02077
G1 X162.316 Y38.119 E8.1093
G1 X161.757 Y39.32 E8.1978
G1 X161.251 Y40.198 E8.2655
G1 X160.49 Y41.283 E8.35404
G1 X159.624 Y42.286 E8.44257
G1 X158.664 Y43.199 E8.53108
G1 X156.798 Y44.541 E8.68463
G1 X155.908 Y45.025 E8.75231
G1 X154.693 Y45.554 E8.84084
G1 X153.431 Y45.96 E8.9294
G1 X152.136 Y46.238 E9.01788
G1 X150 Y46.411 E9.16104
G1 X70 Y46.411 E14.50547
G1 X68.521 Y46.328 E14.60443
G1 X67.213 Y46.115 E14.69296
G1 X66.231 Y45.865 E14.76066
G1 X64.374 Y45.161 E14.89333
G1 X62.641 Y44.188 E15.0261
G1 X60.844 Y42.755 E15.17965
G1 X60.137 Y42.03 E15.2473
G1 X59.299 Y41.003 E15.33585
G1 X58.243 Y39.32 E15.46858
G1 X57.45 Y37.499 E15.60127
G1 X56.883 Y35.271 E15.75486
G1 X56.733 Y33.955 E15.84335
G1 X56.716 Y32.63 E15.93187
G1 X56.792 Y31.619 E15.9996
G1 X57.006 Y30.312 E16.08808
G1 X57.35 Y29.032 E16.17663
G1 X57.799 Y27.849 E16.26116
G1 E14.26116 F2400
G92 E0
G1 X57.799 Y27.849 F7800
G92 E0
G1 X102.127 Y38.904
G1 E2 F2400
;TYPE:External perimeter
;WIDTH:0.6
G1 F1800
G1 X102.018 Y38.916 E2.00733
G1 X101.661 Y38.884 E2.03128
G1 X101.318 Y38.782 E2.05519
G1 X101.002 Y38.614 E2.0791
G1 X100.725 Y38.386 E2.10307
G1 X100.499 Y38.108 E2.127
G1 X100.332 Y37.791 E2.15094
G1 X100.232 Y37.448 E2.17481
G1 X100.204 Y37.074 E2.19987
G1 X100.296 Y36.547 E2.23561
G1 X100.479 Y36.156 E2.26445
G1 X100.7 Y35.874 E2.28839
G1 X100.972 Y35.641 E2.31232
G1 X101.284 Y35.467 E2.33619
G1 X101.626 Y35.358 E2.36017
G1 X101.982 Y35.318 E2.3841
G1 X102.339 Y35.35 E2.40805
G1 X102.682 Y35.452 E2.43196
G1 X102.998 Y35.621 E2.4559
G1 X103.275 Y35.848 E2.47983
G1 X103.501 Y36.126 E2.50376
G1 X103.668 Y36.443 E2.5277
G1 X103.768 Y36.787 E2.55163
G1 X103.796 Y37.16 E2.57662
G1 X103.704 Y37.687 E2.61236
G1 X103.521 Y38.078 E2.6412
G1 X103.301 Y38.36 E2.66509
G1 X103.028 Y38.593 E2.68907
G1 X102.716 Y38.768 E2.71297
G1 X102.374 Y38.877 E2.73695
G1 X102.186 Y38.898 E2.74959
G1 X101.786 Y38.891 F7800
G1 E.74959 F2400
G92 E0
G1 X98.304 Y30.885 F7800
G1 E2 F2400
G1 F1800
G1 X98.018 Y30.916 E2.01922
G1 X97.661 Y30.884 E2.04317
G1 X97.318 Y30.782 E2.06708
G1 X97.002 Y30.614 E2.09099
G1 X96.725 Y30.386 E2.11496
G1 X96.499 Y30.108 E2.13889
G1 X96.332 Y29.791 E2.16283
G1 X96.232 Y29.448 E2.1867
G1 X96.204 Y29.074 E2.21176
G1 X96.296 Y28.547 E2.2475
G1 X96.479 Y28.156 E2.27634
G1 X96.7 Y27.874 E2.30028
G1 X96.972 Y27.641 E2.32421
G1 X97.284 Y27.467 E2.34808
G1 X97.626 Y27.358 E2.37206
G1 X97.982 Y27.318 E2.39599
G1 X98.339 Y27.35 E2.41994
G1 X98.682 Y27.452 E2.44385
G1 X98.998 Y27.621 E2.46779
G1 X99.275 Y27.848 E2.49172
G1 X99.501 Y28.126 E2.51565
G1 X99.668 Y28.443 E2.53959
G1 X99.768 Y28.787 E2.56352
G1 X99.796 Y29.16 E2.58851
G1 X99.704 Y29.687 E2.62425
G1 X99.521 Y30.078 E2.65309
G1 X99.3 Y30.36 E2.67703
G1 X99.028 Y30.593 E2.70096
G1 X98.722 Y30.766 E2.72444
G1 X98.374 Y30.877 E2.74884
G1 X98.364 Y30.878 E2.74951
G1 X97.965 Y30.903 F7800
G1 E.74951 F2400
G92 E0
G1 X155.506 Y31.896 F7800
G1 E2 F2400
;TYPE:Perimeter
G1 F1800
G1 X155.562 Y32.148 E2.01725
G1 X155.631 Y32.703 E2.05461
G1 X155.645 Y33.25 E2.09116
G1 X155.6 Y33.842 E2.13082
G1 X155.486 Y34.457 E2.17261
G1 X155.3 Y35.078 E2.21592
G1 X154.884 Y35.963 E2.28125
G1 X154.59 Y36.417 E2.31738
G1 X154.249 Y36.845 E2.35394
G1 X153.621 Y37.458 E2.41257
G1 X153.185 Y37.788 E2.4491
G1 X152.704 Y38.082 E2.48676
G1 X152.196 Y38.327 E2.52444
G1 X151.666 Y38.519 E2.5621
G1 X151.12 Y38.658 E2.59974
G1 X150.563 Y38.742 E2.63737
G1 X149.966 Y38.772 E2.6773
G1 X104.343 Y38.767 E5.72516
G1 X104.514 Y38.497 E5.74651
G1 X104.759 Y37.872 E5.79136
G1 X104.851 Y37.345 E5.8271
G1 X104.834 Y36.679 E5.87161
G1 X104.692 Y36.127 E5.90969
G1 X104.442 Y35.614 E5.94781
G1 X104.096 Y35.16 E5.98594
G1 X103.666 Y34.783 E6.02414
G1 X103.171 Y34.499 E6.06226
G1 X102.581 Y34.307 E6.10371
G1 X102.024 Y34.248 E6.14113
G1 X101.464 Y34.298 E6.17869
G1 X100.921 Y34.459 E6.21653
G1 X100.416 Y34.725 E6.25466
G1 X99.97 Y35.09 E6.29316
G1 X99.603 Y35.54 E6.33195
G1 X99.354 Y36.012 E6.3676
G1 X99.241 Y36.362 E6.39217
G1 X99.149 Y36.89 E6.42797
G1 X99.135 Y37.255 E6.45237
G1 X99.218 Y37.816 E6.49026
G1 X99.412 Y38.353 E6.5284
G1 X99.657 Y38.767 E6.56054
G1 X69.735 Y38.764 E8.55949
G1 X68.864 Y38.654 E8.61814
G1 X68.334 Y38.519 E8.65468
G1 X67.819 Y38.332 E8.69128
G1 X67.309 Y38.07 E8.72958
G1 X66.787 Y37.761 E8.7701
G1 X66.359 Y37.433 E8.80612
G1 X65.952 Y37.054 E8.84327
G1 X65.581 Y36.632 E8.88081
G1 X65.25 Y36.17 E8.91878
G1 X64.965 Y35.672 E8.95711
G1 X64.713 Y35.1 E8.99887
G1 X64.516 Y34.482 E9.0422
G1 X64.362 Y33.517 E9.10748
G1 X64.348 Y32.976 E9.14363
G1 X64.391 Y32.414 E9.18128
G1 X64.488 Y31.859 E9.21892
G1 X64.641 Y31.317 E9.25654
G1 X64.847 Y30.792 E9.29422
G1 X65.104 Y30.291 E9.33184
G1 X65.41 Y29.817 E9.36953
G1 X65.751 Y29.389 E9.40609
G1 X66.379 Y28.776 E9.46472
G1 X66.815 Y28.446 E9.50125
G1 X67.296 Y28.152 E9.53891
G1 X67.804 Y27.908 E9.57656
G1 X68.334 Y27.715 E9.61424
G1 X68.88 Y27.576 E9.65188
G1 X69.437 Y27.492 E9.68951
G1 X70.034 Y27.462 E9.72944
G1 X95.66 Y27.464 E11.44139
G1 X95.486 Y27.737 E11.46302
G1 X95.241 Y28.362 E11.50787
G1 X95.149 Y28.89 E11.54367
G1 X95.166 Y29.555 E11.58811
G1 X95.308 Y30.107 E11.62619
G1 X95.558 Y30.621 E11.66437
G1 X95.904 Y31.075 E11.7025
G1 X96.334 Y31.451 E11.74066
G1 X96.829 Y31.735 E11.77878
G1 X97.419 Y31.928 E11.82025
G1 X97.976 Y31.987 E11.85767
G1 X98.536 Y31.936 E11.89524
G1 X99.089 Y31.772 E11.93377
G1 X99.584 Y31.509 E11.97122
G1 X100.03 Y31.144 E12.00972
G1 X100.397 Y30.694 E12.04851
G1 X100.646 Y30.222 E12.08416
G1 X100.759 Y29.872 E12.10873
G1 X100.851 Y29.345 E12.14447
G1 X100.865 Y28.98 E12.16887
G1 X100.782 Y28.419 E12.20676
G1 X100.588 Y27.882 E12.2449
G1 X100.34 Y27.464 E12.27737
G1 X150.168 Y27.468 E15.60615
G1 X150.835 Y27.546 E15.65101
G1 X151.442 Y27.658 E15.69225
G1 X151.95 Y27.818 E15.72783
G1 X152.46 Y28.035 E15.76486
G1 X152.951 Y28.303 E15.80223
G1 X153.419 Y28.624 E15.84014
G1 X153.858 Y28.994 E15.87849
G1 X154.29 Y29.445 E15.92021
G1 X154.686 Y29.959 E15.96356
G1 X155.011 Y30.543 E16.00821
G1 X155.275 Y31.102 E16.04951
G1 X155.441 Y31.608 E16.08509
G1 X155.493 Y31.837 E16.10078
G1 X155.493 Y31.837 F7800
G1 X156.024 Y31.764
G1 F1800
G1 X156.09 Y32.055 E16.12071
G1 X156.165 Y32.663 E16.16164
G1 X156.18 Y33.264 E16.2018
G1 X156.172 Y33.58 E16.22292
G1 X156.096 Y34.192 E16.26412
G1 X155.958 Y34.795 E16.30545
G1 X155.798 Y35.277 E16.33938
G1 X155.353 Y36.223 E16.40922
G1 X155.026 Y36.73 E16.44952
G1 X154.647 Y37.205 E16.49012
G1 X153.971 Y37.865 E16.55324
G1 X153.487 Y38.231 E16.59378
G1 X152.96 Y38.553 E16.63504
G1 X152.404 Y38.821 E16.67627
G1 X151.824 Y39.032 E16.7175
G1 X151.226 Y39.184 E16.75872
G1 X150.616 Y39.276 E16.79993
G1 X149.979 Y39.308 E16.84254
G1 X102.805 Y39.303 E19.99402
G1 X103.296 Y39.057 E20.03071
G1 X103.655 Y38.762 E20.06175
G1 X104.031 Y38.265 E20.10338
G1 X104.231 Y37.78 E20.13843
G1 X104.324 Y37.252 E20.17425
G1 X104.301 Y36.733 E20.20896
G1 X104.18 Y36.285 E20.23996
G1 X103.972 Y35.87 E20.27097
G1 X103.685 Y35.504 E20.30204
G1 X103.332 Y35.202 E20.33307
G1 X102.926 Y34.976 E20.36411
G1 X102.484 Y34.835 E20.3951
G1 X102.022 Y34.784 E20.42615
G1 X101.559 Y34.826 E20.45721
G1 X101.114 Y34.959 E20.48824
G1 X100.692 Y35.184 E20.52019
G1 X100.279 Y35.538 E20.55653
G1 X99.969 Y35.97 E20.59205
G1 X99.769 Y36.455 E20.6271
G1 X99.676 Y36.982 E20.66285
G1 X99.699 Y37.501 E20.69756
G1 X99.82 Y37.949 E20.72856
G1 X100.028 Y38.365 E20.75963
G1 X100.315 Y38.731 E20.7907
G1 X100.668 Y39.033 E20.82173
G1 X101.186 Y39.303 E20.86075
G1 X69.701 Y39.299 E22.96412
G1 X68.764 Y39.182 E23.0272
G1 X68.176 Y39.032 E23.06774
G1 X67.605 Y38.824 E23.10834
G1 X66.764 Y38.393 E23.17147
G1 X66.263 Y38.051 E23.21199
G1 X65.79 Y37.655 E23.2532
G1 X65.359 Y37.213 E23.29444
G1 X64.974 Y36.73 E23.3357
G1 X64.64 Y36.212 E23.37688
G1 X64.358 Y35.663 E23.41811
G1 X64.132 Y35.087 E23.45945
G1 X63.992 Y34.599 E23.49337
G1 X63.827 Y33.566 E23.56325
G1 X63.812 Y32.963 E23.60355
G1 X63.858 Y32.348 E23.64475
G1 X63.966 Y31.74 E23.686
G1 X64.133 Y31.146 E23.72722
G1 X64.358 Y30.571 E23.76847
G1 X64.64 Y30.022 E23.8097
G1 X64.974 Y29.504 E23.85088
G1 X65.353 Y29.029 E23.89148
G1 X66.029 Y28.37 E23.95455
G1 X66.513 Y28.003 E23.99513
G1 X67.04 Y27.681 E24.03639
G1 X67.596 Y27.414 E24.07759
G1 X68.176 Y27.203 E24.11882
G1 X68.774 Y27.05 E24.16006
G1 X69.384 Y26.958 E24.20127
G1 X70.021 Y26.927 E24.24388
G1 X96.637 Y26.929 E26.02197
G1 X97.026 Y26.911 E26.04799
;WIDTH:0.565346
G1 X97.414 Y26.894 E26.07226
G1 X97.264 Y26.927 E26.08186
;WIDTH:0.6
G1 X97.114 Y26.959 E26.09211
G1 X96.704 Y27.177 E26.12313
G1 X96.345 Y27.473 E26.15421
G1 X95.969 Y27.97 E26.19584
G1 X95.769 Y28.455 E26.23089
G1 X95.676 Y28.982 E26.26664
G1 X95.699 Y29.501 E26.30135
G1 X95.82 Y29.949 E26.33235
G1 X96.028 Y30.365 E26.36342
G1 X96.315 Y30.731 E26.39449
G1 X96.668 Y31.033 E26.42552
G1 X97.074 Y31.259 E26.45656
G1 X97.516 Y31.4 E26.48755
G1 X97.978 Y31.45 E26.51859
G1 X98.441 Y31.408 E26.54965
G1 X98.886 Y31.276 E26.58066
G1 X99.308 Y31.05 E26.61264
G1 X99.721 Y30.696 E26.64898
G1 X100.031 Y30.265 E26.68445
G1 X100.231 Y29.78 E26.7195
G1 X100.324 Y29.252 E26.75532
G1 X100.301 Y28.733 E26.79003
G1 X100.18 Y28.285 E26.82103
G1 X99.972 Y27.87 E26.85204
G1 X99.685 Y27.504 E26.88311
G1 X99.332 Y27.202 E26.91414
G1 X98.806 Y26.929 E26.95373
G1 X150.199 Y26.933 E30.38706
G1 X151.24 Y27.054 E30.45707
G1 X151.824 Y27.203 E30.49733
G1 X152.404 Y27.414 E30.53856
G1 X152.96 Y27.681 E30.57976
G1 X153.487 Y28.003 E30.62102
G1 X153.979 Y28.376 E30.66227
G1 X154.431 Y28.795 E30.70344
G1 X154.84 Y29.259 E30.74476
G1 X155.139 Y29.67 E30.77871
G1 X155.479 Y30.282 E30.82548
G1 X155.773 Y30.906 E30.87156
G1 X155.956 Y31.463 E30.91073
G1 X156.011 Y31.705 E30.92731
G1 E28.92731 F2400
G92 E0
G1 X156.011 Y31.705 F7800
G1 X97.529 Y26.88
G1 E2 F2400
;WIDTH:0.502559
G1 F1800
G1 X98.322 Y26.868 E2.04334
G1 E.04334 F2400
G92 E0
G1 X98.322 Y26.868 F7800
G1 X102.471 Y39.353
G1 E2 F2400
;WIDTH:0.499477
G1 F1800
G1 X101.679 Y39.365 E2.04298
G1 E.04298 F2400
G92 E0
G1 X101.679 Y39.365 F7800
G1 X156.543 Y31.632
G1 E2 F2400
;TYPE:External perimeter
;WIDTH:0.6
G1 F1800
G1 X156.617 Y31.962 E2.02259
G1 X156.699 Y32.623 E2.06709
G1 X156.716 Y33.277 E2.1108
G1 X156.707 Y33.62 E2.13372
G1 X156.624 Y34.285 E2.17849
G1 X156.474 Y34.939 E2.22332
G1 X156.297 Y35.476 E2.26109
G1 X155.822 Y36.484 E2.33553
G1 X155.461 Y37.043 E2.37998
G1 X155.045 Y37.565 E2.42457
G1 X154.321 Y38.272 E2.49217
G1 X153.789 Y38.674 E2.53672
G1 X153.217 Y39.024 E2.58152
G1 X152.613 Y39.315 E2.62631
G1 X151.983 Y39.544 E2.67109
G1 X151.333 Y39.71 E2.71591
G1 X150.67 Y39.81 E2.7607
G1 X149.993 Y39.844 E2.80598
G1 X69.668 Y39.835 E8.17212
G1 X68.664 Y39.709 E8.23972
G1 X68.017 Y39.544 E8.28433
G1 X67.39 Y39.316 E8.3289
G1 X66.49 Y38.854 E8.39648
G1 X65.939 Y38.479 E8.44101
G1 X65.425 Y38.048 E8.48582
G1 X64.957 Y37.568 E8.53061
G1 X64.539 Y37.043 E8.57544
G1 X64.175 Y36.48 E8.62023
G1 X63.869 Y35.883 E8.66505
G1 X63.624 Y35.259 E8.70983
G1 X63.469 Y34.715 E8.74762
G1 X63.293 Y33.615 E8.82204
G1 X63.276 Y32.95 E8.86648
G1 X63.326 Y32.281 E8.9113
G1 X63.443 Y31.621 E8.95608
G1 X63.624 Y30.975 E9.0009
G1 X63.869 Y30.351 E9.04568
G1 X64.175 Y29.754 E9.0905
G1 X64.539 Y29.191 E9.13529
G1 X64.955 Y28.669 E9.17988
G1 X65.679 Y27.963 E9.24744
G1 X66.211 Y27.56 E9.29203
G1 X66.783 Y27.21 E9.33683
G1 X67.387 Y26.919 E9.38162
G1 X68.017 Y26.69 E9.4264
G1 X68.667 Y26.525 E9.4712
G1 X69.33 Y26.425 E9.51599
G1 X70.007 Y26.391 E9.56127
G1 X150.23 Y26.397 E14.9206
G1 X151.337 Y26.526 E14.99505
G1 X151.983 Y26.69 E15.03958
G1 X152.613 Y26.919 E15.08436
G1 X153.217 Y27.21 E15.12915
G1 X153.789 Y27.56 E15.17395
G1 X154.323 Y27.965 E15.21872
G1 X154.815 Y28.421 E15.26353
G1 X155.259 Y28.924 E15.30835
G1 X155.591 Y29.382 E15.34614
G1 X156.132 Y30.355 E15.42051
G1 X156.272 Y30.71 E15.446
G1 X156.472 Y31.318 E15.48876
G1 X156.53 Y31.573 E15.50623
G1 X156.613 Y31.965 F7800
G1 E13.50623 F2400
G92 E0
G1 X154.797 Y30.489 F7800
G1 E2 F2400
;TYPE:Solid infill
;WIDTH:0.600911
G1 F1800
G1 X153.755 Y29.447 E2.09861
G1 X153.375 Y29.095 E2.13327
G1 X152.958 Y28.778 E2.16832
G1 X152.511 Y28.506 E2.20334
G1 X152.04 Y28.278 E2.23836
G1 X151.707 Y28.157 E2.26207
G1 X154.967 Y31.418 E2.57064
G1 X155.119 Y31.949 E2.6076
G1 X155.201 Y32.41 E2.63893
G1 X150.729 Y27.938 E3.06215
G1 X150.145 Y27.87 E3.10149
G1 X149.902 Y27.87 E3.11775
G1 X155.244 Y33.212 E3.6233
G1 X155.236 Y33.51 E3.64325
G1 X155.186 Y33.913 E3.67043
G1 X149.143 Y27.87 E4.24233
G1 X148.384 Y27.87 E4.29312
G1 X155.055 Y34.54 E4.9244
G1 X154.926 Y34.929 E4.95183
G1 X154.849 Y35.093 E4.96395
G1 X147.625 Y27.87 E5.64757
G1 X146.867 Y27.87 E5.69829
G1 X154.606 Y35.609 E6.43069
G1 X154.532 Y35.768 E6.44243
G1 X154.325 Y36.087 E6.46788
G1 X146.108 Y27.87 E7.24552
G1 X145.349 Y27.87 E7.29631
G1 X153.997 Y36.517 E8.11469
G1 X153.619 Y36.898 E8.15061
G1 X144.59 Y27.87 E9.00505
G1 X143.831 Y27.87 E9.05584
G1 X153.22 Y37.258 E9.94435
G1 X152.958 Y37.456 E9.96633
G1 X152.772 Y37.569 E9.98089
G1 X143.072 Y27.869 E10.89888
G1 X142.314 Y27.869 E10.9496
G1 X152.283 Y37.839 E11.89309
G1 X152.04 Y37.956 E11.91114
G1 X151.748 Y38.062 E11.93193
G1 X141.555 Y27.869 E12.89657
G1 X140.796 Y27.869 E12.94736
G1 X151.16 Y38.234 E13.92823
G1 X150.511 Y38.343 E13.97227
G1 X140.037 Y27.869 E14.96351
G1 X139.278 Y27.869 E15.0143
G1 X149.78 Y38.371 E16.00819
G1 X149.021 Y38.37 E16.05898
G1 X138.519 Y27.869 E17.05282
G1 X137.761 Y27.869 E17.10354
G1 X148.262 Y38.37 E18.09733
G1 X147.503 Y38.37 E18.14812
G1 X137.002 Y27.869 E19.14191
G1 X136.243 Y27.869 E19.1927
G1 X146.744 Y38.37 E20.18649
G1 X145.985 Y38.37 E20.23728
G1 X135.484 Y27.869 E21.23107
G1 X134.725 Y27.869 E21.28186
G1 X145.227 Y38.37 E22.2757
G1 X144.468 Y38.37 E22.32649
G1 X133.967 Y27.869 E23.32028
G1 X133.208 Y27.869 E23.37107
G1 X143.709 Y38.37 E24.36486
G1 X142.95 Y38.37 E24.41565
G1 X132.449 Y27.869 E25.40944
G1 X131.69 Y27.869 E25.46023
G1 X142.191 Y38.37 E26.45402
G1 X141.432 Y38.37 E26.50481
G1 X130.931 Y27.869 E27.4986
G1 X130.172 Y27.868 E27.54939
G1 X140.673 Y38.37 E28.54323
G1 X139.915 Y38.369 E28.59395
G1 X129.414 Y27.868 E29.58774
G1 X128.655 Y27.868 E29.63853
G1 X139.156 Y38.369 E30.63232
G1 X138.397 Y38.369 E30.68311
G1 X127.896 Y27.868 E31.6769
G1 X127.137 Y27.868 E31.72769
G1 X137.638 Y38.369 E32.72148
G1 X136.879 Y38.369 E32.77227
G1 X126.378 Y27.868 E33.76606
G1 X125.619 Y27.868 E33.81685
G1 X136.12 Y38.369 E34.81064
G1 X135.362 Y38.369 E34.86136
G1 X124.861 Y27.868 E35.85515
