; generated by PrusaSlicer 2.8.1+linux-x64-GTK3 on 2024-10-22 at 09:26:11 UTC

; 

; external perimeters extrusion width = 0.45mm
; perimeters extrusion width = 0.45mm
; infill extrusion width = 0.45mm
; solid infill extrusion width = 0.45mm
; top infill extrusion width = 0.40mm
; support material extrusion width = 0.40mm
; first layer extrusion width = 0.60mm

M190 S60 ; set bed temperature and wait for it to be reached
M104 S200 ; set temperature
;TYPE:Custom
G28 ; home all axes
G1 Z5 F5000 ; lift nozzle
M109 S200 ; set temperature and wait for it to be reached
G21 ; set units to millimeters
G90 ; use absolute coordinates
M82 ; use absolute distances for extrusion
G92 E0
; Filament gcode
M107
;LAYER_CHANGE
;Z:0.3
;HEIGHT:0.3
G1 E-2 F2400
G1 Z.3 F7800
G1 X58 Y30.508
G1 E0 F2400
;TYPE:Skirt/Brim
;WIDTH:0.6
G1 F1800
G1 X58.732 Y29.347 E.09169
G1 X59.575 Y28.264 E.18338
G1 X60.522 Y27.271 E.27505
G1 X61.564 Y26.377 E.36677
G1 X62.689 Y25.591 E.45845
G1 X63.886 Y24.921 E.55009
G1 X65.145 Y24.373 E.64182
G1 X66.452 Y23.954 E.73351
G1 X67.775 Y23.67 E.82391
G1 X69.981 Y23.488 E.97178
G1 X150.156 Y23.49 E6.3279
G1 X151.493 Y23.57 E6.41738
G1 X152.575 Y23.732 E6.49047
G1 X153.908 Y24.055 E6.5821
G1 X155.203 Y24.51 E6.6738
G1 X157.311 Y25.591 E6.83206
G1 X158.436 Y26.377 E6.92374
G1 X159.478 Y27.271 E7.01546
G1 X160.425 Y28.264 E7.10713
G1 X161.086 Y29.093 E7.17796
G1 X161.843 Y30.237 E7.2696
G1 X162.483 Y31.451 E7.36128
G1 X163.294 Y33.678 E7.51961
G1 X163.53 Y34.711 E7.5904
G1 X163.716 Y36.071 E7.6821
G1 X163.765 Y37.442 E7.77375
G1 X163.678 Y38.812 E7.86546
G1 X163.209 Y41.134 E8.02371
G1 X162.757 Y42.43 E8.1154
G1 X162.321 Y43.397 E8.18626
G1 X161.648 Y44.593 E8.27794
G1 X160.86 Y45.716 E8.36959
G1 X159.249 Y47.453 E8.52786
G1 X158.187 Y48.323 E8.61957
G1 X157.045 Y49.083 E8.71121
G1 X156.114 Y49.59 E8.78203
G1 X154.855 Y50.138 E8.87376
G1 X153.548 Y50.557 E8.96545
G1 X152.206 Y50.844 E9.05713
G1 X150 Y51.023 E9.20499
G1 X70 Y51.023 E14.54942
G1 X68.474 Y50.937 E14.65153
G1 X66.452 Y50.557 E14.78898
G1 X65.177 Y50.149 E14.87841
G1 X64.182 Y49.732 E14.95048
G1 X62.375 Y48.717 E15.08894
G1 X60.522 Y47.24 E15.24724
G1 X59.782 Y46.481 E15.31806
G1 X58.925 Y45.433 E15.4085
G1 X57.821 Y43.675 E15.54718
G1 X57.001 Y41.788 E15.68463
G1 X56.416 Y39.492 E15.84292
G1 X56.261 Y38.128 E15.93463
G1 X56.242 Y36.756 E16.0263
G1 X56.36 Y35.389 E16.11796
G1 X56.545 Y34.345 E16.18879
G1 X56.897 Y33.034 E16.27947
G1 X57.382 Y31.75 E16.37116
G1 X57.974 Y30.562 E16.45983
G1 E14.45983 F2400
G92 E0
G1 X57.974 Y30.562 F7800
G92 E0
G1 X102.096 Y39.932
G1 E2 F2400
;TYPE:Perimeter
;WIDTH:0.6
G1 F1800
G1 X102.289 Y39.665 E2.02201
G1 X102.671 Y39.336 E2.05569
G1 X103.114 Y39.097 E2.08932
G1 X103.559 Y38.964 E2.12035
G1 X104.022 Y38.922 E2.15141
G1 X104.484 Y38.973 E2.18246
G1 X104.777 Y39.056 E2.2028
G1 X105.332 Y39.34 E2.24445
G1 X105.685 Y39.642 E2.27548
G1 X105.972 Y40.008 E2.30655
G1 X106.18 Y40.423 E2.33756
G1 X106.301 Y40.871 E2.36856
G1 X106.324 Y41.391 E2.40333
G1 X106.231 Y41.918 E2.43908
G1 X106.031 Y42.403 E2.47413
G1 X105.655 Y42.9 E2.51576
G1 X105.296 Y43.195 E2.5468
G1 X104.886 Y43.414 E2.57785
G1 X104.661 Y43.46 E2.59319
;WIDTH:0.559773
G1 X104.436 Y43.507 E2.60739
;WIDTH:0.519546
G1 X103.982 Y43.538 E2.63322
;WIDTH:0.526165
G1 X103.752 Y43.527 E2.64648
;WIDTH:0.554246
G1 X103.522 Y43.516 E2.66055
;WIDTH:0.6
G1 X103.074 Y43.397 E2.69152
G1 X102.668 Y43.171 E2.72256
G1 X102.315 Y42.869 E2.75359
G1 X102.028 Y42.503 E2.78466
G1 X101.82 Y42.088 E2.81567
G1 X101.699 Y41.64 E2.84667
G1 X101.676 Y41.12 E2.88144
G1 X101.769 Y40.593 E2.91719
G1 X101.969 Y40.108 E2.95224
G1 X102.06 Y39.981 E2.96268
G1 X102.06 Y39.981 F7800
G1 X102.522 Y40.239
;TYPE:External perimeter
G1 F1800
G1 X102.7 Y40.012 E2.98195
G1 X102.972 Y39.779 E3.00588
G1 X103.284 Y39.605 E3.02975
G1 X103.626 Y39.496 E3.05373
G1 X103.982 Y39.457 E3.07765
G1 X104.339 Y39.489 E3.1016
G1 X104.632 Y39.571 E3.12193
G1 X104.998 Y39.759 E3.14942
G1 X105.275 Y39.986 E3.17335
G1 X105.501 Y40.264 E3.19728
G1 X105.668 Y40.581 E3.22122
G1 X105.768 Y40.925 E3.24515
G1 X105.796 Y41.298 E3.27014
G1 X105.704 Y41.826 E3.30594
G1 X105.521 Y42.216 E3.33472
G1 X105.301 Y42.499 E3.35867
G1 X105.028 Y42.732 E3.38265
G1 X104.716 Y42.906 E3.40652
G1 X104.374 Y43.015 E3.4305
G1 X104.018 Y43.054 E3.45442
G1 X103.661 Y43.022 E3.47837
G1 X103.318 Y42.92 E3.50228
G1 X103.002 Y42.752 E3.52619
G1 X102.725 Y42.525 E3.55012
G1 X102.499 Y42.247 E3.57405
G1 X102.332 Y41.93 E3.59799
G1 X102.232 Y41.586 E3.62192
G1 X102.204 Y41.213 E3.64691
G1 X102.296 Y40.685 E3.68271
G1 X102.479 Y40.295 E3.71149
G1 X102.485 Y40.287 E3.71216
G1 X102.747 Y39.984 F7800
G1 E1.71216 F2400
G92 E0
G1 X94.36 Y34.908 F7800
G1 E2 F2400
;TYPE:Perimeter
G1 F1800
G1 X94.315 Y34.869 E2.00398
G1 X94.028 Y34.503 E2.03505
G1 X93.82 Y34.088 E2.06606
G1 X93.699 Y33.64 E2.09706
G1 X93.676 Y33.12 E2.13183
G1 X93.769 Y32.593 E2.16758
G1 X93.969 Y32.108 E2.20263
G1 X94.345 Y31.611 E2.24426
G1 X94.704 Y31.316 E2.2753
G1 X95.114 Y31.097 E2.30635
G1 X95.339 Y31.051 E2.32169
;WIDTH:0.559067
G1 X95.564 Y31.005 E2.33586
;WIDTH:0.518134
G1 X96.018 Y30.974 E2.36161
;WIDTH:0.525046
G1 X96.248 Y30.985 E2.37484
;WIDTH:0.553445
G1 X96.477 Y30.995 E2.38882
;WIDTH:0.6
G1 X96.926 Y31.114 E2.41985
G1 X97.332 Y31.34 E2.45089
G1 X97.685 Y31.642 E2.48192
G1 X97.972 Y32.008 E2.51299
G1 X98.18 Y32.423 E2.544
G1 X98.301 Y32.871 E2.575
G1 X98.324 Y33.391 E2.60977
G1 X98.231 Y33.918 E2.64552
G1 X98.031 Y34.403 E2.68057
G1 X97.711 Y34.846 E2.71708
G1 X97.329 Y35.175 E2.75076
G1 X96.886 Y35.414 E2.78439
G1 X96.48 Y35.541 E2.81281
G1 X95.978 Y35.589 E2.8465
G1 X95.516 Y35.538 E2.87755
G1 X95.074 Y35.397 E2.90854
G1 X94.668 Y35.171 E2.93958
G1 X94.406 Y34.947 E2.96261
G1 X94.406 Y34.947 F7800
G1 X94.74 Y34.537
;TYPE:External perimeter
G1 F1800
G1 X94.725 Y34.525 E2.96389
G1 X94.499 Y34.247 E2.98782
G1 X94.332 Y33.93 E3.01176
G1 X94.232 Y33.586 E3.03569
G1 X94.204 Y33.213 E3.06068
G1 X94.296 Y32.685 E3.09648
G1 X94.479 Y32.295 E3.12526
G1 X94.7 Y32.012 E3.14925
G1 X94.972 Y31.779 E3.17318
G1 X95.284 Y31.605 E3.19705
G1 X95.626 Y31.496 E3.22103
G1 X95.982 Y31.457 E3.24495
G1 X96.339 Y31.489 E3.2689
G1 X96.682 Y31.591 E3.29281
G1 X96.998 Y31.759 E3.31672
G1 X97.275 Y31.986 E3.34065
G1 X97.501 Y32.264 E3.36458
G1 X97.668 Y32.581 E3.38852
G1 X97.768 Y32.925 E3.41245
G1 X97.796 Y33.298 E3.43744
G1 X97.704 Y33.826 E3.47324
G1 X97.521 Y34.216 E3.50202
G1 X97.3 Y34.499 E3.52601
G1 X97.028 Y34.732 E3.54994
G1 X96.716 Y34.906 E3.57381
G1 X96.387 Y35.013 E3.59692
G1 X96.018 Y35.054 E3.62172
G1 X95.661 Y35.022 E3.64567
G1 X95.318 Y34.92 E3.66958
G1 X95.002 Y34.752 E3.69349
G1 X94.786 Y34.575 E3.71215
G1 X94.526 Y34.271 F7800
G1 E1.71215 F2400
G92 E0
G1 X73.191 Y40.384 F7800
G1 E2 F2400
;TYPE:Perimeter
G1 F1800
G1 X73.096 Y40.463 E2.00825
G1 X72.767 Y40.832 E2.04128
G1 X72.329 Y41.056 E2.07415
G1 X72.117 Y41.206 E2.0915
G1 X71.53 Y41.482 E2.13483
G1 X70.748 Y41.695 E2.18898
G1 X70.32 Y41.746 E2.21777
G1 X69.909 Y41.716 E2.2453
G1 X69.518 Y41.749 E2.27151
G1 X69.219 Y41.697 E2.29178
G1 X68.822 Y41.553 E2.31999
G1 X68.411 Y41.483 E2.34784
G1 X68.082 Y41.341 E2.37178
G1 X67.209 Y40.793 E2.44064
G1 X66.782 Y40.345 E2.48199
G1 X66.465 Y40.074 E2.50985
G1 X66.214 Y39.628 E2.54404
G1 X66.176 Y39.505 E2.55264
G1 X66.02 Y39.335 E2.56805
G1 X65.841 Y39.017 E2.59243
G1 X65.713 Y38.429 E2.63263
G1 X65.609 Y38.197 E2.64961
G1 X65.513 Y37.603 E2.68981
G1 X65.524 Y36.622 E2.75535
G1 X65.666 Y36.215 E2.78415
G1 X65.795 Y35.607 E2.82567
G1 X66.053 Y35.134 E2.86166
G1 X66.149 Y35.018 E2.87172
G1 X66.365 Y34.599 E2.90321
G1 X66.599 Y34.311 E2.928
G1 X66.91 Y34.039 E2.9556
G1 X67.216 Y33.693 E2.98646
G1 X67.794 Y33.384 E3.03025
G1 X68.147 Y33.137 E3.05903
G1 X69.15 Y32.838 E3.12895
G1 X69.613 Y32.766 E3.16025
G1 X70.6 Y32.778 E3.22619
G1 X71.104 Y32.93 E3.26136
G1 X71.672 Y33.059 E3.30027
G1 X72.102 Y33.292 E3.33294
G1 X72.274 Y33.416 E3.34711
G1 X72.63 Y33.601 E3.37391
G1 X73.047 Y33.963 E3.4108
G1 X73.209 Y34.161 E3.42789
G1 X73.578 Y34.49 E3.46092
G1 X73.8 Y34.927 E3.49367
G1 X74.148 Y35.466 E3.53653
G1 X74.449 Y36.564 E3.61259
G1 X74.482 Y37.069 E3.6464
G1 X74.44 Y37.285 E3.6611
G1 X74.494 Y37.585 E3.68146
G1 X74.473 Y37.905 E3.70288
G1 X74.334 Y38.296 E3.7306
G1 X74.196 Y38.928 E3.77382
G1 X73.949 Y39.374 E3.80788
G1 X73.848 Y39.503 E3.81883
G1 X73.635 Y39.912 E3.84964
G1 X73.289 Y40.303 E3.88452
G1 X73.237 Y40.346 E3.88903
G1 X73.237 Y40.346 F7800
G1 X72.646 Y40.151
G1 F1800
G1 X72.585 Y40.262 E3.89749
G1 X72.44 Y40.408 E3.91124
G1 X72.177 Y40.542 E3.93096
G1 X71.92 Y40.644 E3.94943
G1 X71.779 Y40.791 E3.96304
G1 X71.427 Y40.956 E3.98901
G1 X71.128 Y41.009 E4.0093
G1 X71.004 Y40.986 E4.01773
G1 X70.846 Y41.109 E4.03111
G1 X70.445 Y41.201 E4.05859
G1 X70.146 Y41.192 E4.07857
G1 X69.978 Y41.129 E4.09056
G1 X69.698 Y41.21 E4.11003
G1 X69.371 Y41.183 E4.13195
G1 X68.937 Y41.012 E4.16311
G1 X68.583 Y40.976 E4.18688
G1 X68.216 Y40.787 E4.21446
G1 X68.072 Y40.62 E4.22919
G1 X67.809 Y40.551 E4.24735
G1 X67.451 Y40.299 E4.2766
G1 X67.273 Y40.057 E4.29667
G1 X67.245 Y39.979 E4.30221
G1 X66.982 Y39.832 E4.32234
G1 X66.82 Y39.657 E4.33827
G1 X66.648 Y39.204 E4.37064
G1 X66.447 Y39.012 E4.38921
G1 X66.299 Y38.682 E4.41337
G1 X66.246 Y38.377 E4.43405
G1 X66.268 Y38.26 E4.442
G1 X66.149 Y38.106 E4.455
G1 X66.055 Y37.67 E4.4848
G1 X66.066 Y37.397 E4.50305
G1 X66.126 Y37.233 E4.51472
G1 X66.043 Y36.934 E4.53545
G1 X66.051 Y36.715 E4.55009
G1 X66.231 Y36.298 E4.58043
G1 X66.299 Y35.788 E4.6148
G1 X66.469 Y35.472 E4.63877
G1 X66.636 Y35.328 E4.6535
G1 X66.688 Y35.101 E4.66906
G1 X66.981 Y34.685 E4.70305
G1 X67.201 Y34.527 E4.72114
G1 X67.277 Y34.5 E4.72653
G1 X67.449 Y34.207 E4.74923
G1 X67.669 Y34.033 E4.76797
G1 X68.095 Y33.848 E4.799
G1 X68.259 Y33.69 E4.81421
G1 X68.554 Y33.559 E4.83577
G1 X68.879 Y33.498 E4.85786
G1 X68.998 Y33.523 E4.86598
G1 X69.155 Y33.402 E4.87922
G1 X69.64 Y33.301 E4.91232
G1 X69.861 Y33.321 E4.92714
G1 X70.016 Y33.375 E4.93811
G1 X70.368 Y33.293 E4.96226
G1 X70.809 Y33.382 E4.99232
G1 X71.063 Y33.499 E5.011
G1 X71.244 Y33.498 E5.02309
G1 X71.578 Y33.6 E5.04642
G1 X71.817 Y33.754 E5.06541
G1 X71.927 Y33.892 E5.0772
G1 X72.161 Y33.946 E5.09324
G1 X72.475 Y34.151 E5.11829
G1 X72.683 Y34.374 E5.13866
G1 X72.755 Y34.532 E5.15026
G1 X73.009 Y34.672 E5.16964
G1 X73.247 Y34.972 E5.19522
G1 X73.389 Y35.336 E5.22132
G1 X73.561 Y35.51 E5.23766
G1 X73.701 Y35.829 E5.26093
G1 X73.756 Y36.19 E5.28533
G1 X73.743 Y36.248 E5.2893
G1 X73.877 Y36.468 E5.30651
G1 X73.951 Y36.975 E5.34074
G1 X73.874 Y37.278 E5.36163
G1 X73.96 Y37.613 E5.38474
G1 X73.899 Y37.964 E5.40854
G1 X73.754 Y38.294 E5.43262
G1 X73.749 Y38.561 E5.45046
G1 X73.565 Y38.996 E5.48201
G1 X73.364 Y39.183 E5.50035
G1 X73.294 Y39.449 E5.51873
G1 X73.083 Y39.752 E5.5434
G1 X72.799 Y39.984 E5.5679
G1 X72.723 Y40.011 E5.57329
G1 X72.675 Y40.098 E5.57993
G1 X72.675 Y40.098 F7800
G1 X71.617 Y40.051
;TYPE:External perimeter
G1 F1800
G1 X71.554 Y40.242 E5.59337
G1 X71.441 Y40.376 E5.60508
G1 X71.088 Y40.475 E5.62957
G1 X70.952 Y40.45 E5.63881
G1 X70.84 Y40.358 E5.64849
G1 X70.649 Y40.609 E5.66956
G1 X70.277 Y40.672 E5.69477
G1 X70.081 Y40.575 E5.70938
G1 X70 Y40.481 E5.71767
G1 X69.856 Y40.603 E5.73028
G1 X69.559 Y40.678 E5.75074
G1 X69.238 Y40.509 E5.77497
G1 X69.167 Y40.375 E5.7851
G1 X68.987 Y40.466 E5.79857
G1 X68.738 Y40.462 E5.81521
G1 X68.541 Y40.359 E5.83006
G1 X68.41 Y40.15 E5.84654
G1 X68.381 Y40.046 E5.85375
G1 X68.151 Y40.095 E5.86946
G1 X68.001 Y40.044 E5.88004
G1 X67.756 Y39.826 E5.90195
G1 X67.71 Y39.66 E5.91346
G1 X67.718 Y39.537 E5.92169
G1 X67.531 Y39.521 E5.93423
G1 X67.28 Y39.378 E5.95353
G1 X67.164 Y39.062 E5.97602
G1 X67.178 Y38.92 E5.98555
G1 X67.205 Y38.872 E5.98923
G1 X67.013 Y38.81 E6.00271
G1 X66.838 Y38.626 E6.01967
G1 X66.78 Y38.341 E6.0391
G1 X66.806 Y38.208 E6.04815
G1 X66.898 Y38.095 E6.05788
G1 X66.647 Y37.906 E6.07887
G1 X66.584 Y37.571 E6.10164
G1 X66.628 Y37.418 E6.11228
G1 X66.774 Y37.255 E6.1269
G1 X66.658 Y37.127 E6.13844
G1 X66.577 Y36.822 E6.15952
G1 X66.746 Y36.493 E6.18423
G1 X66.88 Y36.422 E6.19436
G1 X66.789 Y36.243 E6.20777
G1 X66.794 Y35.993 E6.22447
G1 X66.896 Y35.797 E6.23923
G1 X67.105 Y35.665 E6.25574
G1 X67.209 Y35.636 E6.26295
G1 X67.16 Y35.406 E6.27866
G1 X67.216 Y35.25 E6.28973
G1 X67.437 Y35.007 E6.31167
G1 X67.604 Y34.964 E6.32319
G1 X67.718 Y34.973 E6.33083
G1 X67.728 Y34.801 E6.34234
G1 X67.884 Y34.53 E6.36323
G1 X68.238 Y34.416 E6.38808
G1 X68.383 Y34.46 E6.3982
G1 X68.446 Y34.269 E6.41164
G1 X68.629 Y34.094 E6.42856
G1 X68.908 Y34.033 E6.44764
G1 X69.119 Y34.118 E6.46284
G1 X69.161 Y34.154 E6.46654
G1 X69.351 Y33.902 E6.48762
G1 X69.72 Y33.839 E6.51263
G1 X69.919 Y33.936 E6.52742
G1 X69.998 Y34.035 E6.53588
G1 X70.181 Y33.891 E6.55144
G1 X70.368 Y33.829 E6.5646
G1 X70.645 Y33.903 E6.58375
G1 X70.815 Y34.081 E6.60019
G1 X70.831 Y34.138 E6.60415
G1 X71.013 Y34.045 E6.6178
G1 X71.262 Y34.049 E6.63444
G1 X71.453 Y34.146 E6.64875
G1 X71.59 Y34.361 E6.66578
G1 X71.619 Y34.464 E6.67293
G1 X71.849 Y34.416 E6.68863
G1 X71.999 Y34.467 E6.69921
G1 X72.244 Y34.685 E6.72112
G1 X72.29 Y34.851 E6.73263
G1 X72.282 Y34.974 E6.74086
G1 X72.469 Y34.99 E6.7534
G1 X72.728 Y35.143 E6.7735
G1 X72.84 Y35.494 E6.79811
G1 X72.795 Y35.639 E6.80825
G1 X72.987 Y35.701 E6.82173
G1 X73.159 Y35.88 E6.83831
G1 X73.22 Y36.189 E6.85935
G1 X73.131 Y36.388 E6.87391
G1 X73.102 Y36.416 E6.8766
G1 X73.359 Y36.616 E6.89836
G1 X73.412 Y36.995 E6.92393
G1 X73.315 Y37.181 E6.93794
G1 X73.226 Y37.256 E6.94572
G1 X73.342 Y37.384 E6.95726
G1 X73.425 Y37.672 E6.97728
G1 X73.282 Y37.984 E7.00021
G1 X73.12 Y38.089 E7.01311
G1 X73.211 Y38.268 E7.02652
G1 X73.206 Y38.518 E7.04322
G1 X73.105 Y38.713 E7.05789
G1 X72.894 Y38.846 E7.07455
G1 X72.791 Y38.875 E7.0817
G1 X72.84 Y39.104 E7.09734
G1 X72.784 Y39.261 E7.10848
G1 X72.563 Y39.504 E7.13042
G1 X72.396 Y39.547 E7.14194
G1 X72.282 Y39.538 E7.14958
G1 X72.272 Y39.71 E7.16109
G1 X72.113 Y39.984 E7.18225
G1 X71.762 Y40.095 E7.20684
G1 X71.674 Y40.068 E7.21299
G1 X71.421 Y40.378 F7800
G1 E5.21299 F2400
G92 E0
G1 X154.461 Y37.194 F7800
G1 E2 F2400
;TYPE:Perimeter
G1 F1800
G1 X154.46 Y37.345 E2.01009
G1 X154.486 Y37.823 E2.04207
G1 X154.298 Y38.433 E2.08471
G1 X154.211 Y38.89 E2.11579
G1 X153.697 Y39.824 E2.18701
G1 X153.38 Y40.222 E2.221
G1 X153.091 Y40.471 E2.24648
G1 X152.856 Y40.757 E2.27121
G1 X152.601 Y40.941 E2.29222
G1 X152.206 Y41.127 E2.32139
G1 X151.853 Y41.374 E2.35017
G1 X151.412 Y41.529 E2.3814
G1 X151.141 Y41.561 E2.39963
G1 X150.691 Y41.704 E2.43117
G1 X150.376 Y41.741 E2.45236
G1 X149.368 Y41.732 E2.5197
G1 X148.887 Y41.55 E2.55406
G1 X148.732 Y41.549 E2.56442
G1 X148.216 Y41.405 E2.60021
G1 X147.818 Y41.15 E2.63179
G1 X147.343 Y40.89 E2.66797
G1 X146.953 Y40.545 E2.70276
G1 X146.794 Y40.352 E2.71947
G1 X146.424 Y40.023 E2.75255
G1 X146.2 Y39.586 E2.78536
G1 X145.86 Y39.062 E2.82709
G1 X145.551 Y37.947 E2.90439
G1 X145.518 Y37.442 E2.9382
G1 X145.56 Y37.226 E2.9529
G1 X145.505 Y36.928 E2.97314
G1 X145.527 Y36.606 E2.9947
G1 X145.706 Y36.143 E3.02786
G1 X145.724 Y35.853 E3.04727
G1 X145.794 Y35.608 E3.06429
G1 X146.365 Y34.599 E3.14174
G1 X146.711 Y34.208 E3.17662
G1 X146.904 Y34.049 E3.19333
G1 X147.233 Y33.679 E3.22641
G1 X148.438 Y33.036 E3.31765
G1 X149.515 Y32.78 E3.3916
G1 X149.982 Y32.8 E3.42283
G1 X150.532 Y32.768 E3.45964
G1 X151.033 Y32.896 E3.49418
G1 X151.202 Y32.958 E3.50621
G1 X151.618 Y33.038 E3.53451
G1 X152.057 Y33.259 E3.56734
G1 X152.237 Y33.404 E3.58278
G1 X152.63 Y33.601 E3.61215
G1 X152.913 Y33.819 E3.63601
G1 X153.622 Y34.552 E3.70414
G1 X153.8 Y34.925 E3.73175
G1 X154.104 Y35.372 E3.76786
G1 X154.256 Y35.763 E3.79589
G1 X154.467 Y36.701 E3.86012
G1 X154.462 Y37.134 E3.88905
G1 X154.462 Y37.134 F7800
G1 X153.916 Y37.461
G1 F1800
G1 X153.961 Y37.655 E3.90235
G1 X153.885 Y37.997 E3.92575
G1 X153.754 Y38.294 E3.94744
G1 X153.756 Y38.518 E3.9624
G1 X153.683 Y38.764 E3.97954
G1 X153.447 Y39.117 E4.00791
G1 X153.349 Y39.184 E4.01584
G1 X153.314 Y39.405 E4.03079
G1 X153.026 Y39.818 E4.06443
G1 X152.799 Y39.984 E4.08322
G1 X152.723 Y40.011 E4.08861
