; generated by PrusaSlicer 2.8.1+linux-x64-GTK3 on 2024-10-13 at 17:02:05 UTC

; 

; external perimeters extrusion width = 0.45mm
; perimeters extrusion width = 0.45mm
; infill extrusion width = 0.45mm
; solid infill extrusion width = 0.45mm
; top infill extrusion width = 0.40mm
; support material extrusion width = 0.40mm
; first layer extrusion width = 0.60mm

M190 S60 ; set bed temperature and wait for it to be reached
M104 S200 ; set temperature
;TYPE:Custom
G28 ; home all axes
G1 Z5 F5000 ; lift nozzle
M109 S200 ; set temperature and wait for it to be reached
G21 ; set units to millimeters
G90 ; use absolute coordinates
M82 ; use absolute distances for extrusion
G92 E0
; Filament gcode
M107
;LAYER_CHANGE
;Z:0.3
;HEIGHT:0.3
G1 E-2 F2400
G1 Z.3 F7800
G1 X78.711 Y96.184
G1 E0 F2400
;TYPE:Skirt/Brim
;WIDTH:0.6
G1 F1800
G1 X79.924 Y95.225 E.1033
G1 X80.694 Y94.815 E.16158
G1 X81.802 Y94.423 E.2401
G1 X83.312 Y94.209 E.34198
G1 X127.658 Y94.208 E3.30453
G1 X130.01 Y94.408 E3.46222
G1 X131.247 Y94.658 E3.54653
G1 X132.756 Y95.107 E3.65171
G1 X134.085 Y95.646 E3.74752
G1 X135.191 Y96.206 E3.83034
G1 X137.162 Y97.506 E3.98807
G1 X138.916 Y99.085 E4.14573
G1 X139.946 Y100.276 E4.25092
G1 X140.683 Y101.301 E4.33526
G1 X141.323 Y102.362 E4.41804
G1 X141.96 Y103.647 E4.51385
G1 X142.422 Y104.822 E4.5982
G1 X142.78 Y106.009 E4.68103
G1 X143.081 Y107.412 E4.77689
G1 X143.293 Y109.763 E4.93459
G1 X143.238 Y111.336 E5.03974
G1 X143.081 Y112.588 E5.12404
G1 X142.828 Y113.802 E5.20688
G1 X142.422 Y115.178 E5.30272
G1 X141.96 Y116.353 E5.38707
G1 X141.416 Y117.467 E5.46989
G1 X140.683 Y118.699 E5.56566
G1 X139.239 Y120.567 E5.72339
G1 X138.357 Y121.47 E5.80772
G1 X137.162 Y122.494 E5.91285
G1 X135.191 Y123.794 E6.07058
G1 X133.492 Y124.613 E6.19658
G1 X131.872 Y125.175 E6.31113
G1 X130.01 Y125.592 E6.4386
G1 X128.133 Y125.78 E6.56462
G1 X83.312 Y125.791 E9.55891
G1 X81.918 Y125.606 E9.65285
G1 X80.845 Y125.252 E9.72833
G1 X80.06 Y124.856 E9.78707
G1 X79.52 Y124.504 E9.83013
G1 X78.455 Y123.548 E9.92574
G1 X77.872 Y122.801 E9.98904
G1 X77.453 Y122.091 E10.04412
G1 X77.124 Y121.34 E10.09889
G1 X76.865 Y120.449 E10.16088
G1 X76.707 Y119 E10.25825
G1 X76.722 Y100.564 E11.48988
G1 X77.027 Y98.945 E11.59994
G1 X77.365 Y98.086 E11.66161
G1 X77.721 Y97.434 E11.71124
G1 X78.674 Y96.231 E11.81377
G1 E9.81377 F2400
G92 E0
G1 X78.674 Y96.231 F7800
G92 E0
G1 X131.823 Y109.396
G1 E2 F2400
;TYPE:Perimeter
;WIDTH:0.6
G1 F1800
G1 X131.857 Y109.641 E2.01652
G1 X131.868 Y110.218 E2.05507
G1 X131.802 Y110.781 E2.09294
G1 X131.667 Y111.327 E2.13051
G1 X131.454 Y111.865 E2.16917
G1 X131.19 Y112.346 E2.20583
G1 X130.835 Y112.826 E2.24571
G1 X130.432 Y113.244 E2.2845
G1 X129.99 Y113.593 E2.32212
G1 X129.499 Y113.889 E2.36042
G1 X128.978 Y114.113 E2.39831
G1 X128.441 Y114.27 E2.43569
G1 X127.877 Y114.354 E2.47378
G1 X127.36 Y114.366 E2.50833
G1 X126.721 Y114.3 E2.55125
G1 X126.03 Y114.116 E2.59902
G1 X125.424 Y113.841 E2.64348
G1 X125.015 Y113.595 E2.67536
G1 X124.503 Y113.176 E2.71956
G1 X123.909 Y112.488 E2.78028
G1 X123.551 Y111.87 E2.82799
G1 X123.323 Y111.278 E2.87037
G1 X123.202 Y110.784 E2.90435
G1 X123.136 Y110.255 E2.93996
G1 X123.136 Y109.745 E2.97403
G1 X123.201 Y109.219 E3.00944
G1 X123.249 Y108.999 E3.02448
G1 X123.386 Y108.529 E3.05719
G1 X123.649 Y107.94 E3.10028
G1 X123.907 Y107.514 E3.13355
G1 X124.326 Y107.001 E3.1778
G1 X125.013 Y106.407 E3.23847
G1 X125.632 Y106.05 E3.28621
G1 X126.261 Y105.813 E3.33111
G1 X126.718 Y105.7 E3.36256
G1 X127.318 Y105.633 E3.40289
G1 X127.856 Y105.644 E3.43884
G1 X128.355 Y105.711 E3.47248
G1 X128.968 Y105.883 E3.51501
G1 X129.489 Y106.106 E3.55287
G1 X129.935 Y106.367 E3.58739
G1 X130.335 Y106.672 E3.62099
G1 X130.708 Y107.031 E3.65557
G1 X131.084 Y107.498 E3.69562
G1 X131.407 Y108.032 E3.73731
G1 X131.615 Y108.523 E3.77293
G1 X131.78 Y109.099 E3.81296
G1 X131.814 Y109.337 E3.82902
G1 X131.814 Y109.337 F7800
G1 X131.255 Y109.228
G1 F1800
G1 X131.27 Y109.286 E3.83302
G1 X131.333 Y109.833 E3.8698
G1 X131.271 Y110.711 E3.9286
G1 X131.122 Y111.266 E3.96699
G1 X130.919 Y111.743 E4.00162
G1 X130.493 Y112.393 E4.05354
G1 X130.001 Y112.909 E4.10117
G1 X129.57 Y113.23 E4.13707
G1 X128.773 Y113.619 E4.19632
G1 X128.215 Y113.769 E4.23492
G1 X127.639 Y113.83 E4.27362
G1 X126.79 Y113.769 E4.33048
G1 X126.235 Y113.621 E4.36885
G1 X125.714 Y113.391 E4.4069
G1 X125.001 Y112.909 E4.4644
G1 X124.593 Y112.5 E4.50299
G1 X124.262 Y112.051 E4.54026
G1 X123.883 Y111.272 E4.59813
G1 X123.733 Y110.714 E4.63673
G1 X123.67 Y110.168 E4.67345
G1 X123.732 Y109.289 E4.73232
G1 X123.761 Y109.157 E4.74135
G1 X124.044 Y108.341 E4.79905
G1 X124.332 Y107.84 E4.83766
G1 X124.688 Y107.396 E4.87568
G1 X125.339 Y106.832 E4.93322
G1 X125.56 Y106.712 E4.95002
G1 X125.605 Y106.718 E4.95305
G1 X125.709 Y106.612 E4.96297
G1 X126.23 Y106.381 E5.00104
G1 X126.788 Y106.231 E5.03964
G1 X127.318 Y106.168 E5.0753
G1 X128.213 Y106.231 E5.13524
G1 X128.771 Y106.381 E5.17384
G1 X129.235 Y106.577 E5.20749
G1 X130.002 Y107.091 E5.26917
G1 X130.41 Y107.5 E5.30776
G1 X130.75 Y107.965 E5.34624
G1 X131.12 Y108.728 E5.40289
G1 X131.239 Y109.17 E5.43347
G1 X131.239 Y109.17 F7800
G1 X130.608 Y109.108
;TYPE:External perimeter
G1 F1800
G1 X130.58 Y109.172 E5.43814
G1 X130.728 Y109.307 E5.45152
G1 X130.798 Y109.822 E5.48624
G1 X130.687 Y110 E5.50025
G1 X130.797 Y110.169 E5.51372
G1 X130.732 Y110.678 E5.548
G1 X130.582 Y110.824 E5.56198
G1 X130.642 Y111.014 E5.57529
G1 X130.451 Y111.483 E5.60912
G1 X130.265 Y111.593 E5.62356
G1 X130.265 Y111.806 E5.63779
G1 X129.951 Y112.212 E5.67208
G1 X129.764 Y112.264 E5.68505
G1 X129.696 Y112.466 E5.69929
G1 X129.295 Y112.77 E5.73291
G1 X129.097 Y112.761 E5.74615
G1 X129.005 Y112.937 E5.75942
G1 X128.535 Y113.135 E5.79349
G1 X128.329 Y113.079 E5.80775
G1 X128.194 Y113.226 E5.82108
G1 X127.698 Y113.296 E5.85454
G1 X127.629 Y113.29 E5.85917
G1 X127.501 Y113.186 E5.87019
G1 X127.317 Y113.296 E5.88451
G1 X126.812 Y113.227 E5.91856
G1 X126.677 Y113.08 E5.93189
G1 X126.487 Y113.14 E5.9452
G1 X126.004 Y112.941 E5.9801
G1 X125.911 Y112.761 E5.99364
G1 X125.708 Y112.77 E6.00721
G1 X125.293 Y112.452 E6.04214
G1 X125.248 Y112.253 E6.05577
G1 X125.049 Y112.208 E6.0694
G1 X124.734 Y111.799 E6.10389
G1 X124.739 Y111.596 E6.11746
G1 X124.561 Y111.499 E6.131
G1 X124.365 Y111.027 E6.16514
G1 X124.422 Y110.828 E6.17897
G1 X124.273 Y110.685 E6.19277
G1 X124.206 Y110.178 E6.22693
G1 X124.316 Y110 E6.24091
G1 X124.206 Y109.821 E6.25495
G1 X124.273 Y109.314 E6.28911
G1 X124.42 Y109.175 E6.30263
G1 X124.363 Y108.979 E6.31627
G1 X124.559 Y108.506 E6.35047
G1 X124.738 Y108.408 E6.3641
G1 X124.733 Y108.203 E6.3778
G1 X125.05 Y107.791 E6.41253
G1 X125.248 Y107.746 E6.42609
G1 X125.293 Y107.547 E6.43972
G1 X125.706 Y107.231 E6.47446
G1 X125.907 Y107.24 E6.4879
G1 X125.999 Y107.062 E6.50129
G1 X126.483 Y106.861 E6.5363
G1 X126.674 Y106.92 E6.54965
G1 X126.809 Y106.773 E6.56298
G1 X127.318 Y106.704 E6.59729
G1 X127.5 Y106.807 E6.61126
G1 X127.671 Y106.704 E6.6246
G1 X128.181 Y106.77 E6.65895
G1 X128.331 Y106.909 E6.67261
G1 X128.536 Y106.865 E6.68662
G1 X129 Y107.06 E6.72024
G1 X129.093 Y107.238 E6.73366
G1 X129.3 Y107.232 E6.74749
G1 X129.7 Y107.537 E6.78109
G1 X129.738 Y107.583 E6.78508
G1 X129.755 Y107.748 E6.79616
G1 X129.96 Y107.797 E6.81024
G1 X130.271 Y108.206 E6.84457
G1 X130.262 Y108.405 E6.85788
G1 X130.439 Y108.496 E6.87118
G1 X130.635 Y108.96 E6.90483
G1 X130.645 Y109.021 E6.90896
G1 X130.632 Y109.053 E6.91127
G1 X130.745 Y109.436 F7800
G1 E4.91127 F2400
G92 E0
G1 X131.069 Y102.67 F7800
G1 E2 F2400
;TYPE:Perimeter
G1 F1800
G1 X131.656 Y102.986 E2.04454
G1 X132.087 Y103.258 E2.07859
G1 X132.729 Y103.744 E2.13238
G1 X133.625 Y104.618 E2.216
G1 X134.122 Y105.241 E2.26924
G1 X134.563 Y105.923 E2.3235
G1 X134.933 Y106.647 E2.37782
G1 X135.234 Y107.412 E2.43274
G1 X135.378 Y107.9 E2.46673
G1 X135.527 Y108.565 E2.51226
G1 X135.649 Y109.931 E2.60388
G1 X135.632 Y110.609 E2.64919
G1 X135.53 Y111.425 E2.70413
G1 X135.423 Y111.923 E2.73816
G1 X135.231 Y112.594 E2.78479
G1 X134.93 Y113.362 E2.8399
G1 X134.704 Y113.819 E2.87396
G1 X134.352 Y114.421 E2.92055
G1 X133.886 Y115.07 E2.97393
G1 X133.034 Y115.988 E3.0576
G1 X132.425 Y116.499 E3.11071
G1 X131.753 Y116.957 E3.16504
G1 X131.054 Y117.338 E3.21822
G1 X129.889 Y117.795 E3.30182
G1 X129.117 Y117.992 E3.35505
G1 X128.313 Y118.113 E3.40937
G1 X127.467 Y118.155 E3.46596
G1 X84.346 Y118.155 E6.34667
G1 X84.346 Y101.845 E7.43627
G1 X127.605 Y101.848 E10.3262
G1 X128.31 Y101.887 E10.37337
G1 X129.101 Y102.006 E10.42681
G1 X130.306 Y102.345 E10.51044
G1 X131.015 Y102.644 E10.56184
G1 X131.015 Y102.644 F7800
G1 X131.29 Y102.181
G1 F1800
G1 X131.926 Y102.523 E10.61008
G1 X132.392 Y102.817 E10.64689
G1 X133.079 Y103.338 E10.70449
G1 X134.023 Y104.258 E10.79255
G1 X134.557 Y104.927 E10.84973
G1 X135.027 Y105.655 E10.90762
G1 X135.422 Y106.426 E10.96549
G1 X135.741 Y107.238 E11.02377
G1 X135.897 Y107.766 E11.06055
G1 X136.057 Y108.48 E11.10943
G1 X136.184 Y109.945 E11.20767
G1 X136.167 Y110.649 E11.25471
G1 X136.058 Y111.515 E11.31302
G1 X135.943 Y112.053 E11.34977
G1 X135.739 Y112.766 E11.39931
G1 X135.42 Y113.579 E11.45765
G1 X135.176 Y114.073 E11.49446
G1 X134.802 Y114.713 E11.54398
G1 X134.301 Y115.41 E11.60132
G1 X133.404 Y116.376 E11.68939
G1 X132.748 Y116.927 E11.74662
G1 X132.033 Y117.415 E11.80445
G1 X131.28 Y117.824 E11.8617
G1 X130.053 Y118.306 E11.94977
G1 X129.223 Y118.517 E12.00698
G1 X128.367 Y118.646 E12.06481
G1 X127.481 Y118.691 E12.12408
G1 X83.811 Y118.691 E15.04147
G1 X83.811 Y101.309 E16.20268
G1 X127.619 Y101.313 E19.12929
G1 X128.365 Y101.353 E19.1792
G1 X129.214 Y101.481 E19.23656
G1 X130.483 Y101.838 E19.32463
G1 X131.236 Y102.156 E19.37924
G1 X131.236 Y102.156 F7800
G1 X131.511 Y101.691
;TYPE:External perimeter
G1 F1800
G1 X132.196 Y102.06 E19.43122
G1 X132.697 Y102.376 E19.47079
G1 X133.43 Y102.931 E19.53221
G1 X134.421 Y103.898 E19.62471
G1 X134.992 Y104.614 E19.68589
G1 X135.491 Y105.387 E19.74736
G1 X135.911 Y106.205 E19.80879
G1 X136.248 Y107.064 E19.87043
G1 X136.416 Y107.631 E19.90994
G1 X136.587 Y108.394 E19.96218
G1 X136.72 Y109.958 E20.06704
G1 X136.702 Y110.689 E20.11589
G1 X136.587 Y111.604 E20.1775
G1 X136.463 Y112.183 E20.21706
G1 X136.247 Y112.938 E20.26952
G1 X135.91 Y113.796 E20.3311
G1 X135.647 Y114.327 E20.37069
G1 X135.252 Y115.005 E20.42311
G1 X134.716 Y115.75 E20.48442
G1 X133.774 Y116.765 E20.57693
G1 X133.072 Y117.354 E20.63815
G1 X132.312 Y117.872 E20.69959
G1 X131.507 Y118.311 E20.76085
G1 X130.218 Y118.817 E20.85336
G1 X129.33 Y119.043 E20.91457
G1 X128.42 Y119.18 E20.97605
G1 X127.494 Y119.226 E21.03799
G1 X83.59 Y119.226 E23.97101
G1 X83.469 Y119.204 E23.97923
G1 X83.336 Y119.12 E23.98974
G1 X83.275 Y118.97 E24.00056
G1 X83.275 Y101.097 E25.19457
G1 X83.304 Y100.956 E25.20419
G1 X83.39 Y100.827 E25.21455
G1 X83.53 Y100.774 E25.22455
G1 X127.634 Y100.777 E28.17093
G1 X128.42 Y100.82 E28.22352
G1 X129.327 Y100.957 E28.2848
G1 X130.66 Y101.332 E28.37731
G1 X131.456 Y101.667 E28.435
G1 X131.81 Y101.853 F7800
G1 X131.548 Y103.11
;TYPE:Solid infill
;WIDTH:0.602113
G1 F1800
G1 X133.332 Y104.895 E28.60426
G1 X133.795 Y105.475 E28.65403
G1 X134.214 Y106.124 E28.70584
G1 X134.617 Y106.94 E28.76688
G1 X130.568 Y102.892 E29.15088
G1 X130.173 Y102.725 E29.17964
G1 X129.433 Y102.517 E29.23119
G1 X135.01 Y108.094 E29.76017
G1 X135.13 Y108.629 E29.79694
G1 X135.168 Y109.012 E29.82275
G1 X128.473 Y102.318 E30.45772
G1 X128.27 Y102.287 E30.47149
G1 X127.649 Y102.253 E30.5132
G1 X135.249 Y109.854 E31.23411
G1 X135.229 Y110.594 E31.28376
G1 X126.885 Y102.25 E32.07519
G1 X126.125 Y102.25 E32.12616
G1 X129.588 Y105.714 E32.45467
G1 X130.162 Y106.036 E32.49881
G1 X130.587 Y106.359 E32.53461
G1 X131.13 Y106.899 E32.58597
G1 X131.494 Y107.381 E32.62648
G1 X131.793 Y107.919 E32.66776
G1 X135.144 Y111.27 E32.9856
G1 X135.013 Y111.899 E33.02869
G1 X132.181 Y109.067 E33.2973
G1 X132.263 Y109.648 E33.33665
G1 X132.261 Y109.907 E33.35402
G1 X134.842 Y112.488 E33.59883
G1 X134.627 Y113.034 E33.63819
G1 X132.224 Y110.631 E33.86611
G1 X132.177 Y110.97 E33.88906
G1 X132.097 Y111.265 E33.90956
G1 X134.387 Y113.554 E34.12672
G1 X134.111 Y114.038 E34.16409
G1 X131.9 Y111.828 E34.37376
G1 X131.777 Y112.125 E34.39532
G1 X131.654 Y112.342 E34.41205
G1 X133.805 Y114.494 E34.61612
G1 X133.574 Y114.815 E34.64264
G1 X133.474 Y114.923 E34.65251
G1 X131.35 Y112.798 E34.85402
G1 X131.017 Y113.227 E34.89044
G1 X133.108 Y115.317 E35.08872
G1 X132.74 Y115.71 E35.12483
G1 X130.634 Y113.603 E35.32463
G1 X130.202 Y113.932 E35.36105
G1 X132.327 Y116.057 E35.56261
G1 X131.888 Y116.379 E35.59912
G1 X129.725 Y114.216 E35.80428
G1 X129.614 Y114.282 E35.81294
G1 X129.203 Y114.454 E35.84282
G1 X131.426 Y116.678 E36.05372
G1 X130.934 Y116.946 E36.0913
G1 X128.623 Y114.635 E36.3105
G1 X127.968 Y114.74 E36.35499
G1 X130.394 Y117.166 E36.5851
G1 X129.847 Y117.38 E36.62449
G1 X127.227 Y114.76 E36.873
G1 X126.661 Y114.698 E36.91119
G1 X126.311 Y114.604 E36.9355
G1 X129.449 Y117.742 E37.23314
G1 E35.23314 F2400
G92 E0
G1 X129.449 Y117.742 F7800
G1 X125.123 Y102.009
G1 E2 F2400
G1 F1800
G1 X128.431 Y105.317 E2.31376
G1 X127.901 Y105.245 E2.34963
G1 X127.591 Y105.237 E2.37043
G1 X124.603 Y102.25 E2.65379
G1 X123.843 Y102.25 E2.70476
G1 X126.869 Y105.276 E2.99178
G1 X126.59 Y105.313 E3.01066
G1 X126.239 Y105.407 E3.03503
G1 X123.082 Y102.25 E3.33447
G1 X122.322 Y102.25 E3.38544
G1 X125.671 Y105.599 E3.70309
G1 X125.47 Y105.682 E3.71767
G1 X125.168 Y105.856 E3.74105
G1 X121.561 Y102.25 E4.08313
G1 X120.801 Y102.25 E4.1341
G1 X124.696 Y106.144 E4.50349
G1 X124.424 Y106.353 E4.5265
G1 X124.284 Y106.493 E4.53978
G1 X120.04 Y102.25 E4.94227
G1 X119.28 Y102.249 E4.99324
G1 X123.903 Y106.873 E5.43178
G1 X123.569 Y107.299 E5.46809
G1 X118.519 Y102.249 E5.94708
G1 X117.759 Y102.249 E5.99805
G1 X123.288 Y107.778 E6.52247
G1 X123.18 Y107.976 E6.5376
G1 X123.047 Y108.298 E6.56097
G1 X116.998 Y102.249 E7.13472
G1 X116.238 Y102.249 E7.18569
G1 X122.871 Y108.882 E7.81483
G1 X122.804 Y109.16 E7.83401
G1 X122.759 Y109.531 E7.85907
G1 X115.477 Y102.249 E8.54977
G1 X114.717 Y102.249 E8.60074
G1 X122.735 Y110.267 E9.36125
G1 X122.804 Y110.841 E9.40002
G1 X122.881 Y111.174 E9.42294
G1 X113.956 Y102.249 E10.26947
G1 X113.196 Y102.249 E10.32044
G1 X128.609 Y117.662 E11.78236
G1 X128.273 Y117.713 E11.80515
G1 X127.917 Y117.73 E11.82905
G1 X112.435 Y102.249 E13.29747
G1 X111.674 Y102.249 E13.34851
G1 X127.179 Y117.753 E14.81911
G1 X126.418 Y117.753 E14.87015
G1 X110.914 Y102.249 E16.3407
G1 X110.153 Y102.249 E16.39174
G1 X125.658 Y117.753 E17.86234
G1 X124.898 Y117.753 E17.91331
G1 X109.393 Y102.249 E19.38391
G1 X108.632 Y102.249 E19.43495
G1 X124.137 Y117.753 E20.90555
G1 X123.377 Y117.753 E20.95652
G1 X107.872 Y102.249 E22.42712
G1 X107.111 Y102.249 E22.47816
G1 X122.616 Y117.753 E23.94876
G1 X121.856 Y117.753 E23.99973
G1 X106.351 Y102.248 E25.47038
G1 X105.59 Y102.248 E25.52142
G1 X121.095 Y117.753 E26.99207
G1 X120.335 Y117.753 E27.04304
G1 X104.83 Y102.248 E28.51369
G1 X104.069 Y102.248 E28.56473
G1 X119.574 Y117.753 E30.03538
G1 X118.814 Y117.753 E30.08635
G1 X103.309 Y102.248 E31.557
G1 X102.548 Y102.248 E31.60804
G1 X118.053 Y117.753 E33.07869
G1 X117.293 Y117.753 E33.12966
G1 X101.788 Y102.248 E34.60031
G1 X101.027 Y102.248 E34.65135
G1 X116.532 Y117.753 E36.122
G1 X115.772 Y117.753 E36.17297
G1 X100.267 Y102.248 E37.64362
G1 X99.506 Y102.248 E37.69466
G1 X115.011 Y117.753 E39.16531
G1 X114.251 Y117.753 E39.21628
G1 X98.746 Y102.248 E40.68693
G1 X97.985 Y102.248 E40.73797
G1 X113.491 Y117.753 E42.20866
G1 X112.73 Y117.753 E42.2597
G1 X97.224 Y102.248 E43.73039
G1 X96.464 Y102.248 E43.78136
G1 X111.97 Y117.753 E45.25205
G1 X111.209 Y117.753 E45.30309
G1 X95.703 Y102.248 E46.77378
G1 X94.943 Y102.248 E46.82475
G1 X110.449 Y117.753 E48.29544
G1 X109.688 Y117.753 E48.34648
G1 X94.182 Y102.247 E49.81722
G1 X93.422 Y102.247 E49.86819
G1 X108.928 Y117.753 E51.33893
G1 X108.167 Y117.753 E51.38997
G1 X92.661 Y102.247 E52.86071
G1 X91.901 Y102.247 E52.91168
G1 X107.407 Y117.753 E54.38242
G1 X106.646 Y117.753 E54.43346
