; generated by PrusaSlicer 2.8.1+linux-x64-GTK3 on 2024-10-16 at 09:09:03 UTC

; 

; external perimeters extrusion width = 0.45mm
; perimeters extrusion width = 0.45mm
; infill extrusion width = 0.45mm
; solid infill extrusion width = 0.45mm
; top infill extrusion width = 0.40mm
; support material extrusion width = 0.40mm
; first layer extrusion width = 0.60mm

M190 S60 ; set bed temperature and wait for it to be reached
M104 S200 ; set temperature
;TYPE:Custom
G28 ; home all axes
G1 Z5 F5000 ; lift nozzle
M109 S200 ; set temperature and wait for it to be reached
G21 ; set units to millimeters
G90 ; use absolute coordinates
M82 ; use absolute distances for extrusion
G92 E0
; Filament gcode
M107
;LAYER_CHANGE
;Z:0.3
;HEIGHT:0.3
G1 E-2 F2400
G1 Z.3 F7800
G1 X79.795 Y89.113
G1 E0 F2400
;TYPE:Skirt/Brim
;WIDTH:0.6
G1 F1800
G1 X81.311 Y88.039 E.12412
G1 X82.217 Y87.552 E.19284
G1 X83.292 Y87.12 E.27024
G1 X84.282 Y86.824 E.33927
G1 X85.731 Y86.572 E.43752
G1 X86.835 Y86.511 E.51139
G1 X97.178 Y86.503 E1.20236
G1 X98.32 Y86.608 E1.27897
G1 X99.783 Y86.892 E1.37853
G1 X131.3 Y94.735 E3.54825
G1 X132.8 Y95.214 E3.65344
G1 X134.244 Y95.84 E3.75858
G1 X135.62 Y96.606 E3.86379
G1 X136.912 Y97.506 E3.96898
G1 X138.107 Y98.53 E4.07411
G1 X139.196 Y99.668 E4.17934
G1 X140.165 Y100.908 E4.28447
G1 X141.006 Y102.239 E4.38965
G1 X141.71 Y103.647 E4.49481
G1 X142.271 Y105.118 E4.59998
G1 X142.683 Y106.638 E4.70519
G1 X142.941 Y108.191 E4.81036
G1 X143.035 Y109.45 E4.8947
G1 X143.011 Y111.024 E4.99986
G1 X142.831 Y112.589 E5.1051
G1 X142.496 Y114.127 E5.21026
G1 X142.009 Y115.624 E5.31543
G1 X141.376 Y117.065 E5.42058
G1 X140.602 Y118.437 E5.52582
G1 X139.696 Y119.724 E5.63097
G1 X138.666 Y120.915 E5.73616
G1 X137.522 Y121.997 E5.84135
G1 X136.019 Y123.136 E5.96733
G1 X134.667 Y123.944 E6.07255
G1 X133.242 Y124.613 E6.17772
G1 X131.757 Y125.137 E6.28292
G1 X130.228 Y125.51 E6.38806
G1 X128.668 Y125.729 E6.4933
G1 X127.252 Y125.794 E6.588
G1 X84.509 Y125.789 E9.44346
G1 X83.231 Y125.635 E9.52945
G1 X82.092 Y125.295 E9.60886
G1 X81.151 Y124.845 E9.67854
G1 X80.235 Y124.221 E9.75258
G1 X79.414 Y123.436 E9.82846
G1 X79.004 Y122.925 E9.87223
G1 X78.4 Y121.917 E9.95073
G1 X78.076 Y121.128 E10.00771
G1 X77.752 Y119.597 E10.11225
G1 X75.866 Y98.115 E11.55288
G1 X75.909 Y96.654 E11.65052
G1 X76.106 Y95.315 E11.74094
G1 X76.516 Y93.831 E11.84379
G1 X76.906 Y92.888 E11.91196
G1 X77.525 Y91.745 E11.9988
G1 X78.12 Y90.876 E12.06916
G1 X79.035 Y89.815 E12.16276
G1 X79.751 Y89.153 E12.2279
G1 E10.2279 F2400
G92 E0
G1 X79.751 Y89.153 F7800
G92 E0
G1 X98.27 Y92.974
G1 E2 F2400
;TYPE:Support material
G1 F1800
G1 X99.319 Y93.458 E2.07718
G1 X100.196 Y94.17 E2.15265
G1 X100.869 Y95.054 E2.22687
G1 X101.319 Y96.073 E2.30129
G1 X101.501 Y97.12 E2.37228
G1 X101.447 Y98.306 E2.45159
G1 X101.099 Y99.412 E2.52905
G1 X100.778 Y99.949 E2.57085
G1 X92.907 Y99.949 E3.09668
G1 X92.703 Y99.654 E3.12064
G1 X92.308 Y98.688 E3.19036
G1 X92.122 Y97.377 E3.27882
G1 X92.321 Y96.2 E3.35857
G1 X92.698 Y95.29 E3.42437
G1 X93.291 Y94.421 E3.49465
G1 X94.05 Y93.716 E3.56385
G1 X94.6 Y93.377 E3.60701
G1 X95.083 Y93.129 E3.64328
G1 X96.072 Y92.832 E3.71227
G1 X97.177 Y92.771 E3.7862
G1 X98.191 Y92.959 E3.8551
G1 X98.191 Y92.959 F7800
G1 X100.478 Y99.708
G1 F1800
G1 X100.478 Y95.361 E4.1455
G1 X99.883 Y94.554 E4.21248
G1 X99.883 Y99.467 E4.5407
G1 X99.288 Y99.467 E4.58045
G1 X99.288 Y94.054 E4.94207
G1 X98.692 Y93.7 E4.98838
G1 X98.692 Y99.467 E5.37365
G1 X98.097 Y99.467 E5.4134
G1 X98.097 Y93.432 E5.81657
G1 X97.502 Y93.322 E5.85699
G1 X97.502 Y99.467 E6.26751
G1 X96.907 Y99.467 E6.30726
G1 X96.907 Y93.269 E6.72132
G1 X96.312 Y93.302 E6.76113
G1 X96.312 Y99.467 E7.17299
G1 X95.717 Y99.467 E7.21274
G1 X95.717 Y93.442 E7.61524
G1 X95.122 Y93.651 E7.65737
G1 X95.122 Y99.467 E8.04591
G1 X94.527 Y99.467 E8.08566
G1 X94.527 Y93.989 E8.45162
G1 X93.931 Y94.484 E8.50338
G1 X93.931 Y99.467 E8.83627
G1 X93.336 Y99.467 E8.87602
G1 X93.336 Y95.209 E9.16048
G1 X93.124 Y95.52 E9.18562
G1 X92.741 Y96.606 E9.26255
G1 X92.741 Y99.111 E9.4299
G1 E7.4299 F2400
G92 E0
G1 X92.741 Y99.111 F7800
G1 X88.27 Y92.972
G1 E2 F2400
G1 F1800
G1 X89.32 Y93.457 E2.07727
G1 X90.198 Y94.17 E2.15283
G1 X90.869 Y95.053 E2.22692
G1 X91.321 Y96.076 E2.30164
G1 X91.502 Y97.126 E2.37282
G1 X91.445 Y98.306 E2.45174
G1 X91.098 Y99.409 E2.52899
G1 X90.775 Y99.949 E2.57103
G1 X84.61 Y99.955 E2.98289
G1 X84.204 Y100.044 E3.01066
G1 X83.883 Y100.216 E3.03499
G1 X83.515 Y100.714 E3.07636
G1 X82.701 Y99.647 E3.16602
G1 X82.307 Y98.681 E3.23572
G1 X82.11 Y97.567 E3.3113
G1 X82.307 Y96.228 E3.40172
G1 X82.697 Y95.285 E3.46989
G1 X83.293 Y94.415 E3.54034
G1 X84.052 Y93.713 E3.60941
G1 X85.085 Y93.126 E3.68878
G1 X86.075 Y92.83 E3.75781
G1 X87.179 Y92.77 E3.83167
G1 X88.191 Y92.958 E3.90043
G1 X88.191 Y92.958 F7800
G1 X90.956 Y99.059
G1 F1800
G1 X90.956 Y96.794 E4.05174
G1 X90.856 Y96.217 E4.09086
G1 X90.361 Y95.18 E4.16763
G1 X90.361 Y99.467 E4.45402
G1 X89.766 Y99.467 E4.49377
G1 X89.766 Y94.44 E4.8296
G1 X89.17 Y93.957 E4.88085
G1 X89.17 Y99.467 E5.24895
G1 X88.575 Y99.467 E5.2887
G1 X88.575 Y93.644 E5.67771
G1 X88.123 Y93.435 E5.71098
G1 X87.98 Y93.409 E5.72069
G1 X87.98 Y99.467 E6.1254
G1 X87.385 Y99.467 E6.16515
G1 X87.385 Y93.298 E6.57727
G1 X86.79 Y93.274 E6.61705
G1 X86.79 Y99.467 E7.03078
G1 X86.195 Y99.467 E7.07053
G1 X86.195 Y93.306 E7.48212
G1 X85.6 Y93.475 E7.52344
G1 X85.6 Y99.467 E7.92374
G1 X85.004 Y99.467 E7.96356
G1 X85.004 Y93.709 E8.34823
G1 X84.409 Y94.059 E8.39435
G1 X84.409 Y99.494 E8.75744
G1 X83.814 Y99.691 E8.79931
G1 X83.814 Y94.589 E9.14015
G1 X83.219 Y95.376 E9.20606
G1 X83.219 Y99.549 E9.48484
G1 X82.773 Y98.547 E9.55811
G1 X82.624 Y97.704 E9.6153
G1 X82.624 Y96.093 E9.72292
G1 E7.72292 F2400
G92 E0
G1 X131.301 Y108.371 F7800
G1 E2 F2400
;TYPE:Perimeter
;WIDTH:0.6
G1 F1800
G1 X131.367 Y108.529 E2.01144
G1 X131.529 Y109.095 E2.05077
G1 X131.606 Y109.643 E2.08774
G1 X131.619 Y110.183 E2.12383
G1 X131.554 Y110.767 E2.16309
G1 X131.417 Y111.326 E2.20154
G1 X131.202 Y111.87 E2.24062
G1 X130.942 Y112.342 E2.27662
G1 X130.583 Y112.827 E2.31693
G1 X130.222 Y113.206 E2.3519
G1 X129.738 Y113.595 E2.39338
G1 X129.215 Y113.907 E2.43406
G1 X128.723 Y114.116 E2.46977
G1 X128.189 Y114.27 E2.5069
G1 X127.63 Y114.352 E2.54464
G1 X127.11 Y114.367 E2.57939
G1 X126.468 Y114.3 E2.62251
G1 X125.775 Y114.114 E2.67044
G1 X125.166 Y113.837 E2.71514
G1 X124.425 Y113.332 E2.77505
G1 X123.918 Y112.826 E2.8229
G1 X123.537 Y112.299 E2.86634
G1 X123.299 Y111.865 E2.89941
G1 X123.071 Y111.269 E2.94204
G1 X122.952 Y110.78 E2.97566
G1 X122.887 Y110.257 E3.01087
G1 X122.899 Y110.005 E3.02772
G1 X122.896 Y109.641 E3.05204
G1 X122.996 Y109.009 E3.09479
G1 X123.138 Y108.524 E3.12855
G1 X123.403 Y107.932 E3.17188
G1 X123.66 Y107.511 E3.20483
G1 X124.072 Y107.007 E3.24832
G1 X124.425 Y106.666 E3.28111
G1 X124.971 Y106.276 E3.32594
G1 X125.78 Y105.884 E3.386
G1 X126.414 Y105.709 E3.42994
G1 X127.068 Y105.634 E3.47392
G1 X127.608 Y105.644 E3.51
G1 X128.125 Y105.715 E3.54486
G1 X128.627 Y105.849 E3.57957
G1 X129.121 Y106.05 E3.6152
G1 X129.638 Y106.337 E3.6547
G1 X130.078 Y106.668 E3.69148
G1 X130.458 Y107.03 E3.72654
G1 X130.833 Y107.497 E3.76655
G1 X131.173 Y108.066 E3.81083
G1 X131.278 Y108.316 E3.82894
G1 X131.278 Y108.316 F7800
G1 X130.883 Y108.797
G1 F1800
G1 X131.02 Y109.29 E3.86312
G1 X131.082 Y109.816 E3.8985
G1 X131.022 Y110.697 E3.95749
G1 X130.87 Y111.271 E3.99716
G1 X130.661 Y111.759 E4.03263
G1 X130.159 Y112.5 E4.09242
G1 X129.752 Y112.909 E4.13097
G1 X129.328 Y113.226 E4.16634
G1 X128.717 Y113.538 E4.21217
G1 X128.331 Y113.673 E4.23949
G1 X127.561 Y113.821 E4.29187
G1 X126.963 Y113.825 E4.33182
G1 X126.392 Y113.735 E4.37044
G1 X125.587 Y113.456 E4.42736
G1 X125.372 Y113.323 E4.44425
G1 X125.355 Y113.281 E4.44728
G1 X125.211 Y113.245 E4.4572
G1 X124.751 Y112.907 E4.49533
G1 X124.343 Y112.501 E4.53378
G1 X124.01 Y112.048 E4.57134
G1 X123.631 Y111.266 E4.62939
G1 X123.483 Y110.71 E4.66783
G1 X123.421 Y110.171 E4.70408
G1 X123.438 Y110.02 E4.71423
G1 X123.427 Y109.711 E4.73489
G1 X123.509 Y109.162 E4.77197
G1 X123.796 Y108.335 E4.83045
G1 X124.084 Y107.838 E4.86882
G1 X124.435 Y107.4 E4.90632
G1 X125.091 Y106.831 E4.96433
G1 X125.315 Y106.71 E4.98134
G1 X125.36 Y106.717 E4.98438
G1 X125.464 Y106.609 E4.9944
G1 X125.985 Y106.379 E5.03245
G1 X126.541 Y106.231 E5.07089
G1 X127.067 Y106.17 E5.10627
G1 X127.965 Y106.231 E5.1664
G1 X128.523 Y106.381 E5.205
G1 X128.99 Y106.579 E5.23889
G1 X129.752 Y107.093 E5.30029
G1 X130.16 Y107.499 E5.33874
G1 X130.496 Y107.958 E5.37674
G1 X130.85 Y108.679 E5.4304
G1 X130.866 Y108.739 E5.43455
G1 X130.866 Y108.739 F7800
G1 X130.386 Y109.226
;TYPE:External perimeter
G1 F1800
G1 X130.478 Y109.31 E5.44287
G1 X130.546 Y109.816 E5.47698
G1 X130.439 Y109.999 E5.49114
G1 X130.548 Y110.183 E5.50543
G1 X130.482 Y110.681 E5.53899
G1 X130.328 Y110.827 E5.55317
G1 X130.39 Y111.018 E5.56659
G1 X130.197 Y111.491 E5.60072
G1 X130.012 Y111.595 E5.6149
G1 X130.014 Y111.806 E5.629
G1 X129.701 Y112.209 E5.66309
G1 X129.506 Y112.253 E5.67644
G1 X129.455 Y112.458 E5.69055
G1 X129.058 Y112.763 E5.724
G1 X128.842 Y112.76 E5.73843
G1 X128.751 Y112.939 E5.75184
G1 X128.284 Y113.136 E5.7857
G1 X128.225 Y113.146 E5.7897
G1 X128.076 Y113.08 E5.80059
G1 X127.924 Y113.231 E5.8149
G1 X127.421 Y113.294 E5.84877
G1 X127.252 Y113.187 E5.86213
G1 X127.068 Y113.296 E5.87642
G1 X126.559 Y113.227 E5.91073
G1 X126.425 Y113.076 E5.92422
G1 X126.233 Y113.139 E5.93772
G1 X125.749 Y112.938 E5.97273
G1 X125.657 Y112.76 E5.98612
G1 X125.456 Y112.769 E5.99956
G1 X125.045 Y112.452 E6.03424
G1 X124.998 Y112.255 E6.04777
G1 X124.8 Y112.21 E6.06133
G1 X124.483 Y111.797 E6.09611
G1 X124.49 Y111.592 E6.10981
G1 X124.309 Y111.494 E6.12356
G1 X124.113 Y111.021 E6.15776
G1 X124.17 Y110.824 E6.17146
G1 X124.023 Y110.682 E6.18511
G1 X123.962 Y110.13 E6.22221
G1 X124.064 Y110.001 E6.2332
G1 X123.956 Y109.822 E6.24717
G1 X124.023 Y109.315 E6.28133
G1 X124.174 Y109.173 E6.29518
G1 X124.115 Y108.974 E6.30905
G1 X124.311 Y108.501 E6.34325
G1 X124.489 Y108.404 E6.35679
G1 X124.485 Y108.201 E6.37035
G1 X124.799 Y107.793 E6.40474
G1 X124.996 Y107.746 E6.41827
G1 X125.042 Y107.549 E6.43178
G1 X125.458 Y107.23 E6.4668
G1 X125.661 Y107.241 E6.48038
G1 X125.754 Y107.06 E6.49397
G1 X126.238 Y106.86 E6.52896
G1 X126.428 Y106.92 E6.54227
G1 X126.562 Y106.773 E6.55556
G1 X127.067 Y106.705 E6.5896
G1 X127.251 Y106.813 E6.60385
G1 X127.435 Y106.704 E6.61814
G1 X127.944 Y106.774 E6.65246
G1 X128.079 Y106.923 E6.66589
G1 X128.282 Y106.864 E6.68001
G1 X128.756 Y107.063 E6.71435
G1 X128.847 Y107.239 E6.72759
G1 X129.051 Y107.234 E6.74122
G1 X129.449 Y107.538 E6.77468
G1 X129.505 Y107.746 E6.78907
G1 X129.71 Y107.797 E6.80318
G1 X130.021 Y108.205 E6.83745
G1 X130.012 Y108.409 E6.85109
G1 X130.191 Y108.501 E6.86454
G1 X130.391 Y108.98 E6.89922
G1 X130.332 Y109.176 E6.91289
G1 X130.342 Y109.185 E6.91379
G1 X130.501 Y109.552 F7800
G1 E4.91379 F2400
G92 E0
G1 X134.842 Y107.058 F7800
G1 E2 F2400
;TYPE:Perimeter
G1 F1800
G1 X134.973 Y107.414 E2.02534
G1 X135.14 Y107.966 E2.06387
G1 X135.301 Y108.741 E2.11675
G1 X135.38 Y109.492 E2.1672
G1 X135.38 Y110.629 E2.24316
G1 X135.298 Y111.305 E2.28865
G1 X135.203 Y111.805 E2.32265
G1 X134.98 Y112.6 E2.37781
G1 X134.728 Y113.25 E2.42438
G1 X134.512 Y113.712 E2.45845
G1 X134.109 Y114.409 E2.51224
G1 X133.353 Y115.407 E2.59588
G1 X132.797 Y115.977 E2.64907
G1 X132.175 Y116.499 E2.70332
G1 X131.517 Y116.948 E2.75654
G1 X130.403 Y117.519 E2.84017
G1 X129.655 Y117.791 E2.89334
G1 X128.867 Y117.992 E2.94767
G1 X128.063 Y118.113 E3.00199
G1 X127.217 Y118.155 E3.05858
G1 X85.363 Y118.155 E5.85465
G1 X85.363 Y101.845 E6.94425
G1 X127.543 Y101.853 E9.7621
G1 X128.054 Y101.886 E9.79631
G1 X128.87 Y102.009 E9.85144
G1 X129.547 Y102.178 E9.89806
G1 X130.032 Y102.335 E9.93212
G1 X130.792 Y102.655 E9.98721
G1 X131.406 Y102.986 E10.03381
G1 X131.837 Y103.258 E10.06786
G1 X132.479 Y103.744 E10.12165
G1 X133.375 Y104.618 E10.20527
G1 X133.872 Y105.241 E10.25851
G1 X134.304 Y105.91 E10.31171
G1 X134.795 Y106.931 E10.3874
G1 X134.822 Y107.002 E10.39247
G1 X134.822 Y107.002 F7800
G1 X135.347 Y106.845
G1 F1800
G1 X135.616 Y107.646 E10.44892
G1 X135.728 Y108.137 E10.48256
G1 X135.832 Y108.675 E10.51917
G1 X135.916 Y109.492 E10.57404
G1 X135.916 Y110.661 E10.65214
G1 X135.828 Y111.387 E10.701
G1 X135.725 Y111.928 E10.73779
G1 X135.488 Y112.769 E10.79616
G1 X135.22 Y113.461 E10.84574
G1 X134.987 Y113.959 E10.88247
G1 X134.556 Y114.706 E10.94008
G1 X133.76 Y115.757 E11.02816
G1 X133.162 Y116.37 E11.08537
G1 X132.498 Y116.927 E11.14327
G1 X131.791 Y117.409 E11.20043
G1 X130.617 Y118.011 E11.28857
G1 X129.813 Y118.304 E11.34574
G1 X128.973 Y118.517 E11.40363
G1 X128.117 Y118.646 E11.46146
G1 X127.231 Y118.691 E11.52073
G1 X84.828 Y118.691 E14.35348
G1 X84.828 Y101.309 E15.51469
G1 X127.56 Y101.318 E18.36942
G1 X128.111 Y101.353 E18.4063
G1 X128.975 Y101.483 E18.46467
G1 X129.694 Y101.663 E18.51419
G1 X130.218 Y101.832 E18.55097
G1 X131.024 Y102.172 E18.60941
G1 X131.676 Y102.523 E18.65888
G1 X132.142 Y102.817 E18.69569
G1 X132.829 Y103.338 E18.75329
G1 X133.773 Y104.258 E18.84135
G1 X134.307 Y104.927 E18.89853
G1 X134.772 Y105.647 E18.95579
G1 X135.322 Y106.791 E19.04059
G1 X135.322 Y106.791 F7800
G1 X135.842 Y106.636
;TYPE:External perimeter
G1 F1800
G1 X136.133 Y107.501 E19.10156
G1 X136.251 Y108.018 E19.13699
G1 X136.364 Y108.608 E19.17712
G1 X136.451 Y109.492 E19.23646
G1 X136.451 Y110.693 E19.31669
G1 X136.357 Y111.469 E19.36891
G1 X136.247 Y112.051 E19.40848
G1 X135.997 Y112.939 E19.47011
G1 X135.713 Y113.671 E19.52256
G1 X135.462 Y114.207 E19.5621
G1 X135.003 Y115.003 E19.62348
G1 X134.167 Y116.107 E19.71599
G1 X133.527 Y116.763 E19.77722
G1 X132.822 Y117.354 E19.83868
G1 X132.065 Y117.871 E19.89992
G1 X130.832 Y118.503 E19.99248
G1 X129.971 Y118.816 E20.05368
G1 X129.08 Y119.043 E20.1151
G1 X128.17 Y119.18 E20.17658
G1 X127.244 Y119.226 E20.23852
G1 X84.802 Y119.226 E23.07387
G1 X84.59 Y119.204 E23.08811
G1 X84.362 Y119.1 E23.10485
G1 X84.292 Y118.97 E23.11471
G1 X84.292 Y101.139 E24.30592
G1 X84.336 Y100.932 E24.32006
G1 X84.438 Y100.863 E24.32829
G1 X84.776 Y100.774 E24.35164
G1 X127.577 Y100.782 E27.21098
G1 X128.168 Y100.82 E27.25054
G1 X129.08 Y100.957 E27.31215
G1 X129.842 Y101.148 E27.36463
G1 X130.405 Y101.33 E27.40416
G1 X131.255 Y101.688 E27.46578
G1 X131.946 Y102.06 E27.51821
G1 X132.447 Y102.376 E27.55778
G1 X133.18 Y102.931 E27.6192
G1 X134.171 Y103.898 E27.7117
G1 X134.742 Y104.614 E27.77288
G1 X135.24 Y105.385 E27.8342
G1 X135.817 Y106.582 E27.92297
G1 X135.95 Y106.959 F7800
G1 E25.92297 F2400
G92 E0
G1 X131.294 Y103.109 F7800
G1 E2 F2400
;TYPE:Solid infill
;WIDTH:0.604359
G1 F1800
G1 X133.088 Y104.902 E2.17082
G1 X133.545 Y105.475 E2.22018
G1 X133.953 Y106.106 E2.27079
G1 X134.347 Y106.924 E2.33194
G1 X130.31 Y102.888 E2.7164
G1 X129.891 Y102.712 E2.74701
G1 X129.152 Y102.493 E2.79892
G1 X134.759 Y108.1 E3.33296
G1 X134.885 Y108.654 E3.37122
G1 X134.933 Y109.038 E3.39728
G1 X128.21 Y102.316 E4.03757
G1 X128.011 Y102.286 E4.05112
G1 X127.386 Y102.255 E4.09326
G1 X134.978 Y109.847 E4.81637
G1 X134.978 Y110.61 E4.86776
G1 X126.622 Y102.255 E5.66359
G1 X125.859 Y102.255 E5.71498
G1 X129.291 Y105.687 E6.04186
G1 X129.969 Y106.078 E6.09457
G1 X130.335 Y106.359 E6.12565
G1 X130.74 Y106.745 E6.16333
G1 X130.882 Y106.901 E6.17754
G1 X131.245 Y107.383 E6.21818
G1 X131.563 Y107.959 E6.26249
G1 X134.892 Y111.289 E6.57961
G1 X134.755 Y111.915 E6.62277
G1 X131.936 Y109.095 E6.89132
G1 X132.011 Y109.645 E6.9287
G1 X132.016 Y109.94 E6.94857
G1 X134.584 Y112.508 E7.19316
G1 X134.371 Y113.058 E7.23288
G1 X131.969 Y110.656 E7.46166
G1 X131.916 Y111.016 E7.48617
G1 X131.841 Y111.291 E7.50537
G1 X134.126 Y113.577 E7.72305
G1 X133.846 Y114.061 E7.76071
G1 X131.64 Y111.855 E7.97082
G1 X131.541 Y112.098 E7.98849
G1 X131.384 Y112.362 E8.00918
G1 X133.53 Y114.508 E8.21358
G1 X133.201 Y114.943 E8.25031
G1 X131.087 Y112.829 E8.45166
G1 X130.743 Y113.249 E8.48822
G1 X132.846 Y115.351 E8.68847
G1 X132.464 Y115.732 E8.72481
G1 X130.349 Y113.618 E8.92621
