; generated by PrusaSlicer 2.8.1+linux-x64-GTK3 on 2024-10-14 at 08:23:05 UTC

; 

; external perimeters extrusion width = 0.45mm
; perimeters extrusion width = 0.45mm
; infill extrusion width = 0.45mm
; solid infill extrusion width = 0.45mm
; top infill extrusion width = 0.40mm
; support material extrusion width = 0.40mm
; first layer extrusion width = 0.60mm

M190 S60 ; set bed temperature and wait for it to be reached
M104 S200 ; set temperature
;TYPE:Custom
G28 ; home all axes
G1 Z5 F5000 ; lift nozzle
M109 S200 ; set temperature and wait for it to be reached
G21 ; set units to millimeters
G90 ; use absolute coordinates
M82 ; use absolute distances for extrusion
G92 E0
; Filament gcode
M107
;LAYER_CHANGE
;Z:0.3
;HEIGHT:0.3
G1 E-2 F2400
G1 Z.3 F7800
G1 X94.001 Y85.204
G1 E0 F2400
;TYPE:Skirt/Brim
;WIDTH:0.6
G1 F1800
G1 X95.112 Y84.143 E.10263
G1 X95.875 Y83.631 E.16402
G1 X96.755 Y83.195 E.22963
G1 X98.229 Y82.764 E.33222
G1 X99.5 Y82.648 E.41748
G1 X120.67 Y82.651 E1.83175
G1 X122.096 Y82.83 E1.92776
G1 X123.096 Y83.136 E1.99762
G1 X124.354 Y83.77 E2.09173
G1 X125.195 Y84.393 E2.16165
G1 X126.168 Y85.412 E2.25577
G1 X126.952 Y86.658 E2.35412
G1 X127.347 Y87.626 E2.42396
G1 X127.65 Y89.012 E2.51874
G1 X127.702 Y89.85 E2.57483
G1 X127.699 Y130.32 E5.27845
G1 X127.52 Y131.746 E5.37446
G1 X127.048 Y133.14 E5.47278
G1 X126.265 Y134.461 E5.57537
G1 X125.624 Y135.206 E5.64103
G1 X124.888 Y135.857 E5.70667
G1 X124.07 Y136.401 E5.7723
G1 X123.186 Y136.829 E5.83791
G1 X122.251 Y137.132 E5.90357
G1 X121.338 Y137.3 E5.96559
G1 X120.5 Y137.352 E6.02168
G1 X99.33 Y137.349 E7.43595
G1 X97.904 Y137.17 E7.53196
G1 X96.51 Y136.698 E7.63028
G1 X95.646 Y136.23 E7.69592
G1 X94.854 Y135.649 E7.76154
G1 X94.148 Y134.965 E7.82721
G1 X93.543 Y134.191 E7.89284
G1 X93.048 Y133.342 E7.95849
G1 X92.673 Y132.434 E8.02412
G1 X92.338 Y130.883 E8.13012
G1 X92.301 Y89.68 E10.8827
G1 X92.48 Y88.254 E10.97871
G1 X92.952 Y86.859 E11.07709
G1 X93.42 Y85.996 E11.14267
G1 X93.966 Y85.252 E11.20432
G1 E9.20432 F2400
G92 E0
G1 X93.966 Y85.252 F7800
G92 E0
G1 X108.023 Y104.795
G1 E2 F2400
;TYPE:Perimeter
;WIDTH:0.6
G1 F1800
G1 X107.216 Y104.407 E2.05982
G1 X106.368 Y103.765 E2.13087
G1 X105.664 Y102.967 E2.20196
G1 X105.133 Y102.046 E2.27298
G1 X104.794 Y101.038 E2.34403
G1 X104.741 Y100.777 E2.36182
G1 X104.662 Y99.983 E2.41513
G1 X104.741 Y98.923 E2.48614
G1 X105.029 Y97.899 E2.5572
G1 X105.514 Y96.953 E2.62822
G1 X106.065 Y96.239 E2.68847
G1 X106.781 Y95.588 E2.75312
G1 X107.683 Y95.039 E2.82366
G1 X108.682 Y94.675 E2.89469
G1 X109.734 Y94.517 E2.96576
G1 X110.796 Y94.57 E3.0368
G1 X111.826 Y94.832 E3.1078
G1 X112.784 Y95.293 E3.17882
G1 X113.632 Y95.935 E3.24987
G1 X114.336 Y96.733 E3.32096
G1 X114.867 Y97.654 E3.39198
G1 X115.206 Y98.662 E3.46303
G1 X115.338 Y99.717 E3.53406
G1 X115.259 Y100.777 E3.60507
G1 X114.971 Y101.801 E3.67613
G1 X114.486 Y102.747 E3.74715
G1 X113.869 Y103.53 E3.81375
G1 X113.208 Y104.121 E3.87298
G1 X112.317 Y104.661 E3.94258
G1 X111.318 Y105.025 E4.01361
G1 X110.266 Y105.183 E4.08468
G1 X109.204 Y105.13 E4.15572
G1 X108.174 Y104.868 E4.22672
G1 X108.077 Y104.821 E4.23392
G1 X108.077 Y104.821 F7800
G1 X108.228 Y104.308
G1 F1800
G1 X107.46 Y103.93 E4.2911
G1 X106.702 Y103.346 E4.35502
G1 X106.075 Y102.623 E4.41895
G1 X105.603 Y101.79 E4.48291
G1 X105.306 Y100.881 E4.5468
G1 X105.274 Y100.724 E4.5575
G1 X105.195 Y99.93 E4.61081
G1 X105.274 Y98.976 E4.67476
G1 X105.541 Y98.057 E4.73869
G1 X105.985 Y97.209 E4.80264
G1 X106.481 Y96.577 E4.85631
G1 X107.134 Y95.992 E4.91488
G1 X107.951 Y95.503 E4.97849
G1 X108.853 Y95.183 E5.04243
G1 X109.8 Y95.048 E5.10633
G1 X110.756 Y95.104 E5.17031
G1 X111.681 Y95.348 E5.23422
G1 X112.54 Y95.77 E5.29816
G1 X113.298 Y96.354 E5.36208
G1 X113.925 Y97.077 E5.42601
G1 X114.397 Y97.91 E5.48997
G1 X114.694 Y98.819 E5.55386
G1 X114.805 Y99.77 E5.61782
G1 X114.726 Y100.724 E5.68177
G1 X114.459 Y101.643 E5.7457
G1 X114.015 Y102.491 E5.80965
G1 X113.456 Y103.189 E5.86939
G1 X112.86 Y103.713 E5.92241
G1 X112.049 Y104.197 E5.9855
G1 X111.147 Y104.517 E6.04944
G1 X110.2 Y104.652 E6.11334
G1 X109.244 Y104.596 E6.17732
G1 X108.319 Y104.352 E6.24123
G1 X108.282 Y104.334 E6.24398
G1 X108.282 Y104.334 F7800
G1 X108.433 Y103.821
;TYPE:External perimeter
G1 F1800
G1 X107.704 Y103.453 E6.29853
G1 X107.036 Y102.927 E6.35533
G1 X106.485 Y102.279 E6.41215
G1 X106.073 Y101.534 E6.46902
G1 X105.807 Y100.67 E6.52941
G1 X105.728 Y99.877 E6.58265
G1 X105.807 Y99.03 E6.63948
G1 X106.053 Y98.215 E6.69635
G1 X106.455 Y97.465 E6.7532
G1 X106.896 Y96.915 E6.8003
G1 X107.486 Y96.396 E6.85279
G1 X108.219 Y95.967 E6.90953
G1 X109.023 Y95.691 E6.96632
G1 X109.867 Y95.58 E7.02319
G1 X110.716 Y95.638 E7.08004
G1 X111.536 Y95.863 E7.13685
G1 X112.296 Y96.247 E7.19373
G1 X112.964 Y96.773 E7.25053
G1 X113.515 Y97.421 E7.30735
G1 X113.927 Y98.166 E7.36422
G1 X114.182 Y98.977 E7.42101
G1 X114.272 Y99.823 E7.47785
G1 X114.193 Y100.67 E7.53468
G1 X113.947 Y101.485 E7.59155
G1 X113.545 Y102.235 E7.6484
G1 X113.044 Y102.847 E7.70124
G1 X112.512 Y103.306 E7.74818
G1 X111.781 Y103.733 E7.80474
G1 X110.977 Y104.009 E7.86153
G1 X110.133 Y104.12 E7.9184
G1 X109.284 Y104.062 E7.97525
G1 X108.489 Y103.844 E8.03032
G1 X108.13 Y103.667 F7800
G1 E6.03032 F2400
G92 E0
G1 X120.063 Y129.616 F7800
G1 E2 F2400
;TYPE:Perimeter
G1 F1800
G1 X120.063 Y129.713 E2.00648
G1 X99.937 Y129.713 E3.351
G1 X99.937 Y90.287 E5.98487
G1 X120.063 Y90.288 E7.32939
G1 X120.063 Y129.556 E9.9527
G1 X120.063 Y129.556 F7800
G1 X120.496 Y130.227
G1 F1800
G1 X120.437 Y130.248 E9.95688
G1 X99.625 Y130.248 E11.34723
G1 X99.446 Y130.211 E11.35944
G1 X99.402 Y130.087 E11.36823
G1 X99.402 Y89.975 E14.04793
G1 X99.439 Y89.796 E14.06014
G1 X99.563 Y89.752 E14.06893
G1 X120.395 Y89.753 E15.46062
G1 X120.544 Y89.785 E15.4708
G1 X120.598 Y89.956 E15.48278
G1 X120.598 Y130.025 E18.1596
G1 X120.561 Y130.204 E18.17181
G1 X120.552 Y130.207 E18.17244
G1 X120.552 Y130.207 F7800
G1 X120.584 Y130.754
;TYPE:External perimeter
G1 F1800
G1 X120.477 Y130.784 E18.17986
G1 X99.625 Y130.784 E19.57289
G1 X99.207 Y130.704 E19.60132
G1 X98.967 Y130.483 E19.62312
G1 X98.866 Y130.127 E19.64784
G1 X98.866 Y89.975 E22.33021
G1 X98.946 Y89.557 E22.35864
G1 X99.167 Y89.317 E22.38044
G1 X99.523 Y89.216 E22.40516
G1 X120.395 Y89.217 E23.79952
G1 X120.755 Y89.278 E23.82391
G1 X120.954 Y89.419 E23.8402
G1 X121.077 Y89.606 E23.85515
G1 X121.134 Y89.956 E23.87884
G1 X121.134 Y130.025 E26.55566
G1 X121.054 Y130.443 E26.58409
G1 X120.833 Y130.683 E26.60589
G1 X120.642 Y130.737 E26.61915
G1 X120.244 Y130.778 F7800
G1 E24.61915 F2400
G92 E0
G1 X119.902 Y91.545 F7800
G1 E2 F2400
;TYPE:Solid infill
;WIDTH:0.606319
G1 F1800
G1 X119.047 Y90.69 E2.08173
G1 X118.28 Y90.69 E2.13357
G1 X119.661 Y92.07 E2.26553
G1 X119.661 Y92.837 E2.31737
G1 X117.514 Y90.69 E2.52261
G1 X116.747 Y90.69 E2.57445
G1 X119.661 Y93.603 E2.85296
G1 X119.661 Y94.37 E2.9048
G1 X115.981 Y90.69 E3.25658
G1 X115.215 Y90.69 E3.30836
G1 X119.661 Y95.136 E3.73336
G1 X119.661 Y95.903 E3.7852
G1 X114.448 Y90.69 E4.28352
G1 X113.682 Y90.69 E4.3353
G1 X119.661 Y96.669 E4.90684
G1 X119.661 Y97.435 E4.95862
G1 X112.915 Y90.69 E5.60343
G1 X112.149 Y90.69 E5.65521
G1 X119.661 Y98.202 E6.37329
G1 X119.661 Y98.968 E6.42507
G1 X111.382 Y90.69 E7.21643
G1 X110.616 Y90.69 E7.26821
G1 X119.661 Y99.735 E8.13284
G1 X119.661 Y100.501 E8.18462
G1 X109.849 Y90.69 E9.12252
G1 X109.083 Y90.689 E9.1743
G1 X119.661 Y101.267 E10.18547
G1 X119.661 Y102.034 E10.23731
G1 X115.317 Y97.69 E10.65256
G1 X115.223 Y97.467 E10.66892
G1 X114.835 Y96.755 E10.72373
G1 X114.648 Y96.48 E10.74621
G1 X114.122 Y95.853 E10.80153
G1 X113.888 Y95.625 E10.82361
G1 X113.254 Y95.12 E10.8784
G1 X112.973 Y94.939 E10.90099
G1 X112.16 Y94.533 E10.96241
G1 X108.317 Y90.689 E11.32982
G1 X107.55 Y90.689 E11.38166
G1 X111.073 Y94.212 E11.71843
G1 X110.832 Y94.17 E11.73497
G1 X110.218 Y94.123 E11.77659
G1 X106.784 Y90.689 E12.10485
G1 X106.017 Y90.689 E12.15669
G1 X109.473 Y94.145 E12.48705
G1 X108.794 Y94.233 E12.53333
G1 X105.251 Y90.689 E12.87206
G1 X104.484 Y90.689 E12.9239
G1 X108.206 Y94.411 E13.27969
G1 X107.645 Y94.617 E13.32009
G1 X103.718 Y90.689 E13.69553
G1 X102.951 Y90.689 E13.74737
G1 X107.147 Y94.885 E14.14847
G1 X106.671 Y95.175 E14.18615
G1 X102.185 Y90.689 E14.61497
G1 X101.419 Y90.689 E14.66675
G1 X106.252 Y95.523 E15.12879
G1 X105.848 Y95.885 E15.16546
G1 X100.652 Y90.689 E15.66215
G1 X100.339 Y90.689 E15.68331
G1 X100.339 Y91.143 E15.714
G1 X105.498 Y96.301 E16.20711
G1 X105.335 Y96.501 E16.22455
G1 X105.173 Y96.743 E16.24423
G1 X100.339 Y91.909 E16.70632
G1 X100.339 Y92.675 E16.7581
G1 X104.902 Y97.238 E17.19428
G1 X104.777 Y97.467 E17.21191
G1 X104.654 Y97.757 E17.2332
G1 X100.339 Y93.442 E17.64568
G1 X100.339 Y94.208 E17.69746
G1 X104.472 Y98.341 E18.09254
G1 X104.408 Y98.55 E18.10731
G1 X104.333 Y98.969 E18.13608
G1 X100.339 Y94.975 E18.51787
G1 X100.339 Y95.741 E18.56965
G1 X104.269 Y99.671 E18.94533
G1 X104.253 Y99.85 E18.95748
G1 X104.314 Y100.482 E19.0004
G1 X100.339 Y96.507 E19.38038
G1 X100.339 Y97.274 E19.43222
G1 X104.86 Y101.795 E19.86439
G1 E17.86439 F2400
G92 E0
G1 X104.86 Y101.795 F7800
G1 X115.308 Y98.447
G1 E2 F2400
G1 F1800
G1 X119.661 Y102.8 E2.41611
G1 X119.661 Y103.567 E2.46795
G1 X115.727 Y99.633 E2.84401
G1 X115.747 Y99.85 E2.85874
G1 X115.697 Y100.369 E2.89398
G1 X119.661 Y104.333 E3.27291
G1 X119.661 Y105.099 E3.32469
G1 X115.611 Y101.05 E3.71179
G1 X115.437 Y101.642 E3.7535
G1 X119.661 Y105.866 E4.15728
G1 X119.661 Y106.632 E4.20906
G1 X115.235 Y102.206 E4.63215
G1 X114.967 Y102.704 E4.67038
G1 X119.661 Y107.399 E5.11913
G1 X119.661 Y108.165 E5.17091
G1 X114.676 Y103.18 E5.64743
G1 X114.331 Y103.602 E5.68427
G1 X119.661 Y108.932 E6.19377
G1 X119.661 Y109.698 E6.24555
G1 X113.965 Y104.002 E6.79004
G1 X113.552 Y104.355 E6.82676
G1 X119.661 Y110.464 E7.41073
G1 X119.661 Y111.231 E7.46257
G1 X113.101 Y104.671 E8.08965
G1 X112.612 Y104.948 E8.12764
G1 X119.661 Y111.997 E8.80147
G1 X119.661 Y112.764 E8.85331
G1 X112.081 Y105.184 E9.57789
G1 X111.507 Y105.376 E9.6188
G1 X119.661 Y113.53 E10.39825
G1 X119.661 Y114.296 E10.45003
G1 X110.871 Y105.506 E11.29028
G1 X110.191 Y105.593 E11.33662
G1 X119.661 Y115.063 E12.24187
G1 X119.661 Y115.829 E12.29365
G1 X109.373 Y105.541 E13.2771
G1 X109.008 Y105.511 E13.30185
G1 X108.408 Y105.343 E13.34397
G1 X119.661 Y116.596 E14.41966
G1 X119.661 Y117.362 E14.47144
G1 X100.339 Y98.04 E16.31846
G1 X100.339 Y98.807 E16.3703
G1 X119.661 Y118.129 E18.21732
G1 X119.661 Y118.895 E18.2691
G1 X100.339 Y99.573 E20.11612
G1 X100.339 Y100.34 E20.16796
G1 X119.661 Y119.661 E22.01493
G1 X119.661 Y120.428 E22.06677
G1 X100.339 Y101.106 E23.91379
G1 X100.339 Y101.872 E23.96557
G1 X119.661 Y121.194 E25.81259
G1 X119.661 Y121.961 E25.86443
G1 X100.339 Y102.639 E27.71145
G1 X100.339 Y103.405 E27.76323
G1 X119.661 Y122.727 E29.61025
G1 X119.661 Y123.493 E29.66203
G1 X100.339 Y104.172 E31.509
G1 X100.339 Y104.938 E31.56078
G1 X119.661 Y124.26 E33.4078
G1 X119.661 Y125.026 E33.45958
G1 X100.339 Y105.704 E35.3066
G1 X100.339 Y106.471 E35.35844
G1 X119.661 Y125.793 E37.20546
G1 X119.661 Y126.559 E37.25724
G1 X100.339 Y107.237 E39.10426
G1 X100.339 Y108.004 E39.1561
G1 X119.661 Y127.326 E41.00312
G1 X119.661 Y128.092 E41.0549
G1 X100.339 Y108.77 E42.90192
G1 X100.339 Y109.537 E42.95376
G1 X119.661 Y128.858 E44.80073
G1 X119.661 Y129.311 E44.83135
G1 X119.347 Y129.311 E44.85257
G1 X100.339 Y110.303 E46.66958
G1 X100.339 Y111.069 E46.72136
G1 X118.581 Y129.311 E48.46514
G1 X117.814 Y129.311 E48.51698
G1 X100.339 Y111.836 E50.18744
G1 X100.339 Y112.602 E50.23922
G1 X117.048 Y129.311 E51.83646
G1 X116.281 Y129.311 E51.8883
G1 X100.339 Y113.369 E53.41222
G1 X100.339 Y114.135 E53.464
G1 X115.515 Y129.311 E54.9147
G1 X114.749 Y129.311 E54.96648
G1 X100.339 Y114.901 E56.34396
G1 X100.339 Y115.668 E56.3958
G1 X113.982 Y129.311 E57.69996
G1 X113.216 Y129.311 E57.75174
G1 X100.339 Y116.434 E58.98267
G1 X100.339 Y117.201 E59.03451
G1 X112.449 Y129.311 E60.19212
G1 X111.683 Y129.311 E60.2439
G1 X100.339 Y117.967 E61.32829
G1 X100.339 Y118.734 E61.38013
G1 X110.916 Y129.311 E62.3912
G1 X110.15 Y129.311 E62.44298
G1 X100.339 Y119.5 E63.38083
G1 X100.339 Y120.266 E63.43261
G1 X109.384 Y129.311 E64.29724
G1 X108.617 Y129.311 E64.34908
G1 X100.339 Y121.033 E65.14039
G1 X100.339 Y121.799 E65.19217
G1 X107.851 Y129.311 E65.91025
G1 X107.084 Y129.311 E65.96209
G1 X100.339 Y122.566 E66.60686
G1 X100.339 Y123.332 E66.65864
G1 X106.318 Y129.311 E67.23018
G1 X105.552 Y129.311 E67.28196
G1 X100.339 Y124.098 E67.78028
G1 X100.339 Y124.865 E67.83212
G1 X104.785 Y129.311 E68.25712
G1 X104.019 Y129.311 E68.3089
G1 X100.339 Y125.631 E68.66068
G1 X100.339 Y126.398 E68.71252
G1 X103.252 Y129.311 E68.99098
G1 X102.486 Y129.311 E69.04276
G1 X100.339 Y127.164 E69.248
G1 X100.339 Y127.931 E69.29984
G1 X101.719 Y129.311 E69.43176
G1 X100.953 Y129.311 E69.48354
G1 X100.098 Y128.456 E69.56527
;LAYER_CHANGE
;Z:0.6
;HEIGHT:0.3
G1 Z.6 F7800
G1 E67.56527 F2400
G92 E0
G1 Z.6 F7800
G1 X108.279 Y104.167
G1 E2 F2400
;TYPE:Perimeter
;WIDTH:0.45
G1 F900
G1 X107.554 Y103.814 E2.03878
G1 X106.817 Y103.25 E2.08342
G1 X106.207 Y102.552 E2.128
G1 X105.746 Y101.747 E2.17262
G1 X105.455 Y100.867 E2.2172
G1 X105.344 Y99.946 E2.26182
G1 X105.417 Y99.021 E2.30645
G1 X105.672 Y98.129 E2.35107
G1 X105.737 Y97.97 E2.35933
G1 X106.002 Y97.458 E2.38706
G1 X106.523 Y96.751 E2.4293
G1 X107.204 Y96.125 E2.47379
G1 X107.997 Y95.645 E2.51837
G1 X108.87 Y95.332 E2.56298
G1 X109.788 Y95.197 E2.60761
G1 X110.714 Y95.248 E2.65221
G1 X111.612 Y95.48 E2.69682
G1 X112.446 Y95.886 E2.74143
G1 X113.183 Y96.45 E2.78607
G1 X113.793 Y97.148 E2.83065
G1 X114.254 Y97.953 E2.87527
G1 X114.545 Y98.833 E2.91985
G1 X114.656 Y99.754 E2.96447
G1 X114.583 Y100.679 E3.0091
G1 X114.328 Y101.57 E3.05367
G1 X113.901 Y102.394 E3.09831
G1 X113.338 Y103.097 E3.14163
G1 X112.781 Y103.588 E3.17734
G1 X112.003 Y104.055 E3.22098
G1 X111.13 Y104.368 E3.26559
G1 X110.212 Y104.503 E3.31022
G1 X109.286 Y104.452 E3.35482
G1 X108.388 Y104.22 E3.39943
G1 X108.333 Y104.193 E3.40238
G1 X108.333 Y104.193 F7800
G1 X108.427 Y103.816
G1 F900
G1 X107.73 Y103.47 E3.43981
G1 X107.058 Y102.949 E3.48071
G1 X106.502 Y102.305 E3.52163
G1 X106.085 Y101.563 E3.56257
G1 X105.823 Y100.753 E3.60352
G1 X105.727 Y99.908 E3.64442
G1 X105.801 Y99.06 E3.68536
G1 X106.08 Y98.147 E3.73128
G1 X106.345 Y97.636 E3.75897
G1 X106.83 Y96.985 E3.79801
G1 X107.459 Y96.414 E3.83887
G1 X108.19 Y95.979 E3.87978
G1 X108.993 Y95.697 E3.92071
G1 X109.836 Y95.58 E3.96164
G1 X110.685 Y95.632 E4.00255
G1 X111.507 Y95.852 E4.04348
G1 X112.27 Y96.23 E4.08443
G1 X112.942 Y96.751 E4.12533
G1 X113.498 Y97.395 E4.16625
G1 X113.915 Y98.137 E4.20719
G1 X114.177 Y98.947 E4.24814
G1 X114.273 Y99.792 E4.28904
G1 X114.199 Y100.64 E4.32998
G1 X113.96 Y101.457 E4.37092
G1 X113.563 Y102.209 E4.41182
G1 X113.042 Y102.85 E4.45155
G1 X112.532 Y103.293 E4.48404
G1 X111.81 Y103.721 E4.52441
G1 X111.007 Y104.003 E4.56534
G1 X110.164 Y104.12 E4.60627
G1 X109.315 Y104.068 E4.64718
G1 X108.493 Y103.848 E4.68811
G1 X108.481 Y103.843 E4.68874
G1 X108.481 Y103.843 F7800
G1 X108.575 Y103.466
;TYPE:External perimeter
G1 F900
G1 X107.906 Y103.127 E4.72481
G1 X107.298 Y102.647 E4.76207
G1 X106.798 Y102.057 E4.79927
G1 X106.424 Y101.378 E4.83655
G1 X106.192 Y100.639 E4.8738
G1 X106.111 Y99.869 E4.91104
G1 X106.184 Y99.098 E4.94829
G1 X106.422 Y98.325 E4.98719
G1 X106.687 Y97.813 E5.01492
G1 X107.136 Y97.218 E5.05077
G1 X107.714 Y96.704 E5.08797
G1 X108.383 Y96.313 E5.12524
G1 X109.116 Y96.063 E5.16249
G1 X109.884 Y95.963 E5.19974
G1 X110.656 Y96.017 E5.23696
G1 X111.403 Y96.223 E5.27423
G1 X112.094 Y96.573 E5.31148
G1 X112.702 Y97.053 E5.34874
G1 X113.203 Y97.643 E5.38597
G1 X113.576 Y98.322 E5.42323
G1 X113.808 Y99.061 E5.46048
G1 X113.889 Y99.831 E5.49772
G1 X113.816 Y100.602 E5.53497
G1 X113.591 Y101.343 E5.57222
G1 X113.224 Y102.025 E5.60947
G1 X112.746 Y102.603 E5.64554
G1 X112.283 Y102.999 E5.67484
G1 X111.617 Y103.387 E5.71191
G1 X110.884 Y103.637 E5.74916
G1 X110.116 Y103.737 E5.78641
G1 X109.344 Y103.683 E5.82363
