; generated by PrusaSlicer 2.8.1+linux-x64-GTK3 on 2024-10-18 at 08:17:28 UTC

; 

; external perimeters extrusion width = 0.45mm
; perimeters extrusion width = 0.45mm
; infill extrusion width = 0.45mm
; solid infill extrusion width = 0.45mm
; top infill extrusion width = 0.40mm
; support material extrusion width = 0.40mm
; first layer extrusion width = 0.60mm

M190 S60 ; set bed temperature and wait for it to be reached
M104 S200 ; set temperature
;TYPE:Custom
G28 ; home all axes
G1 Z5 F5000 ; lift nozzle
M109 S200 ; set temperature and wait for it to be reached
G21 ; set units to millimeters
G90 ; use absolute coordinates
M82 ; use absolute distances for extrusion
G92 E0
; Filament gcode
M107
;LAYER_CHANGE
;Z:0.3
;HEIGHT:0.3
G1 E-2 F2400
G1 Z.3 F7800
G1 X94.382 Y84.959
G1 E0 F2400
;TYPE:Skirt/Brim
;WIDTH:0.6
G1 F1800
G1 X95.303 Y84.051 E.0864
G1 X96.243 Y83.354 E.16458
G1 X97.102 Y82.868 E.23051
G1 X98.183 Y82.42 E.30868
G1 X99.134 Y82.157 E.3746
G1 X101 Y81.956 E.49998
G1 X119.154 Y81.958 E1.71277
G1 X120.564 Y82.097 E1.80742
G1 X122.107 Y82.524 E1.91437
G1 X123.388 Y83.13 E2.00904
G1 X124.697 Y84.051 E2.11596
G1 X125.699 Y85.053 E2.21063
G1 X126.62 Y86.362 E2.31755
G1 X127.33 Y87.933 E2.43272
G1 X127.675 Y89.308 E2.52742
G1 X127.794 Y90.75 E2.62408
G1 X127.794 Y129.25 E5.19609
G1 X127.653 Y130.814 E5.301
G1 X127.226 Y132.357 E5.40795
G1 X126.827 Y133.259 E5.47384
G1 X126.225 Y134.263 E5.55205
G1 X125.618 Y135.041 E5.61797
G1 X124.697 Y135.949 E5.70437
G1 X123.757 Y136.646 E5.78255
G1 X122.62 Y137.264 E5.869
G1 X121.699 Y137.619 E5.93494
G1 X120.564 Y137.903 E6.0131
G1 X119 Y138.044 E6.11801
G1 X100.846 Y138.042 E7.3308
G1 X99.436 Y137.903 E7.42545
G1 X97.893 Y137.476 E7.5324
G1 X96.72 Y136.932 E7.61878
G1 X95.886 Y136.404 E7.68472
G1 X94.982 Y135.661 E7.76289
G1 X94.106 Y134.709 E7.84932
G1 X93.38 Y133.638 E7.93576
G1 X92.818 Y132.473 E8.02217
G1 X92.509 Y131.536 E8.08808
G1 X92.265 Y130.265 E8.17454
G1 X92.206 Y129.25 E8.24246
G1 X92.206 Y90.75 E10.81447
G1 X92.347 Y89.186 E10.91938
G1 X92.774 Y87.643 E11.02633
G1 X93.174 Y86.741 E11.09225
G1 X93.775 Y85.737 E11.17042
G1 X94.345 Y85.007 E11.23229
G1 E9.23229 F2400
G92 E0
G1 X94.345 Y85.007 F7800
G92 E0
G1 X118.966 Y129.216
G1 E2 F2400
;TYPE:Perimeter
;WIDTH:0.6
G1 F1800
G1 X118.812 Y129.371 E2.0146
;WIDTH:0.64526
G1 X118.633 Y129.47 E2.02942
;WIDTH:0.69052
G1 X118.454 Y129.569 E2.04539
;WIDTH:0.735781
G1 X118.276 Y129.668 E2.06245
G1 X118.032 Y129.683 E2.08292
;WIDTH:0.724024
G1 X101.968 Y129.683 E3.40457
G1 X101.756 Y129.609 E3.42304
;WIDTH:0.682682
G1 X101.543 Y129.534 E3.44045
;WIDTH:0.641341
G1 X101.331 Y129.46 E3.45661
;WIDTH:0.6
G1 X101.015 Y129.223 E3.483
G1 X100.826 Y128.982 E3.50346
;WIDTH:0.645244
G1 X100.745 Y128.829 E3.516
;WIDTH:0.690488
G1 X100.663 Y128.677 E3.52949
;WIDTH:0.735732
G1 X100.582 Y128.525 E3.54391
G1 X100.567 Y128.282 E3.5643
;WIDTH:0.723458
G1 X100.567 Y107.218 E5.29584
G1 X100.64 Y107.008 E5.31412
;WIDTH:0.682305
G1 X100.713 Y106.798 E5.33125
;WIDTH:0.641152
G1 X100.786 Y106.588 E5.34724
;WIDTH:0.6
G1 X101.164 Y106.147 E5.38604
G1 X101.593 Y105.932 E5.4181
G1 X101.968 Y105.879 E5.4434
G1 X108.133 Y105.879 E5.85525
G1 X118.032 Y105.879 E6.51656
G1 X118.407 Y105.932 E6.54186
G1 X118.836 Y106.147 E6.57392
G1 X119.214 Y106.588 E6.61272
;WIDTH:0.641079
G1 X119.287 Y106.798 E6.62871
;WIDTH:0.682158
G1 X119.36 Y107.008 E6.64584
;WIDTH:0.723238
G1 X119.433 Y107.218 E6.66411
;WIDTH:0.724066
G1 X119.433 Y128.282 E8.39725
;WIDTH:0.737182
G1 X119.419 Y128.525 E8.41768
G1 X119.322 Y128.7 E8.43447
;WIDTH:0.691454
G1 X119.226 Y128.875 E8.45008
;WIDTH:0.645727
G1 X119.13 Y129.049 E8.46449
;WIDTH:0.6
G1 X119.008 Y129.173 E8.47611
G1 X119.008 Y129.173 F7800
G1 X118.599 Y128.844
G1 F1800
G1 X118.576 Y128.873 E8.47858
G1 X118.452 Y128.967 E8.48898
G1 X118.171 Y129.074 E8.50907
G1 X118.032 Y129.086 E8.51839
G1 X101.968 Y129.086 E9.59155
G1 X101.507 Y128.941 E9.62383
G1 X101.283 Y128.702 E9.64571
G1 X101.176 Y128.421 E9.6658
G1 X101.164 Y128.282 E9.67512
G1 X101.164 Y107.218 E11.08231
G1 X101.259 Y106.84 E11.10835
G1 X101.486 Y106.575 E11.13166
G1 X101.743 Y106.447 E11.15084
G1 X101.968 Y106.414 E11.16603
G1 X108.133 Y106.414 E11.57788
G1 X118.032 Y106.414 E12.23919
G1 X118.257 Y106.447 E12.25438
G1 X118.514 Y106.575 E12.27356
G1 X118.741 Y106.84 E12.29687
G1 X118.836 Y107.218 E12.32291
G1 X118.836 Y128.282 E13.7301
G1 X118.739 Y128.664 E13.75643
G1 X118.636 Y128.797 E13.76767
G1 X118.636 Y128.797 F7800
G1 X118.214 Y128.47
;TYPE:External perimeter
G1 F1800
G1 X118.079 Y128.546 E13.77802
G1 X101.968 Y128.55 E14.85432
G1 X101.777 Y128.47 E14.86815
G1 X101.7 Y128.282 E14.88172
G1 X101.7 Y107.218 E16.28891
G1 X101.732 Y107.092 E16.29759
G1 X101.893 Y106.961 E16.31146
G1 X108.133 Y106.95 E16.72833
G1 X118.032 Y106.95 E17.38964
G1 X118.193 Y107.004 E17.40098
G1 X118.268 Y107.092 E17.4087
G1 X118.3 Y107.218 E17.41738
G1 X118.3 Y128.282 E18.82457
G1 X118.246 Y128.424 E18.83472
G1 X117.863 Y128.537 F7800
G1 E16.83472 F2400
G92 E0
G1 X108.89 Y104.464 F7800
G1 E2 F2400
;TYPE:Perimeter
G1 F1800
G1 X108.347 Y104.327 E2.03741
G1 X107.473 Y103.909 E2.10213
G1 X106.699 Y103.326 E2.16686
G1 X106.056 Y102.6 E2.23165
G1 X105.569 Y101.762 E2.2964
G1 X105.258 Y100.845 E2.36109
G1 X105.135 Y99.883 E2.42588
G1 X105.205 Y98.917 E2.49058
G1 X105.466 Y97.983 E2.55537
G1 X105.906 Y97.119 E2.62014
G1 X106.368 Y96.508 E2.67131
G1 X107.053 Y95.878 E2.73348
G1 X107.878 Y95.371 E2.79817
G1 X108.788 Y95.037 E2.86293
G1 X109.745 Y94.89 E2.92761
G1 X110.713 Y94.936 E2.99235
G1 X111.653 Y95.173 E3.05711
G1 X112.527 Y95.591 E3.12183
G1 X113.301 Y96.174 E3.18656
G1 X113.944 Y96.899 E3.2513
G1 X114.431 Y97.738 E3.31611
G1 X114.742 Y98.655 E3.3808
G1 X114.865 Y99.617 E3.44559
G1 X114.795 Y100.583 E3.51029
G1 X114.534 Y101.517 E3.57508
G1 X114.094 Y102.38 E3.63979
G1 X113.492 Y103.139 E3.70451
G1 X112.751 Y103.764 E3.76927
G1 X111.901 Y104.23 E3.83403
G1 X110.976 Y104.518 E3.89875
G1 X110.222 Y104.614 E3.94953
G1 X109.287 Y104.564 E4.01208
G1 X108.948 Y104.479 E4.03543
G1 X108.948 Y104.479 F7800
G1 X109.021 Y103.95
G1 F1800
G1 X108.492 Y103.811 E4.07197
G1 X107.717 Y103.432 E4.1296
G1 X107.033 Y102.907 E4.1872
G1 X106.466 Y102.256 E4.24487
G1 X106.04 Y101.506 E4.30249
G1 X105.77 Y100.687 E4.3601
G1 X105.668 Y99.83 E4.41776
G1 X105.738 Y98.97 E4.4754
G1 X105.977 Y98.141 E4.53304
G1 X106.376 Y97.376 E4.59068
G1 X106.786 Y96.842 E4.63566
G1 X107.407 Y96.279 E4.69166
G1 X108.146 Y95.835 E4.74925
G1 X108.958 Y95.545 E4.80685
G1 X109.812 Y95.422 E4.86449
G1 X110.673 Y95.47 E4.9221
G1 X111.508 Y95.689 E4.97977
G1 X112.283 Y96.068 E5.0374
G1 X112.967 Y96.593 E5.095
G1 X113.534 Y97.244 E5.15267
G1 X113.96 Y97.994 E5.21029
G1 X114.23 Y98.813 E5.2679
G1 X114.332 Y99.67 E5.32556
G1 X114.262 Y100.53 E5.3832
G1 X114.023 Y101.359 E5.44084
G1 X113.624 Y102.124 E5.49848
G1 X113.082 Y102.795 E5.5561
G1 X112.417 Y103.345 E5.61375
G1 X111.657 Y103.753 E5.67138
G1 X110.831 Y104.002 E5.72901
G1 X110.168 Y104.081 E5.77362
G1 X109.327 Y104.03 E5.82991
G1 X109.079 Y103.965 E5.84704
G1 X109.079 Y103.965 F7800
G1 X109.151 Y103.437
;TYPE:External perimeter
G1 F1800
G1 X108.637 Y103.296 E5.88265
G1 X107.961 Y102.955 E5.93323
G1 X107.367 Y102.488 E5.98371
G1 X106.876 Y101.912 E6.03427
G1 X106.51 Y101.25 E6.0848
G1 X106.282 Y100.529 E6.13532
G1 X106.201 Y99.777 E6.18585
G1 X106.271 Y99.023 E6.23644
G1 X106.489 Y98.299 E6.28695
G1 X106.847 Y97.632 E6.33752
G1 X107.205 Y97.177 E6.3762
G1 X107.761 Y96.681 E6.42598
G1 X108.413 Y96.298 E6.4765
G1 X109.129 Y96.052 E6.52708
G1 X109.879 Y95.953 E6.57762
G1 X110.633 Y96.004 E6.62811
G1 X111.363 Y96.204 E6.67868
G1 X112.039 Y96.545 E6.72926
G1 X112.633 Y97.012 E6.77974
G1 X113.124 Y97.588 E6.8303
G1 X113.49 Y98.25 E6.88083
G1 X113.718 Y98.971 E6.93135
G1 X113.799 Y99.723 E6.98188
G1 X113.729 Y100.477 E7.03247
G1 X113.511 Y101.201 E7.08298
G1 X113.154 Y101.868 E7.13352
G1 X112.671 Y102.451 E7.1841
G1 X112.083 Y102.927 E7.23464
G1 X111.413 Y103.276 E7.28511
G1 X110.686 Y103.486 E7.33566
G1 X110.115 Y103.548 E7.37403
G1 X109.367 Y103.496 E7.42412
G1 X109.209 Y103.453 E7.43506
G1 X108.823 Y103.347 F7800
G1 E5.43506 F2400
G92 E0
G1 X120.039 Y90.296 F7800
G1 E2 F2400
;TYPE:Perimeter
G1 F1800
G1 X120.096 Y90.42 E2.00912
G1 X120.152 Y90.795 E2.03445
G1 X120.153 Y106.353 E3.07381
;WIDTH:0.641079
G1 X120.133 Y106.641 E3.09458
;WIDTH:0.682158
G1 X120.112 Y106.929 E3.11683
;WIDTH:0.723238
G1 X120.092 Y107.218 E3.14064
;WIDTH:0.724066
G1 X120.093 Y128.282 E4.87378
;WIDTH:0.737182
G1 X120.086 Y128.583 E4.89905
G1 X120.109 Y128.775 E4.91528
;WIDTH:0.691454
G1 X120.132 Y128.966 E4.93033
;WIDTH:0.645727
G1 X120.155 Y129.158 E4.94435
;WIDTH:0.6
G1 X120.126 Y129.474 E4.96555
G1 X119.988 Y129.842 E4.99181
G1 X119.742 Y130.108 E5.01601
G1 X119.344 Y130.346 E5.04699
G1 X119.007 Y130.402 E5.06981
;WIDTH:0.64526
G1 X118.783 Y130.379 E5.08612
;WIDTH:0.69052
G1 X118.558 Y130.357 E5.10378
;WIDTH:0.735781
G1 X118.334 Y130.334 E5.12264
G1 X118.032 Y130.341 E5.14794
;WIDTH:0.724024
G1 X101.968 Y130.343 E6.46959
G1 X101.676 Y130.364 E6.49368
;WIDTH:0.682682
G1 X101.384 Y130.384 E6.51625
;WIDTH:0.641341
G1 X101.092 Y130.405 E6.53732
;WIDTH:0.6
G1 X100.776 Y130.376 E6.55852
G1 X100.38 Y130.201 E6.58744
G1 X100.095 Y129.942 E6.61317
G1 X99.916 Y129.638 E6.63674
G1 X99.848 Y129.257 E6.6626
;WIDTH:0.645244
G1 X99.871 Y129.033 E6.67891
;WIDTH:0.690488
G1 X99.893 Y128.808 E6.69656
;WIDTH:0.735732
G1 X99.916 Y128.583 E6.7155
G1 X99.909 Y128.282 E6.74071
;WIDTH:0.723458
G1 X99.908 Y107.218 E8.47225
G1 X99.887 Y106.929 E8.49607
;WIDTH:0.682305
G1 X99.867 Y106.641 E8.51832
;WIDTH:0.641152
G1 X99.846 Y106.353 E8.53909
;WIDTH:0.6
G1 X99.845 Y90.817 E9.57698
G1 X99.934 Y90.326 E9.61032
G1 X100.186 Y89.936 E9.64134
G1 X100.572 Y89.691 E9.67188
G1 X100.916 Y89.607 E9.69554
G1 X118.94 Y89.597 E10.89964
G1 X119.214 Y89.62 E10.91801
G1 X119.638 Y89.795 E10.94865
G1 X119.955 Y90.112 E10.9786
G1 X120.014 Y90.242 E10.98814
G1 X120.014 Y90.242 F7800
G1 X120.517 Y90.055
G1 F1800
G1 X120.651 Y90.401 E11.01293
G1 X120.688 Y90.795 E11.03937
G1 X120.691 Y128.583 E13.56381
G1 X120.665 Y129.472 E13.62323
G1 X120.555 Y129.905 E13.65308
G1 X120.385 Y130.208 E13.67629
G1 X119.986 Y130.614 E13.71432
G1 X119.543 Y130.847 E13.74776
G1 X119.073 Y130.938 E13.77974
G1 X100.99 Y130.936 E14.98778
G1 X100.488 Y130.849 E15.02182
G1 X99.981 Y130.589 E15.05988
G1 X99.629 Y130.233 E15.09333
G1 X99.41 Y129.819 E15.12462
G1 X99.312 Y129.323 E15.1584
G1 X99.309 Y90.88 E17.7266
G1 X99.328 Y90.603 E17.74515
G1 X99.439 Y90.114 E17.77865
G1 X99.657 Y89.729 E17.80821
G1 X99.877 Y89.495 E17.82967
G1 X100.375 Y89.188 E17.86875
G1 X100.852 Y89.071 E17.90156
G1 X118.94 Y89.062 E19.10994
G1 X119.323 Y89.094 E19.13562
G1 X119.791 Y89.27 E19.16902
G1 X120.193 Y89.557 E19.20202
G1 X120.48 Y89.959 E19.23502
G1 X120.496 Y89.999 E19.2379
G1 X120.496 Y89.999 F7800
G1 X121.008 Y89.809
;TYPE:External perimeter
G1 F1800
G1 X121.056 Y89.899 E19.24471
G1 X121.176 Y90.286 E19.27178
G1 X121.223 Y90.795 E19.30593
G1 X121.226 Y129.158 E21.86878
G1 X121.182 Y129.684 E21.90404
G1 X120.991 Y130.232 E21.94281
G1 X120.725 Y130.656 E21.97625
G1 X120.299 Y131.054 E22.0152
G1 X119.741 Y131.348 E22.05734
G1 X119.106 Y131.473 E22.10058
G1 X101.968 Y131.476 E23.24549
G1 X100.725 Y131.448 E23.32855
G1 X100.152 Y131.307 E23.36797
G1 X99.651 Y131.017 E23.40664
G1 X99.333 Y130.695 E23.43687
G1 X99.037 Y130.299 E23.4699
G1 X98.872 Y129.883 E23.4998
G1 X98.777 Y129.356 E23.53557
G1 X98.774 Y90.88 E26.10597
G1 X98.818 Y90.316 E26.14376
G1 X98.944 Y89.901 E26.17273
G1 X99.217 Y89.42 E26.20968
G1 X99.668 Y88.968 E26.25234
G1 X100.178 Y88.684 E26.29134
G1 X100.787 Y88.536 E26.33321
G1 X118.939 Y88.526 E27.54586
G1 X119.432 Y88.567 E27.57891
G1 X119.851 Y88.695 E27.60818
G1 X120.236 Y88.9 E27.63732
G1 X120.573 Y89.177 E27.66646
G1 X120.85 Y89.514 E27.6956
G1 X120.979 Y89.756 E27.71392
G1 X121.123 Y90.129 F7800
G1 X119.991 Y91.448
;TYPE:Solid infill
;WIDTH:0.60219
G1 F1800
G1 X118.548 Y90.005 E27.85081
G1 X117.788 Y90.005 E27.90179
G1 X119.75 Y91.968 E28.08796
G1 X119.75 Y92.729 E28.13901
G1 X117.027 Y90.005 E28.39737
G1 X116.267 Y90.006 E28.44835
G1 X119.751 Y93.489 E28.77881
G1 X119.751 Y94.25 E28.82986
G1 X115.506 Y90.006 E29.23251
G1 X114.746 Y90.006 E29.28349
G1 X119.751 Y95.011 E29.75828
G1 X119.751 Y95.771 E29.80926
G1 X113.985 Y90.006 E30.35619
G1 X113.225 Y90.006 E30.40717
G1 X119.751 Y96.532 E31.02625
G1 X119.751 Y97.293 E31.0773
G1 X112.465 Y90.006 E31.76852
G1 X111.704 Y90.006 E31.81957
G1 X119.751 Y98.053 E32.58294
G1 X119.751 Y98.814 E32.63399
G1 X110.944 Y90.007 E33.46945
G1 X110.183 Y90.007 E33.5205
G1 X119.751 Y99.574 E34.4281
G1 X119.751 Y100.335 E34.47915
G1 X109.423 Y90.007 E35.4589
G1 X108.663 Y90.007 E35.50988
G1 X119.751 Y101.096 E36.56177
G1 X119.751 Y101.856 E36.61275
G1 X107.902 Y90.007 E37.73679
G1 X107.142 Y90.007 E37.78777
G1 X112.022 Y94.888 E38.25075
G1 X112.717 Y95.237 E38.30292
G1 X112.997 Y95.418 E38.32528
G1 X113.706 Y95.999 E38.38677
G1 X114.256 Y96.646 E38.44373
G1 X114.444 Y96.922 E38.46613
G1 X114.787 Y97.551 E38.51419
G1 X114.861 Y97.726 E38.52694
G1 X119.751 Y102.617 E38.99087
G1 X119.751 Y103.378 E39.04192
G1 X115.181 Y98.807 E39.47549
G1 X115.265 Y99.651 E39.53238
G1 X119.751 Y104.138 E39.95798
G1 X119.751 Y104.899 E40.00903
G1 X115.215 Y100.362 E40.43938
G1 X115.177 Y100.753 E40.46573
G1 X115.102 Y101.01 E40.48369
G1 X119.752 Y105.66 E40.9248
G1 X119.742 Y106.411 E40.97518
G1 X114.929 Y101.598 E41.43176
G1 X114.84 Y101.843 E41.44924
G1 X114.691 Y102.12 E41.47034
G1 X118.049 Y105.478 E41.78889
G1 X117.287 Y105.477 E41.84
G1 X114.421 Y102.611 E42.11188
G1 X114.256 Y102.854 E42.13158
G1 X114.095 Y103.046 E42.14839
G1 X116.527 Y105.477 E42.37905
G1 X115.766 Y105.477 E42.4301
G1 X113.743 Y103.454 E42.62201
G1 X113.557 Y103.635 E42.63942
G1 X113.338 Y103.81 E42.65822
G1 X115.006 Y105.477 E42.8164
G1 X114.245 Y105.477 E42.86745
G1 X112.908 Y104.14 E42.99428
G1 X112.717 Y104.263 E43.00952
G1 X112.422 Y104.414 E43.03175
G1 X113.484 Y105.477 E43.13254
G1 X112.724 Y105.477 E43.18352
G1 X111.905 Y104.658 E43.26121
G1 X111.32 Y104.834 E43.30219
G1 X111.963 Y105.477 E43.36319
G1 X111.203 Y105.477 E43.41417
G1 X110.691 Y104.965 E43.46274
G1 X110.09 Y105.022 E43.50324
G1 X109.98 Y105.015 E43.51063
G1 X110.442 Y105.477 E43.55446
G1 X109.682 Y105.477 E43.60544
G1 X108.836 Y104.632 E43.68565
G1 E41.68565 F2400
G92 E0
G1 X108.836 Y104.632 F7800
G1 X111.273 Y94.899
G1 E2 F2400
G1 F1800
G1 X106.381 Y90.008 E2.46402
G1 X105.621 Y90.008 E2.515
G1 X110.1 Y94.487 E2.93989
G1 X109.702 Y94.491 E2.96659
G1 X109.384 Y94.531 E2.98809
G1 X104.86 Y90.008 E3.4172
G1 X104.1 Y90.008 E3.46818
G1 X108.73 Y94.638 E3.9074
G1 X108.157 Y94.825 E3.94783
G1 X103.34 Y90.008 E4.40479
G1 X102.579 Y90.008 E4.45584
G1 X107.624 Y95.053 E4.93443
G1 X107.142 Y95.332 E4.97179
G1 X101.819 Y90.009 E5.47675
G1 X101.058 Y90.009 E5.5278
G1 X106.701 Y95.652 E6.06311
G1 X106.298 Y96.009 E6.09922
G1 X100.492 Y90.203 E6.65
G1 X100.471 Y90.221 E6.65186
G1 X100.306 Y90.485 E6.67274
G1 X100.257 Y90.729 E6.68943
G1 X105.94 Y96.411 E7.22849
G1 X105.719 Y96.677 E7.25169
G1 X105.609 Y96.841 E7.26494
G1 X100.247 Y91.479 E7.7736
G1 X100.247 Y92.239 E7.82458
G1 X105.335 Y97.328 E8.30729
G1 X105.213 Y97.551 E8.32434
G1 X105.09 Y97.843 E8.34559
G1 X100.247 Y93 E8.80501
G1 X100.247 Y93.761 E8.85606
G1 X104.909 Y98.423 E9.29831
G1 X104.806 Y98.871 E9.32915
G1 X104.789 Y99.063 E9.34208
G1 X100.247 Y94.521 E9.77295
G1 X100.247 Y95.282 E9.824
G1 X104.728 Y99.763 E10.24908
G1 X104.809 Y100.604 E10.30575
G1 X100.247 Y96.043 E10.73847
G1 X100.247 Y96.803 E10.78945
G1 X105.083 Y101.639 E11.24821
G1 X105.16 Y101.842 E11.26277
G1 X105.556 Y102.578 E11.31883
G1 X105.744 Y102.854 E11.34123
G1 X106.204 Y103.403 E11.38927
G1 X106.443 Y103.635 E11.41161
G1 X107.003 Y104.082 E11.45967
G1 X107.284 Y104.263 E11.48209
G1 X107.921 Y104.59 E11.53012
G1 X108.107 Y104.663 E11.54352
G1 X108.921 Y105.477 E11.62074
G1 X108.16 Y105.477 E11.67179
G1 X100.247 Y97.564 E12.42244
G1 X100.247 Y98.324 E12.47342
G1 X107.4 Y105.477 E13.15198
