; generated by PrusaSlicer 2.8.1+linux-x64-GTK3 on 2024-10-15 at 08:07:47 UTC

; 

; external perimeters extrusion width = 0.45mm
; perimeters extrusion width = 0.45mm
; infill extrusion width = 0.45mm
; solid infill extrusion width = 0.45mm
; top infill extrusion width = 0.40mm
; support material extrusion width = 0.40mm
; first layer extrusion width = 0.60mm

M190 S60 ; set bed temperature and wait for it to be reached
M104 S200 ; set temperature
;TYPE:Custom
G28 ; home all axes
G1 Z5 F5000 ; lift nozzle
M109 S200 ; set temperature and wait for it to be reached
G21 ; set units to millimeters
G90 ; use absolute coordinates
M82 ; use absolute distances for extrusion
G92 E0
; Filament gcode
M107
;LAYER_CHANGE
;Z:0.3
;HEIGHT:0.3
G1 E-2 F2400
G1 Z.3 F7800
G1 X97.04 Y60.975
G1 E0 F2400
;TYPE:Skirt/Brim
;WIDTH:0.6
G1 F1800
G1 X98.003 Y59.729 E.1052
G1 X99.085 Y58.586 E.21035
G1 X100.276 Y57.556 E.31554
G1 X101.563 Y56.649 E.42072
G1 X102.934 Y55.876 E.52587
G1 X104.376 Y55.242 E.6311
G1 X105.873 Y54.756 E.73625
G1 X107.412 Y54.421 E.84147
G1 X108.976 Y54.24 E.94665
G1 X110.55 Y54.217 E1.05181
G1 X112.896 Y54.475 E1.20948
G1 X114.428 Y54.84 E1.31469
G1 X115.624 Y55.242 E1.39898
G1 X117.065 Y55.876 E1.50415
G1 X119.092 Y57.087 E1.66189
G1 X120.332 Y58.056 E1.76702
G1 X121.47 Y59.144 E1.8722
G1 X122.96 Y60.975 E2.0299
G1 X123.794 Y62.31 E2.13506
G1 X124.434 Y63.594 E2.2309
G1 X124.893 Y64.746 E2.31374
G1 X125.265 Y65.952 E2.39805
G1 X125.592 Y67.492 E2.50322
G1 X125.794 Y70 E2.67131
G1 X125.794 Y150 E8.01574
G1 X125.729 Y151.417 E8.1105
G1 X125.51 Y152.976 E8.21567
G1 X125.137 Y154.505 E8.32081
G1 X124.613 Y155.99 E8.42601
G1 X123.944 Y157.415 E8.53118
G1 X123.136 Y158.767 E8.6364
G1 X122.198 Y160.031 E8.74155
G1 X121.139 Y161.196 E8.84673
G1 X119.968 Y162.249 E8.95194
G1 X118.699 Y163.181 E9.05712
G1 X117.344 Y163.982 E9.16227
G1 X115.915 Y164.643 E9.26745
G1 X114.428 Y165.16 E9.37262
G1 X112.896 Y165.525 E9.47783
G1 X111.336 Y165.736 E9.583
G1 X109.762 Y165.791 E9.68822
G1 X108.664 Y165.736 E9.76166
G1 X107.104 Y165.525 E9.86683
G1 X105.873 Y165.244 E9.95118
G1 X104.376 Y164.758 E10.05633
G1 X102.935 Y164.124 E10.1615
G1 X101.969 Y163.598 E10.23498
G1 X100.908 Y162.913 E10.31935
G1 X99.668 Y161.944 E10.42448
G1 X98.861 Y161.196 E10.49799
G1 X97.802 Y160.031 E10.60317
G1 X97.04 Y159.025 E10.68748
G1 X96.206 Y157.69 E10.79264
G1 X95.509 Y156.278 E10.89784
G1 X95.107 Y155.254 E10.97133
G1 X94.735 Y154.048 E11.05564
G1 X94.408 Y152.508 E11.16081
G1 X94.206 Y150 E11.3289
G1 X94.206 Y70 E16.67333
G1 X94.302 Y68.272 E16.78895
G1 X94.552 Y66.718 E16.8941
G1 X94.955 Y65.196 E16.99928
G1 X95.509 Y63.722 E17.10448
G1 X96.206 Y62.31 E17.20968
G1 X97.008 Y61.026 E17.31082
G1 E15.31082 F2400
G92 E0
G1 X97.008 Y61.026 F7800
G92 E0
G1 X117.376 Y113.628
G1 E2 F2400
;TYPE:Support material
G1 F1800
G1 X117.376 Y116.372 E2.18331
G1 X115 Y117.744 E2.3666
G1 X112.624 Y116.372 E2.54989
G1 X112.624 Y113.628 E2.7332
G1 X115 Y112.256 E2.91649
G1 X117.307 Y113.588 E3.09445
G1 X117.307 Y113.588 F7800
G1 X116.546 Y116.573
G1 F1800
G1 X116.546 Y113.706 E3.28598
G1 X115.951 Y113.362 E3.33189
G1 X115.951 Y116.638 E3.55074
G1 X115.356 Y116.982 E3.59665
G1 X115.356 Y113.018 E3.86147
G1 X115 Y112.813 E3.88891
G1 X114.761 Y112.951 E3.90735
G1 X114.761 Y117.049 E4.18112
G1 X114.166 Y116.706 E4.227
G1 X114.166 Y113.294 E4.45494
G1 X113.571 Y113.638 E4.50085
G1 X113.571 Y116.64 E4.7014
G1 E2.7014 F2400
G92 E0
G1 X113.571 Y116.64 F7800
G1 X107.376 Y103.628
G1 E2 F2400
G1 F1800
G1 X107.376 Y106.372 E2.18331
G1 X105 Y107.744 E2.3666
G1 X102.624 Y106.372 E2.54989
G1 X102.624 Y103.628 E2.7332
G1 X105 Y102.256 E2.91649
G1 X107.307 Y103.588 E3.09445
G1 X107.307 Y103.588 F7800
G1 X106.429 Y106.64
G1 F1800
G1 X106.429 Y103.638 E3.295
G1 X105.834 Y103.294 E3.34091
G1 X105.834 Y106.706 E3.56885
G1 X105.239 Y107.049 E3.61473
G1 X105.239 Y102.951 E3.8885
G1 X105 Y102.813 E3.90694
G1 X104.644 Y103.018 E3.93438
G1 X104.644 Y106.982 E4.1992
G1 X104.049 Y106.638 E4.24511
G1 X104.049 Y103.362 E4.46396
G1 X103.454 Y103.706 E4.50987
G1 X103.454 Y106.573 E4.7014
G1 E2.7014 F2400
G92 E0
G1 X103.454 Y106.573 F7800
G1 X111.849 Y113.181
G1 E2 F2400
;TYPE:External perimeter
;WIDTH:0.6
G1 F1800
G1 X111.873 Y113.122 E2.00426
G1 X114.866 Y111.381 E2.23558
G1 X115.024 Y111.346 E2.24639
G1 X115.134 Y111.381 E2.2541
G1 X118.067 Y113.074 E2.48034
G1 X118.201 Y113.306 E2.49824
G1 X118.201 Y116.694 E2.72458
G1 X118.067 Y116.926 E2.74248
G1 X115.134 Y118.619 E2.96872
G1 X114.962 Y118.652 E2.98042
G1 X114.613 Y118.473 E3.00662
G1 X111.933 Y116.926 E3.21335
G1 X111.823 Y116.804 E3.22432
G1 X111.799 Y116.694 E3.23184
G1 X111.799 Y113.306 E3.45818
G1 X111.827 Y113.237 E3.46315
G1 X112.132 Y112.979 F7800
G1 E1.46315 F2400
G92 E0
G1 X101.866 Y103.19 F7800
G1 E2 F2400
G1 F1800
G1 X101.933 Y103.074 E2.00895
G1 X104.866 Y101.381 E2.23519
G1 X105.038 Y101.348 E2.24689
G1 X105.387 Y101.527 E2.27309
G1 X108.067 Y103.074 E2.47982
G1 X108.19 Y103.231 E2.49314
G1 X108.201 Y106.694 E2.72449
G1 X108.127 Y106.878 E2.73774
G1 X105.134 Y108.619 E2.96906
G1 X104.976 Y108.654 E2.97987
G1 X104.866 Y108.619 E2.98758
G1 X101.933 Y106.926 E3.21382
G1 X101.799 Y106.694 E3.23172
G1 X101.799 Y103.306 E3.45806
G1 X101.836 Y103.242 E3.463
G1 X102.13 Y102.972 F7800
G1 E1.463 F2400
G92 E0
G1 X118.108 Y150.846 F7800
G1 E2 F2400
;TYPE:Perimeter
G1 F1800
G1 X117.992 Y151.616 E2.05202
G1 X117.791 Y152.403 E2.10628
G1 X117.513 Y153.167 E2.16059
G1 X117.16 Y153.899 E2.21488
G1 X116.737 Y154.593 E2.26918
G1 X116.246 Y155.241 E2.32349
G1 X115.693 Y155.837 E2.37781
G1 X115.084 Y156.375 E2.4321
G1 X114.424 Y156.849 E2.48638
G1 X113.72 Y157.255 E2.54067
G1 X112.979 Y157.59 E2.595
G1 X112.208 Y157.849 E2.64934
G1 X111.416 Y158.029 E2.7036
G1 X110.609 Y158.131 E2.75794
G1 X109.797 Y158.151 E2.8122
G1 X108.986 Y158.09 E2.86653
G1 X108.202 Y157.952 E2.91971
G1 X107.006 Y157.583 E3.00333
G1 X106.278 Y157.254 E3.0567
G1 X105.672 Y156.908 E3.10332
G1 X105.248 Y156.626 E3.13734
G1 X104.605 Y156.113 E3.19229
G1 X104.023 Y155.546 E3.24657
G1 X103.499 Y154.921 E3.30106
G1 X103.103 Y154.346 E3.3477
G1 X102.844 Y153.908 E3.38169
G1 X102.487 Y153.167 E3.43664
G1 X102.209 Y152.403 E3.49095
G1 X102.008 Y151.616 E3.54521
G1 X101.887 Y150.812 E3.59953
G1 X101.845 Y149.966 E3.65612
G1 X101.845 Y108.112 E6.45219
G1 X104.33 Y109.547 E6.64389
G1 X104.619 Y109.671 E6.6649
G1 X104.882 Y109.721 E6.68278
G1 X105.298 Y109.693 E6.71063
G1 X105.67 Y109.547 E6.73733
G1 X108.603 Y107.853 E6.9636
G1 X108.902 Y107.618 E6.98901
G1 X109.073 Y107.397 E7.00768
G1 X109.189 Y107.158 E7.02543
G1 X109.272 Y106.694 E7.05692
G1 X109.272 Y103.306 E7.28326
G1 X109.259 Y103.114 E7.29612
G1 X109.153 Y102.753 E7.32125
G1 X108.964 Y102.451 E7.34505
G1 X108.603 Y102.147 E7.37658
G1 X105.922 Y100.599 E7.5834
G1 X105.388 Y100.331 E7.62331
G1 X104.948 Y100.275 E7.65294
G1 X104.657 Y100.318 E7.67259
G1 X104.33 Y100.453 E7.69622
G1 X101.845 Y101.888 E7.88792
G1 X101.845 Y70.034 E10.01594
G1 X101.887 Y69.188 E10.07253
G1 X102.008 Y68.384 E10.12685
G1 X102.209 Y67.597 E10.18111
G1 X102.487 Y66.833 E10.23542
G1 X102.84 Y66.101 E10.28971
G1 X103.263 Y65.407 E10.34401
G1 X103.754 Y64.759 E10.39832
G1 X104.307 Y64.163 E10.45264
G1 X104.916 Y63.625 E10.50693
G1 X105.576 Y63.151 E10.56121
G1 X106.28 Y62.745 E10.6155
G1 X107.021 Y62.41 E10.66983
G1 X107.792 Y62.151 E10.72417
G1 X108.584 Y61.971 E10.77843
G1 X109.385 Y61.87 E10.83236
G1 X110.333 Y61.856 E10.8957
G1 X111.011 Y61.909 E10.94113
G1 X111.814 Y62.051 E10.99561
G1 X112.597 Y62.271 E11.04994
G1 X113.338 Y62.562 E11.10312
G1 X114.437 Y63.161 E11.18674
G1 X115.084 Y63.625 E11.23993
G1 X115.681 Y64.152 E11.29313
G1 X116.509 Y65.091 E11.37676
G1 X116.957 Y65.749 E11.42994
G1 X117.346 Y66.462 E11.4842
G1 X117.662 Y67.211 E11.53851
G1 X117.901 Y67.988 E11.59282
G1 X118.059 Y68.769 E11.64605
G1 X118.132 Y69.747 E11.71157
G1 X118.155 Y70.356 E11.75228
G1 X118.155 Y111.888 E14.52684
G1 X115.67 Y110.453 E14.71854
G1 X115.381 Y110.329 E14.73955
G1 X115.118 Y110.279 E14.75743
G1 X114.702 Y110.307 E14.78528
G1 X114.33 Y110.453 E14.81198
G1 X112.13 Y111.723 E14.98168
G1 X111.207 Y112.28 E15.0537
G1 X110.927 Y112.603 E15.08226
G1 X110.811 Y112.842 E15.10001
G1 X110.728 Y113.306 E15.1315
G1 X110.728 Y116.694 E15.35784
G1 X110.741 Y116.886 E15.3707
G1 X110.847 Y117.247 E15.39583
G1 X111.036 Y117.549 E15.41963
G1 X111.397 Y117.853 E15.45116
G1 X114.078 Y119.401 E15.65798
G1 X114.612 Y119.669 E15.69789
G1 X115.052 Y119.725 E15.72752
G1 X115.343 Y119.682 E15.74717
G1 X115.67 Y119.547 E15.7708
G1 X118.155 Y118.112 E15.9625
G1 X118.155 Y149.966 E18.09052
G1 X118.114 Y150.786 E18.14537
G1 E16.14537 F2400
G92 E0
G1 X118.114 Y150.786 F7800
G1 X118.714 Y113.306
G1 E2 F2400
;WIDTH:0.553883
G1 F1800
G1 X118.714 Y116.694 E2.20685
;WIDTH:0.565707
G1 X118.708 Y116.829 E2.2153
G1 E.2153 F2400
G92 E0
G1 X118.708 Y116.829 F7800
G1 X101.292 Y106.829
G1 E2 F2400
;WIDTH:0.565711
G1 F1800
G1 X101.286 Y106.694 E2.00845
;WIDTH:0.553885
G1 X101.286 Y103.306 E2.2153
G1 E.2153 F2400
G92 E0
G1 X101.286 Y103.306 F7800
G1 X118.643 Y150.886
G1 E2 F2400
;WIDTH:0.6
G1 F1800
G1 X118.517 Y151.722 E2.05648
G1 X118.304 Y152.561 E2.11431
G1 X118.007 Y153.375 E2.1722
G1 X117.631 Y154.156 E2.23011
G1 X117.18 Y154.895 E2.28795
G1 X116.657 Y155.586 E2.34584
G1 X116.067 Y156.221 E2.40375
G1 X115.418 Y156.794 E2.46159
G1 X114.715 Y157.3 E2.51945
G1 X113.964 Y157.733 E2.57736
G1 X113.175 Y158.089 E2.63519
G1 X112.354 Y158.365 E2.69305
G1 X111.509 Y158.558 E2.75095
G1 X110.649 Y158.665 E2.80885
G1 X109.783 Y158.687 E2.86672
G1 X108.919 Y158.622 E2.9246
G1 X108.076 Y158.473 E2.98179
G1 X106.816 Y158.085 E3.06987
G1 X106.034 Y157.732 E3.12719
G1 X105.39 Y157.364 E3.17674
G1 X104.932 Y157.059 E3.2135
G1 X104.25 Y156.515 E3.27178
G1 X103.63 Y155.91 E3.32965
G1 X103.072 Y155.245 E3.38764
G1 X102.652 Y154.635 E3.43712
G1 X102.371 Y154.161 E3.47393
G1 X101.993 Y153.375 E3.5322
G1 X101.696 Y152.561 E3.59009
G1 X101.483 Y151.722 E3.64792
G1 X101.354 Y150.865 E3.70582
G1 X101.309 Y149.979 E3.76509
G1 X101.309 Y107.595 E6.59657
G1 X101.292 Y106.829 E6.64776
G1 X101.665 Y107.389 E6.69271
G1 X104.598 Y109.083 E6.91898
G1 X104.772 Y109.157 E6.93161
G1 X105.065 Y109.188 E6.95129
G1 X105.402 Y109.083 E6.97487
G1 X107.984 Y107.592 E7.17406
G1 X108.515 Y107.248 E7.21633
G1 X108.687 Y106.972 E7.23806
G1 X108.737 Y106.694 E7.25693
G1 X108.737 Y103.306 E7.48327
G1 X108.704 Y103.079 E7.49859
G1 X108.552 Y102.793 E7.52023
G1 X108.335 Y102.611 E7.53915
G1 X105.327 Y100.879 E7.77103
G1 X104.969 Y100.81 E7.79539
G1 X104.598 Y100.917 E7.82118
G1 X101.665 Y102.611 E8.04745
G1 X101.286 Y103.306 E8.10033
G1 X101.309 Y102.405 E8.16054
G1 X101.309 Y70.021 E10.32396
G1 X101.354 Y69.135 E10.38323
G1 X101.483 Y68.278 E10.44113
G1 X101.696 Y67.439 E10.49896
G1 X101.993 Y66.625 E10.55685
G1 X102.369 Y65.844 E10.61476
G1 X102.82 Y65.105 E10.6726
G1 X103.343 Y64.414 E10.73049
G1 X103.933 Y63.779 E10.7884
G1 X104.582 Y63.206 E10.84624
G1 X105.285 Y62.7 E10.9041
G1 X106.036 Y62.267 E10.96201
G1 X106.825 Y61.911 E11.01984
G1 X107.646 Y61.635 E11.0777
G1 X108.491 Y61.442 E11.1356
G1 X109.347 Y61.335 E11.19323
G1 X110.35 Y61.32 E11.26024
G1 X111.079 Y61.377 E11.30909
G1 X111.934 Y61.528 E11.36709
G1 X112.768 Y61.763 E11.42498
G1 X113.565 Y62.076 E11.48218
G1 X114.723 Y62.706 E11.57025
G1 X115.418 Y63.206 E11.62745
G1 X116.06 Y63.773 E11.68467
G1 X116.932 Y64.761 E11.7727
G1 X117.415 Y65.469 E11.82996
G1 X117.829 Y66.23 E11.88784
G1 X118.166 Y67.028 E11.94571
G1 X118.421 Y67.856 E12.00359
G1 X118.591 Y68.695 E12.06078
G1 X118.666 Y69.707 E12.12857
G1 X118.691 Y70.356 E12.17196
G1 X118.691 Y112.405 E14.98106
G1 X118.714 Y113.306 E15.04127
G1 X118.335 Y112.611 E15.09415
G1 X115.402 Y110.917 E15.32042
G1 X115.228 Y110.843 E15.33305
G1 X114.935 Y110.812 E15.35273
G1 X114.598 Y110.917 E15.37631
G1 X111.665 Y112.611 E15.60258
G1 X111.485 Y112.752 E15.61786
G1 X111.313 Y113.028 E15.63959
G1 X111.263 Y113.306 E15.65846
G1 X111.263 Y116.694 E15.8848
G1 X111.296 Y116.921 E15.90012
G1 X111.448 Y117.207 E15.92176
G1 X111.665 Y117.389 E15.94068
G1 X114.673 Y119.121 E16.17256
G1 X115.031 Y119.19 E16.19692
G1 X115.402 Y119.083 E16.22271
G1 X118.335 Y117.389 E16.44898
G1 X118.708 Y116.829 E16.49393
G1 X118.691 Y117.595 E16.54512
G1 X118.691 Y149.979 E18.70854
G1 X118.648 Y150.826 E18.7652
G1 X118.648 Y150.826 F7800
G1 X119.179 Y150.926
;TYPE:External perimeter
G1 F1800
G1 X119.043 Y151.828 E18.82614
G1 X118.816 Y152.719 E18.88756
G1 X118.501 Y153.584 E18.94906
G1 X118.102 Y154.412 E19.01046
G1 X117.623 Y155.197 E19.07189
G1 X117.067 Y155.93 E19.13335
G1 X116.442 Y156.605 E19.19481
G1 X115.752 Y157.213 E19.25625
G1 X115.005 Y157.75 E19.31771
G1 X114.209 Y158.21 E19.37913
G1 X113.371 Y158.588 E19.44054
G1 X112.499 Y158.881 E19.50199
G1 X111.602 Y159.086 E19.56346
G1 X110.689 Y159.2 E19.62493
G1 X109.77 Y159.223 E19.68634
G1 X108.853 Y159.154 E19.74777
G1 X107.95 Y158.995 E19.80902
G1 X106.626 Y158.587 E19.90157
G1 X105.79 Y158.21 E19.96284
G1 X105.109 Y157.82 E20.01527
G1 X104.616 Y157.492 E20.05483
G1 X103.895 Y156.917 E20.11644
G1 X103.237 Y156.275 E20.17785
G1 X102.645 Y155.57 E20.23935
G1 X102.2 Y154.923 E20.29181
G1 X101.898 Y154.414 E20.33135
G1 X101.499 Y153.584 E20.39287
G1 X101.184 Y152.719 E20.45437
G1 X100.957 Y151.828 E20.51579
G1 X100.82 Y150.919 E20.5772
G1 X100.774 Y149.993 E20.63914
G1 X100.774 Y70.007 E25.98263
G1 X100.82 Y69.081 E26.04457
G1 X100.957 Y68.172 E26.10598
G1 X101.184 Y67.281 E26.1674
G1 X101.499 Y66.416 E26.2289
G1 X101.898 Y65.588 E26.2903
G1 X102.377 Y64.803 E26.35173
G1 X102.933 Y64.07 E26.41319
G1 X103.558 Y63.395 E26.47465
G1 X104.248 Y62.787 E26.53609
G1 X104.994 Y62.25 E26.5975
G1 X105.791 Y61.79 E26.65898
G1 X106.629 Y61.412 E26.72039
G1 X107.501 Y61.119 E26.78184
G1 X108.398 Y60.914 E26.84331
G1 X109.31 Y60.8 E26.90471
G1 X110.367 Y60.784 E26.97533
G1 X111.147 Y60.846 E27.0276
G1 X112.053 Y61.005 E27.08905
G1 X112.938 Y61.254 E27.15047
G1 X113.792 Y61.589 E27.21175
G1 X115.008 Y62.252 E27.30428
G1 X115.752 Y62.787 E27.3655
G1 X116.44 Y63.394 E27.42679
G1 X117.356 Y64.432 E27.51927
G1 X117.872 Y65.189 E27.58047
G1 X118.312 Y65.997 E27.64193
G1 X118.67 Y66.845 E27.70342
G1 X118.941 Y67.723 E27.76481
G1 X119.122 Y68.622 E27.82607
G1 X119.201 Y69.667 E27.89608
G1 X119.226 Y70.356 E27.94214
G1 X119.226 Y149.993 E33.26232
G1 X119.183 Y150.866 E33.32071
G1 X119.128 Y151.262 F7800
G1 E31.32071 F2400
G92 E0
G1 X116.855 Y65.897 F7800
G1 E2 F2400
;TYPE:Solid infill
;WIDTH:0.602157
G1 F1800
G1 X115.389 Y64.431 E2.13906
G1 X114.833 Y63.94 E2.18881
G1 X114.223 Y63.502 E2.23918
G1 X113.097 Y62.899 E2.32485
G1 X117.092 Y66.894 E2.70381
G1 X117.284 Y67.349 E2.73693
G1 X117.506 Y68.069 E2.78747
G1 X111.941 Y62.504 E3.31535
G1 X111.725 Y62.443 E3.3304
G1 X110.99 Y62.314 E3.38045
G1 X117.673 Y68.997 E4.01438
G1 X117.735 Y69.819 E4.06967
G1 X110.176 Y62.26 E4.7867
G1 X109.427 Y62.271 E4.83694
G1 X117.753 Y70.598 E5.62677
G1 X117.753 Y71.358 E5.67775
G1 X108.75 Y62.355 E6.53175
G1 X108.122 Y62.488 E6.57481
G1 X117.753 Y72.119 E7.48838
G1 X117.753 Y72.879 E7.53936
G1 X107.535 Y62.661 E8.50861
G1 X107.168 Y62.785 E8.53459
G1 X106.982 Y62.869 E8.54828
G1 X117.753 Y73.64 E9.56999
G1 X117.753 Y74.4 E9.62097
G1 X106.458 Y63.106 E10.69234
G1 X105.976 Y63.384 E10.72966
G1 X117.753 Y75.161 E11.8468
G1 X117.753 Y75.922 E11.89784
G1 X105.519 Y63.687 E13.05837
G1 X105.084 Y64.013 E13.09483
G1 X117.753 Y76.682 E14.29658
G1 X117.753 Y77.443 E14.34762
G1 X104.68 Y64.37 E15.58769
G1 X104.306 Y64.755 E15.62369
G1 X117.753 Y78.203 E16.89929
G1 X117.753 Y78.964 E16.95033
G1 X103.952 Y65.163 E18.25946
G1 X103.625 Y65.595 E18.2958
G1 X117.753 Y79.724 E19.63599
G1 X117.753 Y80.485 E19.68703
G1 X103.333 Y66.064 E21.05492
G1 X103.193 Y66.293 E21.07292
G1 X103.065 Y66.557 E21.0926
G1 X117.753 Y81.245 E22.48587
G1 X117.753 Y82.006 E22.53691
G1 X102.825 Y67.078 E23.95294
G1 X102.622 Y67.635 E23.9927
G1 X117.753 Y82.766 E25.42799
G1 X117.753 Y83.527 E25.47903
G1 X102.461 Y68.234 E26.92964
G1 X102.403 Y68.464 E26.94555
G1 X102.341 Y68.875 E26.97343
