; generated by PrusaSlicer 2.8.1+linux-x64-GTK3 on 2024-10-17 at 09:10:28 UTC

; 

; external perimeters extrusion width = 0.45mm
; perimeters extrusion width = 0.45mm
; infill extrusion width = 0.45mm
; solid infill extrusion width = 0.45mm
; top infill extrusion width = 0.40mm
; support material extrusion width = 0.40mm
; first layer extrusion width = 0.60mm

M190 S60 ; set bed temperature and wait for it to be reached
M104 S200 ; set temperature
;TYPE:Custom
G28 ; home all axes
G1 Z5 F5000 ; lift nozzle
M109 S200 ; set temperature and wait for it to be reached
G21 ; set units to millimeters
G90 ; use absolute coordinates
M82 ; use absolute distances for extrusion
G92 E0
; Filament gcode
M107
;LAYER_CHANGE
;Z:0.3
;HEIGHT:0.3
G1 E-2 F2400
G1 Z.3 F7800
G1 X97.04 Y60.975
G1 E0 F2400
;TYPE:Skirt/Brim
;WIDTH:0.6
G1 F1800
G1 X98.003 Y59.729 E.1052
G1 X99.085 Y58.586 E.21035
G1 X100.276 Y57.556 E.31554
G1 X101.563 Y56.649 E.42072
G1 X102.934 Y55.876 E.52587
G1 X104.376 Y55.242 E.6311
G1 X105.873 Y54.756 E.73625
G1 X107.412 Y54.421 E.84147
G1 X108.976 Y54.24 E.94665
G1 X110.55 Y54.217 E1.05181
G1 X112.896 Y54.475 E1.20948
G1 X115.178 Y55.08 E1.3672
G1 X117.344 Y56.018 E1.52489
G1 X119.092 Y57.087 E1.66177
G1 X120.915 Y58.586 E1.81944
G1 X122.494 Y60.34 E1.9771
G1 X123.557 Y61.899 E2.10316
G1 X124.613 Y64.01 E2.26085
G1 X125.137 Y65.494 E2.36599
G1 X125.462 Y66.781 E2.45467
G1 X135.931 Y114.94 E5.74709
G1 X136.146 Y116.8 E5.87218
G1 X136.146 Y117.912 E5.94647
G1 X135.855 Y120.083 E6.0928
G1 X135.509 Y121.34 E6.1799
G1 X125.085 Y154.678 E8.51339
G1 X124.491 Y156.278 E8.62741
G1 X123.794 Y157.69 E8.73261
G1 X122.683 Y159.411 E8.86946
G1 X121.47 Y160.856 E8.9955
G1 X119.968 Y162.249 E9.13235
G1 X118.031 Y163.598 E9.29004
G1 X116.044 Y164.589 E9.43838
G1 X114.127 Y165.244 E9.57372
G1 X111.809 Y165.689 E9.7314
G1 X109.763 Y165.791 E9.86825
G1 X108.525 Y165.722 E9.95108
G1 X107.104 Y165.525 E10.04692
G1 X105.873 Y165.244 E10.13127
G1 X104.376 Y164.758 E10.23642
G1 X102.935 Y164.124 E10.34159
G1 X101.969 Y163.598 E10.41507
G1 X100.908 Y162.913 E10.49944
G1 X99.668 Y161.944 E10.60457
G1 X98.861 Y161.196 E10.67808
G1 X97.802 Y160.031 E10.78326
G1 X97.04 Y159.025 E10.86757
G1 X96.206 Y157.69 E10.97273
G1 X95.509 Y156.278 E11.07793
G1 X95.107 Y155.254 E11.15142
G1 X94.735 Y154.048 E11.23573
G1 X94.408 Y152.508 E11.3409
G1 X94.206 Y150 E11.50899
G1 X94.206 Y70 E16.85342
G1 X94.302 Y68.272 E16.96904
G1 X94.552 Y66.718 E17.07419
G1 X94.955 Y65.196 E17.17937
G1 X95.509 Y63.722 E17.28457
G1 X96.206 Y62.31 E17.38977
G1 X97.008 Y61.026 E17.49091
G1 E15.49091 F2400
G92 E0
G1 X97.008 Y61.026 F7800
G92 E0
G1 X124.137 Y111.203
G1 E2 F2400
;TYPE:Support material
G1 F1800
G1 X124.681 Y111.243 E2.03644
G1 X125.723 Y111.488 E2.10795
G1 X126.769 Y111.939 E2.18405
G1 X127.708 Y112.604 E2.26092
G1 X128.462 Y113.384 E2.33339
G1 X129.066 Y114.254 E2.40414
G1 X129.522 Y115.226 E2.47587
G1 X129.806 Y116.272 E2.54828
G1 X129.903 Y117.356 E2.62099
G1 X129.806 Y118.44 E2.6937
G1 X129.376 Y119.801 E2.78905
G1 X129.064 Y120.461 E2.83782
G1 X128.462 Y121.328 E2.90833
G1 X127.708 Y122.108 E2.9808
G1 X126.769 Y122.773 E3.05767
G1 X125.723 Y123.224 E3.13377
G1 X124.659 Y123.474 E3.20679
G1 X123.569 Y123.537 E3.27973
G1 X122.485 Y123.409 E3.35265
G1 X121.439 Y123.096 E3.42559
G1 X120.432 Y122.59 E3.50088
G1 X120.051 Y122.293 E3.53315
G1 X120.051 Y112.418 E4.19285
G1 X120.438 Y112.118 E4.22556
G1 X121.439 Y111.616 E4.30037
G1 X122.485 Y111.303 E4.37331
G1 X123.55 Y111.178 E4.44495
G1 X124.056 Y111.199 E4.47878
G1 X124.056 Y111.199 F7800
G1 X129.044 Y119.939
G1 F1800
G1 X129.044 Y115.342 E4.78588
G1 X128.449 Y114.21 E4.87131
G1 X128.449 Y120.502 E5.29165
G1 X127.854 Y121.264 E5.35624
G1 X127.854 Y113.448 E5.87839
G1 X127.259 Y112.877 E5.93348
G1 X127.259 Y121.835 E6.53192
G1 X126.664 Y122.257 E6.58065
G1 X126.664 Y112.455 E7.23548
G1 X126.069 Y112.162 E7.27979
G1 X126.069 Y122.55 E7.97376
G1 X125.473 Y122.787 E8.01661
G1 X125.473 Y111.925 E8.74225
G1 X124.878 Y111.784 E8.7831
G1 X124.878 Y122.927 E9.52751
G1 X124.283 Y123.013 E9.56767
G1 X124.283 Y111.697 E10.32364
G1 X123.688 Y111.666 E10.36344
G1 X123.688 Y123.047 E11.12375
G1 X123.093 Y122.995 E11.16365
G1 X123.093 Y111.717 E11.91708
G1 X122.583 Y111.777 E11.95139
G1 X122.498 Y111.802 E11.95731
G1 X122.498 Y122.91 E12.69938
G1 X121.903 Y122.732 E12.74087
G1 X121.903 Y111.98 E13.45916
G1 X121.308 Y112.221 E13.50205
G1 X121.308 Y122.491 E14.18814
G1 X120.712 Y122.192 E14.23269
G1 X120.712 Y112.25 E14.89687
G1 E12.89687 F2400
G92 E0
G1 X120.712 Y112.25 F7800
G1 X118.153 Y150
G1 E2 F2400
;TYPE:Perimeter
;WIDTH:0.6
G1 F1800
G1 X118.113 Y150.812 E2.05431
G1 X117.992 Y151.616 E2.10863
G1 X117.791 Y152.403 E2.16289
G1 X117.513 Y153.167 E2.2172
G1 X117.16 Y153.899 E2.27149
G1 X116.737 Y154.593 E2.32579
G1 X116.246 Y155.241 E2.3801
G1 X115.693 Y155.837 E2.43442
G1 X115.084 Y156.375 E2.48871
G1 X114.424 Y156.849 E2.54299
G1 X113.72 Y157.255 E2.59728
G1 X112.979 Y157.59 E2.65161
G1 X112.208 Y157.849 E2.70595
G1 X111.416 Y158.029 E2.76021
G1 X110.609 Y158.131 E2.81455
G1 X109.797 Y158.151 E2.86881
G1 X108.986 Y158.09 E2.92314
G1 X108.202 Y157.952 E2.97632
G1 X107.006 Y157.583 E3.05994
G1 X106.28 Y157.255 E3.11316
G1 X105.576 Y156.849 E3.16745
G1 X104.909 Y156.369 E3.22235
G1 X104.522 Y156.037 E3.25641
G1 X104.025 Y155.548 E3.30299
G1 X103.501 Y154.923 E3.35748
G1 X103.043 Y154.251 E3.41181
G1 X102.654 Y153.538 E3.46607
G1 X102.338 Y152.789 E3.52038
G1 X102.099 Y152.012 E3.57469
G1 X101.941 Y151.231 E3.62792
G1 X101.845 Y149.949 E3.7138
G1 X101.845 Y70.034 E9.05255
G1 X101.887 Y69.188 E9.10914
G1 X102.008 Y68.384 E9.16346
G1 X102.209 Y67.597 E9.21772
G1 X102.487 Y66.833 E9.27203
G1 X102.84 Y66.101 E9.32632
G1 X103.263 Y65.407 E9.38062
G1 X103.754 Y64.759 E9.43493
G1 X104.307 Y64.163 E9.48925
G1 X104.916 Y63.625 E9.54354
G1 X105.576 Y63.151 E9.59782
G1 X106.28 Y62.745 E9.65211
G1 X107.021 Y62.41 E9.70644
G1 X107.792 Y62.151 E9.76078
G1 X108.584 Y61.971 E9.81504
G1 X109.385 Y61.87 E9.86897
G1 X110.333 Y61.856 E9.93231
G1 X111.011 Y61.909 E9.97774
G1 X111.814 Y62.051 E10.03222
G1 X112.597 Y62.271 E10.08655
G1 X113.338 Y62.562 E10.13973
G1 X114.437 Y63.161 E10.22335
G1 X115.084 Y63.625 E10.27654
G1 X115.681 Y64.152 E10.32974
G1 X116.509 Y65.091 E10.41337
G1 X116.957 Y65.749 E10.46655
G1 X117.346 Y66.462 E10.52081
G1 X117.662 Y67.211 E10.57512
G1 X117.901 Y67.988 E10.62943
G1 X118.059 Y68.769 E10.68266
G1 X118.132 Y69.747 E10.74818
G1 X118.155 Y70.356 E10.78889
G1 X118.155 Y149.94 E16.10553
G1 X118.69 Y150 F7800
G1 F1800
G1 X118.646 Y150.865 E16.16339
G1 X118.517 Y151.722 E16.22129
G1 X118.304 Y152.561 E16.27912
G1 X118.007 Y153.375 E16.33701
G1 X117.631 Y154.156 E16.39492
G1 X117.18 Y154.895 E16.45276
G1 X116.657 Y155.586 E16.51065
G1 X116.067 Y156.221 E16.56856
G1 X115.418 Y156.794 E16.6264
G1 X114.715 Y157.3 E16.68426
G1 X113.964 Y157.733 E16.74217
G1 X113.175 Y158.089 E16.8
G1 X112.354 Y158.365 E16.85786
G1 X111.509 Y158.558 E16.91576
G1 X110.649 Y158.665 E16.97366
G1 X109.783 Y158.687 E17.03153
G1 X108.919 Y158.622 E17.08941
G1 X108.076 Y158.473 E17.1466
G1 X106.816 Y158.085 E17.23468
G1 X106.036 Y157.733 E17.29185
G1 X105.285 Y157.3 E17.34976
G1 X104.577 Y156.791 E17.40801
G1 X104.16 Y156.432 E17.44477
G1 X103.631 Y155.912 E17.49433
G1 X103.073 Y155.247 E17.55232
G1 X102.585 Y154.531 E17.61021
G1 X102.171 Y153.77 E17.66809
G1 X101.834 Y152.972 E17.72596
G1 X101.579 Y152.144 E17.78384
G1 X101.409 Y151.305 E17.84103
G1 X101.309 Y149.969 E17.93053
G1 X101.309 Y70.021 E23.27148
G1 X101.354 Y69.135 E23.33075
G1 X101.483 Y68.278 E23.38865
G1 X101.696 Y67.439 E23.44648
G1 X101.993 Y66.625 E23.50437
G1 X102.369 Y65.844 E23.56228
G1 X102.82 Y65.105 E23.62012
G1 X103.343 Y64.414 E23.67801
G1 X103.933 Y63.779 E23.73592
G1 X104.582 Y63.206 E23.79376
G1 X105.285 Y62.7 E23.85162
G1 X106.036 Y62.267 E23.90953
G1 X106.825 Y61.911 E23.96736
G1 X107.646 Y61.635 E24.02522
G1 X108.491 Y61.442 E24.08312
G1 X109.347 Y61.335 E24.14075
G1 X110.35 Y61.32 E24.20776
G1 X111.079 Y61.377 E24.25661
G1 X111.934 Y61.528 E24.31461
G1 X112.768 Y61.763 E24.3725
G1 X113.565 Y62.076 E24.4297
G1 X114.723 Y62.706 E24.51777
G1 X115.418 Y63.206 E24.57497
G1 X116.06 Y63.773 E24.63219
G1 X116.932 Y64.761 E24.72022
G1 X117.415 Y65.469 E24.77748
G1 X117.829 Y66.23 E24.83536
G1 X118.166 Y67.028 E24.89323
G1 X118.421 Y67.856 E24.95111
G1 X118.591 Y68.695 E25.0083
G1 X118.666 Y69.707 E25.07609
G1 X118.691 Y70.356 E25.11948
G1 X118.691 Y149.94 E30.43612
G1 X118.691 Y149.94 F7800
G1 X119.226 Y150
;TYPE:External perimeter
G1 F1800
G1 X119.18 Y150.919 E30.49759
G1 X119.043 Y151.828 E30.559
G1 X118.816 Y152.719 E30.62042
G1 X118.501 Y153.584 E30.68192
G1 X118.102 Y154.412 E30.74332
G1 X117.623 Y155.197 E30.80475
G1 X117.067 Y155.93 E30.86621
G1 X116.442 Y156.605 E30.92767
G1 X115.752 Y157.213 E30.98911
G1 X115.005 Y157.75 E31.05057
G1 X114.209 Y158.21 E31.11199
G1 X113.371 Y158.588 E31.1734
G1 X112.499 Y158.881 E31.23485
G1 X111.602 Y159.086 E31.29632
G1 X110.689 Y159.2 E31.35779
G1 X109.77 Y159.223 E31.4192
G1 X108.853 Y159.154 E31.48063
G1 X107.95 Y158.995 E31.54188
G1 X106.626 Y158.587 E31.63443
G1 X105.791 Y158.21 E31.69563
G1 X104.995 Y157.75 E31.75705
G1 X104.246 Y157.212 E31.81866
G1 X103.797 Y156.826 E31.85822
G1 X103.237 Y156.276 E31.91066
G1 X102.646 Y155.571 E31.97212
G1 X102.128 Y154.811 E32.03356
G1 X101.688 Y154.003 E32.09502
G1 X101.33 Y153.155 E32.15651
G1 X101.059 Y152.277 E32.2179
G1 X100.878 Y151.378 E32.27916
G1 X100.774 Y149.989 E32.37221
G1 X100.774 Y70.007 E37.71544
G1 X100.82 Y69.081 E37.77738
G1 X100.957 Y68.172 E37.83879
G1 X101.184 Y67.281 E37.90021
G1 X101.499 Y66.416 E37.96171
G1 X101.898 Y65.588 E38.02311
G1 X102.377 Y64.803 E38.08454
G1 X102.933 Y64.07 E38.146
G1 X103.558 Y63.395 E38.20746
G1 X104.248 Y62.787 E38.2689
G1 X104.994 Y62.25 E38.33031
G1 X105.791 Y61.79 E38.39179
G1 X106.629 Y61.412 E38.4532
G1 X107.501 Y61.119 E38.51465
G1 X108.398 Y60.914 E38.57612
G1 X109.31 Y60.8 E38.63752
G1 X110.367 Y60.784 E38.70814
G1 X111.147 Y60.846 E38.76041
G1 X112.053 Y61.005 E38.82186
G1 X112.938 Y61.254 E38.88328
G1 X113.792 Y61.589 E38.94456
G1 X115.008 Y62.252 E39.03709
G1 X115.752 Y62.787 E39.09831
G1 X116.44 Y63.394 E39.1596
G1 X117.356 Y64.432 E39.25208
G1 X117.872 Y65.189 E39.31328
G1 X118.312 Y65.997 E39.37474
G1 X118.67 Y66.845 E39.43623
G1 X118.941 Y67.723 E39.49762
G1 X119.122 Y68.622 E39.55888
G1 X119.201 Y69.667 E39.62889
G1 X119.226 Y70.356 E39.67495
G1 X119.226 Y149.94 E44.99159
G1 X119.209 Y150.34 F7800
G1 E42.99159 F2400
G92 E0
G1 X114.14 Y63.182 F7800
G1 E2 F2400
;TYPE:Solid infill
;WIDTH:0.602159
G1 F1800
G1 X115.403 Y64.444 E2.11976
G1 X116.191 Y65.338 E2.19969
G1 X116.614 Y65.958 E2.25003
G1 X116.984 Y66.637 E2.3019
G1 X117.092 Y66.894 E2.3206
G1 X113.097 Y62.899 E2.69956
G1 X112.469 Y62.652 E2.74482
G1 X111.941 Y62.504 E2.7816
G1 X117.506 Y68.069 E3.30948
G1 X117.66 Y68.824 E3.36116
G1 X117.673 Y68.997 E3.3728
G1 X110.99 Y62.314 E4.00674
G1 X110.176 Y62.26 E4.06146
G1 X117.735 Y69.819 E4.77849
G1 X117.753 Y70.066 E4.7951
G1 X117.753 Y70.598 E4.83078
G1 X109.427 Y62.271 E5.62061
G1 X108.75 Y62.355 E5.66637
G1 X117.753 Y71.358 E6.52038
G1 X117.753 Y72.119 E6.57142
G1 X108.122 Y62.488 E7.485
G1 X107.901 Y62.539 E7.50021
G1 X107.535 Y62.661 E7.52609
G1 X117.753 Y72.879 E8.49535
G1 X117.753 Y73.64 E8.54639
G1 X106.982 Y62.869 E9.5681
G1 X106.458 Y63.106 E9.60667
G1 X117.753 Y74.401 E10.67809
G1 X117.753 Y75.161 E10.72907
G1 X105.976 Y63.384 E11.84621
G1 X105.795 Y63.489 E11.86025
G1 X105.519 Y63.687 E11.88303
G1 X117.753 Y75.922 E13.04357
G1 X117.753 Y76.682 E13.09455
G1 X105.084 Y64.013 E14.2963
G1 X104.68 Y64.37 E14.33246
G1 X117.753 Y77.443 E15.57254
G1 X117.753 Y78.203 E15.62352
G1 X104.306 Y64.755 E16.89912
G1 X103.952 Y65.163 E16.93535
G1 X117.753 Y78.964 E18.24448
G1 X117.753 Y79.724 E18.29546
G1 X103.625 Y65.595 E19.63566
G1 X103.333 Y66.064 E19.67272
G1 X117.753 Y80.485 E21.04062
G1 X117.753 Y81.245 E21.0916
G1 X103.065 Y66.557 E22.48487
G1 X102.825 Y67.078 E22.52335
G1 X117.753 Y82.006 E23.93939
G1 X117.753 Y82.766 E23.99037
G1 X102.622 Y67.635 E25.42566
G1 X102.461 Y68.235 E25.46733
G1 X117.753 Y83.527 E26.9179
G1 X117.753 Y84.287 E26.96888
G1 X102.341 Y68.875 E28.43083
G1 X102.287 Y69.228 E28.45478
G1 X102.271 Y69.565 E28.47741
G1 X117.753 Y85.048 E29.94605
G1 X117.753 Y85.809 E29.99709
G1 X102.247 Y70.302 E31.468
G1 X102.247 Y71.062 E31.51898
G1 X117.753 Y86.569 E32.98989
G1 X117.753 Y87.33 E33.04093
G1 X102.247 Y71.823 E34.51184
G1 X102.247 Y72.583 E34.56282
G1 X117.753 Y88.09 E36.03373
G1 X117.753 Y88.851 E36.08477
G1 X102.247 Y73.344 E37.55568
G1 X102.247 Y74.104 E37.60666
G1 X117.753 Y89.611 E39.07757
G1 X117.753 Y90.372 E39.12861
G1 X102.247 Y74.865 E40.59952
G1 X102.247 Y75.626 E40.65056
G1 X117.753 Y91.132 E42.12143
G1 X117.753 Y91.893 E42.17247
G1 X102.247 Y76.386 E43.64338
G1 X102.247 Y77.147 E43.69442
G1 X117.753 Y92.653 E45.16529
G1 X117.753 Y93.414 E45.21633
G1 X102.247 Y77.907 E46.68724
G1 X102.247 Y78.668 E46.73828
G1 X117.753 Y94.174 E48.20915
G1 X117.753 Y94.935 E48.26019
G1 X102.247 Y79.428 E49.7311
G1 X102.247 Y80.189 E49.78214
G1 X117.753 Y95.695 E51.25301
G1 X117.753 Y96.456 E51.30405
G1 X102.247 Y80.949 E52.77496
G1 X102.247 Y81.71 E52.826
G1 X117.753 Y97.216 E54.29687
G1 X117.753 Y97.977 E54.34791
G1 X102.247 Y82.47 E55.81882
G1 X102.247 Y83.231 E55.86986
G1 X117.753 Y98.738 E57.34077
G1 X117.753 Y99.498 E57.39175
G1 X102.247 Y83.991 E58.86266
G1 X102.247 Y84.752 E58.9137
G1 X117.753 Y100.259 E60.38461
G1 X117.753 Y101.019 E60.43559
G1 X102.247 Y85.512 E61.9065
G1 X102.247 Y86.273 E61.95754
G1 X117.753 Y101.78 E63.42845
G1 X117.753 Y102.54 E63.47943
G1 X102.247 Y87.034 E64.9503
G1 X102.247 Y87.794 E65.00128
G1 X117.753 Y103.301 E66.47219
G1 X117.753 Y104.061 E66.52317
G1 X102.247 Y88.555 E67.99404
G1 X102.247 Y89.315 E68.04502
G1 X117.753 Y104.822 E69.51593
G1 X117.753 Y105.582 E69.56691
G1 X102.247 Y90.076 E71.03778
G1 X102.247 Y90.836 E71.08876
G1 X117.753 Y106.343 E72.55967
G1 X117.753 Y107.103 E72.61065
G1 X102.247 Y91.597 E74.08152
G1 X102.247 Y92.357 E74.1325
G1 X117.753 Y107.864 E75.60341
G1 X117.753 Y108.624 E75.65439
G1 X102.247 Y93.118 E77.12526
G1 X102.247 Y93.878 E77.17624
G1 X117.753 Y109.385 E78.64715
G1 X117.753 Y110.146 E78.69819
G1 X102.247 Y94.639 E80.1691
G1 X102.247 Y95.399 E80.22008
G1 X117.753 Y110.906 E81.69099
G1 X117.753 Y111.667 E81.74203
G1 X102.247 Y96.16 E83.21294
G1 X102.247 Y96.92 E83.26392
G1 X117.753 Y112.427 E84.73483
G1 X117.753 Y113.188 E84.78587
G1 X102.247 Y97.681 E86.25678
G1 X102.247 Y98.442 E86.30782
G1 X117.753 Y113.948 E87.77869
G1 X117.753 Y114.709 E87.82973
G1 X102.247 Y99.202 E89.30064
G1 X102.247 Y99.963 E89.35168
G1 X117.753 Y115.469 E90.82255
G1 X117.753 Y116.23 E90.87359
G1 X102.247 Y100.723 E92.3445
G1 X102.247 Y101.484 E92.39554
G1 X117.753 Y116.99 E93.86641
G1 X117.753 Y117.751 E93.91745
G1 X102.247 Y102.244 E95.38836
G1 X102.247 Y103.005 E95.4394
G1 X117.753 Y118.511 E96.91027
G1 X117.753 Y119.272 E96.96131
G1 X102.247 Y103.765 E98.43222
G1 X102.247 Y104.526 E98.48326
G1 X117.753 Y120.032 E99.95413
G1 X117.753 Y120.793 E100.00517
G1 X102.247 Y105.286 E101.47608
G1 X102.247 Y106.047 E101.52712
G1 X117.753 Y121.554 E102.99803
G1 X117.753 Y122.314 E103.04901
G1 X102.247 Y106.807 E104.51992
G1 X102.247 Y107.568 E104.57096
G1 X117.753 Y123.075 E106.04187
G1 X117.753 Y123.835 E106.09285
G1 X102.247 Y108.328 E107.56376
G1 X102.247 Y109.089 E107.6148
G1 X117.753 Y124.596 E109.08571
G1 X117.753 Y125.356 E109.13669
G1 X102.247 Y109.85 E110.60756
G1 X102.247 Y110.61 E110.65854
G1 X117.753 Y126.117 E112.12945
G1 X117.753 Y126.877 E112.18043
G1 X102.247 Y111.371 E113.6513
G1 X102.247 Y112.131 E113.70228
G1 X117.753 Y127.638 E115.17319
G1 X117.753 Y128.398 E115.22417
G1 X102.247 Y112.892 E116.69504
G1 X102.247 Y113.652 E116.74602
G1 X117.753 Y129.159 E118.21693
G1 X117.753 Y129.919 E118.26791
G1 X102.247 Y114.413 E119.73878
G1 X102.247 Y115.173 E119.78976
G1 X117.753 Y130.68 E121.26067
G1 X117.753 Y131.44 E121.31165
