; generated by PrusaSlicer 2.8.1+linux-x64-GTK3 on 2024-10-14 at 11:56:09 UTC

; 

; external perimeters extrusion width = 0.45mm
; perimeters extrusion width = 0.45mm
; infill extrusion width = 0.45mm
; solid infill extrusion width = 0.45mm
; top infill extrusion width = 0.40mm
; support material extrusion width = 0.40mm
; first layer extrusion width = 0.60mm

M190 S60 ; set bed temperature and wait for it to be reached
M104 S200 ; set temperature
;TYPE:Custom
G28 ; home all axes
G1 Z5 F5000 ; lift nozzle
M109 S200 ; set temperature and wait for it to be reached
G21 ; set units to millimeters
G90 ; use absolute coordinates
M82 ; use absolute distances for extrusion
G92 E0
; Filament gcode
M107
;LAYER_CHANGE
;Z:0.3
;HEIGHT:0.3
G1 E-2 F2400
G1 Z.3 F7800
G1 X96.178 Y101.092
G1 E0 F2400
;TYPE:Skirt/Brim
;WIDTH:0.6
G1 F1800
G1 X97.917 Y99.696 E.14898
G1 X100.909 Y98.936 E.35521
G1 X119.091 Y98.936 E1.56987
G1 X121.286 Y99.333 E1.71889
G1 X123.202 Y100.473 E1.86783
G1 X124.599 Y102.212 E2.01685
G1 X125.359 Y105.204 E2.22308
G1 X125.359 Y114.796 E2.86388
G1 X124.962 Y116.991 E3.0129
G1 X123.822 Y118.908 E3.1619
G1 X122.083 Y120.304 E3.31088
G1 X119.091 Y121.064 E3.51711
G1 X100.909 Y121.064 E4.73177
G1 X98.714 Y120.667 E4.88079
G1 X96.798 Y119.527 E5.02973
G1 X95.401 Y117.788 E5.17875
G1 X94.641 Y114.796 E5.38498
G1 X94.641 Y105.204 E6.02578
G1 X95.038 Y103.009 E6.1748
G1 X96.148 Y101.144 E6.31979
G1 E4.31979 F2400
G92 E0
G1 X96.148 Y101.144 F7800
G92 E0
G1 X117.72 Y113.425
G1 E2 F2400
;TYPE:Perimeter
;WIDTH:0.6
G1 F1800
G1 X102.28 Y113.425 E3.03147
G1 X102.28 Y106.575 E3.48909
G1 X117.72 Y106.575 E4.52056
G1 X117.72 Y110 E4.74937
G1 X117.72 Y113.365 E4.97417
G1 X117.72 Y113.365 F7800
G1 X118.255 Y113.961
G1 F1800
G1 X101.745 Y113.961 E6.07713
G1 X101.745 Y106.039 E6.60636
G1 X118.255 Y106.039 E7.70932
G1 X118.255 Y110 E7.97394
G1 X118.255 Y113.901 E8.23455
G1 X118.255 Y113.901 F7800
G1 X118.791 Y114.496
;TYPE:External perimeter
G1 F1800
G1 X101.209 Y114.496 E9.40912
G1 X101.209 Y105.504 E10.00983
G1 X118.791 Y105.504 E11.1844
G1 X118.791 Y110 E11.48476
G1 X118.791 Y114.436 E11.78111
G1 X118.395 Y114.496 F7800
G1 E9.78111 F2400
G92 E0
G1 X117.559 Y107.848 F7800
G1 E2 F2400
;TYPE:Solid infill
;WIDTH:0.613744
G1 F1800
G1 X116.688 Y106.977 E2.0844
G1 X115.911 Y106.977 E2.13764
G1 X117.318 Y108.383 E2.27393
G1 X117.318 Y109.16 E2.32717
G1 X115.134 Y106.977 E2.53875
G1 X114.357 Y106.977 E2.59199
G1 X117.318 Y109.937 E2.87887
G1 X117.318 Y110.714 E2.93211
G1 X113.58 Y106.977 E3.29428
G1 X112.804 Y106.977 E3.34745
G1 X117.318 Y111.491 E3.78486
G1 X117.318 Y112.268 E3.8381
G1 X112.027 Y106.977 E4.35081
G1 X111.25 Y106.977 E4.40405
G1 X117.296 Y113.023 E4.98992
G1 X116.519 Y113.023 E5.04316
G1 X110.473 Y106.977 E5.62903
G1 X109.696 Y106.977 E5.68227
G1 X115.742 Y113.023 E6.26814
G1 X114.966 Y113.023 E6.32131
G1 X108.919 Y106.977 E6.90722
G1 X108.142 Y106.977 E6.96046
G1 X114.189 Y113.023 E7.54637
G1 X113.412 Y113.023 E7.59961
G1 X107.365 Y106.977 E8.18552
G1 X106.588 Y106.977 E8.23876
G1 X112.635 Y113.023 E8.82467
G1 X111.858 Y113.023 E8.87791
G1 X105.811 Y106.977 E9.46382
G1 X105.034 Y106.977 E9.51706
G1 X111.081 Y113.023 E10.10297
G1 X110.304 Y113.023 E10.15621
G1 X104.257 Y106.977 E10.74212
G1 X103.481 Y106.977 E10.79529
G1 X109.527 Y113.023 E11.38116
G1 X108.75 Y113.023 E11.4344
G1 X102.704 Y106.977 E12.02027
G1 X102.682 Y106.977 E12.02178
G1 X102.682 Y107.732 E12.07351
G1 X107.973 Y113.023 E12.58622
G1 X107.196 Y113.023 E12.63946
G1 X102.682 Y108.509 E13.07687
G1 X102.682 Y109.286 E13.13011
G1 X106.419 Y113.023 E13.49223
G1 X105.642 Y113.023 E13.54547
G1 X102.682 Y110.063 E13.8323
G1 X102.682 Y110.84 E13.88554
G1 X104.866 Y113.023 E14.09712
G1 X104.089 Y113.023 E14.15036
G1 X102.682 Y111.617 E14.28665
G1 X102.682 Y112.394 E14.33989
G1 X103.553 Y113.264 E14.42424
;LAYER_CHANGE
;Z:0.6
;HEIGHT:0.3
G1 Z.6 F7800
G1 E12.42424 F2400
G92 E0
G1 X103.553 Y113.264 Z.6 F7800
G1 X118.095 Y113.8
G1 E2 F2400
;TYPE:Perimeter
;WIDTH:0.45
G1 F3600
G1 X101.905 Y113.8 E2.77868
G1 X101.905 Y106.2 E3.14421
G1 X118.095 Y106.2 E3.92289
G1 X118.095 Y110 E4.10566
G1 X118.095 Y113.74 E4.28554
G1 X118.095 Y113.74 F7800
G1 X118.48 Y114.186
G1 F3600
G1 X101.52 Y114.186 E5.10126
G1 X101.52 Y105.814 E5.50392
G1 X118.48 Y105.814 E6.31964
G1 X118.48 Y110 E6.52097
G1 X118.48 Y114.126 E6.71942
G1 X118.48 Y114.126 F7800
G1 X118.866 Y114.571
;TYPE:External perimeter
G1 F1800
G1 X101.134 Y114.571 E7.57227
G1 X101.134 Y105.429 E8.01197
G1 X118.866 Y105.429 E8.86482
G1 X118.866 Y110 E9.08467
G1 X118.866 Y114.511 E9.30163
G1 X118.47 Y114.571 F7800
G1 E7.30163 F2400
G92 E0
G1 X102.299 Y106.52 F7800
G1 E2 F2400
;TYPE:Solid infill
;WIDTH:0.543559
G1 F1200
G1 X102.257 Y106.478 E2.00355
G1 X102.199 Y106.494 E2.00715
G1 X102.183 Y106.552 E2.01075
G1 X102.226 Y106.594 E2.01434
G1 X102.284 Y106.578 E2.01794
;WIDTH:0.45
G1 X102.195 Y107.194 E2.04788
G1 X102.9 Y106.489 E2.09583
G1 X103.078 Y106.355 E2.10655
;WIDTH:0.404381
G1 X103.037 Y106.366 E2.10835
G1 X103.018 Y106.295 E2.11147
G1 X103.089 Y106.314 E2.11459
;WIDTH:0.45
G1 X103.445 Y106.489 E2.13367
G1 X102.195 Y107.74 E2.21873
G1 X102.195 Y108.285 E2.24494
G1 X103.99 Y106.489 E2.36707
G1 X104.536 Y106.489 E2.39333
G1 X102.195 Y108.83 E2.55256
G1 X102.195 Y109.376 E2.57882
G1 X105.081 Y106.489 E2.77516
G1 X105.626 Y106.489 E2.80137
G1 X102.195 Y109.921 E3.03478
G1 X102.195 Y110.466 E3.06099
G1 X106.172 Y106.489 E3.3315
G1 X106.717 Y106.489 E3.35771
G1 X102.195 Y111.012 E3.66532
G1 X102.195 Y111.557 E3.69153
G1 X107.262 Y106.489 E4.03622
G1 X107.808 Y106.489 E4.06248
G1 X102.195 Y112.102 E4.44427
G1 X102.195 Y112.648 E4.47053
G1 X108.353 Y106.489 E4.88942
G1 X108.898 Y106.489 E4.91563
G1 X102.195 Y113.193 E5.37159
G1 X102.142 Y113.623 E5.39243
;WIDTH:0.404381
G1 X102.101 Y113.634 E5.39423
G1 X102.082 Y113.563 E5.39735
G1 X102.153 Y113.582 E5.40047
;WIDTH:0.45
G1 X102.422 Y113.511 E5.41385
G1 X109.444 Y106.489 E5.89148
G1 X109.989 Y106.489 E5.91769
G1 X102.968 Y113.511 E6.39528
G1 X103.513 Y113.511 E6.42149
G1 X110.534 Y106.489 E6.89908
G1 X111.08 Y106.489 E6.92534
G1 X104.058 Y113.511 E7.40297
G1 X104.604 Y113.511 E7.42923
G1 X111.625 Y106.489 E7.90682
G1 X112.171 Y106.489 E7.93308
G1 X105.149 Y113.511 E8.41071
G1 X105.694 Y113.511 E8.43692
G1 X112.716 Y106.489 E8.91455
G1 X113.261 Y106.489 E8.94076
G1 X106.24 Y113.511 E9.41835
G1 X106.785 Y113.511 E9.44456
G1 X113.807 Y106.489 E9.92219
G1 X114.352 Y106.489 E9.9484
G1 X107.33 Y113.511 E10.42603
G1 X107.876 Y113.511 E10.45229
G1 X114.897 Y106.489 E10.92988
G1 X115.443 Y106.489 E10.95614
G1 X108.421 Y113.511 E11.43377
G1 X108.966 Y113.511 E11.45998
G1 X115.988 Y106.489 E11.93761
G1 X116.533 Y106.489 E11.96382
G1 X109.512 Y113.511 E12.44141
G1 X110.057 Y113.511 E12.46762
G1 X117.079 Y106.489 E12.94525
G1 X117.079 Y106.489 F7800
G1 X117.938 Y106.387
;WIDTH:0.404381
G1 F1200
G1 X117.867 Y106.368 E12.94837
G1 X117.886 Y106.439 E12.95149
G1 X117.927 Y106.428 E12.95329
;WIDTH:0.45
G1 X117.624 Y106.489 E12.96816
G1 X110.602 Y113.511 E13.44579
G1 X111.148 Y113.511 E13.47205
G1 X117.805 Y106.853 E13.92488
G1 X117.805 Y107.398 E13.95109
G1 X111.693 Y113.511 E14.36685
G1 X112.238 Y113.511 E14.39306
G1 X117.805 Y107.944 E14.77172
G1 X117.805 Y108.489 E14.79793
G1 X112.784 Y113.511 E15.13949
G1 X113.329 Y113.511 E15.1657
G1 X117.805 Y109.035 E15.47015
G1 X117.805 Y109.58 E15.49636
G1 X113.875 Y113.511 E15.76371
G1 X114.42 Y113.511 E15.78992
G1 X117.805 Y110.125 E16.0202
G1 X117.805 Y110.671 E16.04646
G1 X114.965 Y113.511 E16.23963
G1 X115.511 Y113.511 E16.26589
G1 X117.805 Y111.216 E16.42196
G1 X118.011 Y111.602 E16.443
;WIDTH:0.404381
G1 X117.94 Y111.583 E16.44612
G1 X117.959 Y111.654 E16.44924
G1 X118 Y111.643 E16.45104
;WIDTH:0.45
G1 X117.805 Y111.761 E16.462
G1 X116.056 Y113.511 E16.581
G1 X116.056 Y113.511 F7800
G1 X117.669 Y112.443
G1 F1200
G1 X116.601 Y113.511 E16.65364
G1 X117.805 Y113.511 E16.71155
G1 X117.805 Y112.307 E16.76946
;LAYER_CHANGE
;Z:0.9
;HEIGHT:0.3
G1 Z.9 F7800
G1 X118.095 Y113.8
;TYPE:Perimeter
G1 F3600
G1 X101.905 Y113.8 E17.54814
G1 X101.905 Y106.2 E17.91367
G1 X118.095 Y106.2 E18.69235
G1 X118.095 Y110 E18.87512
G1 X118.095 Y113.74 E19.055
G1 X118.095 Y113.74 F7800
G1 X118.48 Y114.186
G1 F3600
G1 X101.52 Y114.186 E19.87072
G1 X101.52 Y105.814 E20.27338
G1 X118.48 Y105.814 E21.0891
G1 X118.48 Y110 E21.29043
G1 X118.48 Y114.126 E21.48888
G1 X118.48 Y114.126 F7800
G1 X118.866 Y114.571
;TYPE:External perimeter
G1 F1800
G1 X101.134 Y114.571 E22.34173
G1 X101.134 Y105.429 E22.78143
G1 X118.866 Y105.429 E23.63428
G1 X118.866 Y110 E23.85413
G1 X118.866 Y114.511 E24.07109
G1 X118.47 Y114.571 F7800
G1 E22.07109 F2400
G92 E0
G1 X117.981 Y107.454 F7800
G1 E2 F2400
;TYPE:Top solid infill
;WIDTH:0.400101
G1 F900
G1 X116.992 Y106.464 E2.0586
G1 X116.517 Y106.464 E2.07849
G1 X117.83 Y107.778 E2.15627
G1 X117.83 Y108.252 E2.17612
G1 X116.042 Y106.464 E2.282
G1 X115.567 Y106.464 E2.30189
G1 X117.83 Y108.727 E2.4359
G1 X117.83 Y109.202 E2.45579
G1 X115.093 Y106.464 E2.6179
G1 X114.618 Y106.464 E2.63779
G1 X117.83 Y109.677 E2.82803
G1 X117.83 Y110.152 E2.84792
G1 X114.143 Y106.464 E3.06628
G1 X113.668 Y106.464 E3.08617
G1 X117.83 Y110.626 E3.33263
G1 X117.83 Y111.101 E3.35252
G1 X113.194 Y106.464 E3.62708
G1 X112.719 Y106.464 E3.64697
G1 X117.83 Y111.576 E3.94966
G1 X117.83 Y112.051 E3.96955
G1 X112.244 Y106.464 E4.30037
G1 X111.769 Y106.464 E4.32026
G1 X117.83 Y112.526 E4.6792
G1 X117.83 Y113 E4.69905
G1 X111.294 Y106.464 E5.08609
G1 X110.88 Y106.464 E5.10343
G1 X110.852 Y106.497 E5.10524
G1 X117.72 Y113.365 E5.51194
G1 X117.584 Y113.466 E5.51903
G1 X117.535 Y113.536 E5.52261
G1 X117.416 Y113.536 E5.52759
G1 X110.615 Y106.734 E5.93036
G1 X110.375 Y106.969 E5.94442
G1 X116.942 Y113.536 E6.3333
G1 X116.467 Y113.536 E6.35319
G1 X110.171 Y107.24 E6.72602
G1 X110.012 Y107.556 E6.74083
G1 X115.992 Y113.536 E7.09495
G1 X115.517 Y113.536 E7.11484
G1 X109.825 Y107.844 E7.4519
G1 X109.663 Y108.156 E7.46662
G1 X115.043 Y113.536 E7.78521
G1 X114.568 Y113.536 E7.8051
G1 X109.542 Y108.51 E8.10273
G1 X109.501 Y108.799 E8.11495
G1 X109.455 Y108.898 E8.11952
G1 X114.093 Y113.536 E8.39417
G1 X113.618 Y113.536 E8.41406
G1 X109.345 Y109.263 E8.66709
G1 X109.3 Y109.692 E8.68515
G1 X113.143 Y113.536 E8.91275
G1 X112.669 Y113.536 E8.9326
G1 X109.315 Y110.182 E9.13121
G1 X109.3 Y110.396 E9.14019
G1 X109.32 Y110.662 E9.15136
G1 X112.194 Y113.536 E9.32155
G1 X111.719 Y113.536 E9.34144
G1 X109.503 Y111.319 E9.47269
G1 X109.555 Y111.645 E9.48651
G1 X109.671 Y111.963 E9.50068
G1 X111.244 Y113.536 E9.59383
G1 X110.8 Y113.536 E9.61242
G1 X110.751 Y113.466 E9.616
G1 X110.49 Y113.256 E9.63003
G1 X109.899 Y112.665 E9.66503
G1 E7.66503 F2400
G92 E0
G1 X109.899 Y112.665 F7800
G1 X102.226 Y113.406
G1 E2 F2400
;TYPE:Solid infill
;WIDTH:0.543559
G1 F1200
G1 X102.183 Y113.449 E2.00363
G1 X102.199 Y113.506 E2.00717
G1 X102.257 Y113.522 E2.01077
G1 X102.299 Y113.48 E2.01432
G1 X102.284 Y113.422 E2.0179
;WIDTH:0.45
G1 X102.195 Y112.806 E2.04784
G1 X103.037 Y113.634 E2.10464
;WIDTH:0.404381
G1 X103.018 Y113.705 E2.10776
G1 X103.089 Y113.686 E2.11088
G1 X103.078 Y113.645 E2.11268
;WIDTH:0.45
G1 X103.445 Y113.511 E2.13147
G1 X102.195 Y112.26 E2.21653
G1 X102.195 Y111.715 E2.24274
G1 X103.99 Y113.511 E2.36487
G1 X104.536 Y113.511 E2.39113
G1 X102.195 Y111.17 E2.55036
G1 X102.195 Y110.624 E2.57662
G1 X105.081 Y113.511 E2.77296
G1 X105.626 Y113.511 E2.79917
G1 X102.195 Y110.079 E3.03258
G1 X102.195 Y109.534 E3.05879
G1 X106.172 Y113.511 E3.3293
G1 X106.717 Y113.511 E3.35551
G1 X102.195 Y108.988 E3.66312
G1 X102.195 Y108.443 E3.68933
G1 X107.262 Y113.511 E4.03402
G1 X107.808 Y113.511 E4.06028
G1 X102.195 Y107.898 E4.44207
G1 X102.195 Y107.352 E4.46833
G1 X108.353 Y113.511 E4.88722
G1 X108.898 Y113.511 E4.91343
G1 X102.195 Y106.807 E5.36939
G1 X102.101 Y106.366 E5.39108
;WIDTH:0.404381
G1 X102.082 Y106.437 E5.3942
G1 X102.153 Y106.418 E5.39732
G1 X102.142 Y106.377 E5.39912
;WIDTH:0.45
G1 X102.422 Y106.489 E5.41362
G1 X109.444 Y113.511 E5.89125
G1 X109.989 Y113.511 E5.91746
G1 X102.968 Y106.489 E6.39505
G1 X103.513 Y106.489 E6.42126
G1 X109.639 Y112.615 E6.83794
G1 X109.849 Y112.895 E6.85477
;WIDTH:0.404381
G1 X110.325 Y113.448 E6.88571
G1 X110.382 Y113.569 E6.89138
G1 E4.89138 F2400
G92 E0
G1 X110.382 Y113.569 F7800
G1 X109.283 Y111.424
G1 E2 F2400
G1 F1200
G1 X109.368 Y111.733 E2.01359
G1 X109.345 Y111.883 E2.02003
;WIDTH:0.45
G1 X109.18 Y111.611 E2.03533
G1 X104.058 Y106.489 E2.38372
G1 X104.604 Y106.489 E2.40998
G1 X108.985 Y110.871 E2.708
G1 X108.944 Y110.284 E2.7363
G1 X105.149 Y106.489 E2.99443
G1 X105.694 Y106.489 E3.02064
G1 X108.94 Y109.734 E3.24139
G1 X108.985 Y109.234 E3.26554
G1 X106.24 Y106.489 E3.45225
G1 X106.785 Y106.489 E3.47846
G1 X109.103 Y108.807 E3.63613
G1 E1.63613 F2400
G92 E0
G1 X109.103 Y108.807 F7800
G1 X107.467 Y106.626
G1 E2 F2400
G1 F1200
G1 X109.211 Y108.37 E2.11862
G1 X109.342 Y107.993 E2.13782
G1 X110.016 Y106.842 E2.20197
G1 X110.354 Y106.489 E2.22548
G1 X107.33 Y106.489 E2.37092
G1 X107.33 Y106.489 F7800
G1 X108.399 Y106.932
;WIDTH:0.563781
G1 F1200
G1 X109.425 Y106.932 E2.43483
G1 X109.059 Y107.592 E2.48184
G1 X108.535 Y107.068 E2.528
M106 S209.1
;LAYER_CHANGE
;Z:1.2
;HEIGHT:0.3
G1 Z1.2 F7800
G1 E.528 F2400
G92 E0
G1 Z1.2 F7800
G1 X117.289 Y108.24
G1 E2 F2400
;TYPE:Perimeter
;WIDTH:0.45
G1 F900
G1 X117.289 Y108.245 E2.00024
G1 X117.428 Y108.328 E2.00803
G1 X117.645 Y108.753 E2.03098
G1 X117.689 Y108.989 E2.04253
G1 X117.677 Y109.112 E2.04847
G1 X117.827 Y109.431 E2.06542
G1 X117.858 Y109.873 E2.08673
G1 X117.795 Y110.049 E2.09572
G1 X117.867 Y110.326 E2.10949
G1 X117.824 Y110.69 E2.12712
G1 X117.678 Y110.984 E2.14291
G1 X117.681 Y111.224 E2.15445
G1 X117.543 Y111.592 E2.17335
G1 X117.353 Y111.836 E2.18822
G1 X117.291 Y111.851 E2.19129
G1 X117.288 Y112.012 E2.19903
G1 X117.028 Y112.413 E2.22202
G1 X116.819 Y112.582 E2.23495
G1 X116.703 Y112.585 E2.24053
G1 X116.658 Y112.777 E2.25001
G1 X116.32 Y113.073 E2.27162
G1 X116.016 Y113.191 E2.2873
G1 X115.976 Y113.179 E2.28931
G1 X115.898 Y113.301 E2.29627
;WIDTH:0.490379
G1 X115.716 Y113.408 E2.30749
;WIDTH:0.530759
G1 X115.534 Y113.515 E2.31977
;WIDTH:0.571139
G1 X115.353 Y113.622 E2.33306
G1 X115.123 Y113.614 E2.34761
;WIDTH:0.565117
G1 X115.056 Y113.668 E2.35298
G1 X114.788 Y113.713 E2.36995
;WIDTH:0.522131
G1 X114.521 Y113.758 E2.38541
;WIDTH:0.499593
G1 X114.241 Y113.738 E2.40065
G1 X114.168 Y113.703 E2.40504
G1 X113.891 Y113.762 E2.42041
;WIDTH:0.519952
G1 X113.586 Y113.715 E2.43795
;WIDTH:0.564423
G1 X113.281 Y113.669 E2.45719
G1 X113.215 Y113.615 E2.46251
G1 X113.096 Y113.629 E2.46998
;WIDTH:0.563768
G1 X112.939 Y113.561 E2.48064
;WIDTH:0.525845
G1 X112.782 Y113.493 E2.49049
;WIDTH:0.487922
G1 X112.625 Y113.425 E2.49953
;WIDTH:0.45
G1 X112.371 Y113.22 E2.51523
G1 X112.361 Y113.178 E2.51731
G1 X112.214 Y113.172 E2.52439
G1 X111.804 Y112.91 E2.54779
G1 X111.635 Y112.701 E2.56072
G1 X111.633 Y112.585 E2.5663
G1 X111.441 Y112.54 E2.57578
G1 X111.144 Y112.202 E2.59742
G1 X111.047 Y112.008 E2.60785
G1 X111.082 Y111.831 E2.61653
G1 X110.911 Y111.773 E2.62521
G1 X110.792 Y111.592 E2.63563
G1 X110.649 Y111.177 E2.65674
G1 X110.647 Y111.096 E2.66064
G1 X110.711 Y110.978 E2.6671
G1 X110.596 Y110.908 E2.67358
G1 X110.509 Y110.669 E2.68581
G1 X110.477 Y110.23 E2.70698
G1 X110.496 Y110.152 E2.71084
G1 X110.591 Y110.05 E2.71754
G1 X110.495 Y109.948 E2.72428
G1 X110.473 Y109.698 E2.73635
G1 X110.555 Y109.268 E2.7574
G1 X110.594 Y109.198 E2.76125
G1 X110.712 Y109.124 E2.76795
G1 X110.647 Y109 E2.77468
G1 X110.69 Y108.754 E2.78669
G1 X110.88 Y108.361 E2.80769
G1 X111.043 Y108.247 E2.81726
G1 X111.06 Y108.05 E2.82677
G1 X111.307 Y107.686 E2.84793
G1 X111.51 Y107.52 E2.86054
G1 X111.634 Y107.517 E2.86651
G1 X111.637 Y107.393 E2.87248
G1 X111.804 Y107.188 E2.8852
G1 X112.206 Y106.929 E2.9082
G1 X112.361 Y106.925 E2.91566
G1 X112.442 Y106.793 E2.92311
G1 X112.872 Y106.572 E2.94636
;WIDTH:0.492778
G1 X112.898 Y106.542 E2.94848
;WIDTH:0.535557
G1 X112.925 Y106.512 E2.95085
;WIDTH:0.578335
G1 X112.951 Y106.482 E2.95339
;WIDTH:0.621114
