; generated by PrusaSlicer 2.8.1+linux-x64-GTK3 on 2024-10-22 at 16:50:46 UTC

; 

; external perimeters extrusion width = 0.45mm
; perimeters extrusion width = 0.45mm
; infill extrusion width = 0.45mm
; solid infill extrusion width = 0.45mm
; top infill extrusion width = 0.40mm
; support material extrusion width = 0.40mm
; first layer extrusion width = 0.60mm

M190 S60 ; set bed temperature and wait for it to be reached
M104 S200 ; set temperature
;TYPE:Custom
G28 ; home all axes
G1 Z5 F5000 ; lift nozzle
M109 S200 ; set temperature and wait for it to be reached
G21 ; set units to millimeters
G90 ; use absolute coordinates
M82 ; use absolute distances for extrusion
G92 E0
; Filament gcode
M107
;LAYER_CHANGE
;Z:0.3
;HEIGHT:0.3
G1 E-2 F2400
G1 Z.3 F7800
G1 X95.406 Y26.785
G1 E0 F2400
;TYPE:Skirt/Brim
;WIDTH:0.6
G1 F1800
G1 X97.811 Y18.22 E.59432
G1 X98.183 Y17.173 E.66855
G1 X99.059 Y15.438 E.79839
G1 X99.693 Y14.492 E.87447
G1 X101.023 Y12.966 E1.0097
G1 X102.256 Y11.914 E1.11798
G1 X103.952 Y10.852 E1.25166
G1 X104.986 Y10.373 E1.32779
G1 X106.045 Y9.995 E1.40291
G1 X107.149 Y9.71 E1.47908
G1 X108.258 Y9.53 E1.55414
G1 X109.396 Y9.451 E1.63035
G1 X110.52 Y9.475 E1.70546
G1 X111.653 Y9.602 E1.78162
G1 X112.754 Y9.83 E1.85673
G1 X113.846 Y10.161 E1.93296
G1 X114.888 Y10.584 E2.00809
G1 X115.901 Y11.107 E2.08425
G1 X116.849 Y11.712 E2.15938
G1 X117.751 Y12.41 E2.23557
G1 X118.574 Y13.177 E2.31073
G1 X119.334 Y14.027 E2.3869
G1 X120.005 Y14.931 E2.46211
G1 X120.598 Y15.905 E2.53829
G1 X121.398 Y17.648 E2.66641
G1 X126.961 Y33.985 E3.81935
G1 X127.488 Y36.509 E3.9916
G1 X127.637 Y39.083 E4.16384
G1 X127.406 Y41.651 E4.33609
G1 X126.805 Y44.141 E4.50721
G1 X121.536 Y59.636 E5.60057
G1 X121.073 Y60.676 E5.67662
G1 X120.346 Y61.977 E5.77618
G1 X118.604 Y63.955 E5.95226
G1 X116.673 Y65.363 E6.11191
G1 X115.79 Y65.885 E6.18044
G1 X114.789 Y66.37 E6.25475
G1 X113.734 Y66.769 E6.3301
G1 X112.675 Y67.063 E6.40352
G1 X110.487 Y67.365 E6.55108
G1 X109.343 Y67.365 E6.62751
G1 X108.256 Y67.266 E6.70043
G1 X107.072 Y67.041 E6.78094
G1 X105.97 Y66.719 E6.85764
G1 X104.314 Y66.024 E6.97762
G1 X103.229 Y65.398 E7.0613
G1 X101.486 Y64.211 E7.20218
G1 X99.566 Y62.114 E7.39212
G1 X98.81 Y60.769 E7.49519
G1 X98.002 Y58.744 E7.64084
G1 X93.444 Y43.833 E8.68248
G1 X92.886 Y41.309 E8.85517
G1 X92.707 Y38.656 E9.03281
G1 X92.908 Y36.165 E9.19976
G1 X93.39 Y33.969 E9.34996
G1 X95.39 Y26.843 E9.84441
G1 E7.84441 F2400
G92 E0
G1 X95.39 Y26.843 F7800
G92 E0
G1 X114.647 Y51.198
G1 E2 F2400
;TYPE:Support material
G1 F1800
G1 X115.291 Y52.122 E2.07524
G1 X115.757 Y53.15 E2.15064
G1 X116.031 Y54.248 E2.22624
G1 X116.099 Y55.381 E2.30207
G1 X115.958 Y56.514 E2.37834
G1 X115.602 Y57.617 E2.45577
G1 X114.875 Y58.918 E2.55533
G1 X113.055 Y60.245 E2.7058
G1 X112.054 Y60.73 E2.78011
G1 X110.995 Y61.025 E2.85355
G1 X109.915 Y61.124 E2.926
G1 X108.828 Y61.024 E2.99892
G1 X107.727 Y60.702 E3.07555
G1 X106.982 Y60.352 E3.13054
G1 X105.029 Y59.041 E3.28768
G1 X104.272 Y57.696 E3.39079
G1 X103.924 Y56.691 E3.46184
G1 X103.762 Y55.69 E3.52958
G1 X103.775 Y54.568 E3.60454
G1 X103.983 Y53.49 E3.67788
G1 X104.254 Y52.717 E3.7326
G1 X104.797 Y51.718 E3.80856
G1 X105.576 Y50.784 E3.88981
G1 X114.23 Y50.784 E4.46794
G1 X114.59 Y51.141 E4.50181
G1 X114.59 Y51.141 F7800
G1 X115.527 Y57.064
G1 F1800
G1 X115.527 Y54.221 E4.69174
G1 X115.3 Y53.309 E4.75453
G1 X114.932 Y52.499 E4.81397
G1 X114.932 Y57.828 E5.16998
G1 X114.505 Y58.592 E5.22845
G1 X114.337 Y58.716 E5.2424
G1 X114.337 Y51.596 E5.71805
G1 X114.031 Y51.266 E5.74812
G1 X113.742 Y51.266 E5.76743
G1 X113.742 Y59.157 E6.29459
G1 X113.147 Y59.583 E6.34348
G1 X113.147 Y51.266 E6.8991
G1 X112.552 Y51.266 E6.93885
G1 X112.552 Y59.953 E7.51919
G1 X111.957 Y60.242 E7.56338
G1 X111.957 Y51.266 E8.16303
G1 X111.361 Y51.266 E8.20285
G1 X111.361 Y60.423 E8.81459
G1 X110.766 Y60.562 E8.85541
G1 X110.766 Y51.266 E9.47643
G1 X110.171 Y51.266 E9.51618
G1 X110.171 Y60.616 E10.14081
G1 X109.576 Y60.609 E10.18056
G1 X109.576 Y51.266 E10.80472
G1 X108.981 Y51.266 E10.84447
G1 X108.981 Y60.554 E11.46496
G1 X108.386 Y60.393 E11.50614
G1 X108.386 Y51.266 E12.11587
G1 X107.791 Y51.266 E12.15562
G1 X107.791 Y60.2 E12.75246
G1 X107.195 Y59.917 E12.79654
G1 X107.195 Y51.266 E13.37447
G1 X106.6 Y51.266 E13.41422
G1 X106.6 Y59.53 E13.9663
G1 X106.005 Y59.06 E14.01695
G1 X106.005 Y51.266 E14.53763
G1 X105.792 Y51.266 E14.55186
G1 X105.41 Y51.732 E14.59211
G1 X105.41 Y58.706 E15.05801
G1 X104.815 Y57.678 E15.13736
G1 X104.815 Y52.19 E15.50399
G1 E13.50399 F2400
G92 E0
G1 X104.815 Y52.19 F7800
G1 X110.387 Y15.741
G1 E2 F2400
G1 F1800
G1 X111.488 Y15.968 E2.0751
G1 X112.53 Y16.391 E2.15023
G1 X113.478 Y16.996 E2.22536
G1 X114.301 Y17.763 E2.30052
G1 X114.972 Y18.666 E2.37568
G1 X115.467 Y19.676 E2.45082
G1 X115.772 Y20.759 E2.52598
G1 X115.875 Y21.877 E2.60098
G1 X115.825 Y22.432 E2.63821
G1 X115.773 Y23 E2.67631
G1 X115.47 Y24.082 E2.75137
G1 X114.976 Y25.092 E2.82648
G1 X114.307 Y25.996 E2.90161
G1 X113.383 Y26.83 E2.98476
G1 X106.009 Y26.83 E3.47738
G1 X105.271 Y26.2 E3.5422
G1 X104.561 Y25.326 E3.61743
G1 X104.05 Y24.388 E3.68879
G1 X103.68 Y23.271 E3.7674
G1 X103.529 Y22.158 E3.84244
G1 X103.582 Y21.036 E3.91748
G1 X103.682 Y20.488 E3.95469
G1 X104.05 Y19.377 E4.03288
G1 X104.561 Y18.441 E4.10412
G1 X105.242 Y17.601 E4.17636
G1 X106.163 Y16.815 E4.25725
G1 X107.095 Y16.275 E4.32921
G1 X108.153 Y15.897 E4.40427
G1 X109.263 Y15.717 E4.47939
G1 X110.306 Y15.739 E4.54908
G1 X110.306 Y15.739 F7800
G1 X114.932 Y24.633
G1 F1800
G1 X114.932 Y19.68 E4.87997
G1 X114.337 Y18.62 E4.96118
G1 X114.337 Y25.145 E5.39709
G1 X113.742 Y25.865 E5.45949
G1 X113.742 Y17.901 E5.99153
G1 X113.147 Y17.356 E6.04543
G1 X113.147 Y26.348 E6.64614
G1 X112.552 Y26.348 E6.68589
G1 X112.552 Y16.977 E7.31192
G1 X112.308 Y16.821 E7.33127
G1 X111.957 Y16.679 E7.35656
G1 X111.957 Y26.348 E8.0025
G1 X111.361 Y26.348 E8.04232
G1 X111.361 Y16.437 E8.70443
G1 X110.766 Y16.311 E8.74506
G1 X110.766 Y26.348 E9.41559
G1 X110.171 Y26.348 E9.45534
G1 X110.171 Y16.219 E10.13201
G1 X109.576 Y16.206 E10.17177
G1 X109.576 Y26.348 E10.84931
G1 X108.981 Y26.348 E10.88906
G1 X108.981 Y16.251 E11.56359
G1 X108.386 Y16.348 E11.60386
G1 X108.386 Y26.348 E12.27191
G1 X107.791 Y26.348 E12.31166
G1 X107.791 Y16.538 E12.96702
G1 X107.195 Y16.774 E13.00984
G1 X107.195 Y26.348 E13.64944
G1 X106.6 Y26.348 E13.68919
G1 X106.6 Y17.119 E14.30574
G1 X106.005 Y17.558 E14.35514
G1 X106.005 Y26.193 E14.932
G1 X105.41 Y25.606 E14.98784
G1 X105.41 Y18.159 E15.48534
G1 X104.815 Y18.981 E15.55313
G1 X104.815 Y24.784 E15.9408
G1 X104.489 Y24.186 E15.9863
G1 X104.22 Y23.406 E16.04142
G1 X104.22 Y19.61 E16.29501
G1 E14.29501 F2400
G92 E0
G1 X104.22 Y19.61 F7800
G1 X119.321 Y36.267
G1 E2 F2400
;TYPE:Perimeter
;WIDTH:0.465745
G1 F1800
G1 X119.449 Y36.757 E2.02535
;WIDTH:0.46095
G1 X119.591 Y37.565 E2.06593
;WIDTH:0.46582
G1 X119.672 Y38.635 E2.11966
;WIDTH:0.46081
G1 X119.651 Y39.455 E2.16022
;WIDTH:0.465814
G1 X119.524 Y40.486 E2.21223
;WIDTH:0.461039
G1 X119.335 Y41.32 E2.25454
;WIDTH:0.461164
G1 X119.039 Y42.22 E2.30143
;WIDTH:0.461299
G1 X118.655 Y43.086 E2.34833
;WIDTH:0.46144
G1 X118.187 Y43.909 E2.39522
;WIDTH:0.461659
G1 X117.645 Y44.675 E2.44172
;WIDTH:0.461904
G1 X117.031 Y45.381 E2.48811
;WIDTH:0.46214
G1 X116.352 Y46.023 E2.53447
;WIDTH:0.462368
G1 X115.612 Y46.595 E2.5809
;WIDTH:0.462587
G1 X114.82 Y47.092 E2.62734
G1 X113.931 Y47.533 E2.67663
;WIDTH:0.503072
G1 X113.758 Y47.619 E2.6872
;WIDTH:0.54365
G1 X113.586 Y47.705 E2.6987
;WIDTH:0.584228
G1 X113.413 Y47.791 E2.71123
;WIDTH:0.624806
G1 X113.241 Y47.877 E2.72467
;WIDTH:0.665384
G1 X113.068 Y47.963 E2.73915
;WIDTH:0.705737
G1 X113 Y48.003 E2.74546
;WIDTH:0.74609
G1 X112.933 Y48.044 E2.75214
;WIDTH:0.786444
G1 X112.865 Y48.084 E2.75925
G1 X112.505 Y48.152 E2.79224
;WIDTH:0.740697
G1 X112.146 Y48.22 E2.82306
;WIDTH:0.694951
G1 X111.67 Y48.275 E2.86075
;WIDTH:0.655757
G1 X111.193 Y48.331 E2.89617
;WIDTH:0.616563
G1 X110.239 Y48.371 E2.96193
;WIDTH:0.607843
G1 X109.3 Y48.341 E3.02561
;WIDTH:0.641542
G1 X108.832 Y48.292 E3.05948
;WIDTH:0.675242
G1 X108.365 Y48.243 E3.09526
;WIDTH:0.712056
G1 X108.069 Y48.19 E3.11955
;WIDTH:0.74887
G1 X107.774 Y48.137 E3.14514
;WIDTH:0.785684
G1 X107.479 Y48.085 E3.17209
G1 X107.352 Y48.018 E3.18501
;WIDTH:0.741267
G1 X107.226 Y47.95 E3.1971
;WIDTH:0.69685
G1 X107.099 Y47.883 E3.20843
;WIDTH:0.652434
G1 X106.972 Y47.816 E3.21896
;WIDTH:0.608017
G1 X106.846 Y47.749 E3.22864
;WIDTH:0.563601
G1 X106.719 Y47.682 E3.23758
;WIDTH:0.519184
G1 X106.592 Y47.614 E3.24575
;WIDTH:0.474768
G1 X105.939 Y47.307 E3.28268
;WIDTH:0.464873
G1 X105.141 Y46.86 E3.32837
;WIDTH:0.465018
G1 X104.389 Y46.338 E3.37411
;WIDTH:0.465148
G1 X103.691 Y45.746 E3.41986
G1 X103.064 Y45.101 E3.46482
;WIDTH:0.465365
G1 X102.309 Y44.137 E3.52606
;WIDTH:0.465454
G1 X101.982 Y43.609 E3.55713
G1 X101.558 Y42.798 E3.60291
;WIDTH:0.465584
G1 X101.214 Y41.95 E3.6487
G1 X100.953 Y41.073 E3.69449
G1 X100.78 Y40.19 E3.73952
G1 X100.712 Y39.676 E3.76546
;WIDTH:0.460877
G1 X100.673 Y38.869 E3.80542
;WIDTH:0.46567
G1 X100.72 Y37.848 E3.85658
;WIDTH:0.46104
G1 X100.843 Y37.015 E3.89824
;WIDTH:0.461215
G1 X101.063 Y36.109 E3.94439
;WIDTH:0.461408
G1 X101.372 Y35.229 E3.99058
;WIDTH:0.46171
G1 X101.76 Y34.394 E4.03621
;WIDTH:0.462041
G1 X102.224 Y33.605 E4.08161
;WIDTH:0.462359
G1 X102.762 Y32.864 E4.12706
;WIDTH:0.462662
G1 X103.369 Y32.179 E4.17253
;WIDTH:0.462949
G1 X104.039 Y31.555 E4.21804
;WIDTH:0.463224
G1 X104.765 Y30.999 E4.26353
;WIDTH:0.463483
G1 X105.542 Y30.515 E4.3091
;WIDTH:0.46361
G1 X106.413 Y30.084 E4.35749
;WIDTH:0.507798
G1 X106.594 Y29.993 E4.36869
;WIDTH:0.551987
G1 X106.775 Y29.902 E4.38101
;WIDTH:0.596176
G1 X106.956 Y29.811 E4.39445
;WIDTH:0.640365
G1 X107.137 Y29.72 E4.409
;WIDTH:0.684554
G1 X107.318 Y29.629 E4.42467
;WIDTH:0.718264
G1 X107.371 Y29.596 E4.42976
;WIDTH:0.751974
G1 X107.425 Y29.563 E4.43519
;WIDTH:0.785685
G1 X107.479 Y29.529 E4.44093
G1 X107.855 Y29.46 E4.47532
;WIDTH:0.738637
G1 X108.23 Y29.39 E4.5074
;WIDTH:0.691589
G1 X108.699 Y29.336 E4.54433
;WIDTH:0.653619
G1 X109.168 Y29.282 E4.57903
;WIDTH:0.61565
G1 X109.334 Y29.272 E4.59046
;WIDTH:0.607101
G1 X110.554 Y29.25 E4.67306
;WIDTH:0.637332
G1 X111.538 Y29.316 E4.74354
;WIDTH:0.684632
G1 X112.012 Y29.385 E4.7806
;WIDTH:0.731933
G1 X112.485 Y29.453 E4.82039
;WIDTH:0.759985
G1 X112.666 Y29.49 E4.83642
;WIDTH:0.788038
G1 X112.846 Y29.528 E4.85302
G1 X112.953 Y29.585 E4.86396
;WIDTH:0.741143
G1 X113.059 Y29.643 E4.87416
;WIDTH:0.694249
G1 X113.166 Y29.7 E4.88368
;WIDTH:0.647354
G1 X113.272 Y29.757 E4.89243
;WIDTH:0.60046
G1 X113.379 Y29.815 E4.90057
;WIDTH:0.553566
G1 X113.658 Y29.953 E4.91956
;WIDTH:0.510008
G1 X113.937 Y30.091 E4.93686
;WIDTH:0.46645
G1 X114.406 Y30.304 E4.96269
;WIDTH:0.462642
G1 X115.075 Y30.669 E5.00055
;WIDTH:0.465484
G1 X115.617 Y31.029 E5.0331
G1 X116.356 Y31.602 E5.07988
;WIDTH:0.465611
G1 X117.034 Y32.245 E5.12664
G1 X117.646 Y32.951 E5.1734
G1 X118.185 Y33.714 E5.22015
;WIDTH:0.465745
G1 X118.647 Y34.527 E5.26696
G1 X119.027 Y35.38 E5.31371
G1 X119.302 Y36.21 E5.35748
G1 X119.302 Y36.21 F7800
G1 X118.866 Y36.384
;WIDTH:0.6
G1 F1800
G1 X118.87 Y36.394 E5.3582
G1 X119.065 Y37.26 E5.4175
G1 X119.174 Y38.141 E5.4768
G1 X119.196 Y39.029 E5.53614
G1 X119.13 Y39.914 E5.59543
G1 X119.063 Y40.417 E5.62933
G1 X118.88 Y41.217 E5.68415
G1 X118.597 Y42.072 E5.74432
G1 X118.23 Y42.894 E5.80446
G1 X117.783 Y43.676 E5.86463
G1 X117.266 Y44.402 E5.92417
G1 X116.682 Y45.072 E5.98355
G1 X116.034 Y45.681 E6.04296
G1 X115.33 Y46.223 E6.10231
G1 X114.576 Y46.693 E6.16167
G1 X113.728 Y47.112 E6.22486
G1 X112.874 Y47.429 E6.28572
G1 X112.002 Y47.655 E6.3459
G1 X111.112 Y47.793 E6.40607
G1 X110.213 Y47.842 E6.46622
G1 X109.327 Y47.802 E6.52547
G1 X108.449 Y47.676 E6.58473
G1 X107.632 Y47.475 E6.64094
G1 X106.752 Y47.169 E6.70318
G1 X106.139 Y46.884 E6.74834
G1 X105.382 Y46.458 E6.80637
G1 X104.668 Y45.962 E6.86445
G1 X104.006 Y45.399 E6.92251
G1 X103.411 Y44.786 E6.97958
G1 X102.683 Y43.859 E7.05832
G1 X102.384 Y43.368 E7.09672
G1 X101.981 Y42.598 E7.15478
G1 X101.655 Y41.792 E7.21286
G1 X101.407 Y40.959 E7.27092
G1 X101.243 Y40.121 E7.32796
G1 X101.158 Y39.242 E7.38696
G1 X101.158 Y38.373 E7.44501
G1 X101.241 Y37.508 E7.50306
G1 X101.319 Y37.006 E7.537
G1 X101.516 Y36.222 E7.591
G1 X101.811 Y35.386 E7.65022
G1 X102.181 Y34.594 E7.70862
G1 X102.624 Y33.845 E7.76675
G1 X103.137 Y33.142 E7.82489
G1 X103.715 Y32.493 E7.88295
G1 X104.352 Y31.901 E7.94105
G1 X105.044 Y31.374 E7.99916
G1 X105.783 Y30.916 E8.05724
G1 X106.613 Y30.506 E8.11908
G1 X107.512 Y30.173 E8.18313
G1 X108.372 Y29.954 E8.24242
G1 X109.347 Y29.811 E8.30825
G1 X110.567 Y29.782 E8.38978
G1 X111.483 Y29.868 E8.45124
G1 X112.366 Y30.043 E8.51138
G1 X113.228 Y30.304 E8.57155
G1 X113.755 Y30.523 E8.60968
G1 X114.602 Y30.942 E8.67281
G1 X115.353 Y31.416 E8.73214
G1 X116.054 Y31.961 E8.79146
G1 X116.699 Y32.572 E8.85081
G1 X117.28 Y33.243 E8.91011
G1 X117.792 Y33.968 E8.9694
G1 X118.23 Y34.74 E9.0287
G1 X118.591 Y35.551 E9.088
G1 X118.848 Y36.327 E9.14261
G1 X118.848 Y36.327 F7800
G1 X118.347 Y36.516
;TYPE:External perimeter
G1 F1800
G1 X118.354 Y36.539 E9.14422
G1 X118.537 Y37.353 E9.19996
G1 X118.64 Y38.181 E9.2557
G1 X118.66 Y39.016 E9.3115
G1 X118.599 Y39.848 E9.36723
G1 X118.456 Y40.67 E9.42297
G1 X118.233 Y41.474 E9.47871
G1 X117.932 Y42.252 E9.53444
G1 X117.557 Y42.997 E9.59016
G1 X117.305 Y43.43 E9.62363
G1 X116.826 Y44.097 E9.67849
G1 X116.28 Y44.717 E9.73368
G1 X115.67 Y45.288 E9.7895
G1 X115.007 Y45.796 E9.8453
G1 X114.297 Y46.236 E9.9011
G1 X113.496 Y46.63 E9.96073
G1 X112.691 Y46.925 E10.01801
G1 X111.87 Y47.136 E10.07464
G1 X111.032 Y47.263 E10.13126
G1 X110.186 Y47.307 E10.18785
G1 X109.353 Y47.267 E10.24356
G1 X108.528 Y47.146 E10.29926
G1 X107.762 Y46.956 E10.35198
G1 X106.932 Y46.665 E10.41074
G1 X106.368 Y46.4 E10.45237
G1 X105.657 Y45.999 E10.5069
G1 X104.987 Y45.531 E10.5615
G1 X104.366 Y45.002 E10.616
G1 X103.808 Y44.427 E10.66953
G1 X103.113 Y43.54 E10.74481
G1 X102.843 Y43.093 E10.7797
G1 X102.466 Y42.369 E10.83423
G1 X102.159 Y41.612 E10.8888
G1 X101.927 Y40.829 E10.94336
G1 X101.773 Y40.043 E10.99687
G1 X101.693 Y39.215 E11.05244
G1 X101.693 Y38.399 E11.10695
G1 X101.771 Y37.586 E11.16151
G1 X101.927 Y36.785 E11.21603
G1 X102.159 Y36.002 E11.27059
G1 X102.466 Y35.245 E11.32516
G1 X102.683 Y34.789 E11.3589
G1 X103.098 Y34.096 E11.41286
G1 X103.567 Y33.462 E11.46554
G1 X104.112 Y32.852 E11.52019
G1 X104.712 Y32.298 E11.57475
G1 X105.363 Y31.804 E11.62934
G1 X106.058 Y31.375 E11.6839
G1 X106.842 Y30.99 E11.74225
G1 X107.693 Y30.677 E11.80282
G1 X108.502 Y30.473 E11.85856
G1 X109.36 Y30.347 E11.91649
G1 X110.58 Y30.318 E11.99802
G1 X111.429 Y30.401 E12.05501
G1 X112.26 Y30.568 E12.11164
G1 X113.07 Y30.816 E12.16823
G1 X113.547 Y31.016 E12.20278
G1 X114.346 Y31.413 E12.26238
G1 X115.052 Y31.858 E12.31813
G1 X115.71 Y32.371 E12.37387
G1 X116.315 Y32.945 E12.42958
G1 X116.861 Y33.577 E12.48538
G1 X117.342 Y34.259 E12.54113
G1 X117.754 Y34.984 E12.59684
G1 X118.092 Y35.747 E12.65259
G1 X118.328 Y36.459 E12.7027
G1 X118.423 Y36.848 F7800
G1 E10.7027 F2400
G92 E0
G1 X113.532 Y48.311 F7800
G1 E2 F2400
;TYPE:Perimeter
;WIDTH:0.665384
G1 F1800
G1 X113.435 Y48.388 E2.00928
;WIDTH:0.705737
G1 X113.388 Y48.444 E2.01513
;WIDTH:0.74609
G1 X113.341 Y48.5 E2.02135
;WIDTH:0.786444
G1 X113.293 Y48.556 E2.02799
G1 X113.252 Y48.795 E2.04983
G1 X112.654 Y48.813 E2.10371
;WIDTH:0.750313
G1 X112.355 Y48.831 E2.12934
;WIDTH:0.714182
G1 X112.055 Y48.849 E2.1537
;WIDTH:0.678052
G1 X111.564 Y48.866 E2.1913
;WIDTH:0.643277
G1 X111.073 Y48.884 E2.22678
;WIDTH:0.608503
G1 X110.095 Y48.894 E2.29316
;WIDTH:0.61565
G1 X109.128 Y48.88 E2.35966
;WIDTH:0.653619
G1 X108.641 Y48.861 E2.39548
;WIDTH:0.691588
G1 X108.154 Y48.842 E2.43361
;WIDTH:0.738636
G1 X107.624 Y48.819 E2.47822
;WIDTH:0.785684
G1 X107.094 Y48.795 E2.52595
G1 X107.052 Y48.557 E2.54769
G1 X107.014 Y48.511 E2.55306
;WIDTH:0.751972
G1 X106.975 Y48.464 E2.5583
;WIDTH:0.718262
G1 X106.937 Y48.418 E2.56317
;WIDTH:0.684551
G1 X106.831 Y48.33 E2.57383
