; generated by PrusaSlicer 2.8.1+linux-x64-GTK3 on 2024-10-28 at 17:19:52 UTC

; 

; external perimeters extrusion width = 0.45mm
; perimeters extrusion width = 0.45mm
; infill extrusion width = 0.45mm
; solid infill extrusion width = 0.45mm
; top infill extrusion width = 0.40mm
; support material extrusion width = 0.40mm
; first layer extrusion width = 0.60mm

M190 S60 ; set bed temperature and wait for it to be reached
M104 S200 ; set temperature
;TYPE:Custom
G28 ; home all axes
G1 Z5 F5000 ; lift nozzle
M109 S200 ; set temperature and wait for it to be reached
G21 ; set units to millimeters
G90 ; use absolute coordinates
M82 ; use absolute distances for extrusion
G92 E0
; Filament gcode
M107
;LAYER_CHANGE
;Z:0.3
;HEIGHT:0.3
G1 E-2 F2400
G1 Z.3 F7800
G1 X58.411 Y30.027
G1 E0 F2400
;TYPE:Skirt/Brim
;WIDTH:0.6
G1 F1800
G1 X59.116 Y28.906 E.08847
G1 X59.93 Y27.86 E.17701
G1 X60.845 Y26.9 E.26561
G1 X61.85 Y26.037 E.35411
G1 X62.936 Y25.277 E.44266
G1 X64.092 Y24.63 E.53116
G1 X65.307 Y24.101 E.61969
G1 X66.569 Y23.695 E.70825
G1 X67.864 Y23.418 E.79672
G1 X70 Y23.244 E.93989
G1 X150.156 Y23.246 E6.29474
G1 X151.479 Y23.327 E6.38329
G1 X152.481 Y23.478 E6.45098
G1 X153.769 Y23.79 E6.53951
G1 X155.019 Y24.229 E6.62802
G1 X157.064 Y25.277 E6.78153
G1 X158.15 Y26.037 E6.87008
G1 X159.155 Y26.9 E6.95858
G1 X160.07 Y27.86 E7.04718
G1 X160.701 Y28.652 E7.11483
G1 X161.9 Y30.613 E7.26838
G1 X162.43 Y31.827 E7.35687
G1 X162.753 Y32.788 E7.4246
G1 X163.063 Y34.076 E7.5131
G1 X163.243 Y35.389 E7.60164
G1 X163.292 Y36.713 E7.69015
G1 X163.208 Y38.036 E7.77871
G1 X162.753 Y40.288 E7.9322
G1 X162.316 Y41.54 E8.02079
G1 X161.757 Y42.741 E8.10929
G1 X161.251 Y43.618 E8.17693
G1 X160.49 Y44.703 E8.26547
G1 X159.625 Y45.707 E8.354
G1 X158.664 Y46.62 E8.44255
G1 X156.798 Y47.962 E8.5961
G1 X155.626 Y48.582 E8.68468
G1 X154.399 Y49.082 E8.77319
G1 X153.431 Y49.381 E8.84087
G1 X152.136 Y49.658 E8.92934
G1 X150 Y49.832 E9.07251
G1 X70 Y49.832 E14.41694
G1 X68.521 Y49.749 E14.5159
G1 X66.331 Y49.314 E14.66506
G1 X64.374 Y48.582 E14.80464
G1 X62.641 Y47.608 E14.93745
G1 X60.845 Y46.176 E15.0909
G1 X59.361 Y44.507 E15.2401
G1 X58.243 Y42.741 E15.37973
G1 X57.35 Y40.623 E15.53329
G1 X56.883 Y38.692 E15.66601
G1 X56.733 Y37.376 E15.7545
G1 X56.716 Y36.05 E15.84309
G1 X56.83 Y34.73 E15.9316
G1 X57.076 Y33.428 E16.02012
G1 X57.35 Y32.453 E16.08778
G1 X57.82 Y31.213 E16.17637
G1 X58.384 Y30.081 E16.26086
G1 E14.26086 F2400
G92 E0
G1 X58.384 Y30.081 F7800
G92 E0
G1 X105.247 Y33.827
G1 E2 F2400
;TYPE:External perimeter
;WIDTH:0.6
G1 F1800
G1 X105.028 Y34.014 E2.01924
G1 X104.716 Y34.189 E2.04314
G1 X104.374 Y34.298 E2.06712
G1 X104.018 Y34.337 E2.09104
G1 X103.661 Y34.305 E2.11499
G1 X103.187 Y34.135 E2.14863
G1 X103.046 Y34.064 E2.15918
G1 X102.725 Y33.807 E2.18665
G1 X102.428 Y33.4 E2.22031
G1 X102.242 Y32.921 E2.25464
G1 X102.204 Y32.495 E2.28321
G1 X102.296 Y31.968 E2.31895
G1 X102.479 Y31.577 E2.34779
G1 X102.7 Y31.295 E2.37173
G1 X102.972 Y31.062 E2.39566
G1 X103.284 Y30.887 E2.41956
G1 X103.626 Y30.778 E2.44354
G1 X103.982 Y30.739 E2.46746
G1 X104.339 Y30.771 E2.49141
G1 X104.682 Y30.873 E2.51532
G1 X104.998 Y31.041 E2.53923
G1 X105.275 Y31.269 E2.5632
G1 X105.501 Y31.547 E2.58713
G1 X105.668 Y31.864 E2.61107
G1 X105.768 Y32.207 E2.63494
G1 X105.796 Y32.581 E2.66
G1 X105.704 Y33.108 E2.69574
G1 X105.521 Y33.499 E2.72458
G1 X105.301 Y33.781 E2.74847
G1 X105.293 Y33.788 E2.74918
G1 X104.976 Y34.033 F7800
G1 E.74918 F2400
G92 E0
G1 X94.577 Y39.451 F7800
G1 E2 F2400
G1 F1800
G1 X94.7 Y39.295 E2.01327
G1 X94.972 Y39.062 E2.0372
G1 X95.284 Y38.887 E2.0611
G1 X95.626 Y38.778 E2.08508
G1 X95.982 Y38.739 E2.109
G1 X96.339 Y38.771 E2.13295
G1 X96.813 Y38.941 E2.16659
G1 X97.237 Y39.232 E2.20094
G1 X97.501 Y39.547 E2.2284
G1 X97.713 Y40.011 E2.26248
G1 X97.799 Y40.508 E2.29618
G1 X97.704 Y41.108 E2.33676
G1 X97.521 Y41.499 E2.3656
G1 X97.3 Y41.781 E2.38954
G1 X97.028 Y42.014 E2.41347
G1 X96.716 Y42.189 E2.43737
G1 X96.374 Y42.298 E2.46135
G1 X96.018 Y42.337 E2.48527
G1 X95.661 Y42.305 E2.50922
G1 X95.318 Y42.203 E2.53313
G1 X95.002 Y42.035 E2.55704
G1 X94.725 Y41.807 E2.58101
G1 X94.499 Y41.529 E2.60494
G1 X94.332 Y41.212 E2.62888
G1 X94.232 Y40.868 E2.65281
G1 X94.204 Y40.495 E2.6778
G1 X94.296 Y39.968 E2.71354
G1 X94.479 Y39.577 E2.74238
G1 X94.54 Y39.499 E2.749
G1 X94.813 Y39.206 F7800
G1 E.749 F2400
G92 E0
G1 X150.529 Y42.165 F7800
G1 E2 F2400
;TYPE:Perimeter
G1 F1800
G1 X149.966 Y42.193 E2.03766
G1 X98.343 Y42.187 E5.48635
G1 X98.514 Y41.918 E5.50764
G1 X98.759 Y41.293 E5.55249
G1 X98.851 Y40.766 E5.58823
G1 X98.834 Y40.1 E5.63274
G1 X98.692 Y39.548 E5.67082
G1 X98.442 Y39.034 E5.709
G1 X98.096 Y38.58 E5.74713
G1 X97.666 Y38.204 E5.78529
G1 X97.171 Y37.92 E5.82341
G1 X96.629 Y37.74 E5.86156
G1 X95.962 Y37.667 E5.90639
G1 X95.428 Y37.725 E5.94227
G1 X94.943 Y37.872 E5.97613
G1 X94.436 Y38.134 E6.01426
G1 X93.991 Y38.492 E6.05241
G1 X93.625 Y38.93 E6.09054
G1 X93.354 Y39.433 E6.12871
G1 X93.241 Y39.783 E6.15328
G1 X93.149 Y40.31 E6.18902
G1 X93.135 Y40.675 E6.21342
G1 X93.218 Y41.236 E6.25131
G1 X93.412 Y41.774 E6.28952
G1 X93.657 Y42.187 E6.3216
G1 X69.992 Y42.184 E7.90255
G1 X69.426 Y42.155 E7.94041
G1 X68.858 Y42.068 E7.9788
G1 X68.254 Y41.908 E8.02054
G1 X67.648 Y41.677 E8.06387
G1 X67.067 Y41.348 E8.10847
G1 X66.55 Y41.008 E8.14981
G1 X66.142 Y40.661 E8.18559
G1 X65.71 Y40.21 E8.22731
G1 X65.314 Y39.696 E8.27066
G1 X64.847 Y38.856 E8.33487
G1 X64.554 Y38.053 E8.39197
G1 X64.433 Y37.52 E8.42848
G1 X64.364 Y36.977 E8.46505
G1 X64.365 Y36.099 E8.52371
G1 X64.433 Y35.556 E8.56027
G1 X64.558 Y35.007 E8.59788
G1 X64.737 Y34.473 E8.6355
G1 X64.969 Y33.959 E8.67317
G1 X65.251 Y33.471 E8.71082
G1 X65.58 Y33.013 E8.74849
G1 X65.953 Y32.591 E8.78612
G1 X66.366 Y32.207 E8.82379
G1 X66.815 Y31.867 E8.86142
G1 X67.296 Y31.573 E8.89908
G1 X67.804 Y31.329 E8.93673
G1 X68.334 Y31.136 E8.97441
G1 X68.88 Y30.997 E9.01205
G1 X69.437 Y30.913 E9.04968
G1 X70.034 Y30.883 E9.08961
G1 X101.659 Y30.885 E11.20233
G1 X101.486 Y31.158 E11.22392
G1 X101.241 Y31.783 E11.26877
G1 X101.149 Y32.31 E11.30451
G1 X101.166 Y32.976 E11.34902
G1 X101.308 Y33.528 E11.3871
G1 X101.558 Y34.042 E11.42528
G1 X101.904 Y34.496 E11.46341
G1 X102.334 Y34.872 E11.50157
G1 X102.829 Y35.156 E11.53969
G1 X103.371 Y35.336 E11.57784
G1 X104.038 Y35.409 E11.62267
G1 X104.572 Y35.351 E11.65855
G1 X105.057 Y35.204 E11.69241
G1 X105.564 Y34.942 E11.73054
G1 X106.009 Y34.584 E11.76869
G1 X106.375 Y34.146 E11.80682
G1 X106.646 Y33.643 E11.84499
G1 X106.759 Y33.293 E11.86956
G1 X106.851 Y32.766 E11.9053
G1 X106.865 Y32.4 E11.92977
G1 X106.782 Y31.84 E11.96759
G1 X106.588 Y31.302 E12.0058
G1 X106.341 Y30.886 E12.03812
G1 X150.168 Y30.889 E14.966
G1 X151.142 Y31.002 E15.0315
G1 X151.666 Y31.136 E15.06763
G1 X152.196 Y31.329 E15.10531
G1 X152.704 Y31.573 E15.14296
G1 X153.185 Y31.867 E15.18062
G1 X153.634 Y32.207 E15.21825
G1 X154.047 Y32.591 E15.25592
G1 X154.42 Y33.013 E15.29355
G1 X154.739 Y33.457 E15.33007
G1 X155.014 Y33.962 E15.36848
G1 X155.27 Y34.511 E15.40895
G1 X155.439 Y35.023 E15.44497
G1 X155.562 Y35.565 E15.4821
G1 X155.631 Y36.124 E15.51973
G1 X155.645 Y36.671 E15.55628
G1 X155.6 Y37.263 E15.59594
G1 X155.486 Y37.878 E15.63773
G1 X155.3 Y38.499 E15.68104
G1 X154.884 Y39.384 E15.74637
G1 X154.59 Y39.838 E15.7825
G1 X154.249 Y40.266 E15.81906
G1 X153.621 Y40.879 E15.87769
G1 X153.185 Y41.209 E15.91422
G1 X152.704 Y41.503 E15.95188
G1 X152.196 Y41.747 E15.98953
G1 X151.666 Y41.94 E16.02721
G1 X151.12 Y42.079 E16.06485
G1 X150.588 Y42.159 E16.10079
G1 X150.588 Y42.159 F7800
G1 X150.595 Y42.698
G1 F1800
G1 X149.979 Y42.729 E16.14199
G1 X96.807 Y42.723 E19.69416
G1 X97.296 Y42.478 E19.7307
G1 X97.655 Y42.183 E19.76174
G1 X98.031 Y41.686 E19.80337
G1 X98.231 Y41.201 E19.83842
G1 X98.324 Y40.673 E19.87424
G1 X98.301 Y40.154 E19.90895
G1 X98.18 Y39.706 E19.93995
G1 X97.972 Y39.291 E19.97096
G1 X97.708 Y38.951 E19.99972
G1 X97.332 Y38.623 E20.03305
G1 X96.926 Y38.397 E20.06409
G1 X96.484 Y38.256 E20.09508
G1 X96.022 Y38.205 E20.12613
G1 X95.559 Y38.247 E20.15719
G1 X95.114 Y38.38 E20.18822
G1 X94.704 Y38.598 E20.21924
G1 X94.345 Y38.893 E20.25028
G1 X93.969 Y39.39 E20.29191
G1 X93.769 Y39.875 E20.32696
G1 X93.676 Y40.403 E20.36278
G1 X93.699 Y40.922 E20.39749
G1 X93.82 Y41.37 E20.42849
G1 X94.028 Y41.785 E20.4595
G1 X94.315 Y42.151 E20.49057
G1 X94.668 Y42.453 E20.5216
G1 X95.184 Y42.723 E20.56051
G1 X69.692 Y42.72 E22.26351
G1 X69.077 Y42.658 E22.3048
G1 X68.473 Y42.536 E22.34597
G1 X67.881 Y42.354 E22.38735
G1 X67.413 Y42.159 E22.42122
G1 X66.502 Y41.644 E22.49113
G1 X66.021 Y41.28 E22.53143
G1 X65.569 Y40.86 E22.57265
G1 X65.16 Y40.396 E22.61397
G1 X64.861 Y39.985 E22.64792
G1 X64.358 Y39.079 E22.71715
G1 X64.039 Y38.205 E22.77931
G1 X63.904 Y37.613 E22.81987
G1 X63.829 Y37.01 E22.86046
G1 X63.829 Y36.065 E22.92359
G1 X63.904 Y35.463 E22.96412
G1 X64.042 Y34.862 E23.00531
G1 X64.238 Y34.277 E23.04653
G1 X64.492 Y33.714 E23.08779
G1 X64.801 Y33.18 E23.12901
G1 X65.161 Y32.679 E23.17022
G1 X65.569 Y32.216 E23.21145
G1 X66.021 Y31.796 E23.25267
G1 X66.513 Y31.424 E23.29388
G1 X67.04 Y31.102 E23.33514
G1 X67.596 Y30.834 E23.37637
G1 X68.176 Y30.623 E23.4176
G1 X68.774 Y30.471 E23.45882
G1 X69.384 Y30.379 E23.50003
G1 X70.021 Y30.347 E23.54264
G1 X102.637 Y30.35 E25.72156
G1 X103.026 Y30.333 E25.74757
;WIDTH:0.565178
G1 X103.414 Y30.315 E25.77183
G1 X103.264 Y30.347 E25.78141
;WIDTH:0.6
G1 X103.114 Y30.38 E25.79167
G1 X102.704 Y30.598 E25.82269
G1 X102.345 Y30.893 E25.85373
G1 X101.969 Y31.39 E25.89536
G1 X101.769 Y31.875 E25.93041
G1 X101.676 Y32.403 E25.96623
G1 X101.699 Y32.922 E26.00094
G1 X101.82 Y33.37 E26.03194
G1 X102.028 Y33.785 E26.06295
G1 X102.315 Y34.151 E26.09402
G1 X102.668 Y34.453 E26.12505
G1 X103.074 Y34.679 E26.15609
G1 X103.516 Y34.82 E26.18708
G1 X103.978 Y34.871 E26.21813
G1 X104.441 Y34.829 E26.24919
G1 X104.886 Y34.696 E26.28022
G1 X105.296 Y34.478 E26.31124
G1 X105.655 Y34.183 E26.34228
G1 X106.031 Y33.686 E26.38391
G1 X106.231 Y33.201 E26.41896
G1 X106.324 Y32.673 E26.45478
G1 X106.301 Y32.154 E26.48949
G1 X106.18 Y31.706 E26.52049
G1 X105.972 Y31.291 E26.5515
G1 X105.685 Y30.925 E26.58257
G1 X105.332 Y30.623 E26.6136
G1 X104.808 Y30.35 E26.65307
G1 X150.199 Y30.353 E29.68543
G1 X151.24 Y30.474 E29.75544
G1 X151.824 Y30.623 E29.7957
G1 X152.404 Y30.834 E29.83693
G1 X152.96 Y31.102 E29.87816
G1 X153.487 Y31.424 E29.91942
G1 X153.979 Y31.796 E29.96063
G1 X154.431 Y32.216 E30.00185
G1 X154.839 Y32.679 E30.04308
G1 X155.194 Y33.172 E30.08367
G1 X155.484 Y33.705 E30.12421
G1 X155.769 Y34.316 E30.16925
G1 X155.955 Y34.878 E30.2088
G1 X156.089 Y35.472 E30.24948
G1 X156.165 Y36.084 E30.29068
G1 X156.18 Y36.685 E30.33084
G1 X156.172 Y37.001 E30.35196
G1 X156.096 Y37.613 E30.39316
G1 X155.958 Y38.216 E30.43449
G1 X155.798 Y38.698 E30.46842
G1 X155.353 Y39.644 E30.53826
G1 X155.026 Y40.151 E30.57856
G1 X154.647 Y40.626 E30.61916
G1 X153.971 Y41.286 E30.68228
G1 X153.487 Y41.652 E30.72282
G1 X152.96 Y41.974 E30.76408
G1 X152.404 Y42.242 E30.80531
G1 X151.824 Y42.453 E30.84654
G1 X151.226 Y42.605 E30.88776
G1 X150.655 Y42.691 E30.92634
G1 E28.92634 F2400
G92 E0
G1 X96.471 Y42.773 F7800
G1 E2 F2400
;WIDTH:0.498815
G1 F1800
G1 X95.679 Y42.786 E2.04292
G1 E.04292 F2400
G92 E0
G1 X95.679 Y42.786 F7800
G1 X103.529 Y30.301
G1 E2 F2400
;WIDTH:0.502097
G1 F1800
G1 X104.322 Y30.289 E2.0433
G1 E.0433 F2400
G92 E0
G1 X104.322 Y30.289 F7800
G1 X150.662 Y43.231
G1 E2 F2400
;TYPE:External perimeter
;WIDTH:0.6
G1 F1800
G1 X149.993 Y43.264 E2.04475
G1 X69.665 Y43.256 E7.41109
G1 X68.998 Y43.189 E7.45587
G1 X68.34 Y43.056 E7.50072
G1 X67.699 Y42.858 E7.54554
G1 X67.177 Y42.641 E7.58331
G1 X66.208 Y42.092 E7.65771
G1 X65.677 Y41.69 E7.7022
G1 X65.185 Y41.234 E7.74701
G1 X64.741 Y40.731 E7.79183
G1 X64.409 Y40.273 E7.82962
G1 X63.869 Y39.303 E7.90379
G1 X63.525 Y38.356 E7.9711
G1 X63.376 Y37.706 E8.01565
G1 X63.293 Y37.044 E8.06022
G1 X63.293 Y36.032 E8.12783
G1 X63.376 Y35.37 E8.1724
G1 X63.525 Y34.716 E8.21721
G1 X63.739 Y34.081 E8.26198
G1 X64.015 Y33.47 E8.30677
G1 X64.35 Y32.889 E8.35157
G1 X64.741 Y32.344 E8.39638
G1 X65.185 Y31.842 E8.44115
G1 X65.677 Y31.386 E8.48596
G1 X66.211 Y30.981 E8.53073
G1 X66.783 Y30.631 E8.57553
G1 X67.387 Y30.34 E8.62032
G1 X68.017 Y30.111 E8.6651
G1 X68.667 Y29.945 E8.70992
G1 X69.33 Y29.845 E8.75471
G1 X70.007 Y29.812 E8.79999
G1 X150.23 Y29.818 E14.15932
G1 X151.337 Y29.947 E14.23377
G1 X151.983 Y30.111 E14.2783
G1 X152.613 Y30.34 E14.32308
G1 X153.217 Y30.631 E14.36787
G1 X153.789 Y30.981 E14.41267
G1 X154.323 Y31.386 E14.45744
G1 X154.815 Y31.842 E14.50225
G1 X155.259 Y32.344 E14.54702
G1 X155.648 Y32.886 E14.59159
G1 X155.955 Y33.449 E14.63443
G1 X156.267 Y34.12 E14.68387
G1 X156.471 Y34.733 E14.72703
G1 X156.617 Y35.379 E14.77127
G1 X156.699 Y36.044 E14.81603
G1 X156.716 Y36.698 E14.85974
G1 X156.707 Y37.041 E14.88266
G1 X156.624 Y37.706 E14.92743
G1 X156.474 Y38.36 E14.97226
G1 X156.297 Y38.897 E15.01003
G1 X155.822 Y39.905 E15.08447
G1 X155.461 Y40.464 E15.12892
G1 X155.045 Y40.986 E15.17351
G1 X154.321 Y41.692 E15.24107
G1 X153.789 Y42.095 E15.28566
G1 X153.217 Y42.445 E15.33046
G1 X152.613 Y42.736 E15.37525
G1 X151.983 Y42.965 E15.42003
G1 X151.333 Y43.131 E15.46485
G1 X150.722 Y43.223 E15.50613
G1 X150.322 Y43.247 F7800
G1 E13.50613 F2400
G92 E0
G1 X154.809 Y33.922 F7800
G1 E2 F2400
;TYPE:Solid infill
;WIDTH:0.600938
G1 F1800
G1 X153.755 Y32.868 E2.09975
G1 X153.375 Y32.515 E2.13446
G1 X152.958 Y32.199 E2.16947
G1 X152.511 Y31.926 E2.20452
G1 X152.04 Y31.699 E2.23951
G1 X151.706 Y31.578 E2.26328
G1 X154.967 Y34.838 E2.57186
G1 X155.119 Y35.37 E2.60889
G1 X155.201 Y35.831 E2.64023
G1 X150.728 Y31.359 E3.06352
G1 X150.145 Y31.291 E3.1028
G1 X149.902 Y31.291 E3.11906
G1 X155.244 Y36.633 E3.62464
G1 X155.236 Y36.93 E3.64452
G1 X155.186 Y37.334 E3.67176
G1 X149.143 Y31.291 E4.24368
G1 X148.384 Y31.291 E4.29447
G1 X155.055 Y37.961 E4.92578
G1 X154.926 Y38.35 E4.95321
G1 X154.849 Y38.514 E4.96533
G1 X147.625 Y31.291 E5.64898
G1 X146.866 Y31.291 E5.69977
G1 X154.606 Y39.03 E6.43226
G1 X154.532 Y39.188 E6.44394
G1 X154.325 Y39.508 E6.46945
G1 X146.107 Y31.29 E7.24722
G1 X145.349 Y31.29 E7.29795
G1 X153.996 Y39.938 E8.11637
G1 X153.619 Y40.319 E8.15224
G1 X144.59 Y31.29 E9.00677
G1 X143.831 Y31.29 E9.05756
G1 X153.219 Y40.679 E9.94611
G1 X152.958 Y40.877 E9.96803
G1 X152.772 Y40.99 E9.98259
G1 X143.072 Y31.29 E10.90062
G1 X142.313 Y31.29 E10.95141
G1 X152.283 Y41.26 E11.895
G1 X152.04 Y41.377 E11.91305
G1 X151.747 Y41.483 E11.9339
G1 X141.554 Y31.29 E12.89859
G1 X140.795 Y31.29 E12.94938
G1 X151.16 Y41.655 E13.93035
G1 X150.51 Y41.764 E13.97446
G1 X140.036 Y31.29 E14.96575
G1 X139.278 Y31.29 E15.01648
G1 X149.779 Y41.791 E16.01032
G1 X149.02 Y41.791 E16.06111
G1 X138.519 Y31.29 E17.05495
G1 X137.76 Y31.29 E17.10574
G1 X148.261 Y41.791 E18.09958
G1 X147.502 Y41.791 E18.15037
G1 X137.001 Y31.29 E19.14421
G1 X136.242 Y31.29 E19.195
G1 X146.743 Y41.791 E20.18884
G1 X145.985 Y41.791 E20.23957
G1 X135.483 Y31.29 E21.23346
G1 X134.724 Y31.29 E21.28425
G1 X145.226 Y41.791 E22.27814
G1 X144.467 Y41.791 E22.32893
G1 X133.966 Y31.29 E23.32277
G1 X133.207 Y31.289 E23.37356
G1 X143.708 Y41.791 E24.36745
G1 X142.949 Y41.791 E24.41824
G1 X132.448 Y31.289 E25.41213
G1 X131.689 Y31.289 E25.46292
G1 X142.19 Y41.79 E26.45676
G1 X141.431 Y41.79 E26.50755
G1 X130.93 Y31.289 E27.50139
G1 X130.171 Y31.289 E27.55218
G1 X140.672 Y41.79 E28.54602
G1 X139.913 Y41.79 E28.59681
G1 X129.412 Y31.289 E29.59065
G1 X128.654 Y31.289 E29.64138
G1 X139.155 Y41.79 E30.63522
G1 X138.396 Y41.79 E30.68601
G1 X127.895 Y31.289 E31.67985
G1 X127.136 Y31.289 E31.73064
G1 X137.637 Y41.79 E32.72448
G1 X136.878 Y41.79 E32.77527
G1 X126.377 Y31.289 E33.76911
G1 X125.618 Y31.289 E33.8199
G1 X136.119 Y41.79 E34.81374
G1 X135.36 Y41.79 E34.86453
G1 X124.859 Y31.289 E35.85837
G1 X124.1 Y31.289 E35.90916
G1 X134.601 Y41.79 E36.903
G1 X133.842 Y41.79 E36.95379
G1 X123.341 Y31.289 E37.94763
G1 X122.583 Y31.289 E37.99836
G1 X133.083 Y41.789 E38.99211
G1 X132.325 Y41.789 E39.04284
