; generated by PrusaSlicer 2.8.1+linux-x64-GTK3 on 2024-10-28 at 17:20:29 UTC

; 

; external perimeters extrusion width = 0.45mm
; perimeters extrusion width = 0.45mm
; infill extrusion width = 0.45mm
; solid infill extrusion width = 0.45mm
; top infill extrusion width = 0.40mm
; support material extrusion width = 0.40mm
; first layer extrusion width = 0.60mm

M190 S60 ; set bed temperature and wait for it to be reached
M104 S200 ; set temperature
;TYPE:Custom
G28 ; home all axes
G1 Z5 F5000 ; lift nozzle
M109 S200 ; set temperature and wait for it to be reached
G21 ; set units to millimeters
G90 ; use absolute coordinates
M82 ; use absolute distances for extrusion
G92 E0
; Filament gcode
M107
;LAYER_CHANGE
;Z:0.3
;HEIGHT:0.3
G1 E-2 F2400
G1 Z.3 F7800
G1 X58.811 Y38.484
G1 E0 F2400
;TYPE:Skirt/Brim
;WIDTH:0.6
G1 F1800
G1 X59.575 Y37.514 E.08249
G1 X60.522 Y36.52 E.17421
G1 X61.564 Y35.626 E.26593
G1 X62.689 Y34.84 E.35761
G1 X63.886 Y34.17 E.44925
G1 X65.145 Y33.623 E.54095
G1 X66.452 Y33.203 E.63266
G1 X67.775 Y32.92 E.72304
G1 X69.981 Y32.738 E.87091
G1 X150.156 Y32.739 E6.22703
G1 X151.493 Y32.82 E6.31651
G1 X152.575 Y32.981 E6.38959
G1 X153.908 Y33.305 E6.48123
G1 X155.203 Y33.76 E6.57293
G1 X157.311 Y34.84 E6.73116
G1 X158.436 Y35.626 E6.82284
G1 X159.478 Y36.52 E6.91456
G1 X160.425 Y37.514 E7.00628
G1 X161.086 Y38.343 E7.07711
G1 X161.843 Y39.487 E7.16875
G1 X162.483 Y40.701 E7.26043
G1 X163.294 Y42.927 E7.4187
G1 X163.53 Y43.961 E7.48955
G1 X163.716 Y45.321 E7.58125
G1 X163.765 Y46.692 E7.6729
G1 X163.678 Y48.062 E7.76461
G1 X163.209 Y50.384 E7.92286
G1 X162.757 Y51.68 E8.01455
G1 X162.321 Y52.646 E8.08535
G1 X161.648 Y53.843 E8.17709
G1 X160.86 Y54.966 E8.26874
G1 X159.249 Y56.703 E8.42701
G1 X158.187 Y57.573 E8.51872
G1 X157.045 Y58.333 E8.61036
G1 X156.114 Y58.84 E8.68118
G1 X154.855 Y59.387 E8.77288
G1 X153.548 Y59.807 E8.86459
G1 X152.206 Y60.094 E8.95627
G1 X150 Y60.273 E9.10413
G1 X70 Y60.273 E14.44856
G1 X68.474 Y60.187 E14.55067
G1 X67.425 Y60.029 E14.62154
G1 X66.092 Y59.705 E14.71318
G1 X64.168 Y58.976 E14.85063
G1 X62.375 Y57.967 E14.98808
G1 X60.522 Y56.49 E15.14638
G1 X59.782 Y55.731 E15.2172
G1 X58.914 Y54.668 E15.30888
G1 X57.821 Y52.924 E15.44638
G1 X56.901 Y50.741 E15.60464
G1 X56.416 Y48.742 E15.74206
G1 X56.261 Y47.378 E15.83377
G1 X56.242 Y46.006 E15.92544
G1 X56.342 Y44.775 E16.00795
G1 X56.614 Y43.29 E16.10881
G1 X57.001 Y41.973 E16.20051
G1 X57.517 Y40.701 E16.29221
G1 X58.157 Y39.487 E16.38389
G1 X58.778 Y38.534 E16.45988
G1 E14.45988 F2400
G92 E0
G1 X58.778 Y38.534 F7800
G92 E0
G1 X106.153 Y41.62
G1 E2 F2400
;TYPE:Perimeter
;WIDTH:0.6
G1 F1800
G1 X106.18 Y41.673 E2.00397
G1 X106.301 Y42.121 E2.03497
G1 X106.324 Y42.64 E2.06968
G1 X106.231 Y43.168 E2.1055
G1 X106.031 Y43.653 E2.14055
G1 X105.713 Y44.093 E2.17682
G1 X105.296 Y44.445 E2.21328
G1 X104.886 Y44.663 E2.2443
G1 X104.441 Y44.796 E2.27533
G1 X103.978 Y44.838 E2.30639
G1 X103.516 Y44.788 E2.33743
G1 X103.074 Y44.647 E2.36842
G1 X102.668 Y44.421 E2.39946
G1 X102.315 Y44.119 E2.43049
G1 X102.028 Y43.753 E2.46156
G1 X101.82 Y43.337 E2.49263
G1 X101.699 Y42.889 E2.52363
G1 X101.676 Y42.37 E2.55834
G1 X101.769 Y41.843 E2.59409
G1 X101.969 Y41.358 E2.62914
G1 X102.345 Y40.86 E2.67083
G1 X102.704 Y40.565 E2.70187
G1 X103.114 Y40.347 E2.73289
G1 X103.339 Y40.301 E2.74823
;WIDTH:0.558846
G1 X103.564 Y40.255 E2.76239
;WIDTH:0.517693
G1 X104.018 Y40.224 E2.78812
;WIDTH:0.524705
G1 X104.248 Y40.235 E2.80134
;WIDTH:0.553203
G1 X104.477 Y40.245 E2.81532
;WIDTH:0.6
G1 X104.926 Y40.364 E2.84635
G1 X105.332 Y40.59 E2.87739
G1 X105.685 Y40.892 E2.90842
G1 X105.972 Y41.258 E2.93949
G1 X106.126 Y41.566 E2.96249
G1 X106.126 Y41.566 F7800
G1 X105.659 Y41.814
;TYPE:External perimeter
G1 F1800
G1 X105.668 Y41.831 E2.96378
G1 X105.768 Y42.175 E2.98771
G1 X105.796 Y42.548 E3.0127
G1 X105.704 Y43.075 E3.04844
G1 X105.521 Y43.466 E3.07728
G1 X105.301 Y43.748 E3.10117
G1 X105.028 Y43.981 E3.12515
G1 X104.716 Y44.156 E3.14905
G1 X104.374 Y44.265 E3.17303
G1 X104.018 Y44.304 E3.19695
G1 X103.507 Y44.228 E3.23146
G1 X103.046 Y44.031 E3.26495
G1 X102.725 Y43.774 E3.29242
G1 X102.428 Y43.367 E3.32608
G1 X102.242 Y42.888 E3.36041
G1 X102.204 Y42.462 E3.38898
G1 X102.296 Y41.935 E3.42472
G1 X102.479 Y41.544 E3.45356
G1 X102.7 Y41.262 E3.4775
G1 X102.972 Y41.029 E3.50143
G1 X103.284 Y40.855 E3.5253
G1 X103.626 Y40.745 E3.5493
G1 X103.982 Y40.706 E3.57322
G1 X104.339 Y40.738 E3.59717
G1 X104.682 Y40.84 E3.62108
G1 X104.998 Y41.009 E3.64502
G1 X105.275 Y41.236 E3.66895
G1 X105.501 Y41.514 E3.69288
G1 X105.631 Y41.761 E3.71153
G1 X105.752 Y42.142 F7800
G1 E1.71153 F2400
G92 E0
G1 X97.761 Y52.009 F7800
G1 E2 F2400
;TYPE:Perimeter
G1 F1800
G1 X97.655 Y52.15 E2.01178
G1 X97.296 Y52.445 E2.04282
G1 X96.886 Y52.663 E2.07384
G1 X96.661 Y52.71 E2.0892
;WIDTH:0.559773
G1 X96.436 Y52.756 E2.10339
;WIDTH:0.519546
G1 X95.982 Y52.787 E2.12922
;WIDTH:0.526165
G1 X95.752 Y52.776 E2.14248
;WIDTH:0.554246
G1 X95.523 Y52.766 E2.15648
;WIDTH:0.6
G1 X95.074 Y52.647 E2.18751
G1 X94.668 Y52.42 E2.21858
G1 X94.315 Y52.119 E2.24957
G1 X94.028 Y51.753 E2.28064
G1 X93.82 Y51.337 E2.31171
G1 X93.699 Y50.889 E2.34271
G1 X93.676 Y50.37 E2.37742
G1 X93.769 Y49.843 E2.41317
G1 X93.969 Y49.358 E2.44822
G1 X94.287 Y48.918 E2.48449
G1 X94.704 Y48.565 E2.52099
G1 X95.114 Y48.347 E2.55201
G1 X95.559 Y48.214 E2.58304
G1 X96.022 Y48.172 E2.6141
G1 X96.484 Y48.223 E2.64515
G1 X96.926 Y48.364 E2.67614
G1 X97.332 Y48.59 E2.70718
G1 X97.708 Y48.918 E2.74051
G1 X97.972 Y49.258 E2.76927
G1 X98.18 Y49.673 E2.80028
G1 X98.301 Y50.121 E2.83128
G1 X98.324 Y50.64 E2.86599
G1 X98.231 Y51.168 E2.90181
G1 X98.031 Y51.653 E2.93686
G1 X97.797 Y51.962 E2.96275
G1 X97.797 Y51.962 F7800
G1 X97.368 Y51.662
;TYPE:External perimeter
G1 F1800
G1 X97.3 Y51.748 E2.97007
G1 X97.028 Y51.981 E2.994
G1 X96.716 Y52.156 E3.0179
G1 X96.374 Y52.265 E3.04188
G1 X96.018 Y52.304 E3.0658
G1 X95.661 Y52.272 E3.08975
G1 X95.318 Y52.17 E3.11366
G1 X95.002 Y52.002 E3.13757
G1 X94.725 Y51.774 E3.16154
G1 X94.499 Y51.496 E3.18547
G1 X94.332 Y51.179 E3.20941
G1 X94.232 Y50.836 E3.23328
G1 X94.204 Y50.462 E3.25834
G1 X94.296 Y49.935 E3.29408
G1 X94.479 Y49.544 E3.32292
G1 X94.7 Y49.262 E3.34686
G1 X94.972 Y49.029 E3.37079
G1 X95.284 Y48.855 E3.39466
G1 X95.626 Y48.745 E3.41866
G1 X95.982 Y48.706 E3.44258
G1 X96.493 Y48.782 E3.47709
G1 X96.682 Y48.84 E3.4903
G1 X97.109 Y49.097 E3.52359
G1 X97.471 Y49.47 E3.55831
G1 X97.668 Y49.831 E3.58578
G1 X97.768 Y50.175 E3.60971
G1 X97.796 Y50.548 E3.6347
G1 X97.704 Y51.075 E3.67044
G1 X97.521 Y51.466 E3.69928
G1 X97.405 Y51.615 E3.71189
G1 X97.121 Y51.897 F7800
G1 E1.71189 F2400
G92 E0
G1 X73.912 Y48.671 F7800
G1 E2 F2400
;TYPE:Perimeter
G1 F1800
G1 X73.635 Y49.162 E2.03766
G1 X73.289 Y49.552 E2.07249
G1 X73.096 Y49.712 E2.08924
G1 X72.767 Y50.081 E2.12227
G1 X72.329 Y50.305 E2.15514
G1 X71.785 Y50.655 E2.19835
G1 X71.293 Y50.796 E2.23254
G1 X71.132 Y50.815 E2.24337
G1 X70.724 Y50.949 E2.27206
G1 X70.32 Y50.996 E2.29923
G1 X69.909 Y50.965 E2.32676
G1 X69.518 Y50.999 E2.35298
G1 X69.193 Y50.939 E2.37506
G1 X68.822 Y50.803 E2.40146
G1 X68.383 Y50.723 E2.43127
G1 X68.12 Y50.61 E2.45039
G1 X67.343 Y50.14 E2.51106
G1 X67.082 Y49.932 E2.53336
G1 X66.718 Y49.553 E2.56847
G1 X66.458 Y49.315 E2.59202
G1 X66.214 Y48.878 E2.62546
G1 X66.176 Y48.755 E2.63406
G1 X66.02 Y48.585 E2.64947
G1 X65.841 Y48.267 E2.67385
G1 X65.709 Y47.672 E2.71457
G1 X65.555 Y47.221 E2.74641
G1 X65.513 Y46.848 E2.77149
G1 X65.541 Y46.417 E2.80034
G1 X65.507 Y46.005 E2.82796
G1 X65.702 Y45.326 E2.87515
G1 X65.744 Y45.013 E2.89625
G1 X65.896 Y44.623 E2.92421
G1 X66.365 Y43.848 E2.98473
G1 X66.599 Y43.56 E3.00952
G1 X66.91 Y43.289 E3.03708
G1 X67.19 Y42.963 E3.06579
G1 X67.794 Y42.633 E3.11177
G1 X68.117 Y42.401 E3.13834
G1 X69.15 Y42.087 E3.21047
G1 X69.624 Y42.019 E3.24246
G1 X70.6 Y42.028 E3.30766
G1 X71.104 Y42.18 E3.34283
G1 X71.672 Y42.309 E3.38174
G1 X72.102 Y42.542 E3.41441
G1 X72.274 Y42.666 E3.42858
G1 X72.63 Y42.851 E3.45538
G1 X73.047 Y43.213 E3.49227
G1 X73.209 Y43.41 E3.50931
G1 X73.578 Y43.74 E3.54238
G1 X73.8 Y44.176 E3.57507
G1 X74.149 Y44.72 E3.61825
G1 X74.292 Y45.218 E3.65286
G1 X74.306 Y45.366 E3.66279
G1 X74.449 Y45.814 E3.69421
G1 X74.482 Y46.318 E3.72795
G1 X74.44 Y46.535 E3.74272
G1 X74.494 Y46.834 E3.76302
G1 X74.473 Y47.155 E3.78451
G1 X74.334 Y47.546 E3.81223
G1 X74.206 Y48.153 E3.85367
G1 X73.942 Y48.619 E3.88945
G1 X73.215 Y48.808 F7800
G1 F1800
G1 X73.083 Y49.001 E3.90507
G1 X72.799 Y49.234 E3.92961
G1 X72.723 Y49.26 E3.93498
G1 X72.585 Y49.512 E3.95417
G1 X72.44 Y49.657 E3.96787
G1 X72.177 Y49.792 E3.98762
G1 X71.92 Y49.894 E4.00609
G1 X71.779 Y50.041 E4.0197
G1 X71.468 Y50.206 E4.04322
G1 X71.173 Y50.267 E4.06334
G1 X71.015 Y50.247 E4.07398
G1 X70.825 Y50.368 E4.08903
G1 X70.32 Y50.46 E4.12332
G1 X70.053 Y50.415 E4.14141
G1 X69.978 Y50.379 E4.14697
G1 X69.698 Y50.46 E4.16644
G1 X69.356 Y50.428 E4.18939
G1 X68.937 Y50.262 E4.2195
G1 X68.689 Y50.253 E4.23608
G1 X68.363 Y50.133 E4.25929
G1 X68.165 Y49.99 E4.27561
G1 X68.072 Y49.869 E4.28581
G1 X67.809 Y49.8 E4.30397
G1 X67.446 Y49.539 E4.33384
G1 X67.271 Y49.304 E4.35341
G1 X67.245 Y49.229 E4.35871
G1 X66.967 Y49.069 E4.38014
G1 X66.802 Y48.879 E4.39695
G1 X66.648 Y48.454 E4.42715
G1 X66.447 Y48.262 E4.44572
G1 X66.303 Y47.951 E4.46862
G1 X66.242 Y47.626 E4.49071
G1 X66.267 Y47.507 E4.49883
G1 X66.146 Y47.35 E4.51207
G1 X66.055 Y46.92 E4.54143
G1 X66.066 Y46.647 E4.55968
G1 X66.126 Y46.483 E4.57135
G1 X66.043 Y46.184 E4.59208
G1 X66.051 Y45.965 E4.60672
G1 X66.231 Y45.548 E4.63706
G1 X66.299 Y45.038 E4.67143
G1 X66.469 Y44.721 E4.69546
G1 X66.636 Y44.577 E4.71019
G1 X66.688 Y44.35 E4.72575
G1 X66.981 Y43.935 E4.75969
G1 X67.201 Y43.776 E4.77782
G1 X67.277 Y43.75 E4.78319
G1 X67.436 Y43.472 E4.80458
G1 X67.598 Y43.325 E4.81919
G1 X68.012 Y43.163 E4.84889
G1 X68.361 Y42.878 E4.87899
G1 X68.801 Y42.756 E4.90949
G1 X68.998 Y42.772 E4.92269
G1 X69.155 Y42.651 E4.93593
G1 X69.651 Y42.554 E4.96969
G1 X69.865 Y42.572 E4.98404
G1 X70.018 Y42.624 E4.99484
G1 X70.368 Y42.543 E5.01884
G1 X70.809 Y42.632 E5.0489
G1 X71.063 Y42.749 E5.06758
G1 X71.244 Y42.747 E5.07967
G1 X71.578 Y42.85 E5.10302
G1 X71.817 Y43.003 E5.12198
G1 X71.927 Y43.142 E5.13382
G1 X72.161 Y43.196 E5.14986
G1 X72.475 Y43.401 E5.17491
G1 X72.683 Y43.624 E5.19528
G1 X72.755 Y43.782 E5.20688
G1 X73.009 Y43.922 E5.22626
G1 X73.247 Y44.222 E5.25184
G1 X73.389 Y44.586 E5.27794
G1 X73.561 Y44.759 E5.29424
G1 X73.748 Y45.197 E5.32606
G1 X73.742 Y45.49 E5.34564
G1 X73.886 Y45.744 E5.36515
G1 X73.951 Y46.243 E5.39877
G1 X73.874 Y46.528 E5.41849
G1 X73.96 Y46.863 E5.4416
G1 X73.899 Y47.214 E5.4654
G1 X73.754 Y47.544 E5.48948
G1 X73.749 Y47.811 E5.50732
G1 X73.626 Y48.113 E5.5291
G1 X73.409 Y48.408 E5.55357
G1 X73.359 Y48.439 E5.5575
G1 X73.306 Y48.674 E5.57359
G1 X73.249 Y48.758 E5.58037
G1 X73.249 Y48.758 F7800
G1 X72.281 Y48.786
;TYPE:External perimeter
G1 F1800
G1 X72.272 Y48.959 E5.59194
G1 X72.113 Y49.233 E5.6131
G1 X71.762 Y49.345 E5.63771
G1 X71.617 Y49.3 E5.64785
G1 X71.554 Y49.492 E5.66135
G1 X71.375 Y49.665 E5.67798
G1 X71.165 Y49.731 E5.69269
G1 X70.921 Y49.676 E5.7094
G1 X70.829 Y49.623 E5.71649
G1 X70.701 Y49.82 E5.73218
G1 X70.558 Y49.891 E5.74285
G1 X70.231 Y49.91 E5.76473
G1 X70.081 Y49.824 E5.77628
G1 X70 Y49.73 E5.78457
G1 X69.856 Y49.853 E5.79722
G1 X69.559 Y49.927 E5.81767
G1 X69.238 Y49.759 E5.84187
G1 X69.167 Y49.625 E5.852
G1 X68.987 Y49.716 E5.86547
G1 X68.738 Y49.711 E5.88211
G1 X68.541 Y49.609 E5.89693
G1 X68.409 Y49.399 E5.9135
G1 X68.381 Y49.296 E5.92063
G1 X68.151 Y49.345 E5.93634
G1 X67.995 Y49.289 E5.94741
G1 X67.752 Y49.068 E5.96935
G1 X67.709 Y48.902 E5.98081
G1 X67.719 Y48.786 E5.98859
G1 X67.546 Y48.777 E6.00016
G1 X67.279 Y48.626 E6.02065
G1 X67.164 Y48.311 E6.04305
G1 X67.205 Y48.122 E6.05597
G1 X67.013 Y48.059 E6.06947
G1 X66.838 Y47.875 E6.08643
G1 X66.777 Y47.597 E6.10544
G1 X66.863 Y47.387 E6.1206
G1 X66.898 Y47.344 E6.1243
G1 X66.646 Y47.154 E6.14538
G1 X66.584 Y46.821 E6.16801
G1 X66.628 Y46.667 E6.17871
G1 X66.774 Y46.505 E6.19328
G1 X66.658 Y46.377 E6.20482
G1 X66.577 Y46.072 E6.2259
G1 X66.746 Y45.743 E6.25061
G1 X66.88 Y45.672 E6.26074
G1 X66.789 Y45.492 E6.27421
G1 X66.794 Y45.243 E6.29085
G1 X66.896 Y45.046 E6.30567
G1 X67.107 Y44.915 E6.32226
G1 X67.209 Y44.886 E6.32934
G1 X67.16 Y44.656 E6.34505
G1 X67.216 Y44.5 E6.35612
G1 X67.437 Y44.257 E6.37806
G1 X67.604 Y44.214 E6.38958
G1 X67.718 Y44.223 E6.39722
G1 X67.728 Y44.051 E6.40873
G1 X67.893 Y43.773 E6.43033
G1 X68.238 Y43.665 E6.45448
G1 X68.383 Y43.71 E6.46462
G1 X68.446 Y43.519 E6.47806
G1 X68.632 Y43.343 E6.49517
G1 X68.908 Y43.282 E6.51405
G1 X69.119 Y43.368 E6.52927
G1 X69.161 Y43.404 E6.53297
G1 X69.351 Y43.152 E6.55405
G1 X69.728 Y43.092 E6.57955
G1 X69.926 Y43.19 E6.59431
G1 X69.999 Y43.284 E6.60226
G1 X70.161 Y43.151 E6.61626
G1 X70.368 Y43.078 E6.63092
G1 X70.645 Y43.152 E6.65007
G1 X70.815 Y43.331 E6.66656
G1 X70.831 Y43.387 E6.67045
G1 X71.013 Y43.294 E6.6841
G1 X71.262 Y43.299 E6.70074
G1 X71.453 Y43.396 E6.71505
G1 X71.59 Y43.61 E6.73203
G1 X71.619 Y43.714 E6.73924
G1 X71.849 Y43.666 E6.75494
G1 X71.999 Y43.717 E6.76552
G1 X72.244 Y43.935 E6.78743
G1 X72.29 Y44.101 E6.79894
G1 X72.282 Y44.224 E6.80717
G1 X72.469 Y44.24 E6.81971
G1 X72.728 Y44.393 E6.83981
G1 X72.84 Y44.743 E6.86436
G1 X72.795 Y44.888 E6.8745
G1 X72.987 Y44.951 E6.888
G1 X73.16 Y45.13 E6.90463
G1 X73.226 Y45.342 E6.91946
G1 X73.171 Y45.584 E6.93604
G1 X73.118 Y45.676 E6.94313
G1 X73.315 Y45.805 E6.95886
G1 X73.387 Y45.954 E6.96992
G1 X73.402 Y46.282 E6.99186
G1 X73.315 Y46.431 E7.00339
G1 X73.227 Y46.505 E7.01107
G1 X73.342 Y46.634 E7.02262
G1 X73.425 Y46.922 E7.04264
G1 X73.282 Y47.233 E7.06551
G1 X73.12 Y47.338 E7.07841
G1 X73.211 Y47.518 E7.09188
G1 X73.208 Y47.762 E7.10818
G1 X73.031 Y48.028 E7.12952
G1 X72.828 Y48.106 E7.14405
G1 X72.788 Y48.105 E7.14672
G1 X72.827 Y48.428 E7.16845
G1 X72.602 Y48.73 E7.19361
G1 X72.396 Y48.796 E7.20806
G1 X72.341 Y48.792 E7.21174
G1 X72.161 Y49.149 F7800
G1 E5.21174 F2400
G92 E0
G1 X146.814 Y43.373 F7800
G1 E2 F2400
;TYPE:Perimeter
G1 F1800
G1 X146.904 Y43.298 E2.00783
G1 X147.233 Y42.929 E2.04086
G1 X148.438 Y42.285 E2.13214
G1 X149.515 Y42.029 E2.20609
G1 X149.982 Y42.05 E2.23732
G1 X150.532 Y42.017 E2.27413
G1 X151.033 Y42.145 E2.30867
G1 X151.202 Y42.208 E2.32072
G1 X151.618 Y42.288 E2.34902
G1 X152.057 Y42.508 E2.38182
G1 X152.237 Y42.654 E2.3973
G1 X152.63 Y42.851 E2.42667
G1 X152.913 Y43.069 E2.45053
G1 X153.622 Y43.801 E2.51861
G1 X153.8 Y44.175 E2.54628
G1 X154.104 Y44.622 E2.58239
G1 X154.256 Y45.012 E2.61035
G1 X154.467 Y45.951 E2.67464
G1 X154.46 Y46.594 E2.7176
G1 X154.486 Y47.073 E2.74965
G1 X154.298 Y47.683 E2.79229
G1 X154.211 Y48.14 E2.82337
G1 X153.697 Y49.074 E2.89459
G1 X153.38 Y49.471 E2.92853
G1 X153.091 Y49.721 E2.95406
G1 X152.856 Y50.007 E2.97879
G1 X152.601 Y50.191 E2.9998
G1 X152.206 Y50.377 E3.02897
G1 X151.853 Y50.624 E3.05775
G1 X151.412 Y50.779 E3.08898
G1 X151.141 Y50.81 E3.1072
G1 X150.691 Y50.954 E3.13876
G1 X150.376 Y50.991 E3.15995
G1 X149.368 Y50.981 E3.22729
G1 X148.887 Y50.799 E3.26165
G1 X148.732 Y50.799 E3.272
G1 X148.216 Y50.655 E3.30779
G1 X147.818 Y50.399 E3.3394
G1 X147.343 Y50.14 E3.37554
G1 X146.953 Y49.795 E3.41033
G1 X146.794 Y49.602 E3.42704
G1 X146.424 Y49.272 E3.46016
G1 X146.2 Y48.835 E3.49297
G1 X145.86 Y48.312 E3.53464
G1 X145.551 Y47.196 E3.612
G1 X145.518 Y46.692 E3.64574
G1 X145.56 Y46.476 E3.66044
G1 X145.505 Y46.177 E3.68075
G1 X145.527 Y45.856 E3.70224
G1 X145.706 Y45.392 E3.73546
G1 X145.724 Y45.103 E3.7548
G1 X145.794 Y44.858 E3.77182
G1 X146.365 Y43.848 E3.84933
G1 X146.711 Y43.458 E3.88416
G1 X146.767 Y43.411 E3.88904
G1 X146.767 Y43.411 F7800
G1 X147.349 Y43.619
G1 F1800
G1 X147.415 Y43.498 E3.89825
G1 X147.56 Y43.353 E3.91195
G1 X147.823 Y43.219 E3.93167
G1 X148.08 Y43.116 E3.95017
G1 X148.22 Y42.97 E3.96368
G1 X148.554 Y42.808 E3.98848
G1 X148.872 Y42.748 E4.0101
G1 X148.999 Y42.774 E4.01876
G1 X149.159 Y42.649 E4.03232
G1 X149.586 Y42.56 E4.06146
G1 X149.865 Y42.572 E4.08012
G1 X150.018 Y42.624 E4.09092
