; generated by PrusaSlicer 2.8.1+linux-x64-GTK3 on 2024-10-28 at 17:21:15 UTC

; 

; external perimeters extrusion width = 0.45mm
; perimeters extrusion width = 0.45mm
; infill extrusion width = 0.45mm
; solid infill extrusion width = 0.45mm
; top infill extrusion width = 0.40mm
; support material extrusion width = 0.40mm
; first layer extrusion width = 0.60mm

M190 S60 ; set bed temperature and wait for it to be reached
M104 S200 ; set temperature
;TYPE:Custom
G28 ; home all axes
G1 Z5 F5000 ; lift nozzle
M109 S200 ; set temperature and wait for it to be reached
G21 ; set units to millimeters
G90 ; use absolute coordinates
M82 ; use absolute distances for extrusion
G92 E0
; Filament gcode
M107
;LAYER_CHANGE
;Z:0.3
;HEIGHT:0.3
G1 E-2 F2400
G1 Z.3 F7800
G1 X83.896 Y30.31
G1 E0 F2400
;TYPE:Skirt/Brim
;WIDTH:0.6
G1 F1800
G1 X84.827 Y28.362 E.14424
G1 X85.366 Y27.509 E.21165
G1 X86.665 Y25.894 E.35011
G1 X104.155 Y8.622 E1.99225
G1 X105.83 Y7.125 E2.14233
G1 X107.651 Y5.966 E2.28653
G1 X109.636 Y5.114 E2.43084
G1 X110.742 Y4.793 E2.50778
G1 X112.875 Y4.453 E2.65207
G1 X115.034 Y4.459 E2.7963
G1 X117.164 Y4.811 E2.94053
G1 X119.211 Y5.5 E3.08482
G1 X121.12 Y6.508 E3.22904
G1 X122.843 Y7.81 E3.37331
G1 X124.334 Y9.372 E3.51757
G1 X125.556 Y11.152 E3.66181
G1 X126.476 Y13.105 E3.80603
G1 X127.072 Y15.181 E3.95032
G1 X127.326 Y17.325 E4.09455
G1 X127.326 Y18.334 E4.16196
G1 X127.133 Y20.203 E4.28748
G1 X123.535 Y38.234 E5.5158
G1 X123.142 Y39.493 E5.60391
G1 X122.411 Y40.946 E5.71257
G1 X121.547 Y42.111 E5.80947
G1 X120.369 Y43.233 E5.91815
G1 X118.906 Y44.176 E6.03443
G1 X117.565 Y44.734 E6.13146
G1 X116.474 Y45.014 E6.20671
G1 X98.438 Y48.372 E7.43232
G1 X96.392 Y48.519 E7.56936
G1 X95.384 Y48.478 E7.63676
G1 X93.252 Y48.137 E7.781
G1 X91.202 Y47.459 E7.92525
G1 X89.288 Y46.461 E8.06945
G1 X88.339 Y45.806 E8.14648
G1 X86.727 Y44.37 E8.2907
G1 X85.366 Y42.694 E8.43493
G1 X84.291 Y40.821 E8.5792
G1 X83.531 Y38.8 E8.72344
G1 X83.289 Y37.821 E8.79081
G1 X83.023 Y35.678 E8.93507
G1 X83.105 Y33.52 E9.07934
G1 X83.531 Y31.403 E9.2236
G1 X83.877 Y30.367 E9.29657
G1 E7.29657 F2400
G92 E0
G1 X83.877 Y30.367 F7800
G92 E0
G1 X114.244 Y10.7
G1 E2 F2400
;TYPE:Support material
G1 F1800
G1 X114.782 Y10.721 E2.03597
G1 X115.911 Y10.952 E2.11296
G1 X116.988 Y11.36 E2.1899
G1 X117.986 Y11.937 E2.26691
G1 X118.879 Y12.665 E2.34388
G1 X119.643 Y13.528 E2.42088
G1 X120.259 Y14.502 E2.49787
G1 X120.71 Y15.562 E2.57483
G1 X120.986 Y16.681 E2.65183
G1 X121.079 Y17.829 E2.72877
G1 X120.986 Y18.978 E2.80578
G1 X120.71 Y20.097 E2.88278
G1 X120.259 Y21.157 E2.95974
G1 X119.643 Y22.131 E3.03673
G1 X118.879 Y22.993 E3.11368
G1 X117.986 Y23.722 E3.19069
G1 X117.029 Y24.275 E3.26453
G1 X116.173 Y23.686 E3.33395
G1 X115.122 Y23.395 E3.4068
G1 X109.395 Y23.379 E3.7894
G1 X108.559 Y22.577 E3.86679
G1 X107.867 Y21.656 E3.94375
G1 X107.331 Y20.636 E4.02073
G1 X106.966 Y19.543 E4.09771
G1 X106.782 Y18.405 E4.17472
G1 X106.782 Y17.253 E4.25168
G1 X106.966 Y16.116 E4.32863
G1 X107.331 Y15.023 E4.40561
G1 X107.581 Y14.546 E4.44159
G1 X107.867 Y14.002 E4.48265
G1 X108.559 Y13.081 E4.55961
G1 X109.39 Y12.283 E4.63658
G1 X110.338 Y11.628 E4.71356
G1 X111.379 Y11.134 E4.79054
G1 X112.486 Y10.814 E4.86752
G1 X113.63 Y10.675 E4.94451
G1 X114.163 Y10.696 E4.98014
G1 X114.163 Y10.696 F7800
G1 X120.117 Y20.873
G1 F1800
G1 X120.117 Y15.4 E5.34577
G1 X119.83 Y14.727 E5.39465
G1 X119.522 Y14.239 E5.4332
G1 X119.522 Y21.419 E5.91286
G1 X118.927 Y22.212 E5.97909
G1 X118.927 Y13.447 E6.56464
G1 X118.332 Y12.841 E6.62138
G1 X118.332 Y22.817 E7.28783
G1 X117.737 Y23.303 E7.33915
G1 X117.737 Y12.355 E8.07054
G1 X117.142 Y12.006 E8.11662
G1 X117.142 Y23.653 E8.8947
G1 X117.085 Y23.686 E8.8991
G1 X116.546 Y23.334 E8.94211
G1 X116.546 Y11.709 E9.71872
G1 X115.951 Y11.483 E9.76124
G1 X115.951 Y23.081 E10.53605
G1 X115.356 Y22.939 E10.57692
G1 X115.356 Y11.331 E11.3524
G1 X114.761 Y11.209 E11.39298
G1 X114.761 Y22.897 E12.1738
G1 X114.166 Y22.897 E12.21355
G1 X114.166 Y11.179 E12.99638
G1 X113.65 Y11.158 E13.03088
G1 X113.571 Y11.168 E13.0362
G1 X113.571 Y22.897 E13.81976
G1 X112.976 Y22.897 E13.85951
G1 X112.976 Y11.24 E14.63826
G1 X112.381 Y11.346 E14.67864
G1 X112.381 Y22.897 E15.45031
G1 X111.785 Y22.897 E15.49013
G1 X111.785 Y11.519 E16.25024
G1 X111.19 Y11.758 E16.29308
G1 X111.19 Y22.897 E17.03723
G1 X110.595 Y22.897 E17.07698
G1 X110.595 Y12.04 E17.80229
G1 X110 Y12.448 E17.85049
G1 X110 Y22.897 E18.54854
G1 X109.588 Y22.897 E18.57606
G1 X109.405 Y22.721 E18.59302
G1 X109.405 Y12.937 E19.24664
G1 X108.81 Y13.55 E19.30371
G1 X108.81 Y22.109 E19.8755
G1 X108.215 Y21.282 E19.94356
G1 X108.215 Y14.377 E20.40485
G1 X107.776 Y15.212 E20.46787
G1 X107.619 Y15.682 E20.50097
G1 X107.619 Y20.666 E20.83393
G1 E18.83393 F2400
G92 E0
G1 X107.619 Y20.666 F7800
G1 X96.753 Y27.972
G1 E2 F2400
G1 F1800
G1 X97.291 Y27.994 E2.03597
G1 X98.42 Y28.224 E2.11294
G1 X99.498 Y28.633 E2.18997
G1 X100.496 Y29.209 E2.26695
G1 X101.388 Y29.938 E2.34391
G1 X101.975 Y30.6 E2.40302
G1 X101.991 Y36.527 E2.79898
G1 X102.223 Y37.444 E2.86217
G1 X102.799 Y38.357 E2.93429
G1 X102.152 Y39.403 E3.01646
G1 X101.388 Y40.266 E3.09346
G1 X100.496 Y40.994 E3.17038
G1 X99.498 Y41.571 E3.24739
G1 X98.42 Y41.979 E3.32439
G1 X97.291 Y42.21 E3.40138
G1 X96.14 Y42.256 E3.47833
G1 X94.996 Y42.117 E3.55532
G1 X93.889 Y41.797 E3.6323
G1 X92.848 Y41.303 E3.70928
G1 X91.9 Y40.648 E3.78626
G1 X91.069 Y39.85 E3.86323
G1 X90.377 Y38.928 E3.94024
G1 X89.841 Y37.908 E4.01722
G1 X89.476 Y36.815 E4.0942
G1 X89.291 Y35.678 E4.17116
G1 X89.291 Y34.525 E4.24819
G1 X89.476 Y33.388 E4.32515
G1 X89.841 Y32.295 E4.40213
G1 X90.377 Y31.275 E4.47911
G1 X91.069 Y30.354 E4.55607
G1 X91.9 Y29.555 E4.63308
G1 X92.848 Y28.901 E4.71002
G1 X93.889 Y28.407 E4.787
G1 X94.996 Y28.086 E4.864
G1 X96.14 Y27.947 E4.94099
G1 X96.673 Y27.969 E4.97663
G1 X96.673 Y27.969 F7800
G1 X101.668 Y39.586
G1 F1800
G1 X101.668 Y37.328 E5.12748
G1 X101.493 Y36.223 E5.20222
G1 X101.493 Y30.783 E5.56564
G1 X101.073 Y30.309 E5.60795
G1 X101.073 Y39.894 E6.24828
G1 X100.478 Y40.387 E6.2999
G1 X100.478 Y29.817 E7.00603
G1 X99.883 Y29.412 E7.05411
G1 X99.883 Y40.792 E7.81436
G1 X99.288 Y41.135 E7.86024
G1 X99.288 Y29.069 E8.66631
G1 X98.692 Y28.843 E8.70889
G1 X98.692 Y41.36 E9.54509
G1 X98.097 Y41.553 E9.58688
G1 X98.097 Y28.65 E10.44887
G1 X97.502 Y28.529 E10.48943
G1 X97.502 Y41.675 E11.36765
G1 X96.907 Y41.743 E11.40766
G1 X96.907 Y28.461 E12.29497
G1 X96.312 Y28.437 E12.33475
G1 X96.312 Y41.767 E13.22527
G1 X95.717 Y41.719 E13.26515
G1 X95.717 Y28.484 E14.14932
G1 X95.122 Y28.556 E14.18936
G1 X95.122 Y41.647 E15.06391
G1 X94.527 Y41.479 E15.10521
G1 X94.527 Y28.724 E15.95731
G1 X93.931 Y28.92 E15.99922
G1 X93.931 Y41.283 E16.82514
G1 X93.336 Y41.001 E16.86913
G1 X93.336 Y29.203 E17.6573
G1 X92.741 Y29.56 E17.70366
G1 X92.741 Y40.643 E18.44406
G1 X92.146 Y40.216 E18.49299
G1 X92.146 Y29.987 E19.17634
G1 X91.551 Y30.559 E19.23148
G1 X91.551 Y39.644 E19.83841
G1 X90.956 Y38.897 E19.90221
G1 X90.956 Y31.306 E20.40933
G1 X90.361 Y32.342 E20.48914
G1 X90.361 Y38.38 E20.89251
G1 E18.89251 F2400
G92 E0
G1 X90.361 Y38.38 F7800
G1 X114.753 Y25.226
G1 E2 F2400
;TYPE:Perimeter
;WIDTH:0.592002
G1 F1800
G1 X114.945 Y25.296 E2.01345
;WIDTH:0.627348
G1 X115.204 Y25.39 E2.0328
;WIDTH:0.659579
G1 X115.614 Y25.676 E2.06991
G1 X115.899 Y26.01 E2.1025
;WIDTH:0.645166
G1 X116.021 Y26.249 E2.12194
;WIDTH:0.618461
G1 X116.144 Y26.488 E2.14052
;WIDTH:0.591757
G1 X116.201 Y26.756 E2.15854
;WIDTH:0.552929
G1 X116.259 Y27.024 E2.17525
;WIDTH:0.514102
G1 X116.276 Y27.531 E2.2037
;WIDTH:0.550155
G1 X116.207 Y28.063 E2.2362
;WIDTH:0.6
G1 X116.031 Y28.552 E2.27092
G1 X115.655 Y29.049 E2.31255
G1 X115.296 Y29.344 E2.34359
G1 X114.886 Y29.563 E2.37464
G1 X114.441 Y29.695 E2.40565
G1 X113.978 Y29.737 E2.43671
G1 X113.516 Y29.687 E2.46775
G1 X113.362 Y29.643 E2.47845
G1 X112.942 Y29.478 E2.5086
G1 X112.557 Y29.231 E2.53916
G1 X112.223 Y28.909 E2.57015
G1 X111.958 Y28.522 E2.60148
G1 X111.773 Y28.083 E2.63331
G1 X111.699 Y27.788 E2.65363
G1 X111.676 Y27.269 E2.68834
G1 X111.769 Y26.742 E2.72409
G1 X111.969 Y26.257 E2.75914
G1 X112.345 Y25.76 E2.80077
G1 X112.704 Y25.464 E2.83185
G1 X113.114 Y25.246 E2.86287
G1 X113.339 Y25.199 E2.87823
;WIDTH:0.559748
G1 X113.564 Y25.153 E2.89242
;WIDTH:0.519496
G1 X114.018 Y25.122 E2.91825
;WIDTH:0.527343
G1 X114.352 Y25.162 E2.93767
;WIDTH:0.556657
G1 X114.687 Y25.201 E2.95838
;WIDTH:0.592002
G1 X114.697 Y25.205 E2.95909
G1 X114.697 Y25.205 F7800
G1 X114.575 Y25.715
;TYPE:External perimeter
;WIDTH:0.6
G1 F1800
G1 X114.74 Y25.769 E2.97069
G1 X115.126 Y26.01 E3.00109
G1 X115.471 Y26.369 E3.03435
G1 X115.668 Y26.73 E3.06182
G1 X115.768 Y27.074 E3.08575
G1 X115.796 Y27.447 E3.11074
G1 X115.704 Y27.975 E3.14654
G1 X115.521 Y28.365 E3.17532
G1 X115.301 Y28.647 E3.19921
G1 X115.028 Y28.88 E3.22319
G1 X114.716 Y29.055 E3.24709
G1 X114.374 Y29.164 E3.27107
G1 X114.018 Y29.203 E3.29499
G1 X113.507 Y29.128 E3.32949
G1 X113.046 Y28.93 E3.36301
G1 X112.725 Y28.673 E3.39048
G1 X112.428 Y28.266 E3.42414
G1 X112.242 Y27.787 E3.45847
G1 X112.204 Y27.361 E3.48704
G1 X112.296 Y26.834 E3.52278
G1 X112.479 Y26.443 E3.55162
G1 X112.699 Y26.161 E3.57551
G1 X112.972 Y25.928 E3.59949
G1 X113.284 Y25.754 E3.62336
G1 X113.626 Y25.645 E3.64734
G1 X113.982 Y25.605 E3.67127
G1 X114.339 Y25.637 E3.69522
G1 X114.518 Y25.696 E3.70781
G1 X114.881 Y25.865 F7800
G1 E1.70781 F2400
G92 E0
G1 X104.523 Y37.223 F7800
G1 E2 F2400
;TYPE:Perimeter
;WIDTH:0.660434
G1 F1800
G1 X104.255 Y36.993 E2.02626
G1 X104.014 Y36.659 E2.05688
;WIDTH:0.632592
G1 X103.882 Y36.384 E2.0785
;WIDTH:0.601318
G1 X103.815 Y36.112 E2.09726
;WIDTH:0.559406
G1 X103.747 Y35.84 E2.11457
;WIDTH:0.517494
G1 X103.725 Y35.277 E2.14641
;WIDTH:0.548705
G1 X103.794 Y34.746 E2.17876
;WIDTH:0.585865
G1 X103.843 Y34.535 E2.19285
;WIDTH:0.6
G1 X104.052 Y34.12 E2.22389
G1 X104.345 Y33.76 E2.2549
G1 X104.704 Y33.464 E2.28598
G1 X105.114 Y33.246 E2.317
G1 X105.559 Y33.113 E2.34803
G1 X106.022 Y33.071 E2.37909
G1 X106.484 Y33.122 E2.41014
G1 X106.926 Y33.263 E2.44113
G1 X107.332 Y33.489 E2.47217
G1 X107.708 Y33.817 E2.5055
G1 X107.972 Y34.157 E2.53426
G1 X108.18 Y34.572 E2.56527
G1 X108.301 Y35.02 E2.59627
G1 X108.324 Y35.539 E2.63098
G1 X108.231 Y36.067 E2.6668
G1 X108.031 Y36.552 E2.70185
G1 X107.655 Y37.049 E2.74348
G1 X107.296 Y37.344 E2.77452
G1 X106.886 Y37.563 E2.80557
G1 X106.661 Y37.609 E2.82091
;WIDTH:0.558957
G1 X106.436 Y37.655 E2.83508
;WIDTH:0.517914
G1 X105.982 Y37.686 E2.86082
;WIDTH:0.525128
G1 X105.526 Y37.651 E2.8871
;WIDTH:0.563693
G1 X105.282 Y37.59 E2.90276
;WIDTH:0.602258
G1 X105.039 Y37.529 E2.91957
;WIDTH:0.641684
G1 X104.655 Y37.336 E2.95052
;WIDTH:0.660434
G1 X104.568 Y37.262 E2.95901
G1 X104.568 Y37.262 F7800
G1 X104.881 Y36.796
;TYPE:External perimeter
;WIDTH:0.6
G1 F1800
G1 X104.688 Y36.63 E2.97602
G1 X104.499 Y36.395 E2.99617
G1 X104.353 Y36.127 E3.01656
G1 X104.232 Y35.735 E3.04397
G1 X104.204 Y35.361 E3.06903
G1 X104.296 Y34.834 E3.10477
G1 X104.479 Y34.443 E3.13361
G1 X104.7 Y34.161 E3.15755
G1 X104.972 Y33.928 E3.18148
G1 X105.284 Y33.754 E3.20535
G1 X105.626 Y33.645 E3.22933
G1 X105.982 Y33.605 E3.25326
G1 X106.493 Y33.681 E3.28777
G1 X106.954 Y33.879 E3.32129
G1 X107.297 Y34.162 E3.351
G1 X107.572 Y34.542 E3.38234
G1 X107.758 Y35.022 E3.41673
G1 X107.796 Y35.447 E3.44524
G1 X107.704 Y35.974 E3.48098
G1 X107.521 Y36.365 E3.50982
G1 X107.3 Y36.647 E3.53376
G1 X107.028 Y36.88 E3.55769
G1 X106.716 Y37.055 E3.58159
G1 X106.374 Y37.164 E3.60557
G1 X106.018 Y37.203 E3.62949
G1 X105.661 Y37.171 E3.65344
G1 X105.283 Y37.051 E3.67993
G1 X105.002 Y36.901 E3.70121
G1 X104.926 Y36.835 E3.70793
G1 X104.639 Y36.557 F7800
G1 E1.70793 F2400
G92 E0
G1 X112.084 Y25.276 F7800
G1 E2 F2400
;TYPE:Perimeter
G1 F1800
G1 X111.809 Y25.553 E2.02608
G1 X111.486 Y26.024 E2.06423
G1 X111.241 Y26.649 E2.10908
G1 X111.149 Y27.177 E2.14488
G1 X111.135 Y27.542 E2.16928
G1 X111.218 Y28.103 E2.20717
G1 X111.412 Y28.64 E2.24531
G1 X111.708 Y29.128 E2.28344
G1 X112.095 Y29.548 E2.32159
G1 X112.558 Y29.883 E2.35977
G1 X113.078 Y30.12 E2.39795
G1 X113.634 Y30.249 E2.43608
G1 X114.205 Y30.265 E2.47424
G1 X114.767 Y30.167 E2.51235
G1 X115.3 Y29.961 E2.55052
G1 X115.781 Y29.652 E2.58871
G1 X116.128 Y29.323 E2.62065
G1 X116.126 Y36.184 E3.079
G1 X116.069 Y36.535 E3.10276
G1 X115.905 Y36.905 E3.1298
G1 X115.65 Y37.215 E3.15662
G1 X115.23 Y37.448 E3.18871
G1 X114.832 Y37.53 E3.21586
G1 X107.92 Y37.53 E3.67762
G1 X108.191 Y37.255 E3.70341
G1 X108.514 Y36.784 E3.74156
G1 X108.759 Y36.159 E3.78641
G1 X108.851 Y35.632 E3.82215
G1 X108.865 Y35.267 E3.84655
G1 X108.782 Y34.706 E3.88444
G1 X108.588 Y34.169 E3.92258
G1 X108.292 Y33.68 E3.96077
G1 X107.905 Y33.26 E3.99892
G1 X107.442 Y32.925 E4.0371
G1 X106.923 Y32.689 E4.07519
G1 X106.366 Y32.56 E4.11339
G1 X105.795 Y32.544 E4.15155
G1 X105.233 Y32.641 E4.18965
G1 X104.7 Y32.848 E4.22785
G1 X104.219 Y33.156 E4.26601
G1 X103.874 Y33.483 E4.29777
G1 X103.874 Y26.739 E4.74831
G1 X103.896 Y26.467 E4.76654
G1 X104.004 Y26.074 E4.79377
G1 X104.168 Y25.799 E4.81516
G1 X104.465 Y25.505 E4.84308
G1 X104.813 Y25.347 E4.86861
G1 X105.267 Y25.275 E4.89932
G1 X112.024 Y25.276 E5.35072
G1 E3.35072 F2400
G92 E0
G1 X112.024 Y25.276 F7800
G1 X116.682 Y26.625
G1 E2 F2400
;WIDTH:0.601374
G1 F1800
G1 X116.685 Y26.643 E2.00122
;WIDTH:0.558296
G1 X116.707 Y27.002 E2.02338
;WIDTH:0.514102
G1 X116.712 Y27.569 E2.05519
;WIDTH:0.550155
G1 X116.689 Y28.105 E2.0877
;WIDTH:0.6
G1 X116.664 Y28.696 E2.12722
G1 X116.649 Y36.386 E2.64095
G1 X116.48 Y36.999 E2.68343
G1 X116.358 Y37.191 E2.69863
G1 X116.109 Y37.514 E2.72588
G1 X115.787 Y37.762 E2.75303
G1 X115.411 Y37.952 E2.78117
G1 X114.872 Y38.065 E2.81796
G1 X107.184 Y38.065 E3.33156
G1 X106.848 Y38.085 E3.35405
;WIDTH:0.560771
G1 X106.513 Y38.105 E3.37483
;WIDTH:0.521543
G1 X105.966 Y38.117 E3.40603
;WIDTH:0.525128
G1 X105.464 Y38.103 E3.43489
;WIDTH:0.56025
G1 X105.193 Y38.073 E3.45175
;WIDTH:0.595372
G1 X104.921 Y38.043 E3.46987
;WIDTH:0.638849
G1 X104.448 Y37.877 E3.50579
;WIDTH:0.65827
G1 X104.067 Y37.635 E3.53922
;WIDTH:0.660434
G1 X103.775 Y37.344 E3.56987
G1 X103.497 Y36.891 E3.60938
;WIDTH:0.632592
G1 X103.417 Y36.618 E3.62954
;WIDTH:0.603581
G1 X103.336 Y36.345 E3.64869
;WIDTH:0.574571
G1 X103.316 Y36.076 E3.66585
;WIDTH:0.543554
G1 X103.295 Y35.806 E3.68204
;WIDTH:0.512537
G1 X103.29 Y35.24 E3.71368
;WIDTH:0.548705
G1 X103.313 Y34.704 E3.74609
;WIDTH:0.574352
G1 X103.326 Y34.409 E3.76487
;WIDTH:0.6
G1 X103.339 Y26.712 E4.27907
G1 X103.422 Y26.065 E4.32265
G1 X103.606 Y25.649 E4.35304
G1 X103.892 Y25.282 E4.38412
G1 X104.166 Y25.057 E4.40781
G1 X104.665 Y24.832 E4.44438
G1 X105.24 Y24.74 E4.48328
G1 X112.815 Y24.74 E4.98933
G1 X113.151 Y24.721 E5.01181
;WIDTH:0.561564
G1 X113.487 Y24.701 E5.03268
;WIDTH:0.523128
G1 X114.034 Y24.689 E5.06399
;WIDTH:0.526724
G1 X114.536 Y24.703 E5.09295
;WIDTH:0.560084
G1 X114.804 Y24.735 E5.10964
;WIDTH:0.593445
G1 X115.072 Y24.767 E5.12745
;WIDTH:0.634539
G1 X115.53 Y24.915 E5.16168
;WIDTH:0.658945
G1 X115.957 Y25.189 E5.1993
G1 X116.298 Y25.56 E5.23667
;WIDTH:0.654982
G1 X116.487 Y25.887 E5.26449
;WIDTH:0.630511
G1 X116.614 Y26.231 E5.29038
;WIDTH:0.601374
G1 X116.672 Y26.566 E5.31315
G1 X116.672 Y26.566 F7800
G1 X117.196 Y26.612
;TYPE:External perimeter
;WIDTH:0.6
G1 F1800
G1 X117.2 Y26.643 E5.31524
G1 X117.197 Y36.141 E5.94976
G1 X117.154 Y36.666 E5.98495
G1 X116.968 Y37.229 E6.02456
G1 X116.652 Y37.729 E6.06407
G1 X116.324 Y38.056 E6.09501
G1 X115.826 Y38.372 E6.13441
G1 X115.383 Y38.531 E6.16585
G1 X114.911 Y38.601 E6.19773
G1 X105.464 Y38.601 E6.82884
G1 X104.817 Y38.568 E6.87212
G1 X104.273 Y38.405 E6.91006
G1 X103.765 Y38.112 E6.94924
G1 X103.416 Y37.796 E6.98069
G1 X103.085 Y37.313 E7.01981
G1 X102.901 Y36.863 E7.05229
G1 X102.803 Y36.315 E7.08948
G1 X102.803 Y26.497 E7.74537
G1 X102.905 Y25.908 E7.7853
G1 X103.143 Y25.371 E7.82454
G1 X103.506 Y24.906 E7.86395
G1 X103.867 Y24.61 E7.89514
G1 X104.282 Y24.388 E7.92658
G1 X104.732 Y24.252 E7.95799
G1 X105.214 Y24.204 E7.99035
G1 X114.536 Y24.204 E8.61311
G1 X115.124 Y24.237 E8.65245
