; generated by PrusaSlicer 2.8.1+linux-x64-GTK3 on 2024-10-28 at 15:08:44 UTC

; 

; external perimeters extrusion width = 0.45mm
; perimeters extrusion width = 0.45mm
; infill extrusion width = 0.45mm
; solid infill extrusion width = 0.45mm
; top infill extrusion width = 0.40mm
; support material extrusion width = 0.40mm
; first layer extrusion width = 0.60mm

M190 S60 ; set bed temperature and wait for it to be reached
M104 S200 ; set temperature
;TYPE:Custom
G28 ; home all axes
G1 Z5 F5000 ; lift nozzle
M109 S200 ; set temperature and wait for it to be reached
G21 ; set units to millimeters
G90 ; use absolute coordinates
M82 ; use absolute distances for extrusion
G92 E0
; Filament gcode
M107
;LAYER_CHANGE
;Z:0.3
;HEIGHT:0.3
G1 E-2 F2400
G1 Z.3 F7800
G1 X65.766 Y30.488
G1 E0 F2400
;TYPE:Skirt/Brim
;WIDTH:0.6
G1 F1800
G1 X66.644 Y28.751 E.13002
G1 X67.279 Y27.804 E.20619
G1 X67.988 Y26.931 E.28132
G1 X68.784 Y26.115 E.35747
G1 X69.639 Y25.385 E.43258
G1 X70.569 Y24.727 E.50869
G1 X71.542 Y24.164 E.58379
G1 X72.577 Y23.685 E.65998
G1 X74.518 Y23.064 E.79612
G1 X110.09 Y15.993 E3.21902
G1 X111.563 Y15.775 E3.3185
G1 X112.719 Y15.719 E3.39582
G1 X113.852 Y15.77 E3.47159
G1 X114.994 Y15.927 E3.5486
G1 X117.073 Y16.497 E3.69261
G1 X143.02 Y27.245 E5.56884
G1 X144.237 Y27.838 E5.65928
G1 X145.39 Y28.547 E5.7497
G1 X146.468 Y29.365 E5.8401
G1 X147.461 Y30.285 E5.93053
G1 X148.359 Y31.298 E6.02097
G1 X149.153 Y32.394 E6.11138
G1 X149.836 Y33.563 E6.20183
G1 X150.401 Y34.793 E6.29226
G1 X150.842 Y36.072 E6.38264
G1 X151.157 Y37.389 E6.4731
G1 X151.34 Y38.73 E6.56352
G1 X151.392 Y40.083 E6.65397
G1 X151.31 Y41.434 E6.74439
G1 X151.097 Y42.77 E6.83477
G1 X150.753 Y44.08 E6.92525
G1 X150.283 Y45.349 E7.01565
G1 X149.691 Y46.566 E7.10606
G1 X148.982 Y47.719 E7.19648
G1 X148.163 Y48.797 E7.28692
G1 X147.243 Y49.79 E7.37735
G1 X146.468 Y50.493 E7.44725
G1 X145.39 Y51.311 E7.53765
G1 X144.237 Y52.02 E7.62807
G1 X143.02 Y52.612 E7.71848
G1 X114.607 Y63.563 E9.75273
G1 X112.576 Y64.077 E9.89269
G1 X111.446 Y64.215 E9.96874
G1 X109.426 Y64.211 E10.10369
G1 X87.886 Y61.754 E11.55201
G1 X85.892 Y61.285 E11.68886
G1 X84.636 Y60.792 E11.779
G1 X83.631 Y60.266 E11.85478
G1 X82.381 Y59.405 E11.95618
G1 X76.679 Y54.256 E12.46943
G1 X75.987 Y53.518 E12.53702
G1 X67.244 Y42.549 E13.4741
G1 X66.133 Y40.709 E13.61769
G1 X65.55 Y39.333 E13.71752
G1 X65.236 Y38.304 E13.78939
G1 X64.997 Y37.156 E13.86773
G1 X64.871 Y36.054 E13.94183
G1 X64.845 Y34.916 E14.01787
G1 X64.924 Y33.776 E14.09421
G1 X65.098 Y32.685 E14.16802
G1 X65.391 Y31.546 E14.24659
G1 X65.746 Y30.545 E14.31754
G1 E12.31754 F2400
G92 E0
G1 X65.746 Y30.545 F7800
G92 E0
G1 X113.573 Y22.032
G1 E2 F2400
;TYPE:Support material
G1 F1800
G1 X114.674 Y22.288 E2.07551
G1 X115.707 Y22.739 E2.15081
G1 X116.64 Y23.37 E2.22606
G1 X117.429 Y24.146 E2.29999
G1 X118.089 Y25.081 E2.37645
G1 X118.558 Y26.098 E2.45127
G1 X118.837 Y27.188 E2.52644
G1 X118.915 Y28.311 E2.60164
G1 X118.789 Y29.432 E2.677
G1 X118.463 Y30.514 E2.75249
G1 X117.945 Y31.52 E2.82808
G1 X117.669 Y31.878 E2.85828
G1 X107.805 Y31.878 E3.51725
G1 X107.482 Y31.444 E3.55339
G1 X106.935 Y30.295 E3.6384
G1 X106.741 Y29.668 E3.68225
G1 X106.575 Y28.586 E3.75538
G1 X106.601 Y27.49 E3.82862
G1 X106.82 Y26.413 E3.90204
G1 X107.071 Y25.702 E3.95241
G1 X107.607 Y24.714 E4.0275
G1 X108.341 Y23.814 E4.10509
G1 X109.226 Y23.07 E4.18233
G1 X110.228 Y22.507 E4.25911
G1 X111.312 Y22.14 E4.33556
G1 X112.44 Y21.981 E4.41166
G1 X113.493 Y22.028 E4.48208
G1 X113.493 Y22.028 F7800
G1 X118.332 Y30.114
G1 F1800
G1 X118.332 Y27.16 E4.67942
G1 X118.102 Y26.26 E4.74148
G1 X117.737 Y25.468 E4.79974
G1 X117.737 Y30.872 E5.16076
G1 X117.432 Y31.395 E5.20121
G1 X117.142 Y31.395 E5.22058
G1 X117.142 Y24.571 E5.67646
G1 X116.546 Y23.954 E5.73377
G1 X116.546 Y31.395 E6.23087
G1 X115.951 Y31.395 E6.27062
G1 X115.951 Y23.486 E6.79898
G1 X115.356 Y23.112 E6.84593
G1 X115.356 Y31.395 E7.39928
G1 X114.761 Y31.395 E7.43903
G1 X114.761 Y22.852 E8.00975
G1 X114.166 Y22.665 E8.05142
G1 X114.166 Y31.395 E8.63463
G1 X113.571 Y31.395 E8.67438
G1 X113.571 Y22.526 E9.26688
G1 X112.976 Y22.488 E9.30671
G1 X112.976 Y31.395 E9.90175
G1 X112.381 Y31.395 E9.9415
G1 X112.381 Y22.476 E10.53734
G1 X111.785 Y22.56 E10.57755
G1 X111.785 Y31.395 E11.16778
G1 X111.19 Y31.395 E11.20753
G1 X111.19 Y22.69 E11.78907
G1 X110.595 Y22.891 E11.83103
G1 X110.595 Y31.395 E12.39914
G1 X110 Y31.395 E12.43889
G1 X110 Y23.188 E12.98716
G1 X109.405 Y23.549 E13.03365
G1 X109.405 Y31.395 E13.55781
G1 X108.81 Y31.395 E13.59756
G1 X108.81 Y24.05 E14.08825
G1 X108.215 Y24.731 E14.14866
G1 X108.215 Y31.395 E14.59385
G1 X108.047 Y31.395 E14.60507
G1 X107.619 Y30.667 E14.66149
G1 X107.619 Y25.196 E15.02698
G1 E13.02698 F2400
G92 E0
G1 X107.619 Y25.196 F7800
G1 X101.746 Y38.404
G1 E2 F2400
G1 F1800
G1 X97.253 Y38.404 E2.30016
G1 X97.253 Y34.454 E2.56404
G1 X101.746 Y34.454 E2.8642
G1 X101.746 Y38.324 E3.12274
G1 X101.746 Y38.324 F7800
G1 X101.073 Y38.163
G1 F1800
G1 X101.073 Y34.936 E3.33832
G1 X100.478 Y34.936 E3.37807
G1 X100.478 Y37.922 E3.57755
G1 X99.883 Y37.922 E3.6173
G1 X99.883 Y34.936 E3.81678
G1 X99.288 Y34.936 E3.85653
G1 X99.288 Y37.922 E4.05601
G1 X98.692 Y37.922 E4.09583
G1 X98.692 Y34.936 E4.29531
G1 X98.097 Y34.936 E4.33506
G1 X98.097 Y38.163 E4.55064
G1 E2.55064 F2400
G92 E0
G1 X98.097 Y38.163 F7800
G1 X91.746 Y38.404
G1 E2 F2400
G1 F1800
G1 X87.253 Y38.404 E2.30016
G1 X87.253 Y34.454 E2.56404
G1 X91.746 Y34.454 E2.8642
G1 X91.746 Y38.324 E3.12274
G1 X91.746 Y38.324 F7800
G1 X90.956 Y38.163
G1 F1800
G1 X90.956 Y34.936 E3.33832
G1 X90.361 Y34.936 E3.37807
G1 X90.361 Y37.922 E3.57755
G1 X89.766 Y37.922 E3.6173
G1 X89.766 Y34.936 E3.81678
G1 X89.17 Y34.936 E3.8566
G1 X89.17 Y37.922 E4.05608
G1 X88.575 Y37.922 E4.09583
G1 X88.575 Y34.936 E4.29531
G1 X87.98 Y34.936 E4.33506
G1 X87.98 Y38.163 E4.55064
G1 E2.55064 F2400
G92 E0
G1 X87.98 Y38.163 F7800
G1 X77.424 Y29.037
G1 E2 F2400
G1 F1800
G1 X78.005 Y29.063 E2.03885
G1 X79.075 Y29.285 E2.11185
G1 X80.117 Y29.708 E2.18698
G1 X81.014 Y30.281 E2.25809
G1 X81.156 Y30.106 E2.27315
G1 X82.134 Y29.5 E2.35001
G1 X83.35 Y29.262 E2.43279
G1 X84.692 Y29.553 E2.52453
G1 X85.827 Y30.434 E2.62052
G1 X86.463 Y31.656 E2.71255
G1 X86.483 Y31.878 E2.72744
G1 X85.732 Y31.947 E2.77782
G1 X85.081 Y32.207 E2.82465
G1 X84.786 Y32.507 E2.85276
G1 X84.66 Y32.893 E2.87989
G1 X84.659 Y46.941 E3.81837
G1 X84.786 Y47.351 E3.84704
G1 X85.081 Y47.651 E3.87515
G1 X85.545 Y47.866 E3.90931
G1 X86.384 Y47.98 E3.96587
G1 X93.825 Y47.98 E4.46297
G1 X94.42 Y49.393 E4.56539
G1 X95.038 Y47.98 E4.66842
G1 X103.827 Y47.98 E5.25557
G1 X104.582 Y49.814 E5.38807
G1 X105.4 Y48.34 E5.50069
G1 X105.695 Y47.98 E5.53178
G1 X115.329 Y47.98 E6.17538
G1 X115.775 Y48.577 E6.22516
G1 X116.275 Y49.583 E6.30021
G1 X116.584 Y50.664 E6.37532
G1 X116.692 Y51.782 E6.45036
G1 X116.596 Y52.902 E6.52546
G1 X116.299 Y53.985 E6.60048
G1 X115.81 Y54.996 E6.67551
G1 X115.155 Y55.892 E6.74966
G1 X114.321 Y56.68 E6.82631
G1 X113.391 Y57.283 E6.90036
G1 X112.355 Y57.714 E6.97532
G1 X111.258 Y57.95 E7.05028
G1 X110.136 Y57.983 E7.12527
G1 X109.026 Y57.813 E7.20029
G1 X107.964 Y57.445 E7.27538
G1 X106.986 Y56.89 E7.3505
G1 X106.123 Y56.165 E7.4258
G1 X105.405 Y55.295 E7.50116
G1 X104.879 Y54.347 E7.57359
G1 X104.502 Y53.215 E7.6533
G1 X104.314 Y52.17 E7.72423
G1 X103.564 Y53.501 E7.82629
G1 X102.839 Y54.308 E7.89876
G1 X101.875 Y55.002 E7.97811
G1 X100.776 Y55.423 E8.05673
G1 X99.686 Y55.59 E8.1304
G1 X98.598 Y55.526 E8.20321
G1 X97.543 Y55.239 E8.27625
G1 X96.538 Y54.713 E8.35203
G1 X95.695 Y53.966 E8.42728
G1 X95.057 Y53.098 E8.49925
G1 X94.388 Y51.613 E8.60806
G1 X94.111 Y52.527 E8.67186
G1 X93.563 Y53.5 E8.74646
G1 X92.838 Y54.308 E8.81898
G1 X91.873 Y55.002 E8.89839
G1 X90.774 Y55.422 E8.97699
G1 X89.685 Y55.59 E9.0506
G1 X88.596 Y55.526 E9.12348
G1 X87.542 Y55.239 E9.19646
G1 X86.536 Y54.712 E9.27233
G1 X85.693 Y53.966 E9.34753
G1 X85.056 Y53.097 E9.41951
G1 X84.617 Y52.124 E9.49082
G1 X84.408 Y51.168 E9.55619
G1 X84.359 Y50.467 E9.60313
G1 X83.818 Y50.678 E9.64192
G1 X82.213 Y50.534 E9.74957
G1 X80.888 Y49.611 E9.85745
G1 X80.161 Y48.23 E9.96171
G1 X80.172 Y46.631 E10.06853
G1 X80.226 Y46.53 E10.07618
G1 X80.037 Y46.174 E10.10311
G1 X80.037 Y44.573 E10.21007
G1 X80.454 Y43.79 E10.26933
G1 X80.037 Y43.008 E10.32854
G1 X80.037 Y41.407 E10.4355
G1 X80.504 Y40.53 E10.50188
G1 X79.078 Y41.111 E10.60475
G1 X77.977 Y41.34 E10.67988
G1 X76.853 Y41.365 E10.75499
G1 X75.743 Y41.186 E10.8301
G1 X74.683 Y40.808 E10.90528
G1 X73.71 Y40.245 E10.98038
G1 X72.855 Y39.515 E11.05549
G1 X72.146 Y38.642 E11.13062
G1 X71.634 Y37.705 E11.20195
G1 X71.418 Y37.131 E11.24292
G1 X71.265 Y36.59 E11.28048
G1 X71.113 Y35.478 E11.35546
G1 X71.165 Y34.356 E11.4305
G1 X71.265 Y33.805 E11.46791
G1 X71.634 Y32.691 E11.54631
G1 X72.145 Y31.754 E11.61761
G1 X72.854 Y30.882 E11.69269
G1 X73.709 Y30.152 E11.7678
G1 X74.682 Y29.589 E11.8429
G1 X75.74 Y29.212 E11.91793
G1 X76.821 Y29.037 E11.99109
G1 X77.343 Y29.037 E12.02596
G1 E10.02596 F2400
G92 E0
G1 X77.343 Y29.037 F7800
G1 X115.951 Y54.15
G1 E2 F2400
G1 F1800
G1 X115.951 Y50.206 E2.26348
G1 X115.823 Y49.758 E2.29461
G1 X115.356 Y48.821 E2.36455
G1 X115.356 Y54.801 E2.76405
G1 X114.761 Y55.602 E2.83071
G1 X114.761 Y48.462 E3.3077
G1 X114.166 Y48.462 E3.34745
G1 X114.166 Y56.167 E3.86219
G1 X113.571 Y56.592 E3.91104
G1 X113.571 Y48.462 E4.45417
G1 X112.976 Y48.462 E4.49392
G1 X112.976 Y56.934 E5.0599
G1 X112.381 Y57.181 E5.10294
G1 X112.381 Y48.462 E5.68542
G1 X111.785 Y48.462 E5.72524
G1 X111.785 Y57.343 E6.31854
G1 X111.19 Y57.469 E6.35917
G1 X111.19 Y48.462 E6.96089
G1 X110.595 Y48.462 E7.00064
G1 X110.595 Y57.487 E7.60356
G1 X110 Y57.475 E7.64332
G1 X110 Y48.462 E8.24544
G1 X109.405 Y48.462 E8.28519
G1 X109.405 Y57.384 E8.88123
G1 X108.81 Y57.228 E8.92232
G1 X108.81 Y48.462 E9.50794
G1 X108.215 Y48.462 E9.54769
G1 X108.215 Y57.022 E10.11954
G1 X107.619 Y56.695 E10.16496
G1 X107.619 Y48.462 E10.71497
G1 X107.024 Y48.462 E10.75472
G1 X107.024 Y56.293 E11.27787
G1 X106.429 Y55.779 E11.3304
G1 X106.429 Y48.462 E11.81922
G1 X105.923 Y48.462 E11.85302
G1 X105.834 Y48.571 E11.86242
G1 X105.834 Y55.057 E12.29572
G1 X105.239 Y53.932 E12.38074
G1 X105.239 Y49.624 E12.66854
G1 X104.644 Y50.697 E12.75051
G1 X104.644 Y52.642 E12.88045
G1 X104.644 Y52.642 F7800
G1 X104.049 Y52.15
G1 F1800
G1 X104.049 Y49.768 E13.03958
G1 X103.551 Y48.462 E13.13296
G1 X103.454 Y48.462 E13.13944
G1 X103.454 Y52.715 E13.42356
G1 X103.17 Y53.218 E13.46215
G1 X102.858 Y53.566 E13.49337
G1 X102.858 Y48.462 E13.83434
G1 X102.263 Y48.462 E13.87409
G1 X102.263 Y54.129 E14.25268
G1 X101.668 Y54.557 E14.30164
G1 X101.668 Y48.462 E14.70882
G1 X101.073 Y48.462 E14.74857
G1 X101.073 Y54.793 E15.17152
G1 X100.478 Y54.981 E15.21321
G1 X100.478 Y48.462 E15.64871
G1 X99.883 Y48.462 E15.68846
G1 X99.883 Y55.072 E16.13004
G1 X99.288 Y55.084 E16.1698
G1 X99.288 Y48.462 E16.61219
G1 X98.692 Y48.462 E16.65201
G1 X98.676 Y55.048 E17.09199
G1 X98.097 Y54.89 E17.13208
G1 X98.097 Y48.462 E17.56151
G1 X97.502 Y48.462 E17.60126
G1 X97.502 Y54.673 E18.01619
G1 X96.907 Y54.362 E18.06104
G1 X96.907 Y48.462 E18.45519
G1 X96.312 Y48.462 E18.49494
G1 X96.312 Y53.869 E18.85616
G1 X95.717 Y53.182 E18.91688
G1 X95.717 Y48.462 E19.2322
G1 X95.344 Y48.462 E19.25712
G1 X95.122 Y48.98 E19.29477
G1 X95.122 Y52.067 E19.501
G1 X94.527 Y50.747 E19.59773
G1 X94.527 Y49.756 E19.66393
G1 X94.527 Y49.756 F7800
G1 X93.931 Y52.289
G1 F1800
G1 X93.931 Y49.464 E19.85266
G1 X93.55 Y48.462 E19.92427
G1 X93.336 Y48.462 E19.93857
G1 X93.336 Y52.92 E20.23639
G1 X92.741 Y53.694 E20.30161
G1 X92.741 Y48.462 E20.65114
G1 X92.146 Y48.462 E20.69089
G1 X92.146 Y54.212 E21.07502
G1 X91.551 Y54.609 E21.1228
G1 X91.551 Y48.462 E21.53345
G1 X90.956 Y48.462 E21.5732
G1 X90.956 Y54.837 E21.99908
G1 X90.65 Y54.954 E22.02097
G1 X90.361 Y54.998 E22.0405
G1 X90.361 Y48.462 E22.47714
G1 X89.766 Y48.462 E22.51689
G1 X89.766 Y55.089 E22.95961
G1 X89.17 Y55.077 E22.99943
G1 X89.17 Y48.462 E23.44135
G1 X88.575 Y48.462 E23.4811
G1 X88.575 Y55.021 E23.91928
G1 X87.98 Y54.859 E23.96048
G1 X87.98 Y48.462 E24.38783
G1 X87.385 Y48.462 E24.42758
G1 X87.385 Y54.613 E24.8385
G1 X86.79 Y54.293 E24.88363
G1 X86.79 Y48.462 E25.27317
G1 X86.195 Y48.455 E25.31292
G1 X86.195 Y53.766 E25.66772
G1 X85.6 Y53.024 E25.73126
G1 X85.6 Y48.375 E26.04184
G1 X85.004 Y48.166 E26.08403
G1 X85.004 Y51.64 E26.31611
G1 X84.886 Y51.099 E26.3531
G1 X84.795 Y49.78 E26.44143
G1 X84.409 Y49.93 E26.4691
G1 X84.409 Y29.985 E27.80153
G1 X83.814 Y29.856 E27.8422
G1 X83.814 Y50.162 E29.19875
G1 X83.748 Y50.188 E29.20349
G1 X83.219 Y50.14 E29.23898
G1 X83.219 Y29.779 E30.59921
G1 X82.624 Y29.895 E30.63971
G1 X82.624 Y50.087 E31.98864
G1 X82.383 Y50.066 E32.0048
G1 X82.029 Y49.819 E32.03364
G1 X82.029 Y30.133 E33.34877
G1 X81.434 Y30.529 E33.39652
G1 X81.434 Y49.404 E34.65747
G1 X81.26 Y49.283 E34.67163
G1 X80.839 Y48.482 E34.73208
G1 X80.839 Y40.415 E35.271
G1 E33.271 F2400
G92 E0
G1 X80.839 Y40.415 F7800
G1 X85.6 Y31.731
G1 E2 F2400
G1 F1800
G1 X85.6 Y31.041 E2.0461
G1 X85.448 Y30.75 E2.06803
G1 X85.004 Y30.406 E2.10555
G1 X85.004 Y31.969 E2.20997
G1 X85.004 Y31.969 F7800
G1 X80.839 Y40.134
G1 F1800
G1 X80.839 Y30.741 E2.83747
G1 X80.243 Y30.361 E2.88469
G1 X80.243 Y40.116 E3.53638
G1 X79.648 Y40.358 E3.57929
G1 X79.648 Y30.038 E4.26872
G1 X79.053 Y29.796 E4.31163
G1 X79.053 Y40.601 E5.03346
G1 X78.458 Y40.747 E5.07439
G1 X78.458 Y29.649 E5.8158
G1 X77.863 Y29.539 E5.85622
G1 X77.863 Y40.86 E6.61252
G1 X77.268 Y40.873 E6.65228
G1 X77.268 Y29.519 E7.41079
G1 X76.673 Y29.549 E7.45059
G1 X76.673 Y40.847 E8.20536
G1 X76.077 Y40.751 E8.24569
G1 X76.077 Y29.645 E8.98763
G1 X75.482 Y29.815 E9.02897
G1 X75.482 Y40.581 E9.7482
G1 X74.887 Y40.369 E9.7904
G1 X74.887 Y30.027 E10.4813
G1 X74.292 Y30.371 E10.52721
G1 X74.292 Y40.025 E11.17215
G1 X73.697 Y39.601 E11.22096
G1 X73.697 Y30.796 E11.80918
G1 X73.102 Y31.341 E11.86308
G1 X73.102 Y39.055 E12.37842
G1 X72.507 Y38.298 E12.44274
G1 X72.507 Y32.099 E12.85687
G1 X71.912 Y33.323 E12.94779
G1 X71.912 Y37.711 E13.24093
G1 E11.24093 F2400
G92 E0
G1 X71.912 Y37.711 F7800
G1 X110.71 Y42.752
G1 E2 F2400
;TYPE:Perimeter
;WIDTH:0.6
G1 F1800
G1 X110.176 Y42.644 E2.0364
G1 X109.658 Y42.408 E2.07443
G1 X109.195 Y42.073 E2.11261
G1 X108.808 Y41.653 E2.15076
G1 X108.512 Y41.165 E2.18889
G1 X108.318 Y40.627 E2.2271
G1 X108.235 Y40.065 E2.26505
G1 X108.248 Y39.7 E2.28945
G1 X108.341 Y39.172 E2.32527
G1 X108.586 Y38.548 E2.37005
G1 X108.909 Y38.077 E2.4082
G1 X109.32 Y37.68 E2.44637
G1 X109.799 Y37.373 E2.48438
G1 X110.33 Y37.166 E2.52245
G1 X110.897 Y37.068 E2.56089
G1 X111.468 Y37.085 E2.59905
G1 X111.731 Y37.131 E2.61689
G1 X112.272 Y37.312 E2.655
G1 X112.767 Y37.596 E2.69312
G1 X113.196 Y37.972 E2.73123
G1 X113.542 Y38.426 E2.76936
G1 X113.791 Y38.94 E2.80751
G1 X113.934 Y39.492 E2.8456
G1 X113.964 Y40.062 E2.88373
G1 X113.881 Y40.627 E2.92188
G1 X113.688 Y41.164 E2.96
G1 X113.392 Y41.652 E2.99813
G1 X113.005 Y42.072 E3.03628
G1 X112.543 Y42.407 E3.0744
G1 X112.024 Y42.644 E3.11252
G1 X111.599 Y42.756 E3.14188
G1 X110.833 Y42.777 E3.19307
G1 X110.768 Y42.764 E3.1975
G1 X110.768 Y42.764 F7800
G1 X110.788 Y42.231
G1 F1800
G1 X110.321 Y42.128 E3.22945
G1 X109.768 Y41.845 E3.27095
G1 X109.414 Y41.543 E3.30204
G1 X109.128 Y41.177 E3.33307
G1 X108.92 Y40.762 E3.36408
G1 X108.798 Y40.312 E3.39523
G1 X108.776 Y39.792 E3.43
G1 X108.869 Y39.265 E3.46575
G1 X109.069 Y38.78 E3.5008
G1 X109.445 Y38.284 E3.54238
G1 X109.804 Y37.988 E3.57346
G1 X110.212 Y37.771 E3.60433
G1 X110.658 Y37.638 E3.63542
G1 X111.124 Y37.596 E3.66668
G1 X111.585 Y37.647 E3.69767
G1 X112.027 Y37.788 E3.72866
G1 X112.433 Y38.014 E3.7597
G1 X112.786 Y38.316 E3.79073
G1 X113.072 Y38.682 E3.82176
G1 X113.279 Y39.097 E3.85274
G1 X113.401 Y39.546 E3.88382
G1 X113.431 Y40.009 E3.91482
G1 X113.369 Y40.469 E3.94583
G1 X113.217 Y40.908 E3.97687
G1 X112.982 Y41.308 E4.00786
G1 X112.671 Y41.653 E4.03889
G1 X112.299 Y41.93 E4.06987
G1 X111.879 Y42.128 E4.10089
G1 X111.368 Y42.241 E4.13585
G1 X110.847 Y42.241 E4.17066
G1 X110.847 Y42.241 F7800
