; generated by PrusaSlicer 2.8.1+linux-x64-GTK3 on 2024-10-28 at 14:34:19 UTC

; 

; external perimeters extrusion width = 0.45mm
; perimeters extrusion width = 0.45mm
; infill extrusion width = 0.45mm
; solid infill extrusion width = 0.45mm
; top infill extrusion width = 0.40mm
; support material extrusion width = 0.40mm
; first layer extrusion width = 0.60mm

M190 S60 ; set bed temperature and wait for it to be reached
M104 S200 ; set temperature
;TYPE:Custom
G28 ; home all axes
G1 Z5 F5000 ; lift nozzle
M109 S200 ; set temperature and wait for it to be reached
G21 ; set units to millimeters
G90 ; use absolute coordinates
M82 ; use absolute distances for extrusion
G92 E0
; Filament gcode
M107
;LAYER_CHANGE
;Z:0.3
;HEIGHT:0.3
G1 E-2 F2400
G1 Z.3 F7800
G1 X55.55 Y23.003
G1 E0 F2400
;TYPE:Skirt/Brim
;WIDTH:0.6
G1 F1800
G1 X55.964 Y22.121 E.06509
G1 X56.562 Y21.141 E.14179
G1 X57.368 Y20.129 E.22822
G1 X66.812 Y10.42 E1.13307
G1 X68.089 Y9.294 E1.24681
G1 X69.021 Y8.635 E1.32306
G1 X69.995 Y8.071 E1.39825
G1 X88.007 Y-1.783 E2.76985
G1 X90.021 Y-2.536 E2.91349
G1 X91.234 Y-2.801 E2.99644
G1 X93.09 Y-2.967 E3.12093
G1 X127.594 Y-2.623 E5.4261
G1 X129.486 Y-2.405 E5.55333
G1 X130.534 Y-2.16 E5.62523
G1 X132.411 Y-1.471 E5.7588
G1 X151.232 Y8.004 E7.16649
G1 X153.152 Y9.217 E7.31821
G1 X165.187 Y18.357 E8.32779
G1 X166.397 Y19.407 E8.43482
G1 X167.2 Y20.268 E8.51347
G1 X167.885 Y21.157 E8.58845
G1 X168.513 Y22.152 E8.66705
G1 X169.02 Y23.153 E8.74201
G1 X169.451 Y24.247 E8.82056
G1 X169.762 Y25.326 E8.89558
G1 X169.981 Y26.48 E8.97405
G1 X170.085 Y27.598 E9.04906
G1 X170.085 Y28.773 E9.12756
G1 X169.979 Y29.891 E9.20258
G1 X169.758 Y31.045 E9.28107
G1 X169.446 Y32.123 E9.35604
G1 X169.014 Y33.217 E9.43462
G1 X168.505 Y34.218 E9.50964
G1 X167.876 Y35.212 E9.58822
G1 X167.189 Y36.101 E9.66328
G1 X166.385 Y36.96 E9.74188
G1 X164.691 Y38.335 E9.88764
G1 X163.504 Y39.04 E9.97987
G1 X161.504 Y39.863 E10.12435
G1 X160.364 Y40.159 E10.20303
G1 X111.567 Y46.535 E13.49064
G1 X109.794 Y46.613 E13.6092
G1 X108.655 Y46.538 E13.68546
G1 X107.149 Y46.287 E13.78746
G1 X61.858 Y36.086 E16.88894
G1 X60.938 Y35.768 E16.95397
G1 X59.787 Y35.214 E17.03931
G1 X58.197 Y34.094 E17.16924
G1 X56.86 Y32.682 E17.29915
G1 X56.299 Y31.875 E17.36481
G1 X55.754 Y30.875 E17.44089
G1 X55.38 Y29.966 E17.50656
G1 X55.031 Y28.728 E17.59249
G1 X54.861 Y27.603 E17.6685
G1 X54.821 Y26.62 E17.73422
G1 X54.917 Y25.338 E17.8201
G1 X55.142 Y24.222 E17.89615
G1 X55.531 Y23.06 E17.97801
G1 E15.97801 F2400
G92 E0
G1 X55.531 Y23.06 F7800
G92 E0
G1 X115.311 Y30.95
G1 E2 F2400
;TYPE:Support material
G1 F1800
G1 X115.81 Y31.959 E2.0752
G1 X116.117 Y33.041 E2.15034
G1 X116.222 Y34.161 E2.22549
G1 X116.124 Y35.282 E2.30066
G1 X115.823 Y36.365 E2.37575
G1 X115.332 Y37.376 E2.45083
G1 X114.674 Y38.27 E2.52499
G1 X114.24 Y38.686 E2.56515
G1 X113.833 Y39.06 E2.60208
G1 X112.901 Y39.66 E2.67613
G1 X111.861 Y40.087 E2.75124
G1 X110.76 Y40.319 E2.82641
G1 X109.635 Y40.348 E2.90159
G1 X108.523 Y40.171 E2.97681
G1 X107.461 Y39.796 E3.05205
G1 X106.484 Y39.234 E3.12735
G1 X105.625 Y38.503 E3.2027
G1 X104.912 Y37.627 E3.27816
G1 X104.397 Y36.684 E3.34994
G1 X104.175 Y36.089 E3.39237
G1 X104.027 Y35.56 E3.42907
G1 X103.877 Y34.443 E3.50436
G1 X103.878 Y33.881 E3.5419
G1 X104.041 Y32.723 E3.62002
G1 X104.373 Y31.718 E3.69073
G1 X104.913 Y30.733 E3.76577
G1 X115.149 Y30.733 E4.44959
G1 X115.263 Y30.886 E4.46234
G1 X115.263 Y30.886 F7800
G1 X115.539 Y36.4
G1 F1800
G1 X115.539 Y32.77 E4.70484
G1 X115.358 Y32.133 E4.74908
G1 X114.943 Y31.294 E4.81161
G1 X114.943 Y37.073 E5.19768
G1 X114.348 Y37.899 E5.26569
G1 X114.348 Y31.215 E5.71222
G1 X113.753 Y31.215 E5.75197
G1 X113.753 Y38.479 E6.23724
G1 X113.158 Y38.921 E6.28676
G1 X113.158 Y31.215 E6.80156
G1 X112.563 Y31.215 E6.84131
G1 X112.563 Y39.278 E7.37996
G1 X111.968 Y39.522 E7.42292
G1 X111.968 Y31.215 E7.97787
G1 X111.373 Y31.215 E8.01762
G1 X111.373 Y39.697 E8.58426
G1 X110.778 Y39.823 E8.62489
G1 X110.778 Y31.215 E9.19995
G1 X110.182 Y31.215 E9.23977
G1 X110.182 Y39.851 E9.8167
G1 X109.587 Y39.852 E9.85645
G1 X109.587 Y31.215 E10.43345
G1 X108.992 Y31.215 E10.4732
G1 X108.992 Y39.758 E11.04392
G1 X108.397 Y39.616 E11.08479
G1 X108.397 Y31.215 E11.64602
G1 X107.802 Y31.215 E11.68577
G1 X107.802 Y39.405 E12.23291
G1 X107.663 Y39.356 E12.24276
G1 X107.207 Y39.094 E12.27789
G1 X107.207 Y31.215 E12.80425
G1 X106.612 Y31.215 E12.844
G1 X106.612 Y38.71 E13.34471
G1 X106.016 Y38.203 E13.39698
G1 X106.016 Y31.215 E13.86382
G1 X105.421 Y31.215 E13.90357
G1 X105.421 Y37.489 E14.32271
G1 X104.826 Y36.456 E14.40235
G1 X104.826 Y31.392 E14.74065
G1 E12.74065 F2400
G92 E0
G1 X104.826 Y31.392 F7800
G1 X93.6 Y3.336
G1 E2 F2400
G1 F1800
G1 X94.184 Y3.396 E2.03922
G1 X95.22 Y3.694 E2.11124
G1 X96.201 Y4.204 E2.1851
G1 X97.056 Y4.892 E2.25841
G1 X97.779 Y5.761 E2.33393
G1 X98.299 Y6.723 E2.40698
G1 X98.624 Y7.781 E2.48092
G1 X98.713 Y8.683 E2.54147
G1 X96.27 Y8.683 E2.70468
G1 X95.962 Y8.99 E2.73373
G1 X95.962 Y18.818 E3.39029
G1 X95.327 Y19.187 E3.43935
G1 X94.261 Y19.56 E3.5148
G1 X93.144 Y19.724 E3.59022
G1 X92.015 Y19.673 E3.66572
G1 X90.915 Y19.409 E3.74129
G1 X89.886 Y18.942 E3.81678
G1 X88.963 Y18.287 E3.89239
G1 X88.181 Y17.468 E3.96804
G1 X87.569 Y16.516 E4.04365
G1 X87.148 Y15.465 E4.11929
G1 X86.935 Y14.354 E4.19486
G1 X86.936 Y13.222 E4.27048
G1 X87.152 Y12.112 E4.34602
G1 X87.575 Y11.063 E4.42158
G1 X87.864 Y10.616 E4.45714
G1 X87.654 Y9.839 E4.51091
G1 X87.583 Y9.12 E4.55918
G1 X87.654 Y7.927 E4.63902
G1 X87.911 Y6.97 E4.70522
G1 X88.451 Y5.873 E4.7869
G1 X89.105 Y5.031 E4.85812
G1 X89.906 Y4.342 E4.9287
G1 X90.941 Y3.756 E5.00816
G1 X91.959 Y3.425 E5.07967
G1 X93.028 Y3.301 E5.15156
G1 X93.52 Y3.331 E5.18449
G1 X93.52 Y3.331 F7800
G1 X97.685 Y8.442
G1 F1800
G1 X97.685 Y6.599 E5.30761
G1 X97.377 Y6.031 E5.35078
G1 X97.089 Y5.678 E5.38122
G1 X97.089 Y8.201 E5.54977
G1 X96.494 Y8.201 E5.58952
G1 X96.494 Y5.059 E5.79942
G1 X95.899 Y4.59 E5.85003
G1 X95.899 Y8.372 E6.10269
G1 X95.48 Y8.791 E6.14228
G1 X95.48 Y18.541 E6.79363
G1 X95.304 Y18.643 E6.80722
G1 X95.304 Y4.281 E7.76668
G1 X94.709 Y4.049 E7.80934
G1 X94.709 Y18.893 E8.801
G1 X94.114 Y19.094 E8.84296
G1 X94.114 Y3.877 E9.85954
G1 X93.519 Y3.814 E9.89951
G1 X93.519 Y19.182 E10.92618
G1 X92.924 Y19.231 E10.96606
G1 X92.924 Y3.798 E11.99707
G1 X92.328 Y3.867 E12.03715
G1 X92.328 Y19.205 E13.06181
G1 X92.083 Y19.194 E13.07819
G1 X91.733 Y19.11 E13.10224
G1 X91.733 Y4.005 E14.11134
G1 X91.138 Y4.199 E14.15315
G1 X91.138 Y18.967 E15.13973
G1 X90.543 Y18.711 E15.183
G1 X90.543 Y4.517 E16.13124
G1 X89.948 Y4.942 E16.18009
G1 X89.948 Y18.395 E17.07882
G1 X89.353 Y17.972 E17.12759
G1 X89.353 Y5.499 E17.96085
G1 X88.758 Y6.32 E18.02859
G1 X88.758 Y17.374 E18.76706
G1 X88.163 Y16.549 E18.83501
G1 X88.163 Y6.996 E19.4732
G1 X88.163 Y6.996 F7800
G1 X87.567 Y15.864
G1 F1800
G1 X87.567 Y11.727 E19.74957
G1 E17.74957 F2400
G92 E0
G1 X87.567 Y11.727 F7800
G1 X76.43 Y12.966
G1 E2 F2400
G1 F1800
G1 X77.531 Y13.195 E2.07513
G1 X78.573 Y13.62 E2.15031
G1 X79.52 Y14.227 E2.22546
G1 X80.342 Y14.995 E2.30061
G1 X81.011 Y15.899 E2.37574
G1 X81.505 Y16.909 E2.45085
G1 X81.549 Y17.069 E2.46194
G1 X81.156 Y17.603 E2.50623
G1 X80.876 Y18.15 E2.54728
G1 X80.608 Y19.101 E2.61329
G1 X80.562 Y22.683 E2.85261
G1 X70.704 Y22.683 E3.51118
G1 X70.083 Y21.611 E3.59394
G1 X69.873 Y21.051 E3.63389
G1 X69.715 Y20.501 E3.67212
G1 X69.563 Y19.39 E3.74703
G1 X69.563 Y18.835 E3.78411
G1 X69.713 Y17.722 E3.85914
G1 X70.082 Y16.605 E3.93773
G1 X70.593 Y15.667 E4.00909
G1 X71.303 Y14.792 E4.08437
G1 X72.159 Y14.061 E4.15957
G1 X73.134 Y13.497 E4.23482
G1 X74.194 Y13.119 E4.31
G1 X75.305 Y12.941 E4.38517
G1 X76.35 Y12.964 E4.455
G1 X76.35 Y12.964 F7800
G1 X80.426 Y18.774
G1 F1800
G1 X80.426 Y15.919 E4.64573
G1 X79.831 Y15.177 E4.70927
G1 X79.831 Y22.201 E5.17851
G1 X79.236 Y22.201 E5.21826
G1 X79.236 Y14.62 E5.72471
G1 X78.64 Y14.236 E5.77207
G1 X78.64 Y22.201 E6.30418
G1 X78.045 Y22.201 E6.34393
G1 X78.045 Y13.925 E6.89681
G1 X77.45 Y13.683 E6.93972
G1 X77.45 Y22.201 E7.50877
G1 X76.855 Y22.201 E7.54852
G1 X76.855 Y13.547 E8.12665
G1 X76.26 Y13.444 E8.16699
G1 X76.26 Y22.201 E8.75201
G1 X75.665 Y22.201 E8.79176
G1 X75.665 Y13.431 E9.37764
G1 X75.07 Y13.467 E9.41746
G1 X75.07 Y22.201 E10.00094
G1 X74.474 Y22.201 E10.04076
G1 X74.474 Y13.563 E10.61783
G1 X74.314 Y13.588 E10.62865
G1 X73.879 Y13.743 E10.6595
G1 X73.879 Y22.201 E11.22454
G1 X73.284 Y22.201 E11.26429
G1 X73.284 Y13.967 E11.81437
G1 X72.689 Y14.311 E11.86028
G1 X72.689 Y22.201 E12.38737
G1 X72.094 Y22.201 E12.42712
G1 X72.094 Y14.75 E12.92489
G1 X71.499 Y15.316 E12.97975
G1 X71.499 Y22.201 E13.43971
G1 X70.953 Y22.201 E13.47619
G1 X70.904 Y22.11 E13.48309
G1 X70.904 Y16.105 E13.88426
G1 X70.521 Y16.806 E13.93762
G1 X70.309 Y17.389 E13.97906
G1 X70.309 Y21.521 E14.2551
G1 E12.2551 F2400
G92 E0
G1 X70.309 Y21.521 F7800
G1 X128.585 Y3.797
G1 E2 F2400
G1 F1800
G1 X129.593 Y4.127 E2.07086
G1 X130.094 Y4.383 E2.10845
G1 X130.598 Y4.661 E2.1469
G1 X131.477 Y5.344 E2.22127
G1 X132.272 Y6.243 E2.30144
G1 X132.861 Y7.276 E2.38088
G1 X133.253 Y8.348 E2.45713
G1 X133.396 Y9.102 E2.5084
G1 X133.274 Y10.877 E2.62726
G1 X133.063 Y11.992 E2.70307
G1 X132.81 Y12.681 E2.7521
G1 X132.395 Y13.412 E2.80826
G1 X131.643 Y14.336 E2.88785
G1 X131.269 Y14.661 E2.92095
G1 X131.179 Y16 E3.0106
G1 X130.833 Y17.074 E3.08598
G1 X130.289 Y18.031 E3.15952
G1 X129.564 Y18.851 E3.23264
G1 X128.63 Y19.544 E3.31034
G1 X127.644 Y19.999 E3.38289
G1 X126.555 Y20.248 E3.45752
G1 X125.483 Y20.267 E3.52915
G1 X124.299 Y20.039 E3.6097
G1 X123.212 Y18.99 E3.71062
G1 X123.212 Y8.99 E4.37867
G1 X122.905 Y8.683 E4.40767
G1 X121.131 Y8.683 E4.52618
G1 X121.39 Y7.26 E4.62281
G1 X122.14 Y6.131 E4.71336
G1 X122.779 Y5.407 E4.77787
G1 X123.584 Y4.724 E4.8484
G1 X124.488 Y4.228 E4.91729
G1 X125.494 Y3.86 E4.98885
G1 X126.485 Y3.67 E5.05626
G1 X127.531 Y3.644 E5.12616
G1 X128.506 Y3.786 E5.19198
G1 X128.506 Y3.786 F7800
G1 X132.797 Y12.016
G1 F1800
G1 X132.797 Y8.535 E5.42453
G1 X132.422 Y7.48 E5.49933
G1 X132.202 Y7.094 E5.52901
G1 X132.202 Y12.775 E5.90853
G1 X131.607 Y13.626 E5.9779
G1 X131.607 Y6.219 E6.47273
G1 X131.012 Y5.593 E6.53043
G1 X131.012 Y14.246 E7.1085
G1 X130.764 Y14.462 E7.13047
G1 X130.809 Y14.9 E7.15988
G1 X130.704 Y15.902 E7.22719
G1 X130.417 Y16.797 E7.28998
G1 X130.417 Y5.131 E8.06933
G1 X129.822 Y4.786 E8.11528
G1 X129.822 Y17.832 E8.98682
G1 X129.227 Y18.502 E9.04668
G1 X129.227 Y4.514 E9.98115
G1 X128.631 Y4.32 E10.02302
G1 X128.631 Y18.951 E11.00045
G1 X128.036 Y19.287 E11.0461
G1 X128.036 Y4.205 E12.05366
G1 X127.441 Y4.129 E12.09373
G1 X127.441 Y19.551 E13.124
G1 X126.846 Y19.687 E13.16477
G1 X126.846 Y4.143 E14.20319
G1 X126.251 Y4.206 E14.24316
G1 X126.251 Y19.771 E15.28299
G1 X125.656 Y19.782 E15.32275
G1 X125.656 Y4.32 E16.3557
G1 X125.061 Y4.521 E16.39766
G1 X125.061 Y19.711 E17.41243
G1 X124.492 Y19.588 E17.45132
G1 X124.466 Y4.79 E18.43991
G1 X123.87 Y5.116 E18.48529
G1 X123.87 Y18.967 E19.41061
G1 X123.694 Y18.791 E19.42724
G1 X123.694 Y8.791 E20.09529
G1 X123.275 Y8.372 E20.13488
G1 X123.275 Y5.618 E20.31886
G1 X122.68 Y6.247 E20.3767
G1 X122.68 Y8.201 E20.50724
G1 X122.085 Y8.201 E20.54699
G1 X122.085 Y6.649 E20.65067
G1 E18.65067 F2400
G92 E0
G1 X146.271 Y12.949 F7800
G1 E2 F2400
G1 F1800
G1 X147.372 Y13.178 E2.07513
G1 X148.414 Y13.602 E2.15028
G1 X149.361 Y14.208 E2.22539
G1 X150.183 Y14.976 E2.30054
G1 X150.853 Y15.88 E2.37571
G1 X151.347 Y16.89 E2.45082
G1 X151.65 Y17.973 E2.52595
G1 X151.752 Y19.091 E2.60095
G1 X151.701 Y19.649 E2.63838
G1 X151.649 Y20.215 E2.67635
G1 X151.345 Y21.296 E2.75137
G1 X150.85 Y22.306 E2.82651
G1 X150.57 Y22.683 E2.85788
G1 X140.56 Y22.683 E3.5266
G1 X139.927 Y21.595 E3.61069
G1 X139.715 Y21.03 E3.651
G1 X139.558 Y20.483 E3.68902
G1 X139.406 Y19.371 E3.764
G1 X139.406 Y18.815 E3.80114
G1 X139.558 Y17.702 E3.87618
G1 X139.926 Y16.587 E3.95462
G1 X140.437 Y15.649 E4.02598
G1 X141.118 Y14.81 E4.09817
G1 X141.569 Y14.398 E4.13898
G1 X142.041 Y14.022 E4.17929
G1 X142.976 Y13.481 E4.25146
G1 X144.036 Y13.103 E4.32664
G1 X145.146 Y12.924 E4.40175
G1 X146.191 Y12.947 E4.47158
G1 X146.191 Y12.947 F7800
G1 X151.247 Y20.755
G1 F1800
G1 X151.247 Y18.858 E4.59831
G1 X151.174 Y18.061 E4.65178
G1 X150.895 Y17.062 E4.72107
G1 X150.651 Y16.565 E4.75806
G1 X150.651 Y21.616 E5.09549
G1 X150.328 Y22.201 E5.14013
G1 X150.056 Y22.201 E5.1583
G1 X150.056 Y15.614 E5.59835
G1 X149.461 Y14.961 E5.65737
G1 X149.461 Y22.201 E6.14104
G1 X148.866 Y22.201 E6.18079
G1 X148.866 Y14.463 E6.69773
G1 X148.271 Y14.083 E6.74489
G1 X148.271 Y22.201 E7.28722
G1 X147.676 Y22.201 E7.32697
G1 X147.676 Y13.822 E7.88673
G1 X147.081 Y13.609 E7.92895
G1 X147.081 Y22.201 E8.50294
G1 X146.485 Y22.201 E8.54276
G1 X146.485 Y13.486 E9.12497
G1 X145.89 Y13.423 E9.16494
G1 X145.89 Y22.201 E9.75136
G1 X145.295 Y22.201 E9.79111
G1 X145.295 Y13.41 E10.3784
G1 X145.18 Y13.407 E10.38609
G1 X144.7 Y13.484 E10.41857
G1 X144.7 Y22.201 E11.00091
G1 X144.105 Y22.201 E11.04066
G1 X144.105 Y13.59 E11.61592
G1 X143.51 Y13.802 E11.65812
G1 X143.51 Y22.201 E12.21922
G1 X142.915 Y22.201 E12.25897
G1 X142.915 Y14.073 E12.80196
G1 X142.32 Y14.418 E12.84791
G1 X142.32 Y22.201 E13.36786
G1 X141.724 Y22.201 E13.40768
G1 X141.724 Y14.909 E13.89483
G1 X141.129 Y15.562 E13.95385
G1 X141.129 Y22.201 E14.39737
G1 X140.806 Y22.201 E14.41895
G1 X140.534 Y21.702 E14.45692
G1 X140.534 Y16.479 E14.80584
G1 X140.17 Y17.309 E14.86639
G1 X139.939 Y18.301 E14.93443
G1 X139.939 Y20.938 E15.1106
G1 E13.1106 F2400
G92 E0
G1 X139.939 Y20.938 F7800
G1 X155.332 Y21.605
G1 E2 F2400
G1 F1800
G1 X156.371 Y22.04 E2.07525
G1 X156.766 Y22.317 E2.10748
G1 X157.137 Y22.236 E2.13285
G1 X158.229 Y22.206 E2.20583
G1 X159.4 Y22.396 E2.28508
G1 X160.43 Y22.772 E2.35833
G1 X161.395 Y23.348 E2.43341
G1 X162.236 Y24.094 E2.50851
G1 X162.921 Y24.984 E2.58354
G1 X163.429 Y25.986 E2.65859
G1 X163.74 Y27.064 E2.73354
G1 X163.845 Y28.182 E2.80856
G1 X163.739 Y29.299 E2.88352
G1 X163.426 Y30.377 E2.95851
G1 X162.917 Y31.379 E3.03359
G1 X162.23 Y32.267 E3.10859
G1 X161.404 Y32.999 E3.18232
G1 X160.399 Y33.596 E3.26041
G1 X159.365 Y33.971 E3.33389
G1 X158.254 Y34.151 E3.40908
G1 X157.169 Y34.12 E3.48159
G1 X156.595 Y34.011 E3.52062
G1 X155.996 Y33.863 E3.56184
G1 X154.995 Y33.434 E3.63459
G1 X154.063 Y32.805 E3.70971
G1 X153.195 Y31.907 E3.79315
G1 X152.175 Y31.851 E3.86139
G1 X152.205 Y30.733 E3.93611
G1 X154.205 Y30.733 E4.06972
G1 X154.325 Y29.819 E4.1313
G1 X153.576 Y29.612 E4.18321
G1 X153.025 Y29.356 E4.2238
G1 X152.536 Y28.998 E4.26429
G1 X152.038 Y28.426 E4.31496
G1 X151.75 Y27.892 E4.35549
G1 X151.572 Y27.312 E4.39602
G1 X151.512 Y26.708 E4.43657
G1 X151.606 Y25.955 E4.48726
G1 X151.956 Y25.117 E4.54793
G1 X152.536 Y24.417 E4.60866
G1 X153.294 Y23.918 E4.66929
G1 X154.325 Y23.596 E4.74145
G1 X154.205 Y22.683 E4.80297
G1 X151.624 Y22.683 E4.97539
G1 X151.503 Y22.02 E5.02041
G1 X153.058 Y21.435 E5.1314
G1 X154.225 Y21.4 E5.2094
G1 X155.253 Y21.59 E5.27924
G1 X155.253 Y21.59 F7800
G1 X163.149 Y30.39
G1 F1800
G1 X163.149 Y26.755 E5.52208
G1 X162.978 Y26.163 E5.56325
G1 X162.554 Y25.325 E5.62599
G1 X162.554 Y31.029 E6.00705
G1 X161.959 Y31.83 E6.07371
G1 X161.959 Y24.525 E6.56172
G1 X161.364 Y23.965 E6.61631
G1 X161.364 Y32.391 E7.17921
G1 X160.769 Y32.824 E7.22837
G1 X160.769 Y23.536 E7.84886
G1 X160.173 Y23.192 E7.89483
G1 X160.173 Y33.165 E8.56108
G1 X159.578 Y33.381 E8.60337
G1 X159.578 Y22.974 E9.29861
G1 X158.983 Y22.81 E9.33984
G1 X158.983 Y33.545 E10.057
G1 X158.388 Y33.641 E10.09726
G1 X158.388 Y22.715 E10.82718
G1 X157.793 Y22.7 E10.86694
G1 X157.793 Y33.655 E11.59879
G1 X157.198 Y33.635 E11.63856
G1 X157.198 Y22.716 E12.36801
G1 X156.603 Y22.79 E12.40807
G1 X156.603 Y33.517 E13.12469
G1 X156.008 Y33.343 E13.1661
G1 X156.008 Y22.41 E13.89648
G1 X155.412 Y22.161 E13.93963
G1 X155.412 Y33.088 E14.66961
G1 X154.817 Y32.732 E14.71593
G1 X154.817 Y22 E15.43289
G1 X154.222 Y21.889 E15.47332
G1 X154.222 Y22.201 E15.49416
G1 X153.627 Y22.201 E15.53391
G1 X153.627 Y21.9 E15.55402
G1 X153.153 Y21.914 E15.5857
G1 X153.032 Y21.96 E15.59435
