; generated by PrusaSlicer 2.8.1+linux-x64-GTK3 on 2024-10-27 at 17:25:42 UTC

; 

; external perimeters extrusion width = 0.45mm
; perimeters extrusion width = 0.45mm
; infill extrusion width = 0.45mm
; solid infill extrusion width = 0.45mm
; top infill extrusion width = 0.40mm
; support material extrusion width = 0.40mm
; first layer extrusion width = 0.60mm

M190 S60 ; set bed temperature and wait for it to be reached
M104 S200 ; set temperature
;TYPE:Custom
G28 ; home all axes
G1 Z5 F5000 ; lift nozzle
M109 S200 ; set temperature and wait for it to be reached
G21 ; set units to millimeters
G90 ; use absolute coordinates
M82 ; use absolute distances for extrusion
G92 E0
; Filament gcode
M107
;LAYER_CHANGE
;Z:0.3
;HEIGHT:0.3
G1 E-2 F2400
G1 Z.3 F7800
G1 X81.259 Y37.657
G1 E0 F2400
;TYPE:Skirt/Brim
;WIDTH:0.6
G1 F1800
G1 X90.811 Y19.424 E1.37509
G1 X91.385 Y18.377 E1.45486
G1 X92.022 Y17.431 E1.53105
G1 X101.071 Y6.747 E2.4664
G1 X101.791 Y6.027 E2.53442
G1 X102.659 Y5.313 E2.6095
G1 X104.044 Y4.421 E2.71955
G1 X105.001 Y3.95 E2.79081
G1 X106.254 Y3.493 E2.87991
G1 X107.346 Y3.221 E2.95509
G1 X108.668 Y3.039 E3.04424
G1 X109.792 Y3.005 E3.11936
G1 X111.123 Y3.106 E3.20853
G1 X112.23 Y3.311 E3.28374
G1 X113.509 Y3.692 E3.37289
G1 X114.548 Y4.127 E3.44814
G1 X115.718 Y4.771 E3.53736
G1 X116.641 Y5.416 E3.61259
G1 X117.649 Y6.293 E3.70185
G1 X118.415 Y7.119 E3.77711
G1 X119.213 Y8.19 E3.86634
G1 X119.787 Y9.16 E3.94164
G1 X120.34 Y10.376 E4.03088
G1 X120.695 Y11.445 E4.10613
G1 X120.979 Y12.751 E4.19542
G1 X121.133 Y14.66 E4.32337
G1 X119.289 Y106.248 E10.44318
G1 X118.876 Y108.139 E10.57249
G1 X118.239 Y109.653 E10.68222
G1 X117.278 Y111.141 E10.80056
G1 X115.932 Y112.545 E10.93049
G1 X114.606 Y113.499 E11.03962
G1 X113.01 Y114.268 E11.15797
G1 X111.437 Y114.71 E11.26712
G1 X109.5 Y114.887 E11.39706
G1 X108.045 Y114.765 E11.4946
G1 X106.63 Y114.429 E11.59176
G1 X105.271 Y113.882 E11.68963
G1 X104.018 Y113.144 E11.78678
G1 X103.068 Y112.394 E11.86764
G1 X93.388 Y103.644 E12.73935
G1 X92.733 Y102.954 E12.80291
G1 X92.025 Y102.085 E12.87779
G1 X91.397 Y101.156 E12.9527
G1 X81.005 Y82.248 E14.39407
G1 X80.582 Y81.196 E14.46982
G1 X80.244 Y80.047 E14.54983
G1 X80.028 Y78.934 E14.62557
G1 X79.914 Y77.744 E14.70543
G1 X79.916 Y42.725 E17.04489
G1 X80.025 Y41.559 E17.12312
G1 X80.235 Y40.449 E17.19859
G1 X80.568 Y39.304 E17.27825
G1 X81.235 Y37.712 E17.39356
G1 E15.39356 F2400
G92 E0
G1 X81.235 Y37.712 F7800
G92 E0
G1 X100.656 Y88.652
G1 E2 F2400
;TYPE:Support material
G1 F1800
G1 X101.395 Y88.964 E2.05359
G1 X102.18 Y89.124 E2.10711
G1 X104.759 Y89.145 E2.27941
G1 X105.562 Y89.637 E2.34232
G1 X105.562 Y99.702 E3.01472
G1 X104.844 Y100.161 E3.07165
G1 X103.803 Y100.584 E3.14672
G1 X102.703 Y100.811 E3.22175
G1 X101.581 Y100.836 E3.29672
G1 X100.473 Y100.657 E3.3717
G1 X99.416 Y100.281 E3.44665
G1 X98.445 Y99.721 E3.52153
G1 X97.591 Y98.994 E3.59645
G1 X96.883 Y98.125 E3.67133
G1 X96.369 Y97.189 E3.74267
G1 X95.998 Y96.077 E3.82098
G1 X95.843 Y94.966 E3.89592
G1 X95.843 Y94.387 E3.9346
G1 X95.996 Y93.272 E4.00979
G1 X96.368 Y92.153 E4.08857
G1 X96.884 Y91.212 E4.16026
G1 X97.596 Y90.341 E4.23541
G1 X98.453 Y89.613 E4.31053
G1 X99.428 Y89.053 E4.38564
G1 X100.577 Y88.664 E4.46668
G1 X100.577 Y88.664 F7800
G1 X104.968 Y99.796
G1 F1800
G1 X104.968 Y89.828 E5.1326
G1 X104.654 Y89.627 E5.15751
G1 X104.373 Y89.627 E5.17628
G1 X104.373 Y99.832 E5.85803
G1 X103.778 Y100.074 E5.90094
G1 X103.778 Y89.627 E6.59886
G1 X103.182 Y89.627 E6.63868
G1 X103.182 Y100.22 E7.34635
G1 X102.587 Y100.331 E7.38678
G1 X102.587 Y89.627 E8.10187
G1 X101.992 Y89.587 E8.14171
G1 X101.992 Y100.344 E8.86034
G1 X101.397 Y100.318 E8.90013
G1 X101.397 Y89.466 E9.6251
G1 X100.802 Y89.258 E9.66721
G1 X100.802 Y100.222 E10.39966
G1 X100.207 Y100.051 E10.44102
G1 X100.207 Y89.289 E11.15998
G1 X99.612 Y89.503 E11.20222
G1 X99.612 Y99.837 E11.89259
G1 X99.016 Y99.494 E11.93853
G1 X99.016 Y89.845 E12.58314
G1 X98.421 Y90.272 E12.63207
G1 X98.421 Y99.067 E13.21962
G1 X97.826 Y98.519 E13.27366
G1 X97.826 Y90.821 E13.78793
G1 X97.231 Y91.582 E13.85246
G1 X97.231 Y97.757 E14.26498
G1 X96.636 Y96.53 E14.35608
G1 X96.636 Y92.165 E14.64769
G1 E12.64769 F2400
G92 E0
G1 X91.562 Y73.437 F7800
G1 E2 F2400
G1 F1800
G1 X91.87 Y73.745 E2.0291
G1 X101.87 Y73.745 E2.69715
G1 X103.454 Y75.329 E2.8468
G1 X103.591 Y75.783 E2.87848
G1 X103.719 Y76.904 E2.95386
G1 X103.643 Y78.028 E3.02912
G1 X103.368 Y79.115 E3.10403
G1 X102.894 Y80.15 E3.18008
G1 X102.207 Y81.113 E3.25911
G1 X101.407 Y81.272 E3.3136
G1 X100.668 Y81.582 E3.36714
G1 X99.845 Y82.174 E3.43487
G1 X99.157 Y83.016 E3.50751
G1 X98.35 Y83.194 E3.56272
G1 X97.242 Y83.239 E3.6368
G1 X96.147 Y83.093 E3.7106
G1 X95.066 Y82.748 E3.78641
G1 X94.679 Y82.532 E3.81602
G1 X93.521 Y82.94 E3.89804
G1 X92.405 Y83.107 E3.97342
G1 X91.276 Y83.059 E4.04891
G1 X90.176 Y82.798 E4.12444
G1 X89.145 Y82.332 E4.20003
G1 X88.22 Y81.679 E4.27567
G1 X87.436 Y80.861 E4.35136
G1 X86.821 Y79.909 E4.42708
G1 X86.398 Y78.857 E4.50283
G1 X86.182 Y77.744 E4.57857
G1 X86.183 Y76.61 E4.65433
G1 X86.399 Y75.497 E4.73007
G1 X86.822 Y74.445 E4.80582
G1 X87.437 Y73.494 E4.88148
G1 X88.222 Y72.677 E4.95717
G1 X89.147 Y72.025 E5.03277
G1 X90.177 Y71.56 E5.10827
G1 X91.562 Y71.287 E5.20258
G1 X91.562 Y73.357 E5.34087
G1 X91.562 Y73.357 F7800
G1 X103.182 Y78.867
G1 F1800
G1 X103.182 Y76.453 E5.50214
G1 X103.117 Y75.881 E5.5406
G1 X103.027 Y75.584 E5.56133
G1 X102.587 Y75.144 E5.6029
G1 X102.587 Y79.668 E5.90513
G1 X101.992 Y80.601 E5.97906
G1 X101.992 Y74.549 E6.38337
G1 X101.67 Y74.227 E6.41379
G1 X101.397 Y74.227 E6.43203
G1 X101.397 Y80.774 E6.86941
G1 X100.802 Y80.982 E6.91152
G1 X100.802 Y74.227 E7.36279
G1 X100.207 Y74.227 E7.40254
G1 X100.207 Y81.293 E7.87459
G1 X99.612 Y81.736 E7.92415
G1 X99.612 Y74.227 E8.42579
G1 X99.016 Y74.227 E8.46561
G1 X99.016 Y82.371 E9.00967
G1 X98.86 Y82.588 E9.02752
G1 X98.421 Y82.684 E9.05754
G1 X98.421 Y74.227 E9.62251
G1 X97.826 Y74.227 E9.66226
G1 X97.826 Y82.733 E10.23051
G1 X97.231 Y82.752 E10.27028
G1 X97.231 Y74.227 E10.8398
G1 X96.636 Y74.227 E10.87955
G1 X96.636 Y82.672 E11.44372
G1 X96.041 Y82.553 E11.48426
G1 X96.041 Y74.227 E12.04048
G1 X95.446 Y74.227 E12.08023
G1 X95.446 Y82.363 E12.62376
G1 X95.259 Y82.304 E12.63686
G1 X94.851 Y82.076 E12.66808
G1 X94.851 Y74.227 E13.19244
G1 X94.255 Y74.227 E13.23226
G1 X94.255 Y82.17 E13.7629
G1 X93.66 Y82.38 E13.80505
G1 X93.66 Y74.227 E14.34971
G1 X93.065 Y74.227 E14.38946
G1 X93.065 Y82.521 E14.94354
G1 X92.47 Y82.609 E14.98372
G1 X92.47 Y74.227 E15.54368
G1 X91.875 Y74.227 E15.58343
G1 X91.875 Y82.602 E16.14293
G1 X91.28 Y82.564 E16.18276
G1 X91.28 Y73.837 E16.76577
G1 X91.08 Y73.637 E16.78467
G1 X91.08 Y71.841 E16.90465
G1 X90.685 Y71.935 E16.93178
G1 X90.685 Y82.423 E17.63244
G1 X90.089 Y82.23 E17.67429
G1 X90.089 Y72.128 E18.34916
G1 X89.494 Y72.397 E18.39278
G1 X89.494 Y81.961 E19.03171
G1 X88.899 Y81.568 E19.07935
G1 X88.899 Y72.789 E19.66583
G1 X88.304 Y73.288 E19.71771
G1 X88.304 Y81.07 E20.23759
G1 X87.709 Y80.396 E20.29765
G1 X87.709 Y73.962 E20.72748
G1 X87.114 Y75.011 E20.80805
G1 X87.114 Y79.919 E21.13593
G1 E19.13593 F2400
G92 E0
G1 X87.114 Y79.919 F7800
G1 X92.884 Y37.415
G1 E2 F2400
G1 F1800
G1 X93.498 Y37.503 E2.04144
G1 X94.744 Y37.977 E2.1305
G1 X95.605 Y37.634 E2.19242
G1 X96.706 Y37.412 E2.26745
G1 X97.839 Y37.402 E2.34314
G1 X98.95 Y37.605 E2.41859
G1 X99.659 Y37.88 E2.46939
G1 X100.483 Y38.551 E2.54038
G1 X101.307 Y38.935 E2.60111
G1 X101.777 Y39.369 E2.64385
G1 X102.444 Y40.27 E2.71874
G1 X102.932 Y41.28 E2.79368
G1 X103.224 Y42.363 E2.86861
G1 X103.309 Y43.482 E2.94358
G1 X103.185 Y44.599 E3.01866
G1 X102.928 Y45.436 E3.07715
G1 X101.87 Y46.495 E3.17715
G1 X91.87 Y46.495 E3.8452
G1 X91.562 Y46.802 E3.87425
G1 X91.562 Y49.161 E4.03184
G1 X90.16 Y48.882 E4.12734
G1 X89.136 Y48.416 E4.2025
G1 X88.218 Y47.765 E4.27768
G1 X87.439 Y46.952 E4.3529
G1 X86.827 Y46.007 E4.42811
G1 X86.404 Y44.961 E4.50349
G1 X86.187 Y43.854 E4.57885
G1 X86.184 Y42.726 E4.65421
G1 X86.394 Y41.616 E4.72968
G1 X86.811 Y40.566 E4.80516
G1 X87.419 Y39.613 E4.88068
G1 X88.198 Y38.793 E4.95624
G1 X89.119 Y38.135 E5.03186
G1 X90.148 Y37.663 E5.10749
G1 X91.247 Y37.396 E5.18304
G1 X92.378 Y37.342 E5.25868
G1 X92.805 Y37.403 E5.2875
G1 X92.805 Y37.403 F7800
G1 X102.587 Y45.437
G1 F1800
G1 X102.587 Y41.854 E5.52686
G1 X102.478 Y41.449 E5.55488
G1 X101.992 Y40.47 E5.6279
G1 X101.992 Y45.691 E5.97669
G1 X101.67 Y46.013 E6.00711
G1 X101.397 Y46.013 E6.02535
G1 X101.397 Y39.675 E6.44876
G1 X101.055 Y39.358 E6.47991
G1 X100.802 Y39.258 E6.49808
G1 X100.802 Y46.013 E6.94935
G1 X100.207 Y46.013 E6.9891
G1 X100.207 Y38.946 E7.46121
G1 X99.612 Y38.504 E7.51073
G1 X99.612 Y46.013 E8.01237
G1 X99.016 Y46.013 E8.05219
G1 X99.016 Y38.148 E8.57761
G1 X98.421 Y37.998 E8.6186
G1 X98.421 Y46.013 E9.15405
G1 X97.826 Y46.013 E9.1938
G1 X97.826 Y37.889 E9.73653
G1 X97.231 Y37.889 E9.77628
G1 X97.231 Y46.013 E10.31901
G1 X96.636 Y46.013 E10.35876
G1 X96.636 Y37.917 E10.89962
G1 X96.041 Y38.038 E10.94018
G1 X96.041 Y46.013 E11.47295
G1 X95.446 Y46.013 E11.5127
G1 X95.446 Y38.216 E12.03358
G1 X94.851 Y38.454 E12.07639
G1 X94.851 Y46.013 E12.58137
G1 X94.255 Y46.013 E12.62119
G1 X94.255 Y38.277 E13.138
G1 X93.66 Y38.07 E13.18009
G1 X93.66 Y46.013 E13.71073
G1 X93.065 Y46.013 E13.75048
G1 X93.065 Y37.928 E14.2906
G1 X92.47 Y37.842 E14.33076
G1 X92.47 Y46.013 E14.87663
G1 X91.875 Y46.013 E14.91638
G1 X91.875 Y37.848 E15.46185
G1 X91.28 Y37.884 E15.50167
G1 X91.28 Y46.403 E16.07079
G1 X91.08 Y46.603 E16.08969
G1 X91.08 Y48.608 E16.22363
G1 X90.685 Y48.513 E16.25077
G1 X90.685 Y38.029 E16.95116
G1 X90.089 Y38.22 E16.99297
G1 X90.089 Y48.32 E17.6677
G1 X89.494 Y48.05 E17.71135
G1 X89.494 Y38.493 E18.34981
G1 X88.899 Y38.884 E18.39737
G1 X88.899 Y47.658 E18.98352
G1 X88.304 Y47.159 E19.0354
G1 X88.304 Y39.381 E19.55501
G1 X87.709 Y40.055 E19.61507
G1 X87.709 Y46.483 E20.0445
G1 X87.114 Y45.43 E20.1253
G1 X87.114 Y40.539 E20.45205
G1 E18.45205 F2400
G92 E0
G1 X87.114 Y40.539 F7800
G1 X102.15 Y18.689
G1 E2 F2400
G1 F1800
G1 X102.739 Y18.716 E2.03939
G1 X103.809 Y18.939 E2.11241
G1 X104.849 Y19.364 E2.18747
G1 X105.562 Y19.821 E2.24405
G1 X105.562 Y29.88 E2.91605
G1 X104.844 Y30.339 E2.97298
G1 X103.803 Y30.763 E3.04807
G1 X102.704 Y30.991 E3.12305
G1 X101.581 Y31.017 E3.19809
G1 X100.473 Y30.839 E3.27306
G1 X99.415 Y30.464 E3.34805
G1 X98.443 Y29.903 E3.42302
G1 X97.588 Y29.176 E3.498
G1 X96.878 Y28.306 E3.57302
G1 X96.363 Y27.369 E3.64445
G1 X95.992 Y26.254 E3.72295
G1 X95.838 Y25.142 E3.79795
G1 X95.838 Y24.563 E3.83663
G1 X95.991 Y23.45 E3.91168
G1 X96.363 Y22.332 E3.99039
G1 X96.879 Y21.394 E4.06191
G1 X97.589 Y20.523 E4.13698
G1 X98.445 Y19.795 E4.21205
G1 X99.419 Y19.235 E4.28711
G1 X100.478 Y18.86 E4.36216
G1 X101.557 Y18.688 E4.43515
G1 X102.069 Y18.689 E4.46935
G1 X102.069 Y18.689 F7800
G1 X104.968 Y29.974
G1 F1800
G1 X104.968 Y20.013 E5.1348
G1 X104.373 Y19.69 E5.18003
G1 X104.373 Y30.01 E5.86946
G1 X103.778 Y30.253 E5.9124
G1 X103.778 Y19.447 E6.6343
G1 X103.182 Y19.301 E6.67529
G1 X103.182 Y30.399 E7.4167
G1 X102.587 Y30.512 E7.45716
G1 X102.587 Y19.192 E8.2134
G1 X101.992 Y19.171 E8.25317
G1 X101.992 Y30.525 E9.01168
G1 X101.397 Y30.499 E9.05147
G1 X101.397 Y19.202 E9.80617
G1 X100.802 Y19.297 E9.84642
G1 X100.802 Y30.403 E10.58836
G1 X100.207 Y30.233 E10.6297
G1 X100.207 Y19.467 E11.34893
G1 X99.612 Y19.68 E11.39115
G1 X99.612 Y30.02 E12.08192
G1 X99.016 Y29.677 E12.12786
G1 X99.016 Y20.023 E12.7728
G1 X98.421 Y20.448 E12.82165
G1 X98.421 Y29.252 E13.4098
G1 X97.826 Y28.706 E13.46375
G1 X97.826 Y20.995 E13.97889
G1 X97.231 Y21.753 E14.04327
G1 X97.231 Y27.947 E14.45706
G1 X96.636 Y26.724 E14.54792
G1 X96.636 Y22.336 E14.84106
G1 E12.84106 F2400
G92 E0
G1 X96.636 Y22.336 F7800
G1 X111.09 Y9.474
G1 E2 F2400
G1 F1800
G1 X112.129 Y9.909 E2.07525
G1 X113.052 Y10.554 E2.15048
G1 X113.818 Y11.38 E2.22574
G1 X114.392 Y12.35 E2.30104
G1 X114.747 Y13.42 E2.37635
G1 X114.867 Y14.537 E2.4514
G1 X114.746 Y15.662 E2.52699
G1 X114.173 Y17.391 E2.64867
G1 X113.951 Y17.362 E2.66363
G1 X113.89 Y17.524 E2.67519
G1 X113.612 Y17.473 E2.69407
G1 X113.612 Y15.502 E2.82574
G1 X112.699 Y15.382 E2.88726
G1 X112.491 Y16.131 E2.93919
G1 X112.236 Y16.682 E2.97975
G1 X111.877 Y17.172 E3.02033
G1 X111.306 Y17.67 E3.07095
G1 X110.772 Y17.957 E3.11145
G1 X110.191 Y18.135 E3.15204
G1 X109.435 Y18.191 E3.20268
G1 X108.835 Y18.101 E3.24321
G1 X107.997 Y17.751 E3.30388
G1 X107.297 Y17.172 E3.36457
G1 X106.797 Y16.413 E3.42529
G1 X106.476 Y15.382 E3.49743
G1 X105.562 Y15.502 E3.55901
G1 X105.562 Y17.473 E3.69068
G1 X105.284 Y17.524 E3.70956
G1 X105.223 Y17.362 E3.72112
G1 X104.97 Y17.395 E3.73816
G1 X104.372 Y15.371 E3.87915
G1 X104.315 Y14.25 E3.95414
G1 X104.497 Y13.142 E4.02915
G1 X104.682 Y12.574 E4.06906
G1 X105.162 Y11.639 E4.13927
G1 X105.847 Y10.805 E4.21137
G1 X106.342 Y10.385 E4.25474
G1 X106.809 Y10.046 E4.29329
G1 X107.767 Y9.575 E4.36461
G1 X108.858 Y9.304 E4.43971
G1 X109.983 Y9.27 E4.5149
G1 X111.011 Y9.46 E4.58474
G1 X111.011 Y9.46 F7800
G1 X113.895 Y17.111
G1 F1800
G1 X113.895 Y12.457 E4.89565
G1 X113.3 Y11.53 E4.96924
G1 X113.3 Y14.975 E5.19938
G1 X112.705 Y14.897 E5.23947
G1 X112.705 Y10.899 E5.50656
G1 X112.109 Y10.484 E5.55508
G1 X112.109 Y15.721 E5.90494
G1 X111.883 Y16.325 E5.94802
G1 X111.514 Y16.854 E5.99111
G1 X111.514 Y10.174 E6.43737
G1 X110.919 Y9.933 E6.48026
G1 X110.919 Y17.344 E6.97535
G1 X110.324 Y17.605 E7.01876
G1 X110.324 Y9.823 E7.53864
G1 X109.946 Y9.753 E7.56432
G1 X109.729 Y9.76 E7.57882
G1 X109.729 Y17.708 E8.10979
G1 X109.134 Y17.672 E8.14961
G1 X109.134 Y9.778 E8.67697
G1 X108.539 Y9.88 E8.7173
G1 X108.539 Y17.49 E9.22569
G1 X107.943 Y17.124 E9.27241
G1 X107.943 Y10.028 E9.74646
G1 X107.348 Y10.318 E9.79068
G1 X107.348 Y16.427 E10.19879
G1 X107.139 Y15.972 E10.23224
G1 X106.832 Y14.849 E10.31002
G1 X106.753 Y14.859 E10.31534
G1 X106.753 Y10.682 E10.59439
G1 X106.158 Y11.186 E10.64648
G1 X106.158 Y14.938 E10.89713
G1 X105.563 Y15.016 E10.93722
G1 X105.563 Y11.914 E11.14445
G1 X105.128 Y12.76 E11.208
G1 X104.968 Y13.254 E11.24269
G1 X104.968 Y16.607 E11.46669
G1 E9.46669 F2400
G92 E0
G1 X104.968 Y16.607 F7800
G1 X109.451 Y57.444
G1 E2 F2400
;TYPE:Perimeter
;WIDTH:0.6
G1 F1800
G1 X109.047 Y57.39 E2.02723
G1 X108.608 Y57.237 E2.05829
G1 X108.208 Y57.001 E2.08932
G1 X107.862 Y56.691 E2.12036
G1 X107.585 Y56.318 E2.1514
G1 X107.387 Y55.897 E2.18248
G1 X107.354 Y55.642 E2.19966
;WIDTH:0.55409
G1 X107.321 Y55.387 E2.21537
;WIDTH:0.508181
G1 X107.321 Y54.854 E2.24487
;WIDTH:0.545646
G1 X107.358 Y54.599 E2.26034
;WIDTH:0.583166
G1 X107.396 Y54.345 E2.27696
;WIDTH:0.6
G1 X107.585 Y53.922 E2.30791
G1 X107.974 Y53.434 E2.3496
G1 X108.34 Y53.148 E2.38063
G1 X108.755 Y52.94 E2.41164
G1 X109.203 Y52.818 E2.44266
G1 X109.725 Y52.796 E2.47756
G1 X110.25 Y52.889 E2.51318
G1 X110.735 Y53.088 E2.5482
G1 X111.232 Y53.465 E2.58987
G1 X111.527 Y53.823 E2.62086
G1 X111.746 Y54.234 E2.65197
G1 X111.792 Y54.459 E2.66731
;WIDTH:0.559773
G1 X111.838 Y54.684 E2.6815
;WIDTH:0.519546
G1 X111.869 Y55.138 E2.70733
;WIDTH:0.532064
G1 X111.842 Y55.391 E2.72217
;WIDTH:0.566032
G1 X111.815 Y55.644 E2.73809
;WIDTH:0.6
G1 X111.787 Y55.897 E2.75509
G1 X111.503 Y56.452 E2.79674
G1 X111.201 Y56.805 E2.82777
G1 X110.835 Y57.092 E2.85884
G1 X110.419 Y57.3 E2.88991
G1 X109.971 Y57.421 E2.92091
G1 X109.51 Y57.451 E2.95177
G1 X109.51 Y57.451 F7800
G1 X109.491 Y56.911
;TYPE:External perimeter
G1 F1800
G1 X109.205 Y56.878 E2.971
G1 X108.864 Y56.767 E2.99496
G1 X108.552 Y56.591 E3.01889
G1 X108.281 Y56.357 E3.04281
G1 X108.062 Y56.073 E3.06677
G1 X107.903 Y55.752 E3.0907
G1 X107.81 Y55.386 E3.11593
G1 X107.81 Y54.854 E3.15147
G1 X107.923 Y54.438 E3.18027
G1 X108.091 Y54.122 E3.20418
G1 X108.318 Y53.845 E3.22811
G1 X108.596 Y53.619 E3.25204
G1 X108.913 Y53.452 E3.27598
G1 X109.257 Y53.351 E3.29993
G1 X109.632 Y53.324 E3.32505
G1 X110.158 Y53.416 E3.36072
G1 X110.548 Y53.599 E3.3895
G1 X110.83 Y53.819 E3.41339
G1 X111.063 Y54.091 E3.43732
G1 X111.238 Y54.404 E3.46128
G1 X111.347 Y54.746 E3.48526
G1 X111.386 Y55.102 E3.50918
