; generated by PrusaSlicer 2.8.1+linux-x64-GTK3 on 2024-10-22 at 20:01:52 UTC

; 

; external perimeters extrusion width = 0.45mm
; perimeters extrusion width = 0.45mm
; infill extrusion width = 0.45mm
; solid infill extrusion width = 0.45mm
; top infill extrusion width = 0.40mm
; support material extrusion width = 0.40mm
; first layer extrusion width = 0.60mm

M190 S60 ; set bed temperature and wait for it to be reached
M104 S200 ; set temperature
;TYPE:Custom
G28 ; home all axes
G1 Z5 F5000 ; lift nozzle
M109 S200 ; set temperature and wait for it to be reached
G21 ; set units to millimeters
G90 ; use absolute coordinates
M82 ; use absolute distances for extrusion
G92 E0
; Filament gcode
M107
;LAYER_CHANGE
;Z:0.3
;HEIGHT:0.3
G1 E-2 F2400
G1 Z.3 F7800
G1 X84.226 Y35.791
G1 E0 F2400
;TYPE:Skirt/Brim
;WIDTH:0.6
G1 F1800
G1 X94.111 Y12.528 E1.68858
G1 X95.06 Y10.742 E1.82369
G1 X96.265 Y9.156 E1.95676
G1 X97.066 Y8.338 E2.03324
G1 X98.641 Y7.089 E2.16753
G1 X99.458 Y6.595 E2.23131
G1 X100.912 Y5.897 E2.33906
G1 X101.938 Y5.535 E2.41174
G1 X103.045 Y5.254 E2.48804
G1 X104.124 Y5.084 E2.56101
G1 X105.66 Y5.007 E2.66375
G1 X107.58 Y5.17 E2.79248
G1 X108.654 Y5.397 E2.86581
G1 X109.744 Y5.733 E2.94201
G1 X111.071 Y6.286 E3.03805
G1 X115.089 Y8.188 E3.33503
G1 X116.949 Y9.298 E3.47973
G1 X117.864 Y10.018 E3.55751
G1 X118.797 Y10.923 E3.64434
G1 X119.563 Y11.84 E3.72416
G1 X120.21 Y12.774 E3.80006
G1 X120.788 Y13.797 E3.87856
G1 X121.264 Y14.856 E3.95612
G1 X121.882 Y16.665 E4.08383
G1 X122.215 Y18.898 E4.23466
G1 X119.115 Y111.754 E10.4414
G1 X118.792 Y113.352 E10.55031
G1 X118.144 Y115.004 E10.66886
G1 X117.295 Y116.394 E10.77767
G1 X116.12 Y117.726 E10.89633
G1 X114.58 Y118.914 E11.02627
G1 X113.126 Y119.66 E11.13544
G1 X111.433 Y120.182 E11.2538
G1 X109.812 Y120.385 E11.36294
G1 X108.527 Y120.353 E11.44881
G1 X107.392 Y120.182 E11.52549
G1 X106.154 Y119.834 E11.6114
G1 X105.254 Y119.464 E11.67641
G1 X104.394 Y119.005 E11.74153
G1 X103.446 Y118.359 E11.81817
G1 X102.482 Y117.508 E11.90407
G1 X101.831 Y116.784 E11.96911
G1 X81.996 Y89.769 E14.20808
G1 X81.381 Y88.817 E14.2838
G1 X80.831 Y87.754 E14.36376
G1 X80.408 Y86.702 E14.43951
G1 X80.069 Y85.554 E14.51948
G1 X79.854 Y84.44 E14.59527
G1 X79.74 Y83.25 E14.67513
G1 X79.741 Y48.232 E17.01452
G1 X79.851 Y47.065 E17.09283
G1 X80.061 Y45.956 E17.16823
G1 X80.394 Y44.81 E17.24796
G1 X84.203 Y35.846 E17.89862
G1 E15.89862 F2400
G92 E0
G1 X84.203 Y35.846 F7800
G92 E0
G1 X105.656 Y11.275
G1 E2 F2400
;TYPE:Support material
G1 F1800
G1 X106.287 Y11.304 E2.0422
G1 X107.362 Y11.53 E2.11559
G1 X108.401 Y11.957 E2.19063
G1 X109.347 Y12.566 E2.26579
G1 X110.019 Y13.197 E2.32737
G1 X111.103 Y13.364 E2.40064
G1 X112.108 Y13.702 E2.47147
G1 X113.074 Y14.224 E2.54482
G1 X113.988 Y14.944 E2.62255
G1 X114.754 Y15.86 E2.70232
G1 X115.333 Y16.883 E2.78085
G1 X115.951 Y18.691 E2.9085
G1 X115.715 Y19.417 E2.9595
G1 X115.69 Y20.379 E3.02379
G1 X115.473 Y21.488 E3.09928
G1 X115.074 Y22.545 E3.17476
G1 X114.134 Y24.143 E3.29862
G1 X113.438 Y23.953 E3.34682
G1 X113.438 Y21.008 E3.54356
G1 X112.524 Y20.888 E3.60514
G1 X112.135 Y22.055 E3.68732
G1 X111.489 Y22.894 E3.75806
G1 X111.003 Y23.258 E3.79862
G1 X110.456 Y23.519 E3.83911
G1 X109.413 Y23.701 E3.90984
G1 X108.37 Y23.519 E3.98057
G1 X107.822 Y23.258 E4.02112
G1 X107.336 Y22.894 E4.06168
G1 X106.69 Y22.055 E4.13242
G1 X106.301 Y20.888 E4.2146
G1 X105.388 Y21.008 E4.27612
G1 X105.388 Y23.597 E4.44908
G1 X105.112 Y23.597 E4.46752
G1 X103.964 Y23.41 E4.54522
G1 X102.935 Y23.041 E4.61825
G1 X102.008 Y22.502 E4.68989
G1 X101.57 Y22.154 E4.72726
G1 X101.091 Y21.72 E4.77044
G1 X100.411 Y20.881 E4.84259
G1 X99.901 Y19.95 E4.91351
G1 X99.691 Y19.394 E4.95321
G1 X99.533 Y18.845 E4.99137
G1 X99.378 Y17.737 E5.06611
G1 X99.426 Y16.619 E5.14087
G1 X99.527 Y16.055 E5.17915
G1 X99.878 Y14.984 E5.25444
G1 X100.117 Y14.5 E5.2905
G1 X100.445 Y13.949 E5.33334
G1 X101.126 Y13.113 E5.40537
G1 X101.95 Y12.412 E5.47764
G1 X102.432 Y12.113 E5.51553
G1 X102.998 Y11.808 E5.55848
G1 X104.025 Y11.445 E5.63125
G1 X105.103 Y11.275 E5.70416
G1 X105.576 Y11.275 E5.73576
G1 X105.576 Y11.275 F7800
G1 X114.911 Y22.295
G1 F1800
G1 X114.891 Y17.081 E6.08409
G1 X114.315 Y16.086 E6.1609
G1 X114.315 Y22.884 E6.61504
G1 X113.92 Y23.557 E6.66717
G1 X113.92 Y20.585 E6.86572
G1 X113.72 Y20.559 E6.87919
G1 X113.72 Y15.375 E7.22551
G1 X113.125 Y14.878 E7.2773
G1 X113.125 Y20.481 E7.65161
G1 X112.53 Y20.403 E7.6917
G1 X112.53 Y14.478 E8.08752
G1 X111.935 Y14.156 E8.13272
G1 X111.935 Y21.227 E8.6051
G1 X111.708 Y21.831 E8.64821
G1 X111.34 Y22.36 E8.69126
G1 X111.34 Y13.952 E9.25296
G1 X110.745 Y13.792 E9.29412
G1 X110.745 Y22.85 E9.89924
G1 X110.149 Y23.111 E9.94271
G1 X110.149 Y13.701 E10.57135
G1 X109.802 Y13.655 E10.59473
G1 X109.554 Y13.422 E10.61746
G1 X109.554 Y23.215 E11.27169
G1 X108.959 Y23.178 E11.31152
G1 X108.959 Y12.89 E11.99881
G1 X108.364 Y12.507 E12.04608
G1 X108.364 Y22.996 E12.7468
G1 X107.769 Y22.631 E12.79343
G1 X107.769 Y12.219 E13.48901
G1 X107.174 Y11.983 E13.53177
G1 X107.174 Y21.933 E14.19648
G1 X106.964 Y21.479 E14.2299
G1 X106.658 Y20.355 E14.30772
G1 X106.579 Y20.366 E14.31305
G1 X106.579 Y11.858 E14.88143
G1 X106.226 Y11.783 E14.90554
G1 X105.984 Y11.772 E14.92172
G1 X105.984 Y20.444 E15.50106
G1 X105.388 Y20.522 E15.54122
G1 X105.388 Y11.757 E16.12677
G1 X104.793 Y11.812 E16.16669
G1 X104.793 Y23.068 E16.91865
G1 X104.198 Y22.963 E16.95901
G1 X104.198 Y11.906 E17.69768
G1 X103.603 Y12.105 E17.73959
G1 X103.603 Y22.768 E18.45194
G1 X103.008 Y22.525 E18.49488
G1 X103.008 Y12.35 E19.17463
G1 X102.413 Y12.692 E19.22048
G1 X102.413 Y22.18 E19.85433
G1 X101.818 Y21.728 E19.90425
G1 X101.818 Y13.157 E20.47684
G1 X101.222 Y13.758 E20.53339
G1 X101.222 Y21.117 E21.02501
G1 X100.627 Y20.273 E21.094
G1 X100.627 Y14.585 E21.47399
G1 X100.321 Y15.176 E21.51845
G1 X100.032 Y16.039 E21.57925
G1 X100.032 Y19.614 E21.81808
G1 E19.81808 F2400
G92 E0
G1 X100.032 Y19.614 F7800
G1 X100.494 Y34.164
G1 E2 F2400
G1 F1800
G1 X101.233 Y34.474 E2.05354
G1 X102.005 Y34.631 E2.10617
G1 X104.583 Y34.651 E2.2784
G1 X105.388 Y35.144 E2.34146
G1 X105.388 Y45.209 E3.01386
G1 X104.669 Y45.667 E3.07081
G1 X103.628 Y46.09 E3.14588
G1 X102.531 Y46.317 E3.22072
G1 X102.757 Y46.786 E3.2555
G1 X103.049 Y47.869 E3.33043
G1 X103.135 Y48.988 E3.40541
G1 X103.011 Y50.105 E3.48049
G1 X102.754 Y50.943 E3.53905
G1 X101.695 Y52.001 E3.63905
G1 X91.695 Y52.001 E4.3071
G1 X91.388 Y52.309 E4.33615
G1 X91.388 Y54.667 E4.49368
G1 X89.985 Y54.388 E4.58924
G1 X88.961 Y53.922 E4.6644
G1 X88.043 Y53.272 E4.73954
G1 X87.264 Y52.459 E4.81476
G1 X86.652 Y51.513 E4.89003
G1 X86.23 Y50.468 E4.96532
G1 X86.013 Y49.361 E5.04068
G1 X86.009 Y48.232 E5.1161
G1 X86.219 Y47.122 E5.19157
G1 X86.636 Y46.072 E5.26705
G1 X87.245 Y45.119 E5.3426
G1 X88.024 Y44.299 E5.41816
G1 X88.944 Y43.641 E5.49372
G1 X89.973 Y43.17 E5.56932
G1 X91.073 Y42.902 E5.64496
G1 X92.204 Y42.848 E5.7206
G1 X93.324 Y43.01 E5.7962
G1 X94.57 Y43.483 E5.88524
G1 X95.431 Y43.14 E5.94716
G1 X96.296 Y42.965 E6.00612
G1 X95.823 Y41.584 E6.10364
G1 X95.668 Y40.473 E6.17858
G1 X95.668 Y39.893 E6.21733
G1 X95.821 Y38.779 E6.29245
G1 X96.193 Y37.659 E6.37129
G1 X96.709 Y36.719 E6.44293
G1 X97.421 Y35.847 E6.51814
G1 X98.278 Y35.119 E6.59326
G1 X99.253 Y34.559 E6.66837
G1 X100.416 Y34.169 E6.75032
G1 X100.416 Y34.169 F7800
G1 X104.793 Y45.302
G1 F1800
G1 X104.793 Y35.335 E7.41617
G1 X104.479 Y35.133 E7.44111
G1 X104.198 Y35.133 E7.45988
G1 X104.198 Y45.338 E8.14163
G1 X103.603 Y45.58 E8.18454
G1 X103.603 Y35.133 E8.88246
G1 X103.008 Y35.133 E8.92221
G1 X103.008 Y45.726 E9.62988
G1 X102.413 Y45.849 E9.67047
G1 X102.413 Y35.133 E10.38636
G1 X101.818 Y35.093 E10.4262
G1 X101.818 Y51.197 E11.50203
G1 X101.496 Y51.519 E11.53245
G1 X101.222 Y51.519 E11.55075
G1 X101.222 Y34.972 E12.65618
G1 X100.627 Y34.764 E12.69829
G1 X100.627 Y51.519 E13.81761
G1 X100.032 Y51.519 E13.85736
G1 X100.032 Y34.795 E14.97461
G1 X99.437 Y35.009 E15.01685
G1 X99.437 Y51.519 E16.11981
G1 X98.842 Y51.519 E16.15956
G1 X98.842 Y35.351 E17.23967
G1 X98.247 Y35.778 E17.2886
G1 X98.247 Y51.519 E18.34018
G1 X97.652 Y51.519 E18.37993
G1 X97.652 Y36.327 E19.39484
G1 X97.057 Y37.088 E19.45937
G1 X97.057 Y51.519 E20.42344
G1 X96.461 Y51.519 E20.46326
G1 X96.461 Y43.424 E21.00405
G1 X95.866 Y43.544 E21.0446
G1 X95.866 Y51.519 E21.57737
G1 X95.271 Y51.519 E21.61712
G1 X95.271 Y43.723 E22.13794
G1 X94.676 Y43.96 E22.18073
G1 X94.676 Y51.519 E22.68571
G1 X94.081 Y51.519 E22.72546
G1 X94.081 Y43.783 E23.24227
G1 X93.486 Y43.576 E23.28436
G1 X93.486 Y51.519 E23.815
G1 X92.891 Y51.519 E23.85475
G1 X92.891 Y43.434 E24.39487
G1 X92.296 Y43.348 E24.43503
G1 X92.296 Y51.519 E24.9809
G1 X91.7 Y51.519 E25.02072
G1 X91.7 Y43.355 E25.56612
G1 X91.105 Y43.39 E25.60594
G1 X91.105 Y51.909 E26.17506
G1 X90.906 Y52.109 E26.19391
G1 X90.906 Y54.115 E26.32792
G1 X90.51 Y54.019 E26.35514
G1 X90.51 Y43.535 E27.05553
G1 X89.915 Y43.726 E27.09728
G1 X89.915 Y53.827 E27.77208
G1 X89.32 Y53.556 E27.81576
G1 X89.32 Y43.999 E28.45422
G1 X88.725 Y44.39 E28.50178
G1 X88.725 Y53.164 E29.08793
G1 X88.13 Y52.665 E29.13981
G1 X88.13 Y44.887 E29.65942
G1 X87.534 Y45.561 E29.71953
G1 X87.534 Y51.989 E30.14896
G1 X86.939 Y50.936 E30.22976
G1 X86.939 Y46.045 E30.55651
G1 X86.939 Y46.045 F7800
G1 X102.413 Y50.943
G1 F1800
G1 X102.413 Y46.627 E30.84484
G1 X102.413 Y46.627 F7800
G1 X96.461 Y42.721
G1 F1800
G1 X96.461 Y37.671 E31.18221
G1 E29.18221 F2400
G92 E0
G1 X96.461 Y37.671 F7800
G1 X91.388 Y78.944
G1 E2 F2400
G1 F1800
G1 X91.695 Y79.251 E2.029
G1 X101.695 Y79.251 E2.69705
G1 X103.279 Y80.835 E2.8467
G1 X103.417 Y81.29 E2.87846
G1 X103.544 Y82.411 E2.95383
G1 X103.469 Y83.534 E3.02902
G1 X103.214 Y84.54 E3.09835
G1 X103.635 Y84.628 E3.12708
G1 X104.675 Y85.052 E3.20211
G1 X105.388 Y85.508 E3.25865
G1 X105.388 Y95.572 E3.93098
G1 X104.678 Y96.027 E3.98732
G1 X103.638 Y96.451 E4.06235
G1 X102.918 Y96.601 E4.11148
G1 X101.416 Y96.707 E4.21207
G1 X100.307 Y96.53 E4.28709
G1 X99.248 Y96.155 E4.36214
G1 X98.275 Y95.595 E4.43714
G1 X97.419 Y94.867 E4.51221
G1 X96.709 Y93.997 E4.58723
G1 X96.193 Y93.058 E4.65881
G1 X95.821 Y91.942 E4.7374
G1 X95.668 Y90.829 E4.81245
G1 X95.718 Y89.706 E4.88755
G1 X95.975 Y88.6 E4.96341
G1 X94.892 Y88.254 E5.03936
G1 X94.504 Y88.039 E5.06899
G1 X93.347 Y88.446 E5.15093
G1 X92.23 Y88.613 E5.22638
G1 X91.102 Y88.565 E5.3018
G1 X90.002 Y88.304 E5.37733
G1 X88.97 Y87.838 E5.45298
G1 X88.045 Y87.185 E5.52862
G1 X87.261 Y86.368 E5.60427
G1 X86.646 Y85.416 E5.67999
G1 X86.223 Y84.364 E5.75574
G1 X86.008 Y83.25 E5.83153
G1 X86.008 Y82.116 E5.90729
G1 X86.224 Y81.003 E5.98303
G1 X86.648 Y79.952 E6.05874
G1 X87.263 Y79 E6.13446
G1 X88.047 Y78.183 E6.21011
G1 X88.972 Y77.531 E6.28571
G1 X90.003 Y77.066 E6.36127
G1 X91.102 Y76.805 E6.43673
G1 X91.388 Y76.793 E6.45585
G1 X91.388 Y78.863 E6.59414
G1 X91.388 Y78.863 F7800
G1 X104.793 Y95.666
G1 F1800
G1 X104.793 Y85.7 E7.25992
G1 X104.198 Y85.378 E7.30512
G1 X104.198 Y95.702 E7.99482
G1 X103.603 Y95.945 E8.03776
G1 X103.603 Y85.135 E8.75993
G1 X103.008 Y84.99 E8.80084
G1 X103.008 Y96.09 E9.54238
G1 X102.413 Y96.119 E9.58218
G1 X102.413 Y80.65 E10.61559
G1 X101.818 Y80.055 E10.6718
G1 X101.818 Y96.16 E11.7477
G1 X101.448 Y96.224 E11.77279
G1 X101.222 Y96.188 E11.78808
G1 X101.222 Y79.733 E12.88736
G1 X100.627 Y79.733 E12.92711
G1 X100.627 Y96.093 E14.02005
G1 X100.032 Y95.921 E14.06143
G1 X100.032 Y79.733 E15.14288
G1 X99.437 Y79.733 E15.18263
G1 X99.437 Y95.707 E16.24978
G1 X98.842 Y95.365 E16.29563
G1 X98.842 Y79.733 E17.33993
G1 X98.247 Y79.733 E17.37968
G1 X98.247 Y94.938 E18.39546
G1 X97.652 Y94.39 E18.4495
G1 X97.652 Y79.733 E19.42867
G1 X97.057 Y79.733 E19.46842
G1 X97.057 Y93.629 E20.39675
G1 X96.461 Y92.401 E20.48794
G1 X96.461 Y79.733 E21.33423
G1 X95.866 Y79.733 E21.37398
G1 X95.866 Y88.059 E21.9302
G1 X95.271 Y87.869 E21.97193
G1 X95.271 Y79.733 E22.51546
G1 X94.676 Y79.733 E22.55521
G1 X94.676 Y87.583 E23.07963
G1 X94.549 Y87.512 E23.08935
G1 X94.081 Y87.676 E23.12248
G1 X94.081 Y79.733 E23.65312
G1 X93.486 Y79.733 E23.69287
G1 X93.486 Y87.886 E24.23753
G1 X92.891 Y88.027 E24.27838
G1 X92.891 Y79.733 E24.83246
G1 X92.296 Y79.733 E24.87221
G1 X92.296 Y88.116 E25.43224
G1 X92.205 Y88.129 E25.43838
G1 X91.7 Y88.108 E25.47215
G1 X91.7 Y79.733 E26.03165
G1 X91.496 Y79.733 E26.04528
G1 X91.105 Y79.343 E26.08217
G1 X91.105 Y88.07 E26.66518
G1 X90.51 Y87.929 E26.70603
G1 X90.51 Y77.441 E27.40669
G1 X89.915 Y77.635 E27.4485
G1 X89.915 Y87.736 E28.1233
G1 X89.32 Y87.467 E28.16692
G1 X89.32 Y77.903 E28.80585
G1 X88.725 Y78.296 E28.85349
G1 X88.725 Y87.075 E29.43997
G1 X88.13 Y86.577 E29.4918
G1 X88.13 Y78.794 E30.01175
G1 X87.534 Y79.468 E30.07186
G1 X87.534 Y85.903 E30.50175
G1 X86.939 Y84.853 E30.58238
G1 X86.939 Y79.944 E30.91033
G1 X86.939 Y79.944 F7800
G1 X103.008 Y84.373
G1 F1800
G1 X103.008 Y80.905 E31.14201
G1 E29.14201 F2400
G92 E0
G1 X103.008 Y80.905 F7800
G1 X108.217 Y68.629
G1 E2 F2400
;TYPE:Perimeter
;WIDTH:0.6
G1 F1800
G1 X108.581 Y68.446 E2.02722
G1 X109.029 Y68.325 E2.05822
G1 X109.551 Y68.303 E2.09312
G1 X110.076 Y68.395 E2.12873
G1 X110.56 Y68.595 E2.16372
G1 X111.057 Y68.971 E2.20535
G1 X111.352 Y69.329 E2.23634
G1 X111.571 Y69.74 E2.26745
G1 X111.618 Y69.965 E2.28281
;WIDTH:0.559773
G1 X111.664 Y70.19 E2.297
;WIDTH:0.519546
G1 X111.695 Y70.644 E2.32283
;WIDTH:0.532064
G1 X111.667 Y70.898 E2.33774
;WIDTH:0.566032
G1 X111.64 Y71.151 E2.35366
;WIDTH:0.6
G1 X111.613 Y71.404 E2.37066
G1 X111.328 Y71.958 E2.41228
G1 X111.026 Y72.312 E2.44337
G1 X110.66 Y72.598 E2.4744
G1 X110.245 Y72.806 E2.50541
G1 X109.796 Y72.928 E2.53649
G1 X109.333 Y72.958 E2.56749
G1 X108.872 Y72.896 E2.59856
G1 X108.433 Y72.744 E2.6296
G1 X108.033 Y72.508 E2.66063
G1 X107.688 Y72.197 E2.69166
G1 X107.411 Y71.824 E2.7227
G1 X107.213 Y71.404 E2.75372
G1 X107.183 Y71.214 E2.76657
;WIDTH:0.557802
G1 X107.154 Y71.024 E2.7784
;WIDTH:0.515605
G1 X107.146 Y70.36 E2.81577
;WIDTH:0.545645
G1 X107.184 Y70.106 E2.83119
;WIDTH:0.583166
G1 X107.221 Y69.851 E2.84786
;WIDTH:0.6
G1 X107.411 Y69.428 E2.87884
G1 X107.799 Y68.941 E2.92044
G1 X108.163 Y68.656 E2.95132
G1 X108.163 Y68.656 F7800
G1 X108.484 Y69.092
;TYPE:External perimeter
G1 F1800
G1 X108.739 Y68.958 E2.97056
G1 X109.082 Y68.858 E2.99443
G1 X109.458 Y68.83 E3.01962
G1 X109.983 Y68.922 E3.05523
G1 X110.373 Y69.105 E3.08401
G1 X110.656 Y69.326 E3.108
G1 X110.888 Y69.597 E3.13183
G1 X111.063 Y69.911 E3.15584
G1 X111.172 Y70.252 E3.17976
G1 X111.212 Y70.608 E3.20369
G1 X111.179 Y70.966 E3.22771
G1 X111.077 Y71.308 E3.25155
G1 X110.909 Y71.625 E3.27552
G1 X110.682 Y71.901 E3.29939
G1 X110.404 Y72.127 E3.32332
G1 X110.087 Y72.294 E3.34726
G1 X109.743 Y72.395 E3.37121
G1 X109.386 Y72.425 E3.39514
G1 X109.03 Y72.384 E3.41908
G1 X108.689 Y72.273 E3.44304
G1 X108.377 Y72.097 E3.46697
G1 X108.106 Y71.863 E3.49089
G1 X107.887 Y71.58 E3.5148
G1 X107.729 Y71.259 E3.5387
G1 X107.64 Y70.939 E3.56089
G1 X107.636 Y70.36 E3.59957
G1 X107.748 Y69.944 E3.62835
G1 X107.916 Y69.628 E3.65226
G1 X108.144 Y69.351 E3.67623
G1 X108.421 Y69.125 E3.70011
G1 X108.431 Y69.12 E3.70086
G1 X108.793 Y68.951 F7800
G1 E1.70086 F2400
G92 E0
G1 X109.508 Y62.946 F7800
G1 E2 F2400
;TYPE:Perimeter
G1 F1800
G1 X109.333 Y62.958 E2.01172
G1 X108.872 Y62.896 E2.04279
G1 X108.433 Y62.744 E2.07383
G1 X108.033 Y62.508 E2.10486
G1 X107.688 Y62.197 E2.13589
G1 X107.411 Y61.824 E2.16693
G1 X107.213 Y61.404 E2.19795
G1 X107.18 Y61.148 E2.21519
;WIDTH:0.55409
G1 X107.146 Y60.893 E2.2309
;WIDTH:0.508181
G1 X107.146 Y60.36 E2.2604
;WIDTH:0.545646
G1 X107.184 Y60.106 E2.27582
;WIDTH:0.583166
G1 X107.221 Y59.851 E2.29249
;WIDTH:0.6
G1 X107.411 Y59.428 E2.32347
G1 X107.799 Y58.941 E2.36507
G1 X108.165 Y58.655 E2.3961
G1 X108.581 Y58.446 E2.4272
G1 X109.029 Y58.325 E2.4582
G1 X109.551 Y58.303 E2.4931
G1 X110.076 Y58.395 E2.52871
G1 X110.56 Y58.595 E2.5637
G1 X111.057 Y58.971 E2.60533
G1 X111.352 Y59.329 E2.63632
G1 X111.571 Y59.74 E2.66743
G1 X111.618 Y59.965 E2.68279
;WIDTH:0.559773
G1 X111.664 Y60.19 E2.69698
;WIDTH:0.519546
G1 X111.695 Y60.644 E2.72281
;WIDTH:0.532064
