; generated by PrusaSlicer 2.8.1+linux-x64-GTK3 on 2024-10-22 at 19:50:00 UTC

; 

; external perimeters extrusion width = 0.45mm
; perimeters extrusion width = 0.45mm
; infill extrusion width = 0.45mm
; solid infill extrusion width = 0.45mm
; top infill extrusion width = 0.40mm
; support material extrusion width = 0.40mm
; first layer extrusion width = 0.60mm

M190 S60 ; set bed temperature and wait for it to be reached
M104 S200 ; set temperature
;TYPE:Custom
G28 ; home all axes
G1 Z5 F5000 ; lift nozzle
M109 S200 ; set temperature and wait for it to be reached
G21 ; set units to millimeters
G90 ; use absolute coordinates
M82 ; use absolute distances for extrusion
G92 E0
; Filament gcode
M107
;LAYER_CHANGE
;Z:0.3
;HEIGHT:0.3
G1 E-2 F2400
G1 Z.3 F7800
G1 X73.558 Y51.304
G1 E0 F2400
;TYPE:Skirt/Brim
;WIDTH:0.6
G1 F1800
G1 X98.253 Y15.898 E2.88382
G1 X99.834 Y14.324 E3.03286
G1 X101.866 Y13.405 E3.18185
G1 X103.394 Y13.215 E3.28471
G1 X116.606 Y13.215 E4.16734
G1 X118.801 Y13.612 E4.31636
G1 X120.718 Y14.752 E4.46536
G1 X121.811 Y15.99 E4.57569
G1 X166.298 Y82.276 E9.90881
G1 X167.288 Y84.243 E10.05592
G1 X167.79 Y85.955 E10.17511
G1 X167.959 Y87.128 E10.25428
G1 X167.959 Y88.912 E10.37346
G1 X167.79 Y90.086 E10.4527
G1 X167.288 Y91.797 E10.57182
G1 X166.795 Y92.875 E10.65101
G1 X165.831 Y94.376 E10.77018
G1 X165.055 Y95.272 E10.84937
G1 X163.728 Y96.426 E10.96685
G1 X155.165 Y101.979 E11.64866
G1 X153.362 Y102.882 E11.78337
G1 X152.261 Y103.27 E11.86136
G1 X142.72 Y105.659 E12.51843
G1 X141.619 Y105.887 E12.59354
G1 X140.486 Y106.016 E12.66972
G1 X139.361 Y106.041 E12.74489
G1 X79.633 Y106.042 E16.73504
G1 X78.633 Y105.962 E16.80206
G1 X76.757 Y105.609 E16.92959
G1 X65.999 Y102.45 E17.67863
G1 X64.65 Y101.875 E17.7766
G1 X56.277 Y97.081 E18.42116
G1 X54.644 Y95.991 E18.55232
G1 X53.692 Y95.123 E18.63839
G1 X52.979 Y94.324 E18.70993
G1 X52.08 Y93.015 E18.81602
G1 X51.581 Y92.042 E18.88907
G1 X51.088 Y90.749 E18.98152
G1 X50.755 Y89.297 E19.08104
G1 X50.626 Y87.699 E19.18814
G1 X50.66 Y86.721 E19.25352
G1 X50.852 Y85.382 E19.34389
G1 X51.081 Y84.488 E19.40554
G1 X51.573 Y83.189 E19.49834
G1 X52.074 Y82.209 E19.57187
G1 X52.513 Y81.477 E19.62889
G1 X73.524 Y51.353 E22.08249
G1 E20.08249 F2400
G92 E0
G1 X73.524 Y51.353 F7800
G92 E0
G1 X71.203 Y89.918
G1 E2 F2400
;TYPE:Support material
G1 F1800
G1 X71.431 Y90.008 E2.01638
G1 X72.661 Y90.008 E2.09855
G1 X72.998 Y90.397 E2.13293
G1 X73.49 Y91.475 E2.21209
G1 X73.582 Y92.114 E2.25522
G1 X74.067 Y92.146 E2.28769
G1 X74.416 Y91.103 E2.36117
G1 X75.055 Y90.008 E2.44587
G1 X85.053 Y90.008 E3.11379
G1 X85.34 Y90.395 E3.14598
G1 X85.835 Y91.405 E3.22112
G1 X86.138 Y92.488 E3.29625
G1 X86.24 Y93.608 E3.37138
G1 X86.138 Y94.728 E3.44651
G1 X85.835 Y95.811 E3.52164
G1 X85.34 Y96.821 E3.59678
G1 X84.68 Y97.712 E3.67086
G1 X83.834 Y98.501 E3.74814
G1 X82.9 Y99.098 E3.82219
G1 X81.858 Y99.522 E3.89734
G1 X80.757 Y99.75 E3.97245
G1 X79.633 Y99.774 E4.04756
G1 X78.523 Y99.595 E4.12267
G1 X77.464 Y99.217 E4.19779
G1 X76.49 Y98.654 E4.27295
G1 X75.635 Y97.924 E4.34806
G1 X74.927 Y97.051 E4.42315
G1 X74.416 Y96.114 E4.49445
G1 X74.201 Y95.543 E4.53521
G1 X73.904 Y93.988 E4.64097
G1 X73.45 Y93.91 E4.67174
G1 X72.998 Y94.899 E4.74438
G1 X72.222 Y95.795 E4.82357
G1 X71.225 Y96.436 E4.90275
G1 X70.087 Y96.77 E4.98198
G1 X68.902 Y96.77 E5.06114
G1 X67.765 Y96.436 E5.14031
G1 X66.768 Y95.795 E5.21949
G1 X65.992 Y94.899 E5.29868
G1 X65.499 Y93.821 E5.37787
G1 X65.33 Y92.648 E5.45704
G1 X65.451 Y91.807 E5.5138
G1 X67.542 Y93.015 E5.67513
G1 X67.962 Y92.902 E5.70419
G1 X70.065 Y89.261 E5.98509
G1 X71.133 Y89.878 E6.06749
G1 E4.06749 F2400
G92 E0
G1 X71.133 Y89.878 F7800
G1 X85.6 Y95.743
G1 E2 F2400
G1 F1800
G1 X85.6 Y92.353 E2.22647
G1 X85.382 Y91.578 E2.28025
G1 X85.004 Y90.806 E2.33767
G1 X85.004 Y96.41 E2.71205
G1 X84.409 Y97.267 E2.78175
G1 X84.409 Y90.49 E3.23449
G1 X83.814 Y90.49 E3.27424
G1 X83.814 Y97.867 E3.76706
G1 X83.219 Y98.322 E3.8171
G1 X83.219 Y90.49 E4.34032
G1 X82.624 Y90.49 E4.38007
G1 X82.624 Y98.69 E4.92787
G1 X82.029 Y98.932 E4.97078
G1 X82.029 Y90.49 E5.53475
G1 X81.434 Y90.49 E5.5745
G1 X81.434 Y99.117 E6.15083
G1 X80.839 Y99.24 E6.19142
G1 X80.839 Y90.49 E6.77597
G1 X80.243 Y90.49 E6.81579
G1 X80.243 Y99.279 E7.40294
G1 X79.648 Y99.289 E7.44269
G1 X79.648 Y90.49 E8.03051
G1 X79.053 Y90.49 E8.07026
G1 X79.053 Y99.192 E8.6516
G1 X78.458 Y99.06 E8.69232
G1 X78.458 Y90.49 E9.26484
G1 X77.863 Y90.49 E9.30459
G1 X77.863 Y98.848 E9.86295
G1 X77.268 Y98.547 E9.9075
G1 X77.268 Y90.49 E10.44575
G1 X76.673 Y90.49 E10.4855
G1 X76.673 Y98.176 E10.99897
G1 X76.077 Y97.667 E11.05133
G1 X76.077 Y90.49 E11.53079
G1 X75.482 Y90.49 E11.57054
G1 X75.482 Y96.97 E12.00344
G1 X74.887 Y95.971 E12.08112
G1 X74.887 Y91.245 E12.39684
G1 X74.424 Y92.654 E12.49592
G1 X74.292 Y92.645 E12.50476
G1 X74.292 Y93.564 E12.56615
G1 X73.697 Y93.464 E12.60646
G1 X73.697 Y92.605 E12.66385
G1 X73.161 Y92.569 E12.69974
G1 X73.102 Y92.16 E12.72735
G1 X73.102 Y93.512 E12.81767
G1 X72.507 Y94.73 E12.90823
G1 X72.507 Y90.566 E13.18641
G1 X72.441 Y90.49 E13.19313
G1 X71.912 Y90.49 E13.22847
G1 X71.912 Y95.417 E13.55762
G1 X71.316 Y95.804 E13.60509
G1 X71.316 Y90.477 E13.96096
G1 X70.721 Y90.196 E14.00492
G1 X70.721 Y96.081 E14.39807
G1 X70.126 Y96.256 E14.4395
G1 X70.126 Y90.119 E14.84948
G1 X69.531 Y91.149 E14.92895
G1 X69.531 Y96.288 E15.27226
G1 X68.936 Y96.277 E15.31202
G1 X68.936 Y92.18 E15.58572
G1 X68.341 Y93.211 E15.66524
G1 X68.341 Y96.103 E15.85844
G1 X67.746 Y95.851 E15.90161
G1 X67.746 Y93.459 E16.06141
G1 X67.474 Y93.532 E16.08022
G1 X67.15 Y93.345 E16.10521
G1 X67.15 Y95.468 E16.24704
G1 X66.555 Y94.814 E16.30611
G1 X66.555 Y93.001 E16.42723
G1 X65.96 Y92.658 E16.47311
G1 X65.96 Y94.251 E16.57953
G1 E14.57953 F2400
G92 E0
G1 X65.96 Y94.251 F7800
G1 X62.058 Y83.194
G1 E2 F2400
G1 F1800
G1 X62.729 Y83.324 E2.04566
G1 X63.748 Y83.795 E2.12065
G1 X64.629 Y84.519 E2.19683
G1 X64.969 Y84.987 E2.23547
G1 X64.546 Y85.719 E2.29195
G1 X64.659 Y86.139 E2.32101
G1 X64.825 Y86.236 E2.33385
G1 X62.723 Y89.877 E2.61471
G1 X62.836 Y90.297 E2.64377
G1 X64.165 Y91.064 E2.74628
G1 X63.712 Y91.43 E2.78519
G1 X62.702 Y91.888 E2.85928
G1 X61.53 Y92.091 E2.93874
G1 X60.431 Y92.003 E3.01239
G1 X59.392 Y91.642 E3.08587
G1 X58.799 Y91.268 E3.13271
G1 X58.369 Y90.95 E3.16844
G1 X57.656 Y90.151 E3.23998
G1 X57.156 Y89.179 E3.313
G1 X56.962 Y88.429 E3.36475
G1 X56.89 Y87.915 E3.39942
G1 X56.924 Y86.937 E3.4648
G1 X57.153 Y86.043 E3.52645
G1 X57.654 Y85.063 E3.59998
G1 X58.363 Y84.268 E3.67114
G1 X58.766 Y83.965 E3.70482
G1 X59.399 Y83.564 E3.75488
G1 X60.45 Y83.202 E3.82914
G1 X61.55 Y83.117 E3.90285
G1 X61.979 Y83.182 E3.93184
G1 X64.175 Y86.88 F7800
G1 F1800
G1 X64.175 Y84.77 E4.0728
G1 X63.58 Y84.281 E4.12425
G1 X63.58 Y87.429 E4.33455
G1 X62.985 Y88.46 E4.41407
G1 X62.985 Y83.973 E4.71383
G1 X62.389 Y83.749 E4.75637
G1 X62.389 Y91.458 E5.27137
G1 X61.794 Y91.564 E5.31175
G1 X61.794 Y83.642 E5.84098
G1 X61.199 Y83.628 E5.88074
G1 X61.199 Y91.581 E6.41204
G1 X60.604 Y91.533 E6.45192
G1 X60.604 Y83.674 E6.97694
G1 X60.009 Y83.864 E7.01867
G1 X60.009 Y91.346 E7.51851
G1 X59.414 Y91.086 E7.56189
G1 X59.414 Y84.125 E8.02692
G1 X58.819 Y84.529 E8.07497
G1 X58.819 Y90.683 E8.48609
G1 X58.224 Y90.063 E8.5435
G1 X58.224 Y85.149 E8.87178
G1 X58.055 Y85.338 E8.88872
G1 X57.628 Y86.172 E8.95131
G1 X57.628 Y89.57 E9.17831
G1 X57.628 Y89.57 F7800
G1 X62.985 Y91.495
G1 F1800
G1 X62.985 Y90.661 E9.23403
G1 E7.23403 F2400
G92 E0
G1 X62.985 Y90.661 F7800
G1 X151.397 Y91.793
G1 E2 F2400
G1 F1800
G1 X152.038 Y92.902 E2.08557
G1 X152.458 Y93.015 E2.11463
G1 X153.776 Y92.253 E2.21634
G1 X153.858 Y92.89 E2.25925
G1 X153.724 Y94.011 E2.33467
G1 X153.309 Y95.069 E2.41059
G1 X152.633 Y96 E2.48745
G1 X151.755 Y96.72 E2.56331
G1 X150.736 Y97.191 E2.6383
G1 X150.061 Y97.321 E2.68422
G1 X149.555 Y97.397 E2.7184
G1 X148.455 Y97.311 E2.79211
G1 X147.405 Y96.948 E2.86633
G1 X146.771 Y96.547 E2.91645
G1 X146.368 Y96.242 E2.95021
G1 X145.624 Y95.407 E3.02492
G1 X144.931 Y96.821 E3.13012
G1 X144.271 Y97.712 E3.2042
G1 X143.425 Y98.501 E3.28148
G1 X142.491 Y99.098 E3.35553
G1 X141.449 Y99.522 E3.43068
G1 X140.348 Y99.75 E3.50579
G1 X139.224 Y99.774 E3.5809
G1 X138.114 Y99.595 E3.65601
G1 X137.054 Y99.217 E3.73119
G1 X136.081 Y98.654 E3.80629
G1 X135.226 Y97.924 E3.8814
G1 X134.518 Y97.051 E3.95649
G1 X134.006 Y96.114 E4.02782
G1 X133.638 Y95 E4.1062
G1 X133.538 Y94.45 E4.14355
G1 X133.486 Y93.329 E4.21852
G1 X133.638 Y92.217 E4.2935
G1 X134.006 Y91.103 E4.37188
G1 X134.645 Y90.008 E4.45658
G1 X144.644 Y90.008 E5.12457
G1 X144.931 Y90.395 E5.15676
G1 X145.281 Y91.11 E5.20994
G1 X145.662 Y90.367 E5.26572
G1 X145.981 Y90.008 E5.2978
G1 X148.569 Y90.008 E5.47069
G1 X149.935 Y89.261 E5.5747
G1 X151.357 Y91.723 E5.76464
G1 X151.357 Y91.723 F7800
G1 X152.85 Y95.294
G1 F1800
G1 X152.85 Y93.345 E5.89484
G1 X152.526 Y93.532 E5.91983
G1 X152.254 Y93.459 E5.93864
G1 X152.254 Y95.686 E6.08742
G1 X151.659 Y96.175 E6.13887
G1 X151.659 Y93.211 E6.33688
G1 X151.064 Y92.18 E6.4164
G1 X151.064 Y96.508 E6.70553
G1 X150.469 Y96.751 E6.74847
G1 X150.469 Y91.149 E7.12271
G1 X149.874 Y90.119 E7.20218
G1 X149.874 Y96.862 E7.65265
G1 X149.279 Y96.892 E7.69245
G1 X149.279 Y90.196 E8.13978
G1 X148.684 Y90.477 E8.18374
G1 X148.684 Y96.846 E8.60922
G1 X148.088 Y96.675 E8.65064
G1 X148.088 Y90.49 E9.06383
G1 X147.493 Y90.49 E9.10358
G1 X147.493 Y96.434 E9.50067
G1 X147.046 Y96.151 E9.53601
G1 X146.898 Y96.039 E9.54841
G1 X146.898 Y90.49 E9.91911
G1 X146.303 Y90.49 E9.95886
G1 X146.303 Y95.445 E10.28988
G1 X145.708 Y94.776 E10.34969
G1 X145.708 Y91.333 E10.5797
G1 X145.271 Y92.185 E10.64367
G1 X145.113 Y91.863 E10.66763
G1 X145.113 Y95.353 E10.90078
G1 X144.518 Y96.568 E10.99116
G1 X144.518 Y90.648 E11.38665
G1 X144.401 Y90.49 E11.39978
G1 X143.923 Y90.49 E11.43171
G1 X143.923 Y97.372 E11.89146
G1 X143.327 Y97.938 E11.94637
G1 X143.327 Y90.49 E12.44394
G1 X142.732 Y90.49 E12.48369
G1 X142.732 Y98.371 E13.01018
G1 X142.137 Y98.721 E13.0563
G1 X142.137 Y90.49 E13.60618
G1 X141.542 Y90.49 E13.64593
G1 X141.542 Y98.963 E14.21197
G1 X140.947 Y99.133 E14.25331
G1 X140.947 Y90.49 E14.83071
G1 X140.352 Y90.49 E14.87046
G1 X140.352 Y99.257 E15.45614
G1 X139.757 Y99.28 E15.49592
G1 X139.757 Y90.49 E16.08314
G1 X139.161 Y90.49 E16.12296
G1 X139.161 Y99.276 E16.70991
G1 X138.566 Y99.18 E16.75017
G1 X138.566 Y90.49 E17.33071
G1 X137.971 Y90.49 E17.37046
G1 X137.971 Y99.032 E17.94111
G1 X137.376 Y98.82 E17.98331
G1 X137.376 Y90.49 E18.5398
G1 X136.781 Y90.49 E18.57955
G1 X136.781 Y98.502 E19.11479
G1 X136.186 Y98.109 E19.16243
G1 X136.186 Y90.49 E19.67142
G1 X135.591 Y90.49 E19.71117
G1 X135.591 Y97.601 E20.18622
G1 X134.996 Y96.875 E20.24893
G1 X134.996 Y90.49 E20.67548
G1 X134.89 Y90.49 E20.68256
G1 X134.4 Y91.425 E20.75308
G1 X134.4 Y96.332 E21.08089
G1 E19.08089 F2400
G92 E0
G1 X134.4 Y96.332 F7800
G1 X158.813 Y84.083
G1 E2 F2400
G1 F1800
G1 X159.321 Y84.232 E2.03537
G1 X160.318 Y84.873 E2.11455
G1 X161.094 Y85.769 E2.19374
G1 X161.586 Y86.847 E2.2729
G1 X161.755 Y88.02 E2.35207
G1 X161.586 Y89.194 E2.43131
G1 X161.094 Y90.272 E2.51047
G1 X160.318 Y91.167 E2.58961
G1 X159.321 Y91.808 E2.66879
G1 X158.183 Y92.142 E2.74802
G1 X156.998 Y92.142 E2.82718
G1 X154.99 Y91.553 E2.96698
G1 X157.164 Y90.297 E3.13471
G1 X157.277 Y89.877 E3.16377
G1 X155.175 Y86.236 E3.44463
G1 X155.341 Y86.14 E3.45744
G1 X155.454 Y85.719 E3.48656
G1 X154.938 Y84.826 E3.55546
G1 X155.861 Y84.232 E3.62879
G1 X156.998 Y83.898 E3.70796
G1 X158.183 Y83.898 E3.78712
G1 X158.736 Y84.061 E3.82563
G1 X158.736 Y84.061 F7800
G1 X161.181 Y89.5
G1 F1800
G1 X161.181 Y87.418 E3.96472
G1 X161.119 Y86.984 E3.99401
G1 X160.586 Y85.919 E4.07357
G1 X160.586 Y90.121 E4.35429
G1 X159.991 Y90.804 E4.4148
G1 X159.991 Y85.236 E4.78677
G1 X159.396 Y84.854 E4.83401
G1 X159.396 Y91.187 E5.25709
G1 X158.801 Y91.458 E5.30077
G1 X158.801 Y84.582 E5.76012
G1 X158.206 Y84.407 E5.80155
G1 X158.206 Y91.633 E6.28429
G1 X157.611 Y91.66 E6.32408
G1 X157.611 Y84.381 E6.81036
G1 X157.015 Y84.396 E6.85019
G1 X157.015 Y88.46 E7.12169
G1 X156.42 Y87.429 E7.20121
G1 X156.42 Y84.571 E7.39214
G1 X155.825 Y84.828 E7.43544
G1 X155.825 Y86.88 E7.57252
G1 E5.57252 F2400
G92 E0
G1 X155.825 Y86.88 F7800
G1 X157.015 Y91.896
G1 E2 F2400
G1 F1800
G1 X157.015 Y90.94 E2.06387
G1 X156.42 Y91.283 E2.10975
G1 X156.42 Y91.721 E2.13901
G1 E.13901 F2400
G92 E0
G1 X156.42 Y91.721 F7800
G1 X123.354 Y33.748
G1 E2 F2400
;TYPE:Perimeter
;WIDTH:0.6
G1 F1800
G1 X123.419 Y33.914 E2.01191
G1 X123.45 Y34.378 E2.04298
G1 X123.388 Y34.838 E2.07399
G1 X123.236 Y35.277 E2.10503
G1 X122.962 Y35.719 E2.13977
G1 X122.588 Y36.103 E2.17558
G1 X122.15 Y36.39 E2.21056
G1 X121.642 Y36.574 E2.24665
G1 X121.096 Y36.631 E2.28332
G1 X120.634 Y36.58 E2.31437
G1 X120.192 Y36.439 E2.34536
G1 X119.786 Y36.213 E2.3764
G1 X119.441 Y35.904 E2.40734
;WIDTH:0.577998
G1 X119.242 Y35.579 E2.43175
;WIDTH:0.540293
G1 X119.043 Y35.254 E2.45437
;WIDTH:0.551294
G1 X118.93 Y34.968 E2.47305
;WIDTH:0.6
G1 X118.817 Y34.682 E2.49359
G1 X118.794 Y34.163 E2.5283
G1 X118.887 Y33.635 E2.56412
G1 X118.954 Y33.425 E2.57885
G1 X119.17 Y33.014 E2.60987
G1 X119.463 Y32.653 E2.64093
G1 X119.822 Y32.358 E2.67197
G1 X120.232 Y32.14 E2.70299
G1 X120.677 Y32.007 E2.73402
G1 X121.14 Y31.965 E2.76508
G1 X121.602 Y32.015 E2.79612
G1 X122.044 Y32.157 E2.82713
G1 X122.45 Y32.383 E2.85817
G1 X122.795 Y32.692 E2.88911
;WIDTH:0.577997
G1 X122.994 Y33.017 E2.91352
;WIDTH:0.540293
G1 X123.193 Y33.342 E2.93614
;WIDTH:0.551295
G1 X123.306 Y33.628 E2.95482
;WIDTH:0.6
G1 X123.332 Y33.692 E2.95943
G1 X123.332 Y33.692 F7800
G1 X122.856 Y33.863
;TYPE:External perimeter
G1 F1800
G1 X122.887 Y33.968 E2.96674
G1 X122.917 Y34.325 E2.99067
G1 X122.876 Y34.68 E3.01454
G1 X122.765 Y35.021 E3.0385
G1 X122.576 Y35.348 E3.06373
G1 X122.204 Y35.729 E3.0993
G1 X121.834 Y35.949 E3.12806
G1 X121.492 Y36.058 E3.15204
G1 X121.136 Y36.097 E3.17596
G1 X120.779 Y36.065 E3.19991
G1 X120.436 Y35.963 E3.22382
G1 X120.12 Y35.795 E3.24773
G1 X119.843 Y35.567 E3.2717
G1 X119.617 Y35.289 E3.29563
G1 X119.45 Y34.972 E3.31957
G1 X119.35 Y34.628 E3.3435
G1 X119.322 Y34.255 E3.36849
G1 X119.437 Y33.658 E3.40911
G1 X119.597 Y33.337 E3.43307
G1 X119.818 Y33.055 E3.45701
G1 X120.222 Y32.746 E3.49099
G1 X120.692 Y32.55 E3.52501
G1 X121.1 Y32.499 E3.55248
G1 X121.457 Y32.531 E3.57643
G1 X121.8 Y32.633 E3.60034
G1 X122.116 Y32.801 E3.62425
G1 X122.393 Y33.029 E3.64822
G1 X122.619 Y33.307 E3.67215
G1 X122.786 Y33.624 E3.69609
G1 X122.839 Y33.805 E3.70869
G1 X122.902 Y34.2 F7800
G1 E1.70869 F2400
G92 E0
G1 X132.801 Y58.526 F7800
G1 E2 F2400
;TYPE:Perimeter
G1 F1800
G1 X132.887 Y57.884 E2.04327
G1 X133.087 Y57.399 E2.07832
G1 X133.409 Y56.955 E2.11496
G1 X133.822 Y56.607 E2.15104
G1 X134.232 Y56.388 E2.18209
G1 X134.677 Y56.256 E2.2131
G1 X135.14 Y56.214 E2.24416
G1 X135.602 Y56.264 E2.2752
G1 X136.044 Y56.405 E2.30619
G1 X136.45 Y56.631 E2.33723
G1 X136.795 Y56.94 E2.36817
;WIDTH:0.577997
G1 X136.994 Y57.265 E2.39258
;WIDTH:0.540292
G1 X137.193 Y57.59 E2.4152
;WIDTH:0.551294
G1 X137.306 Y57.877 E2.43393
;WIDTH:0.6
G1 X137.419 Y58.163 E2.45447
G1 X137.442 Y58.686 E2.48944
G1 X137.349 Y59.21 E2.52499
G1 X137.149 Y59.694 E2.55998
G1 X136.827 Y60.138 E2.59662
G1 X136.414 Y60.487 E2.63274
G1 X136.004 Y60.705 E2.66376
G1 X135.559 Y60.838 E2.69479
G1 X135.096 Y60.88 E2.72585
G1 X134.634 Y60.829 E2.7569
G1 X134.192 Y60.688 E2.78789
G1 X133.786 Y60.462 E2.81893
G1 X133.622 Y60.3 E2.83433
;WIDTH:0.566377
G1 X133.458 Y60.138 E2.84876
;WIDTH:0.532754
G1 X133.191 Y59.77 E2.87532
;WIDTH:0.539492
G1 X133.024 Y59.427 E2.89793
;WIDTH:0.580201
G1 X132.858 Y59.084 E2.92245
;WIDTH:0.6
G1 X132.786 Y58.63 E2.95316
G1 X132.793 Y58.585 E2.9562
G1 X132.793 Y58.585 F7800
G1 X133.325 Y58.539
;TYPE:External perimeter
G1 F1800
G1 X133.322 Y58.504 E2.95855
G1 X133.414 Y57.976 E2.99435
G1 X133.597 Y57.586 E3.02313
G1 X133.818 Y57.304 E3.04707
G1 X134.09 Y57.071 E3.071
G1 X134.547 Y56.847 E3.105
G1 X135.047 Y56.749 E3.13904
G1 X135.457 Y56.78 E3.16651
G1 X135.8 Y56.882 E3.19042
G1 X136.116 Y57.05 E3.21433
