; generated by PrusaSlicer 2.8.1+linux-x64-GTK3 on 2024-10-28 at 09:11:24 UTC

; 

; external perimeters extrusion width = 0.45mm
; perimeters extrusion width = 0.45mm
; infill extrusion width = 0.45mm
; solid infill extrusion width = 0.45mm
; top infill extrusion width = 0.40mm
; support material extrusion width = 0.40mm
; first layer extrusion width = 0.60mm

M190 S60 ; set bed temperature and wait for it to be reached
M104 S200 ; set temperature
;TYPE:Custom
G28 ; home all axes
G1 Z5 F5000 ; lift nozzle
M109 S200 ; set temperature and wait for it to be reached
G21 ; set units to millimeters
G90 ; use absolute coordinates
M82 ; use absolute distances for extrusion
G92 E0
; Filament gcode
M107
;LAYER_CHANGE
;Z:0.3
;HEIGHT:0.3
G1 E-2 F2400
G1 Z.3 F7800
G1 X83.863 Y28.082
G1 E0 F2400
;TYPE:Skirt/Brim
;WIDTH:0.6
G1 F1800
G1 X84.784 Y26.07 E.14783
G1 X85.854 Y24.46 E.27697
G1 X86.509 Y23.676 E.34522
G1 X104.735 Y5.55 E2.06244
G1 X105.458 Y4.933 E2.12594
G1 X107.264 Y3.718 E2.27135
G1 X109.243 Y2.813 E2.41673
G1 X111.343 Y2.241 E2.56213
G1 X112.459 Y2.082 E2.63744
G1 X113.914 Y2.02 E2.73473
G1 X115.705 Y2.152 E2.8547
G1 X116.818 Y2.361 E2.93035
G1 X118.891 Y3.024 E3.07575
G1 X120.828 Y4.015 E3.2211
G1 X122.579 Y5.308 E3.36651
G1 X124.098 Y6.867 E3.51192
G1 X125.338 Y8.646 E3.65679
G1 X126.295 Y10.651 E3.80521
G1 X126.888 Y12.707 E3.94816
G1 X127.148 Y14.868 E4.09357
G1 X127.148 Y15.888 E4.16171
G1 X126.965 Y17.697 E4.28318
G1 X123.564 Y35.653 E5.50407
G1 X123.19 Y36.918 E5.59219
G1 X122.569 Y38.23 E5.68916
G1 X121.547 Y39.66 E5.80658
G1 X120.369 Y40.781 E5.91521
G1 X118.906 Y41.725 E6.03153
G1 X117.565 Y42.283 E6.12856
G1 X116.446 Y42.568 E6.2057
G1 X98.282 Y45.866 E7.43899
G1 X96.143 Y45.99 E7.58213
G1 X93.978 Y45.766 E7.72754
G1 X91.909 Y45.204 E7.87077
G1 X91.1 Y44.887 E7.92882
G1 X89.708 Y44.182 E8.03306
G1 X88.093 Y43.074 E8.1639
G1 X87.32 Y42.407 E8.23211
G1 X85.854 Y40.799 E8.37748
G1 X84.669 Y38.974 E8.52285
G1 X83.879 Y37.226 E8.651
G1 X83.538 Y36.15 E8.72641
G1 X83.294 Y35.088 E8.79921
G1 X83.091 Y33.453 E8.90928
G1 X83.069 Y32.323 E8.98478
G1 X83.195 Y30.774 E9.0886
G1 X83.404 Y29.637 E9.16583
G1 X83.846 Y28.139 E9.27017
G1 E7.27017 F2400
G92 E0
G1 X83.846 Y28.139 F7800
G92 E0
G1 X113.914 Y8.288
G1 E2 F2400
;TYPE:Support material
G1 F1800
G1 X114.552 Y8.313 E2.04265
G1 X115.665 Y8.522 E2.1183
G1 X116.753 Y8.916 E2.1956
G1 X117.763 Y9.482 E2.27295
G1 X118.667 Y10.205 E2.35028
G1 X119.443 Y11.064 E2.42761
G1 X120.064 Y12.032 E2.50444
G1 X120.528 Y13.108 E2.58272
G1 X120.807 Y14.224 E2.65957
G1 X120.901 Y15.378 E2.73692
G1 X120.807 Y16.532 E2.81427
G1 X120.528 Y17.648 E2.89112
G1 X120.064 Y18.724 E2.9694
G1 X119.443 Y19.692 E3.04623
G1 X118.667 Y20.551 E3.12356
G1 X117.763 Y21.274 E3.20089
G1 X116.936 Y21.737 E3.26421
G1 X116.04 Y21.176 E3.33483
G1 X115.122 Y20.944 E3.39809
G1 X109.383 Y20.928 E3.78149
G1 X108.341 Y19.935 E3.87765
G1 X107.674 Y18.989 E3.95498
G1 X107.189 Y17.989 E4.02923
G1 X106.845 Y16.832 E4.10987
G1 X106.702 Y15.684 E4.18716
G1 X106.845 Y13.924 E4.30512
G1 X107.392 Y12.316 E4.41859
G1 X107.699 Y11.731 E4.46273
G1 X108.341 Y10.821 E4.53713
G1 X109.152 Y9.996 E4.61442
G1 X110.087 Y9.314 E4.69173
G1 X111.12 Y8.793 E4.76902
G1 X112.225 Y8.446 E4.84639
G1 X113.834 Y8.288 E4.9544
G1 X113.834 Y8.288 F7800
G1 X120.117 Y17.998
G1 F1800
G1 X120.117 Y13.451 E5.25816
G1 X119.522 Y12.081 E5.35794
G1 X119.522 Y18.675 E5.79845
G1 X118.927 Y19.544 E5.86881
G1 X118.927 Y11.212 E6.42543
G1 X118.332 Y10.554 E6.48469
G1 X118.332 Y20.202 E7.12923
G1 X117.737 Y20.678 E7.18013
G1 X117.737 Y10.078 E7.88827
G1 X117.142 Y9.686 E7.93587
G1 X117.142 Y21.07 E8.69638
G1 X116.984 Y21.158 E8.70846
G1 X116.546 Y20.883 E8.74301
G1 X116.546 Y9.354 E9.51321
G1 X115.951 Y9.138 E9.5555
G1 X115.951 Y20.63 E10.32323
G1 X115.356 Y20.488 E10.3641
G1 X115.356 Y8.954 E11.13463
G1 X114.761 Y8.843 E11.17506
G1 X114.761 Y20.446 E11.9502
G1 X114.166 Y20.446 E11.98995
G1 X114.166 Y8.78 E12.7693
G1 X113.571 Y8.77 E12.80905
G1 X113.571 Y20.446 E13.58907
G1 X112.976 Y20.446 E13.62882
G1 X112.976 Y8.826 E14.4051
G1 X112.381 Y8.911 E14.44525
G1 X112.381 Y20.446 E15.21585
G1 X111.785 Y20.446 E15.25567
G1 X111.785 Y9.09 E16.01431
G1 X111.19 Y9.298 E16.05642
G1 X111.19 Y20.446 E16.80117
G1 X110.595 Y20.446 E16.84092
G1 X110.595 Y9.598 E17.56563
G1 X110 Y9.975 E17.61269
G1 X110 Y20.446 E18.31221
G1 X109.54 Y20.446 E18.34294
G1 X109.405 Y20.329 E18.35487
G1 X109.405 Y10.427 E19.01638
G1 X108.81 Y11.032 E19.07307
G1 X108.81 Y19.724 E19.65374
G1 X108.215 Y18.92 E19.72056
G1 X108.215 Y11.836 E20.19381
G1 X107.619 Y13 E20.28117
G1 X107.619 Y18.325 E20.63691
G1 E18.63691 F2400
G92 E0
G1 X107.619 Y18.325 F7800
G1 X96.549 Y25.539
G1 E2 F2400
G1 F1800
G1 X97.187 Y25.565 E2.04266
G1 X98.3 Y25.773 E2.1183
G1 X99.389 Y26.168 E2.19569
G1 X100.398 Y26.734 E2.27298
G1 X101.303 Y27.456 E2.35032
G1 X101.975 Y28.202 E2.4174
G1 X101.991 Y34.075 E2.80975
G1 X102.223 Y34.993 E2.87301
G1 X102.753 Y35.852 E2.94044
G1 X102.078 Y36.943 E3.02615
G1 X101.303 Y37.803 E3.10349
G1 X100.398 Y38.525 E3.18083
G1 X99.406 Y39.081 E3.2568
G1 X98.277 Y39.49 E3.33702
G1 X97.163 Y39.699 E3.41274
G1 X96.006 Y39.724 E3.49005
G1 X94.86 Y39.561 E3.56738
G1 X93.787 Y39.224 E3.64251
G1 X93.202 Y38.946 E3.68578
G1 X92.691 Y38.67 E3.72458
G1 X91.787 Y38.011 E3.79932
G1 X90.976 Y37.186 E3.87661
G1 X90.309 Y36.241 E3.95388
G1 X89.824 Y35.241 E4.02813
G1 X89.48 Y34.083 E4.10883
G1 X89.337 Y32.323 E4.22679
G1 X89.48 Y31.176 E4.30401
G1 X90.027 Y29.567 E4.41754
G1 X90.334 Y28.983 E4.46162
G1 X90.976 Y28.073 E4.53602
G1 X91.787 Y27.248 E4.61331
G1 X92.722 Y26.566 E4.69062
G1 X93.756 Y26.044 E4.768
G1 X94.86 Y25.698 E4.84529
G1 X96.469 Y25.539 E4.9533
G1 X96.469 Y25.539 F7800
G1 X101.668 Y37.037
G1 F1800
G1 X101.668 Y34.877 E5.0976
G1 X101.493 Y33.771 E5.17241
G1 X101.493 Y28.387 E5.53209
G1 X101.073 Y27.921 E5.574
G1 X101.073 Y37.337 E6.20304
G1 X100.478 Y37.844 E6.25526
G1 X100.478 Y27.414 E6.95204
G1 X99.883 Y26.997 E7.00058
G1 X99.883 Y38.261 E7.75308
G1 X99.288 Y38.595 E7.79866
G1 X99.288 Y26.664 E8.59572
G1 X98.692 Y26.428 E8.63854
G1 X98.692 Y38.836 E9.46746
G1 X98.097 Y39.033 E9.50933
G1 X98.097 Y26.225 E10.36497
G1 X97.502 Y26.114 E10.4054
G1 X97.502 Y39.145 E11.27594
G1 X96.907 Y39.222 E11.31602
G1 X96.907 Y26.036 E12.19692
G1 X96.312 Y26.021 E12.23668
G1 X96.312 Y39.235 E13.11945
G1 X95.717 Y39.196 E13.15928
G1 X95.717 Y26.063 E14.03664
G1 X95.122 Y26.147 E14.07678
G1 X95.122 Y39.111 E14.94285
G1 X94.527 Y38.951 E14.98401
G1 X94.527 Y26.308 E15.82863
G1 X93.931 Y26.496 E15.87038
G1 X93.931 Y38.759 E16.68961
G1 X93.336 Y38.471 E16.73377
G1 X93.336 Y26.796 E17.51372
G1 X92.741 Y27.149 E17.55994
G1 X92.741 Y38.11 E18.29219
G1 X92.146 Y37.676 E18.34139
G1 X92.146 Y27.583 E19.01566
G1 X91.551 Y28.175 E19.07173
G1 X91.551 Y37.083 E19.66683
G1 X90.956 Y36.322 E19.73136
G1 X90.956 Y28.937 E20.22472
G1 X90.361 Y30.007 E20.30651
G1 X90.361 Y35.795 E20.69318
G1 E18.69318 F2400
G92 E0
G1 X90.361 Y35.795 F7800
G1 X114.189 Y22.691
G1 E2 F2400
;TYPE:Perimeter
;WIDTH:0.527343
G1 F1800
G1 X114.352 Y22.71 E2.00948
;WIDTH:0.556657
G1 X114.687 Y22.75 E2.03019
;WIDTH:0.592002
G1 X114.945 Y22.844 E2.04826
;WIDTH:0.627348
G1 X115.204 Y22.939 E2.06763
;WIDTH:0.659579
G1 X115.614 Y23.225 E2.10474
G1 X115.899 Y23.559 E2.13733
;WIDTH:0.645165
G1 X116.021 Y23.798 E2.15677
;WIDTH:0.618461
G1 X116.144 Y24.037 E2.17535
;WIDTH:0.591757
G1 X116.201 Y24.305 E2.19337
;WIDTH:0.552929
G1 X116.259 Y24.573 E2.21008
;WIDTH:0.514102
G1 X116.276 Y25.08 E2.23853
;WIDTH:0.550155
G1 X116.207 Y25.612 E2.27103
;WIDTH:0.6
G1 X116.031 Y26.101 E2.30575
G1 X115.655 Y26.598 E2.34738
G1 X115.296 Y26.893 E2.37842
G1 X114.886 Y27.111 E2.40944
G1 X114.441 Y27.244 E2.44047
G1 X113.978 Y27.286 E2.47153
G1 X113.516 Y27.235 E2.50258
G1 X113.074 Y27.094 E2.53357
G1 X112.778 Y26.942 E2.5558
G1 X112.359 Y26.615 E2.59131
G1 X112.028 Y26.2 E2.62677
G1 X111.82 Y25.785 E2.65778
G1 X111.699 Y25.337 E2.68878
G1 X111.676 Y24.818 E2.72349
G1 X111.769 Y24.29 E2.75931
G1 X111.969 Y23.805 E2.79436
G1 X112.345 Y23.308 E2.83599
G1 X112.704 Y23.013 E2.86703
G1 X113.114 Y22.795 E2.89805
G1 X113.339 Y22.748 E2.91341
;WIDTH:0.559748
G1 X113.564 Y22.702 E2.9276
;WIDTH:0.519496
G1 X114.018 Y22.671 E2.95343
;WIDTH:0.527343
G1 X114.129 Y22.684 E2.95988
G1 X114.129 Y22.684 F7800
G1 X114.141 Y23.168
;TYPE:External perimeter
;WIDTH:0.6
G1 F1800
G1 X114.339 Y23.186 E2.97316
G1 X114.74 Y23.318 E3.00136
G1 X115.126 Y23.558 E3.03172
G1 X115.471 Y23.918 E3.06503
G1 X115.668 Y24.279 E3.0925
G1 X115.768 Y24.622 E3.11637
G1 X115.796 Y24.996 E3.14143
G1 X115.704 Y25.523 E3.17717
G1 X115.521 Y25.914 E3.20601
G1 X115.301 Y26.196 E3.2299
G1 X115.028 Y26.429 E3.25388
G1 X114.716 Y26.604 E3.27778
G1 X114.374 Y26.713 E3.30176
G1 X114.018 Y26.752 E3.32568
G1 X113.507 Y26.676 E3.36019
G1 X113.038 Y26.474 E3.3943
G1 X112.725 Y26.222 E3.42114
G1 X112.428 Y25.815 E3.4548
G1 X112.242 Y25.335 E3.48919
G1 X112.204 Y24.91 E3.5177
G1 X112.296 Y24.383 E3.55344
G1 X112.479 Y23.992 E3.58228
G1 X112.699 Y23.71 E3.60617
G1 X112.972 Y23.477 E3.63015
G1 X113.284 Y23.302 E3.65405
G1 X113.626 Y23.193 E3.67803
G1 X113.982 Y23.154 E3.70195
G1 X114.081 Y23.163 E3.70859
G1 X114.474 Y23.238 F7800
G1 E1.70859 F2400
G92 E0
G1 X103.992 Y34.156 F7800
G1 E2 F2400
;TYPE:Perimeter
;WIDTH:0.657732
G1 F1800
G1 X103.974 Y34.131 E2.00228
;WIDTH:0.629118
G1 X103.899 Y33.944 E2.01647
;WIDTH:0.601841
G1 X103.825 Y33.757 E2.02995
;WIDTH:0.574565
G1 X103.784 Y33.545 E2.04369
;WIDTH:0.543551
G1 X103.742 Y33.333 E2.05661
;WIDTH:0.512537
G1 X103.725 Y32.826 E2.08497
;WIDTH:0.548705
G1 X103.794 Y32.295 E2.11732
;WIDTH:0.585865
G1 X103.843 Y32.083 E2.13147
;WIDTH:0.6
G1 X104.052 Y31.669 E2.16245
G1 X104.345 Y31.308 E2.19351
G1 X104.704 Y31.013 E2.22455
G1 X105.114 Y30.795 E2.25557
G1 X105.559 Y30.662 E2.2866
G1 X106.022 Y30.62 E2.31766
G1 X106.484 Y30.67 E2.3487
G1 X106.926 Y30.812 E2.37971
G1 X107.332 Y31.038 E2.41075
G1 X107.708 Y31.366 E2.44408
G1 X107.972 Y31.705 E2.47278
G1 X108.18 Y32.121 E2.50385
G1 X108.301 Y32.569 E2.53485
G1 X108.324 Y33.088 E2.56956
G1 X108.231 Y33.616 E2.60538
G1 X108.031 Y34.101 E2.64043
G1 X107.655 Y34.598 E2.68206
G1 X107.296 Y34.893 E2.7131
G1 X106.886 Y35.111 E2.74412
G1 X106.661 Y35.157 E2.75946
;WIDTH:0.558957
G1 X106.436 Y35.203 E2.77363
;WIDTH:0.517914
G1 X105.982 Y35.234 E2.79937
;WIDTH:0.525128
G1 X105.526 Y35.199 E2.82565
;WIDTH:0.566014
G1 X105.27 Y35.134 E2.84218
;WIDTH:0.606901
G1 X105.014 Y35.068 E2.86007
;WIDTH:0.639801
G1 X104.655 Y34.884 E2.88902
;WIDTH:0.657732
G1 X104.292 Y34.585 E2.92382
G1 X104.026 Y34.205 E2.95815
G1 X104.026 Y34.205 F7800
G1 X104.469 Y33.88
;TYPE:External perimeter
;WIDTH:0.6
G1 F1800
G1 X104.325 Y33.603 E2.97901
G1 X104.232 Y33.283 E3.00127
G1 X104.204 Y32.91 E3.02626
G1 X104.296 Y32.383 E3.062
G1 X104.479 Y31.992 E3.09084
G1 X104.7 Y31.71 E3.11478
G1 X104.972 Y31.477 E3.13871
G1 X105.284 Y31.302 E3.16261
G1 X105.626 Y31.193 E3.18659
G1 X105.982 Y31.154 E3.21051
G1 X106.493 Y31.23 E3.24502
G1 X106.954 Y31.427 E3.27851
G1 X107.297 Y31.71 E3.30822
G1 X107.572 Y32.091 E3.33961
G1 X107.758 Y32.57 E3.37394
G1 X107.796 Y32.996 E3.40251
G1 X107.704 Y33.523 E3.43825
G1 X107.521 Y33.914 E3.46709
G1 X107.3 Y34.196 E3.49103
G1 X107.028 Y34.429 E3.51496
G1 X106.716 Y34.604 E3.53886
G1 X106.374 Y34.713 E3.56284
G1 X106.018 Y34.752 E3.58676
G1 X105.661 Y34.72 E3.61071
G1 X105.26 Y34.588 E3.63891
G1 X104.873 Y34.347 E3.66937
G1 X104.519 Y33.976 E3.70363
G1 X104.497 Y33.933 E3.70686
G1 X104.325 Y33.572 F7800
G1 E1.70686 F2400
G92 E0
G1 X112.312 Y27.254 F7800
G1 E2 F2400
;TYPE:Perimeter
G1 F1800
G1 X112.558 Y27.432 E2.02029
G1 X113.078 Y27.668 E2.05844
G1 X113.634 Y27.797 E2.09657
G1 X114.205 Y27.813 E2.13473
G1 X114.767 Y27.716 E2.17283
G1 X115.3 Y27.509 E2.21103
G1 X115.781 Y27.201 E2.24919
G1 X116.128 Y26.871 E2.28118
G1 X116.126 Y33.732 E2.73953
G1 X116.069 Y34.083 E2.76329
G1 X115.905 Y34.453 E2.79033
G1 X115.65 Y34.764 E2.8172
G1 X115.23 Y34.996 E2.84925
G1 X114.832 Y35.078 E2.8764
G1 X107.92 Y35.078 E3.33816
G1 X108.191 Y34.804 E3.36391
G1 X108.514 Y34.333 E3.40206
G1 X108.759 Y33.708 E3.44691
G1 X108.851 Y33.181 E3.48265
G1 X108.865 Y32.815 E3.50712
G1 X108.782 Y32.255 E3.54494
G1 X108.588 Y31.717 E3.58315
G1 X108.292 Y31.229 E3.62128
G1 X107.905 Y30.809 E3.65943
G1 X107.442 Y30.474 E3.69761
G1 X106.923 Y30.237 E3.73573
G1 X106.366 Y30.109 E3.77391
G1 X105.795 Y30.092 E3.81207
G1 X105.233 Y30.19 E3.85018
G1 X104.7 Y30.397 E3.88838
G1 X104.219 Y30.705 E3.92654
G1 X103.874 Y31.032 E3.9583
G1 X103.874 Y24.288 E4.40884
G1 X103.896 Y24.016 E4.42707
G1 X104.004 Y23.622 E4.45436
G1 X104.168 Y23.348 E4.47569
G1 X104.465 Y23.053 E4.50366
G1 X104.813 Y22.895 E4.52919
G1 X105.267 Y22.824 E4.55989
G1 X112.084 Y22.824 E5.0153
G1 X111.809 Y23.102 E5.04142
G1 X111.486 Y23.573 E5.07957
G1 X111.241 Y24.198 E5.12442
G1 X111.149 Y24.725 E5.16016
G1 X111.135 Y25.09 E5.18456
G1 X111.218 Y25.651 E5.22245
G1 X111.412 Y26.189 E5.26066
G1 X111.708 Y26.677 E5.29879
G1 X112.095 Y27.097 E5.33694
G1 X112.263 Y27.218 E5.35077
G1 E3.35077 F2400
G92 E0
G1 X112.263 Y27.218 F7800
G1 X116.096 Y22.888
G1 E2 F2400
;WIDTH:0.658945
G1 F1800
G1 X116.298 Y23.108 E2.02215
;WIDTH:0.654982
G1 X116.487 Y23.436 E2.05004
;WIDTH:0.630511
G1 X116.614 Y23.779 E2.07587
;WIDTH:0.601374
G1 X116.685 Y24.192 E2.10394
;WIDTH:0.558296
G1 X116.707 Y24.551 E2.1261
;WIDTH:0.514102
G1 X116.712 Y25.118 E2.15791
;WIDTH:0.550155
G1 X116.689 Y25.654 E2.19042
;WIDTH:0.6
G1 X116.664 Y26.245 E2.22994
G1 X116.649 Y33.935 E2.74367
G1 X116.48 Y34.547 E2.78609
G1 X116.358 Y34.74 E2.80134
G1 X116.109 Y35.062 E2.82853
G1 X115.787 Y35.311 E2.85572
G1 X115.411 Y35.5 E2.88383
G1 X114.872 Y35.614 E2.92063
G1 X107.184 Y35.614 E3.43423
G1 X106.848 Y35.634 E3.45672
;WIDTH:0.560771
G1 X106.513 Y35.653 E3.47749
;WIDTH:0.521543
G1 X105.966 Y35.666 E3.50869
;WIDTH:0.525128
G1 X105.464 Y35.651 E3.53755
;WIDTH:0.560249
G1 X105.193 Y35.622 E3.55441
;WIDTH:0.595371
G1 X104.921 Y35.592 E3.57253
;WIDTH:0.627964
G1 X104.54 Y35.47 E3.60065
;WIDTH:0.655879
G1 X104.04 Y35.16 E3.64405
;WIDTH:0.656608
G1 X103.704 Y34.804 E3.68021
G1 X103.46 Y34.365 E3.71731
;WIDTH:0.629118
G1 X103.393 Y34.111 E3.73581
;WIDTH:0.601841
G1 X103.327 Y33.857 E3.7534
;WIDTH:0.574565
G1 X103.311 Y33.606 E3.7694
;WIDTH:0.543551
G1 X103.295 Y33.355 E3.78443
;WIDTH:0.512537
G1 X103.29 Y32.788 E3.81612
;WIDTH:0.548705
G1 X103.313 Y32.253 E3.84847
;WIDTH:0.574352
G1 X103.326 Y31.957 E3.86732
;WIDTH:0.6
G1 X103.339 Y24.261 E4.38145
G1 X103.422 Y23.613 E4.42509
G1 X103.606 Y23.198 E4.45542
G1 X103.892 Y22.831 E4.4865
G1 X104.166 Y22.606 E4.51019
G1 X104.665 Y22.38 E4.54679
G1 X105.24 Y22.289 E4.58568
G1 X112.815 Y22.289 E5.09173
G1 X113.151 Y22.269 E5.11422
;WIDTH:0.561564
G1 X113.487 Y22.25 E5.13509
;WIDTH:0.523128
G1 X114.034 Y22.238 E5.1664
;WIDTH:0.526724
G1 X114.536 Y22.252 E5.19536
;WIDTH:0.560084
G1 X114.804 Y22.284 E5.21205
;WIDTH:0.593445
G1 X115.072 Y22.316 E5.22986
;WIDTH:0.634539
G1 X115.53 Y22.463 E5.26407
;WIDTH:0.658945
G1 X115.957 Y22.738 E5.30173
G1 X116.055 Y22.844 E5.31244
G1 X116.055 Y22.844 F7800
G1 X116.485 Y22.479
;TYPE:External perimeter
;WIDTH:0.6
G1 F1800
G1 X116.725 Y22.74 E5.33613
G1 X117.018 Y23.266 E5.37635
G1 X117.135 Y23.649 E5.4031
G1 X117.2 Y24.192 E5.43963
G1 X117.197 Y33.69 E6.07415
G1 X117.154 Y34.214 E6.10927
G1 X116.968 Y34.778 E6.14894
G1 X116.652 Y35.277 E6.1884
G1 X116.324 Y35.605 E6.21939
G1 X115.826 Y35.92 E6.25876
G1 X115.383 Y36.08 E6.29023
G1 X114.911 Y36.15 E6.32211
G1 X105.039 Y36.144 E6.98161
G1 X104.398 Y36.014 E7.0253
G1 X103.95 Y35.788 E7.05882
G1 X103.504 Y35.449 E7.09625
G1 X103.165 Y35.003 E7.13368
G1 X102.918 Y34.468 E7.17305
G1 X102.803 Y33.871 E7.21367
G1 X102.803 Y24.045 E7.8701
G1 X102.905 Y23.457 E7.90997
G1 X103.143 Y22.92 E7.94921
G1 X103.506 Y22.455 E7.98862
G1 X103.867 Y22.158 E8.01985
G1 X104.282 Y21.937 E8.05126
G1 X104.732 Y21.8 E8.08268
G1 X105.214 Y21.753 E8.11503
G1 X114.536 Y21.753 E8.73779
G1 X115.124 Y21.786 E8.77713
G1 X115.574 Y21.893 E8.80803
G1 X115.917 Y22.043 E8.83304
