; generated by PrusaSlicer 2.8.1+linux-x64-GTK3 on 2024-10-21 at 09:39:53 UTC

; 

; external perimeters extrusion width = 0.45mm
; perimeters extrusion width = 0.45mm
; infill extrusion width = 0.45mm
; solid infill extrusion width = 0.45mm
; top infill extrusion width = 0.40mm
; support material extrusion width = 0.40mm
; first layer extrusion width = 0.60mm

M190 S60 ; set bed temperature and wait for it to be reached
M104 S200 ; set temperature
;TYPE:Custom
G28 ; home all axes
G1 Z5 F5000 ; lift nozzle
M109 S200 ; set temperature and wait for it to be reached
G21 ; set units to millimeters
G90 ; use absolute coordinates
M82 ; use absolute distances for extrusion
G92 E0
; Filament gcode
M107
;LAYER_CHANGE
;Z:0.3
;HEIGHT:0.3
G1 E-2 F2400
G1 Z.3 F7800
G1 X48.045 Y103.922
G1 E0 F2400
;TYPE:Skirt/Brim
;WIDTH:0.6
G1 F1800
G1 X49.53 Y103.264 E.10851
G1 X160.479 Y62.712 E8.00008
G1 X162.109 Y62.286 E8.11263
G1 X163.902 Y62.167 E8.23268
G1 X165.239 Y62.309 E8.3225
G1 X166.41 Y62.601 E8.40312
G1 X167.388 Y62.978 E8.47314
G1 X168.57 Y63.622 E8.56306
G1 X169.648 Y64.434 E8.65322
G1 X170.644 Y65.43 E8.74732
G1 X171.285 Y66.251 E8.8169
G1 X171.969 Y67.411 E8.90686
G1 X172.431 Y68.528 E8.98761
G1 X172.769 Y69.834 E9.07773
G1 X172.912 Y71.175 E9.16782
G1 X172.886 Y72.217 E9.23745
G1 X172.678 Y73.549 E9.32751
G1 X172.277 Y74.837 E9.41763
G1 X171.76 Y75.928 E9.49828
G1 X171.02 Y77.055 E9.58835
G1 X170.232 Y77.954 E9.66821
G1 X100.061 Y148.125 E16.29776
G1 X99.153 Y148.921 E16.37843
G1 X97.74 Y149.816 E16.49017
G1 X96.057 Y150.481 E16.61106
G1 X61.185 Y160.046 E19.02674
G1 X59.37 Y160.393 E19.15019
G1 X54.608 Y161.094 E19.47175
G1 X52.726 Y161.186 E19.59763
G1 X51.591 Y161.111 E19.67362
G1 X50.483 Y160.935 E19.74857
G1 X49.38 Y160.655 E19.82459
G1 X48.359 Y160.295 E19.89691
G1 X46.94 Y159.617 E20.00197
G1 X45.352 Y158.568 E20.12911
G1 X44.527 Y157.87 E20.2013
G1 X43.729 Y157.058 E20.27736
G1 X43.018 Y156.19 E20.35232
G1 X42.379 Y155.246 E20.42847
G1 X41.862 Y154.307 E20.50008
G1 X41.255 Y152.88 E20.60368
G1 X40.809 Y151.283 E20.71445
G1 X40.629 Y150.158 E20.79056
G1 X40.553 Y149.049 E20.86482
G1 X41.447 Y114.054 E23.20344
G1 X41.765 Y111.94 E23.34626
G1 X42.098 Y110.794 E23.42599
G1 X42.515 Y109.742 E23.50159
G1 X43.059 Y108.679 E23.58136
G1 X43.669 Y107.725 E23.65701
G1 X44.406 Y106.784 E23.73686
G1 X45.186 Y105.963 E23.81251
G1 X46.088 Y105.179 E23.89235
G1 X47.01 Y104.521 E23.96802
G1 X47.994 Y103.952 E24.04396
G1 E22.04396 F2400
G92 E0
G1 X47.994 Y103.952 F7800
G92 E0
G1 X52.826 Y142.591
G1 E2 F2400
;TYPE:Support material
G1 F1800
G1 X52.826 Y144.789 E2.14684
G1 X53.133 Y145.096 E2.17584
G1 X63.059 Y145.096 E2.83895
G1 X63.511 Y145.964 E2.90433
G1 X63.833 Y147.027 E2.97853
G1 X63.952 Y148.143 E3.05351
G1 X63.861 Y149.263 E3.12858
G1 X63.564 Y150.344 E3.20347
G1 X63.074 Y151.344 E3.27786
G1 X62.386 Y152.259 E3.35434
G1 X61.571 Y153.004 E3.42811
G1 X60.625 Y153.588 E3.50238
G1 X59.527 Y154.002 E3.58077
G1 X58.458 Y154.192 E3.6533
G1 X57.329 Y154.179 E3.72873
G1 X56.266 Y153.961 E3.80122
G1 X55.853 Y154.226 E3.834
G1 X54.773 Y154.668 E3.91196
G1 X53.695 Y154.893 E3.98553
G1 X52.574 Y154.92 E4.06044
G1 X51.466 Y154.745 E4.13538
G1 X50.445 Y154.384 E4.20773
G1 X49.403 Y153.786 E4.28799
G1 X48.579 Y153.088 E4.36013
G1 X47.868 Y152.219 E4.43514
G1 X47.35 Y151.28 E4.50678
G1 X46.976 Y150.162 E4.58554
G1 X46.87 Y149.579 E4.62513
G1 X46.87 Y147.926 E4.73556
G1 X46.976 Y147.343 E4.77515
G1 X47.35 Y146.226 E4.85384
G1 X47.868 Y145.288 E4.92542
G1 X48.578 Y144.419 E5.00039
G1 X49.434 Y143.694 E5.07533
G1 X50.407 Y143.136 E5.15026
G1 X51.465 Y142.762 E5.22523
G1 X52.745 Y142.591 E5.3115
G1 E3.3115 F2400
G92 E0
G1 X52.745 Y142.591 F7800
G1 X62.985 Y150.979
G1 E2 F2400
G1 F1800
G1 X62.985 Y145.993 E2.33309
G1 X62.77 Y145.578 E2.36431
G1 X62.389 Y145.578 E2.38976
G1 X62.389 Y151.458 E2.78258
G1 X61.794 Y152.147 E2.8434
G1 X61.794 Y145.578 E3.28224
G1 X61.199 Y145.578 E3.32199
G1 X61.199 Y152.667 E3.79557
G1 X60.604 Y153.035 E3.84231
G1 X60.604 Y145.578 E4.34048
G1 X60.009 Y145.578 E4.38023
G1 X60.009 Y153.311 E4.89684
G1 X59.414 Y153.531 E4.93922
G1 X59.414 Y145.578 E5.47052
G1 X58.819 Y145.578 E5.51027
G1 X58.819 Y153.638 E6.04872
G1 X58.224 Y153.707 E6.08874
G1 X58.224 Y145.578 E6.6318
G1 X57.628 Y145.578 E6.67162
G1 X57.628 Y153.7 E7.21421
G1 X57.033 Y153.626 E7.25427
G1 X57.033 Y145.578 E7.79192
G1 X56.438 Y145.578 E7.83167
G1 X56.438 Y153.504 E8.36117
G1 X56.171 Y153.45 E8.37937
G1 X55.843 Y153.66 E8.40539
G1 X55.843 Y145.578 E8.94531
G1 X55.248 Y145.578 E8.98506
G1 X55.248 Y153.961 E9.54509
G1 X54.653 Y154.197 E9.58785
G1 X54.653 Y145.578 E10.16365
G1 X54.058 Y145.578 E10.2034
G1 X54.058 Y154.325 E10.78775
G1 X53.462 Y154.417 E10.82804
G1 X53.462 Y145.578 E11.41853
G1 X52.933 Y145.578 E11.45387
G1 X52.867 Y145.512 E11.46011
G1 X52.867 Y154.431 E12.05595
G1 X52.272 Y154.385 E12.09582
G1 X52.272 Y143.122 E12.84825
G1 X51.677 Y143.217 E12.8885
G1 X51.677 Y154.29 E13.62824
G1 X51.585 Y154.275 E13.63447
G1 X51.082 Y154.098 E13.67009
G1 X51.082 Y143.409 E14.38417
G1 X50.487 Y143.646 E14.42696
G1 X50.487 Y153.86 E15.10931
G1 X49.892 Y153.521 E15.15506
G1 X49.892 Y143.987 E15.79198
G1 X49.297 Y144.443 E15.84206
G1 X49.297 Y153.064 E16.41799
G1 X48.701 Y152.476 E16.47392
G1 X48.701 Y145.03 E16.97135
G1 X48.106 Y145.853 E17.03919
G1 X48.106 Y151.654 E17.42673
G1 X47.789 Y151.078 E17.47065
G1 X47.511 Y150.281 E17.52704
G1 X47.511 Y146.482 E17.78083
G1 E15.78083 F2400
G92 E0
G1 X47.511 Y146.482 F7800
G1 X66.828 Y133.281
G1 E2 F2400
G1 F1800
G1 X67.326 Y133.437 E2.03486
G1 X67.326 Y141.046 E2.54318
G1 X64.193 Y141.046 E2.75248
G1 X63.494 Y140.607 E2.80762
G1 X62.727 Y139.783 E2.88282
G1 X62.199 Y138.739 E2.96098
G1 X62.006 Y137.718 E3.0304
G1 X62.006 Y137.075 E3.07336
G1 X62.189 Y136.107 E3.13917
G1 X62.8 Y134.931 E3.2277
G1 X63.524 Y134.153 E3.2987
G1 X64.495 Y133.572 E3.37429
G1 X65.188 Y133.368 E3.42255
G1 X65.731 Y133.255 E3.4596
G1 X66.747 Y133.279 E3.52749
G1 X66.747 Y133.279 F7800
G1 X66.555 Y140.805
G1 F1800
G1 X66.555 Y133.756 E3.9984
G1 X65.96 Y133.743 E4.03816
G1 X65.96 Y140.564 E4.49384
G1 X65.365 Y140.564 E4.53359
G1 X65.365 Y133.824 E4.98386
G1 X64.77 Y133.993 E5.02518
G1 X64.77 Y140.564 E5.46416
G1 X64.318 Y140.564 E5.49436
G1 X64.175 Y140.472 E5.50572
G1 X64.175 Y134.325 E5.91637
G1 X63.83 Y134.532 E5.94325
G1 X63.58 Y134.801 E5.96778
G1 X63.58 Y139.992 E6.31457
G1 X63.126 Y139.504 E6.3591
G1 X62.985 Y139.225 E6.37998
G1 X62.985 Y135.091 E6.65615
G1 E4.65615 F2400
G92 E0
G1 X62.985 Y135.091 F7800
G1 X67.326 Y128.249
G1 E2 F2400
G1 F1800
G1 X66.802 Y128.402 E2.03647
G1 X65.659 Y128.429 E2.11285
G1 X64.609 Y128.152 E2.1854
G1 X63.494 Y127.498 E2.27176
G1 X62.727 Y126.673 E2.34701
G1 X62.199 Y125.63 E2.42511
G1 X62.006 Y124.607 E2.49466
G1 X62.006 Y123.964 E2.53762
G1 X62.189 Y122.997 E2.60337
G1 X62.754 Y121.896 E2.68604
G1 X67.326 Y121.896 E2.99147
G1 X67.326 Y128.168 E3.41047
G1 X67.326 Y128.168 F7800
G1 X66.555 Y128.167
G1 F1800
G1 X66.555 Y122.378 E3.79721
G1 X65.96 Y122.378 E3.83696
G1 X65.96 Y127.94 E4.20853
G1 X65.716 Y127.946 E4.22484
G1 X65.365 Y127.853 E4.2491
G1 X65.365 Y122.378 E4.61486
G1 X64.77 Y122.378 E4.65461
G1 X64.77 Y127.692 E5.00961
G1 X64.175 Y127.362 E5.05506
G1 X64.175 Y122.378 E5.38802
G1 X63.58 Y122.378 E5.42777
G1 X63.58 Y126.882 E5.72866
G1 X63.126 Y126.395 E5.77314
G1 X62.985 Y126.115 E5.79408
G1 X62.985 Y122.137 E6.05983
G1 E4.05983 F2400
G92 E0
G1 X62.985 Y122.137 F7800
G1 X58.711 Y108.808
G1 E2 F2400
G1 F1800
G1 X59.503 Y108.956 E2.05383
G1 X60.542 Y109.355 E2.12818
G1 X61.497 Y109.946 E2.20321
G1 X62.323 Y110.704 E2.2781
G1 X62.987 Y111.592 E2.35217
G1 X63.487 Y112.614 E2.42818
G1 X63.782 Y113.69 E2.50272
G1 X63.871 Y114.809 E2.57771
G1 X63.751 Y115.926 E2.65276
G1 X63.424 Y117.001 E2.72782
G1 X62.981 Y117.846 E2.79156
G1 X53.133 Y117.846 E3.44946
G1 X52.826 Y118.154 E3.47851
G1 X52.826 Y120.641 E3.64466
G1 X51.694 Y120.375 E3.72234
G1 X50.669 Y119.91 E3.79753
G1 X49.75 Y119.26 E3.87273
G1 X48.97 Y118.447 E3.948
G1 X48.357 Y117.5 E4.02336
G1 X47.934 Y116.454 E4.09874
G1 X47.717 Y115.347 E4.1741
G1 X47.713 Y114.217 E4.24959
G1 X47.923 Y113.106 E4.32513
G1 X48.34 Y112.055 E4.40067
G1 X48.95 Y111.101 E4.47632
G1 X49.73 Y110.28 E4.55197
G1 X50.652 Y109.622 E4.62764
G1 X51.682 Y109.151 E4.7033
G1 X52.783 Y108.885 E4.77897
G1 X53.914 Y108.832 E4.85461
G1 X55.035 Y108.995 E4.93029
G1 X55.631 Y109.203 E4.97246
G1 X56.144 Y108.992 E5.00952
G1 X57.254 Y108.766 E5.0852
G1 X58.632 Y108.796 E5.17728
G1 X58.632 Y108.796 F7800
G1 X62.985 Y117.321
G1 F1800
G1 X62.985 Y112.682 E5.48719
G1 X62.389 Y111.598 E5.56983
G1 X62.389 Y117.364 E5.95503
G1 X61.794 Y117.364 E5.99478
G1 X61.794 Y110.873 E6.42841
G1 X61.199 Y110.329 E6.48227
G1 X61.199 Y117.364 E6.95225
G1 X60.604 Y117.364 E6.992
G1 X60.604 Y109.96 E7.48663
G1 X60.009 Y109.667 E7.53094
G1 X60.009 Y117.364 E8.04514
G1 X59.414 Y117.364 E8.08489
G1 X59.414 Y109.439 E8.61432
G1 X58.819 Y109.318 E8.65488
G1 X58.819 Y117.364 E9.1924
G1 X58.224 Y117.364 E9.23215
G1 X58.224 Y109.237 E9.77508
G1 X57.628 Y109.244 E9.8149
G1 X57.628 Y117.364 E10.35736
G1 X57.033 Y117.364 E10.39711
G1 X57.033 Y109.303 E10.93563
G1 X56.438 Y109.424 E10.97619
G1 X56.438 Y117.364 E11.50662
G1 X55.843 Y117.364 E11.54637
G1 X55.843 Y109.637 E12.06258
G1 X55.645 Y109.719 E12.0769
G1 X55.248 Y109.58 E12.105
G1 X55.248 Y117.364 E12.62501
G1 X54.653 Y117.364 E12.66476
G1 X54.653 Y109.427 E13.19499
G1 X54.058 Y109.34 E13.23516
G1 X54.058 Y117.364 E13.77121
G1 X53.462 Y117.364 E13.81103
G1 X53.462 Y109.336 E14.34734
G1 X52.867 Y109.363 E14.38713
G1 X52.867 Y117.43 E14.92605
G1 X52.344 Y117.954 E14.97551
G1 X52.344 Y120.036 E15.1146
G1 X52.272 Y120.019 E15.11954
G1 X52.272 Y109.504 E15.822
G1 X51.677 Y109.684 E15.86353
G1 X51.677 Y119.838 E16.54187
G1 X51.082 Y119.568 E16.58552
G1 X51.082 Y109.956 E17.22765
G1 X50.487 Y110.332 E17.27467
G1 X50.487 Y119.19 E17.86643
G1 X49.892 Y118.711 E17.91746
G1 X49.892 Y110.81 E18.44529
G1 X49.297 Y111.454 E18.50386
G1 X49.297 Y118.064 E18.94544
G1 X48.701 Y117.065 E19.02315
G1 X48.701 Y111.938 E19.36566
G1 E17.36566 F2400
G92 E0
G1 X48.701 Y111.938 F7800
G1 X73.806 Y137.211
G1 E2 F2400
;TYPE:Perimeter
;WIDTH:0.6
G1 F1800
G1 X73.778 Y137.152 E2.00436
G1 X73.59 Y136.54 E2.04713
G1 X73.479 Y135.572 E2.11222
G1 X73.483 Y127.222 E2.67004
G1 X73.552 Y126.601 E2.71178
G1 X73.697 Y126.024 E2.75153
G1 X74.039 Y125.24 E2.80867
G1 X74.528 Y124.537 E2.86588
G1 X75.145 Y123.944 E2.92305
G1 X76.03 Y123.405 E2.99227
G1 X76.87 Y123.116 E3.05161
G1 X77.85 Y123 E3.11754
G1 X99.224 Y123 E4.54544
G1 X100.124 Y123.101 E4.60594
G1 X100.97 Y123.369 E4.66523
G1 X101.717 Y123.787 E4.72242
G1 X102.369 Y124.343 E4.77966
G1 X102.899 Y125.015 E4.83684
G1 X103.288 Y125.777 E4.894
G1 X103.521 Y126.601 E4.95121
G1 X103.589 Y127.454 E5.00838
G1 X103.444 Y128.48 E5.0776
G1 X103.213 Y129.15 E5.12495
G1 X102.909 Y129.716 E5.16787
G1 X102.525 Y130.231 E5.21079
G1 X94.113 Y138.663 E6.00648
G1 X93.557 Y139.128 E6.0549
G1 X92.814 Y139.554 E6.11212
G1 X92.003 Y139.827 E6.16929
G1 X91.023 Y139.942 E6.23521
G1 X77.849 Y139.942 E7.1153
G1 X77.307 Y139.906 E7.15159
G1 X76.677 Y139.779 E7.19452
G1 X76.072 Y139.562 E7.23746
G1 X75.506 Y139.258 E7.28038
G1 X74.99 Y138.874 E7.32335
G1 X74.537 Y138.418 E7.36629
G1 X74.155 Y137.901 E7.40923
G1 X74.054 Y137.732 E7.42238
G1 X73.832 Y137.265 E7.45692
G1 X73.832 Y137.265 F7800
G1 X74.303 Y137.019
G1 F1800
G1 X74.286 Y136.984 E7.45952
G1 X74.118 Y136.447 E7.49711
G1 X74.015 Y135.572 E7.55597
G1 X74.019 Y127.222 E8.11379
G1 X74.072 Y126.731 E8.14678
G1 X74.216 Y126.155 E8.18644
G1 X74.524 Y125.469 E8.23668
G1 X74.959 Y124.856 E8.28689
G1 X75.505 Y124.34 E8.33708
G1 X76.294 Y123.871 E8.3984
G1 X77.026 Y123.628 E8.44993
G1 X77.85 Y123.536 E8.50532
G1 X99.224 Y123.536 E9.93322
G1 X100.058 Y123.633 E9.98931
G1 X100.79 Y123.874 E10.04079
G1 X101.442 Y124.247 E10.09097
G1 X102.009 Y124.74 E10.14116
G1 X102.469 Y125.334 E10.19135
G1 X102.804 Y126.006 E10.24151
G1 X103.001 Y126.731 E10.2917
G1 X103.054 Y127.481 E10.34193
G1 X102.916 Y128.389 E10.40329
G1 X102.713 Y128.957 E10.44359
G1 X102.443 Y129.452 E10.48126
G1 X102.103 Y129.902 E10.51894
G1 X93.734 Y138.284 E11.31023
G1 X93.217 Y138.714 E11.35515
G1 X92.562 Y139.081 E11.40531
G1 X91.847 Y139.314 E11.45555
G1 X91.023 Y139.407 E11.51095
G1 X77.849 Y139.407 E12.39104
G1 X77.347 Y139.372 E12.42466
G1 X76.794 Y139.257 E12.46239
G1 X76.265 Y139.062 E12.50005
G1 X75.77 Y138.792 E12.53772
G1 X75.32 Y138.451 E12.57544
G1 X74.925 Y138.049 E12.61309
G1 X74.532 Y137.491 E12.65868
G1 X74.329 Y137.073 E12.68972
G1 X74.329 Y137.073 F7800
G1 X74.8 Y136.827
;TYPE:External perimeter
G1 F1800
G1 X74.795 Y136.816 E12.69053
G1 X74.644 Y136.341 E12.72383
G1 X74.551 Y135.572 E12.77558
G1 X74.554 Y127.222 E13.3334
G1 X74.591 Y126.861 E13.35764
G1 X74.736 Y126.285 E13.39732
G1 X75.008 Y125.698 E13.44054
G1 X75.389 Y125.175 E13.48377
G1 X75.864 Y124.737 E13.52693
G1 X76.558 Y124.337 E13.58044
G1 X77.181 Y124.141 E13.62407
G1 X77.85 Y124.071 E13.66901
G1 X99.224 Y124.071 E15.09691
G1 X99.992 Y124.164 E15.14859
G1 X100.609 Y124.378 E15.19222
G1 X101.167 Y124.706 E15.23546
G1 X101.649 Y125.137 E15.27866
G1 X102.039 Y125.653 E15.32187
G1 X102.32 Y126.235 E15.36505
G1 X102.482 Y126.861 E15.40825
G1 X102.519 Y127.507 E15.45148
G1 X102.388 Y128.297 E15.50498
G1 X102.197 Y128.8 E15.54092
G1 X101.955 Y129.221 E15.57336
G1 X101.659 Y129.597 E15.60533
G1 X93.356 Y137.905 E16.39001
G1 X92.877 Y138.299 E16.43144
G1 X92.309 Y138.609 E16.47467
G1 X91.692 Y138.802 E16.51786
G1 X91.023 Y138.871 E16.56279
G1 X77.849 Y138.871 E17.44288
G1 X77.347 Y138.832 E17.47652
G1 X76.874 Y138.723 E17.50895
G1 X76.422 Y138.545 E17.5414
G1 X76.001 Y138.304 E17.57381
G1 X75.62 Y138.003 E17.60625
G1 X75.288 Y137.649 E17.63867
G1 X75.011 Y137.251 E17.67106
G1 X74.827 Y136.881 E17.69867
G1 X74.696 Y136.503 F7800
G1 E15.69867 F2400
G92 E0
G1 X68.806 Y120.409 F7800
G1 E2 F2400
;TYPE:Perimeter
G1 F1800
G1 X68.513 Y120.158 E2.02577
G1 X68.303 Y120.128 E2.03994
;WIDTH:0.55365
G1 X68.093 Y120.099 E2.05288
;WIDTH:0.507301
G1 X67.883 Y120.07 E2.06459
;WIDTH:0.460952
G1 X54.652 Y120.07 E2.71903
G1 X54.652 Y119.673 E2.73867
G1 X67.883 Y119.673 E3.39311
;WIDTH:0.507301
G1 X68.127 Y119.696 E3.40665
;WIDTH:0.55365
G1 X68.372 Y119.719 E3.42167
;WIDTH:0.6
G1 X68.617 Y119.742 E3.43811
G1 X112.479 Y119.742 E6.36833
G1 X112.805 Y119.702 E6.39027
G1 X113.134 Y119.571 E6.41393
G1 X113.426 Y119.35 E6.43839
G1 X162.48 Y70.296 E11.07287
G1 X162.88 Y70.001 E11.10607
G1 X163.4 Y69.823 E11.14279
G1 X163.906 Y69.834 E11.1766
G1 X164.327 Y69.985 E11.20648
G1 X164.659 Y70.253 E11.23498
G1 X165.038 Y70.66 E11.27213
G1 X165.24 Y71.167 E11.30859
G1 X165.267 Y71.571 E11.33564
G1 X165.258 Y71.695 E11.34395
G1 X165.128 Y72.123 E11.37383
G1 X164.869 Y72.509 E11.40488
G1 X94.95 Y142.433 E18.01086
G1 X94.397 Y142.93 E18.06053
G1 X93.98 Y143.126 E18.09131
G1 X93.457 Y143.2 E18.1266
G1 X68.617 Y143.2 E19.78604
G1 X68.372 Y143.223 E19.80248
;WIDTH:0.553651
G1 X68.127 Y143.246 E19.8175
;WIDTH:0.507302
G1 X67.883 Y143.27 E19.83104
;WIDTH:0.460954
G1 X54.652 Y143.27 E20.48548
G1 X54.652 Y142.873 E20.50512
G1 X67.883 Y142.873 E21.15956
;WIDTH:0.507302
G1 X68.093 Y142.844 E21.17127
;WIDTH:0.553651
G1 X68.303 Y142.814 E21.18422
;WIDTH:0.6
G1 X68.513 Y142.785 E21.19838
G1 X68.954 Y142.407 E21.23718
G1 X69.168 Y141.978 E21.26921
G1 X69.222 Y141.603 E21.29452
G1 X69.222 Y121.339 E22.64826
G1 X69.168 Y120.964 E22.67357
G1 X68.954 Y120.536 E22.70554
G1 X68.852 Y120.448 E22.71454
G1 X68.852 Y120.448 F7800
G1 X68.438 Y120.782
G1 F1800
G1 X68.261 Y120.63 E22.73013
G1 X67.883 Y120.536 E22.75615
G1 X54.186 Y120.536 E23.67118
G1 X54.186 Y119.207 E23.75996
G1 X112.479 Y119.207 E27.65424
G1 X112.675 Y119.183 E27.66743
G1 X112.872 Y119.104 E27.68161
G1 X113.047 Y118.972 E27.69625
G1 X162.045 Y69.974 E32.32544
G1 X162.319 Y69.735 E32.34973
G1 X162.812 Y69.43 E32.38846
G1 X163.314 Y69.291 E32.42326
G1 X163.717 Y69.271 E32.45022
G1 X164.303 Y69.388 E32.49014
G1 X164.68 Y69.575 E32.51825
G1 X165.031 Y69.867 E32.54875
