; generated by PrusaSlicer 2.8.1+linux-x64-GTK3 on 2024-10-22 at 14:44:21 UTC

; 

; external perimeters extrusion width = 0.45mm
; perimeters extrusion width = 0.45mm
; infill extrusion width = 0.45mm
; solid infill extrusion width = 0.45mm
; top infill extrusion width = 0.40mm
; support material extrusion width = 0.40mm
; first layer extrusion width = 0.60mm

M190 S60 ; set bed temperature and wait for it to be reached
M104 S200 ; set temperature
;TYPE:Custom
G28 ; home all axes
G1 Z5 F5000 ; lift nozzle
M109 S200 ; set temperature and wait for it to be reached
G21 ; set units to millimeters
G90 ; use absolute coordinates
M82 ; use absolute distances for extrusion
G92 E0
; Filament gcode
M107
;LAYER_CHANGE
;Z:0.3
;HEIGHT:0.3
G1 E-2 F2400
G1 Z.3 F7800
G1 X66.478 Y33.343
G1 E0 F2400
;TYPE:Skirt/Brim
;WIDTH:0.6
G1 F1800
G1 X67.356 Y31.606 E.13002
G1 X67.991 Y30.658 E.20625
G1 X68.672 Y29.819 E.27844
G1 X70.084 Y28.455 E.40959
G1 X82.911 Y19.029 E1.473
G1 X83.644 Y18.567 E1.53088
G1 X84.721 Y17.988 E1.61257
G1 X86.15 Y17.432 E1.71501
G1 X87.236 Y17.157 E1.78985
G1 X88.511 Y16.971 E1.87593
G1 X112.044 Y15.98 E3.44946
G1 X113.317 Y16.057 E3.53466
G1 X115.335 Y16.457 E3.6721
G1 X142.071 Y25.057 E5.54834
G1 X143.344 Y25.577 E5.6402
G1 X144.559 Y26.221 E5.73207
G1 X145.704 Y26.983 E5.82395
G1 X146.767 Y27.854 E5.91576
G1 X147.738 Y28.828 E6.00764
G1 X148.608 Y29.893 E6.09951
G1 X149.367 Y31.04 E6.19139
G1 X150.008 Y32.256 E6.28322
G1 X150.525 Y33.53 E6.37507
G1 X150.912 Y34.85 E6.46696
G1 X151.166 Y36.201 E6.5588
G1 X151.285 Y37.571 E6.65067
G1 X151.266 Y38.946 E6.74254
G1 X151.11 Y40.312 E6.83439
G1 X150.82 Y41.656 E6.92624
G1 X150.434 Y42.86 E7.01071
G1 X150.008 Y43.886 E7.08493
G1 X149.367 Y45.102 E7.17676
G1 X148.608 Y46.249 E7.26864
G1 X147.738 Y47.314 E7.36051
G1 X146.569 Y48.463 E7.47001
G1 X145.399 Y49.379 E7.56928
G1 X143.96 Y50.258 E7.68193
G1 X142.714 Y50.841 E7.77383
G1 X115.134 Y61.588 E9.75126
G1 X113.082 Y62.112 E9.89274
G1 X111.949 Y62.25 E9.96899
G1 X110.825 Y62.284 E10.04411
G1 X109.685 Y62.214 E10.12041
G1 X107.921 Y61.908 E10.24001
G1 X80.704 Y54.722 E12.12056
G1 X78.726 Y53.809 E12.2661
G1 X70.798 Y48.211 E12.91446
G1 X69.496 Y47.132 E13.02743
G1 X68.699 Y46.315 E13.10368
G1 X67.991 Y45.442 E13.17877
G1 X67.356 Y44.495 E13.25494
G1 X66.478 Y42.758 E13.38496
G1 X65.949 Y41.157 E13.4976
G1 X65.637 Y39.47 E13.61221
G1 X65.558 Y37.771 E13.72584
G1 X65.711 Y36.089 E13.83867
G1 X66.104 Y34.4 E13.95452
G1 X66.458 Y33.399 E14.02545
G1 E12.02545 F2400
G92 E0
G1 X66.458 Y33.399 F7800
G92 E0
G1 X116.264 Y46.596
G1 E2 F2400
;TYPE:Support material
G1 F1800
G1 X116.768 Y47.603 E2.07523
G1 X117.08 Y48.684 E2.15039
G1 X117.191 Y49.804 E2.22558
G1 X117.098 Y50.925 E2.30073
G1 X116.802 Y52.01 E2.37586
G1 X116.315 Y53.023 E2.45095
G1 X115.66 Y53.922 E2.52526
G1 X114.825 Y54.712 E2.60205
G1 X113.896 Y55.316 E2.67608
G1 X112.859 Y55.748 E2.75113
G1 X111.76 Y55.985 E2.82624
G1 X110.635 Y56.019 E2.90143
G1 X109.521 Y55.848 E2.97672
G1 X108.456 Y55.478 E3.05204
G1 X107.474 Y54.918 E3.12756
G1 X106.609 Y54.188 E3.20317
G1 X105.919 Y53.346 E3.27589
G1 X105.345 Y52.298 E3.35572
G1 X105.132 Y51.723 E3.39668
G1 X104.89 Y50.634 E3.47121
G1 X104.848 Y49.52 E3.54568
G1 X105.015 Y48.371 E3.62325
G1 X105.349 Y47.372 E3.69362
G1 X106.109 Y46.122 E3.79135
G1 X115.907 Y46.122 E4.44591
G1 X116.215 Y46.532 E4.48017
G1 X116.215 Y46.532 F7800
G1 X116.546 Y51.986
G1 F1800
G1 X116.546 Y48.573 E4.70818
G1 X116.317 Y47.779 E4.76339
G1 X115.951 Y47.048 E4.818
G1 X115.951 Y52.667 E5.19338
G1 X115.356 Y53.52 E5.26286
G1 X115.356 Y46.604 E5.72489
G1 X114.761 Y46.604 E5.76464
G1 X114.761 Y54.114 E6.26635
G1 X114.166 Y54.565 E6.31623
G1 X114.166 Y46.604 E6.84807
G1 X113.571 Y46.604 E6.88782
G1 X113.571 Y54.929 E7.44398
G1 X112.976 Y55.177 E7.48704
G1 X112.976 Y46.604 E8.05976
G1 X112.381 Y46.604 E8.09951
G1 X112.381 Y55.358 E8.68432
G1 X111.785 Y55.486 E8.72504
G1 X111.785 Y46.604 E9.31841
G1 X111.19 Y46.604 E9.35816
G1 X111.19 Y55.52 E9.9538
G1 X110.595 Y55.525 E9.99355
G1 X110.595 Y46.604 E10.58952
G1 X110 Y46.604 E10.62927
G1 X110 Y55.434 E11.21916
G1 X109.405 Y55.297 E11.25995
G1 X109.405 Y46.604 E11.84069
G1 X108.81 Y46.604 E11.88044
G1 X108.81 Y55.09 E12.44735
G1 X108.656 Y55.037 E12.45823
G1 X108.215 Y54.785 E12.49216
G1 X108.215 Y46.604 E13.0387
G1 X107.619 Y46.604 E13.07852
G1 X107.619 Y54.41 E13.6
G1 X107.024 Y53.908 E13.65201
G1 X107.024 Y46.604 E14.13996
G1 X106.429 Y46.604 E14.17971
G1 X106.429 Y53.208 E14.62089
G1 X105.834 Y52.201 E14.69903
G1 X105.834 Y46.991 E15.04709
G1 E13.04709 F2400
G92 E0
G1 X105.834 Y46.991 F7800
G1 X102.476 Y42.563
G1 E2 F2400
G1 F1800
G1 X102.161 Y42.983 E2.03507
G1 X101.27 Y43.675 E2.11044
G1 X100.154 Y44.128 E2.1909
G1 X99.066 Y44.266 E2.26417
G1 X97.948 Y44.105 E2.33963
G1 X96.794 Y43.577 E2.42441
G1 X95.97 Y42.905 E2.49544
G1 X95.327 Y41.995 E2.56988
G1 X94.984 Y41.133 E2.63186
G1 X94.836 Y40.197 E2.69517
G1 X94.847 Y39.647 E2.73192
G1 X94.952 Y38.928 E2.78046
G1 X95.077 Y38.596 E2.80416
G1 X102.476 Y38.596 E3.29845
G1 X102.476 Y42.483 E3.55812
G1 X102.476 Y42.483 F7800
G1 X101.668 Y43.06
G1 F1800
G1 X101.668 Y39.078 E3.82414
G1 X101.073 Y39.078 E3.86389
G1 X101.073 Y43.218 E4.14046
G1 X100.478 Y43.489 E4.18414
G1 X100.478 Y39.078 E4.47882
G1 X99.883 Y39.078 E4.51857
G1 X99.883 Y43.676 E4.82574
G1 X99.288 Y43.752 E4.86581
G1 X99.288 Y39.078 E5.17806
G1 X98.692 Y39.078 E5.21788
G1 X98.692 Y43.725 E5.52832
G1 X98.097 Y43.639 E5.56848
G1 X98.097 Y39.078 E5.87318
G1 X97.502 Y39.078 E5.91293
G1 X97.502 Y43.395 E6.20133
G1 X96.907 Y43.047 E6.24738
G1 X96.907 Y39.078 E6.51253
G1 X96.312 Y39.078 E6.55228
G1 X96.312 Y42.554 E6.7845
G1 X95.717 Y41.672 E6.85558
G1 X95.717 Y38.837 E7.04497
G1 E5.04497 F2400
G92 E0
G1 X95.717 Y38.837 F7800
G1 X93.227 Y38.78
G1 E2 F2400
G1 F1800
G1 X93.397 Y39.888 E2.07489
G1 X93.269 Y41.012 E2.15046
G1 X93.03 Y41.618 E2.19398
G1 X92.842 Y42.082 E2.22743
G1 X92.164 Y42.984 E2.30281
G1 X91.274 Y43.676 E2.37812
G1 X90.157 Y44.129 E2.45864
G1 X89.069 Y44.266 E2.5319
G1 X87.953 Y44.105 E2.60723
G1 X86.798 Y43.578 E2.69204
G1 X86.526 Y43.356 E2.7155
G1 X86.526 Y38.596 E3.03349
G1 X93.148 Y38.596 E3.47588
G1 X93.196 Y38.706 E3.4839
G1 X93.196 Y38.706 F7800
G1 X92.741 Y41.69
G1 F1800
G1 X92.741 Y39.078 E3.6584
G1 X92.146 Y39.078 E3.69815
G1 X92.146 Y42.206 E3.90712
G1 X91.818 Y42.643 E3.94362
G1 X91.551 Y42.85 E3.96619
G1 X91.551 Y39.078 E4.21818
G1 X90.956 Y39.078 E4.25793
G1 X90.956 Y43.288 E4.53918
G1 X90.361 Y43.539 E4.58232
G1 X90.361 Y39.078 E4.88034
G1 X89.766 Y39.078 E4.92009
G1 X89.766 Y43.693 E5.2284
G1 X89.17 Y43.768 E5.26853
G1 X89.17 Y39.078 E5.58185
G1 X88.575 Y39.078 E5.6216
G1 X88.575 Y43.708 E5.93091
G1 X87.98 Y43.594 E5.97138
G1 X87.98 Y39.078 E6.27307
G1 X87.385 Y39.078 E6.31282
G1 X87.385 Y43.606 E6.61531
G1 E4.61531 F2400
G92 E0
G1 X87.385 Y43.606 F7800
G1 X91.12 Y23.544
G1 E2 F2400
G1 F1800
G1 X92.08 Y24.066 E2.073
G1 X92.927 Y24.842 E2.14974
G1 X93.555 Y25.794 E2.22593
G1 X93.942 Y26.887 E2.30339
G1 X94.05 Y28.027 E2.37989
G1 X93.879 Y29.162 E2.45657
G1 X93.523 Y30.02 E2.51863
G1 X86.232 Y30.03 E3.00571
G1 X85.336 Y30.257 E3.06746
G1 X84.887 Y30.649 E3.10728
G1 X84.76 Y31.059 E3.13595
G1 X84.771 Y45.198 E4.08051
G1 X84.892 Y45.505 E4.10255
G1 X85.171 Y45.787 E4.12905
G1 X85.574 Y45.985 E4.15905
G1 X86.138 Y46.118 E4.19776
G1 X86.526 Y45.803 E4.23115
G1 X86.526 Y45.008 E4.28426
G1 X86.822 Y45.091 E4.3048
G1 X86.339 Y47.084 E4.4418
G1 X85.31 Y48.254 E4.54589
G1 X83.909 Y48.803 E4.64641
G1 X82.304 Y48.662 E4.75405
G1 X80.977 Y47.74 E4.862
G1 X80.249 Y46.358 E4.96635
G1 X80.259 Y44.759 E5.07317
G1 X80.316 Y44.651 E5.08133
G1 X80.138 Y44.316 E5.10667
G1 X80.138 Y43.892 E5.135
G1 X78.688 Y44.192 E5.23392
G1 X77.564 Y44.217 E5.30903
G1 X76.454 Y44.037 E5.38415
G1 X75.394 Y43.66 E5.45931
G1 X74.421 Y43.096 E5.53444
G1 X73.566 Y42.366 E5.60955
G1 X72.858 Y41.493 E5.68464
G1 X72.347 Y40.556 E5.75594
G1 X71.978 Y39.442 E5.83434
G1 X71.878 Y38.892 E5.87169
G1 X71.826 Y37.771 E5.94666
G1 X71.978 Y36.659 E6.02164
G1 X72.132 Y36.116 E6.05935
G1 X72.347 Y35.545 E6.10011
G1 X72.858 Y34.608 E6.17141
G1 X73.539 Y33.769 E6.2436
G1 X74.461 Y32.982 E6.32458
G1 X75.394 Y32.441 E6.39663
G1 X76.454 Y32.064 E6.47179
G1 X77.564 Y31.884 E6.54691
G1 X78.688 Y31.909 E6.62202
G1 X79.789 Y32.137 E6.69713
G1 X80.176 Y32.294 E6.72503
G1 X80.458 Y31.977 E6.75337
G1 X80.361 Y31.802 E6.76674
G1 X80.11 Y30.509 E6.85473
G1 X80.552 Y29.114 E6.95249
G1 X81.257 Y28.249 E7.02704
G1 X82.236 Y27.643 E7.10396
G1 X83.451 Y27.404 E7.18668
G1 X84.706 Y27.676 E7.27247
G1 X84.873 Y26.613 E7.34436
G1 X85.22 Y25.719 E7.40843
G1 X85.765 Y24.891 E7.47465
G1 X86.613 Y24.087 E7.55272
G1 X87.69 Y23.508 E7.63441
G1 X88.775 Y23.233 E7.70919
G1 X89.956 Y23.23 E7.78809
G1 X91.043 Y23.523 E7.8633
G1 X91.043 Y23.523 F7800
G1 X93.336 Y29.779
G1 F1800
G1 X93.336 Y26.617 E8.07454
G1 X93.121 Y26.011 E8.1175
G1 X92.741 Y25.436 E8.16354
G1 X92.741 Y29.538 E8.43758
G1 X92.146 Y29.538 E8.47733
G1 X92.146 Y24.78 E8.79519
G1 X91.551 Y24.327 E8.84515
G1 X91.551 Y29.538 E9.19327
G1 X90.956 Y29.538 E9.23302
G1 X90.956 Y24.003 E9.60279
G1 X90.361 Y23.838 E9.64404
G1 X90.361 Y29.538 E10.02483
G1 X89.766 Y29.538 E10.06458
G1 X89.766 Y23.713 E10.45372
G1 X89.17 Y23.714 E10.49354
G1 X89.17 Y29.538 E10.88261
G1 X88.575 Y29.538 E10.92236
G1 X88.575 Y23.781 E11.30696
G1 X87.98 Y23.932 E11.34797
G1 X87.98 Y29.538 E11.72248
G1 X87.385 Y29.538 E11.76223
G1 X87.385 Y24.219 E12.11757
G1 X86.79 Y24.584 E12.1642
G1 X86.79 Y29.538 E12.49515
G1 X86.195 Y29.549 E12.53491
G1 X86.195 Y25.148 E12.82892
G1 X85.6 Y26.073 E12.9024
G1 X85.6 Y29.649 E13.1413
G1 X85.004 Y29.889 E13.18422
G1 X85.004 Y28.235 E13.29472
G1 X84.409 Y28.105 E13.33541
G1 X84.409 Y48.089 E14.67045
G1 X83.838 Y48.313 E14.71143
G1 X83.814 Y27.976 E16.07005
G1 X83.446 Y27.896 E16.09521
G1 X83.219 Y27.941 E16.11067
G1 X83.219 Y48.259 E17.46802
G1 X82.624 Y48.206 E17.50793
G1 X82.624 Y28.058 E18.85393
G1 X82.415 Y28.099 E18.86816
G1 X82.029 Y28.338 E18.89849
G1 X82.029 Y47.884 E20.20427
G1 X81.434 Y47.47 E20.25269
G1 X81.434 Y28.795 E21.50028
G1 X80.984 Y29.348 E21.54791
G1 X80.839 Y29.806 E21.58
G1 X80.839 Y46.96 E22.72598
G1 X80.839 Y46.96 F7800
G1 X85.6 Y47.56
G1 F1800
G1 X85.6 Y46.495 E22.79713
G1 X85.004 Y46.253 E22.8401
G1 X85.004 Y48.115 E22.96449
G1 X85.004 Y48.115 F7800
G1 X80.243 Y43.624
G1 F1800
G1 X80.243 Y32.842 E23.68479
G1 X79.648 Y32.6 E23.7277
G1 X79.648 Y43.501 E24.45595
G1 X79.053 Y43.624 E24.49654
G1 X79.053 Y32.477 E25.24122
G1 X78.458 Y32.386 E25.28143
G1 X78.458 Y43.715 E26.03827
G1 X77.863 Y43.728 E26.07803
G1 X77.863 Y32.373 E26.83661
G1 X77.268 Y32.42 E26.87648
G1 X77.268 Y43.68 E27.62871
G1 X76.673 Y43.584 E27.66897
G1 X76.673 Y32.517 E28.40831
G1 X76.077 Y32.71 E28.45016
G1 X76.077 Y43.391 E29.16371
G1 X75.482 Y43.153 E29.20652
G1 X75.482 Y32.947 E29.88834
G1 X74.887 Y33.292 E29.93429
G1 X74.887 Y42.809 E30.57008
G1 X74.292 Y42.352 E30.6202
G1 X74.292 Y33.734 E31.19593
G1 X73.697 Y34.339 E31.25262
G1 X73.697 Y41.762 E31.74852
G1 X73.102 Y40.934 E31.81664
G1 X73.102 Y35.167 E32.20191
G1 X72.786 Y35.746 E32.24598
G1 X72.507 Y36.561 E32.30353
G1 X72.507 Y40.297 E32.55312
G1 E30.55312 F2400
G92 E0
G1 X72.507 Y40.297 F7800
G1 X101.119 Y23.544
G1 E2 F2400
G1 F1800
G1 X102.079 Y24.067 E2.07303
G1 X102.925 Y24.842 E2.14968
G1 X103.554 Y25.794 E2.22591
G1 X103.94 Y26.888 E2.30341
G1 X104.049 Y28.027 E2.37985
G1 X103.878 Y29.162 E2.45653
G1 X103.521 Y30.02 E2.51861
G1 X95.204 Y30.02 E3.07423
G1 X94.789 Y28.902 E3.1539
G1 X94.687 Y27.861 E3.22378
G1 X94.76 Y27.116 E3.27379
G1 X94.872 Y26.613 E3.30822
G1 X95.219 Y25.719 E3.37229
G1 X95.764 Y24.892 E3.43846
G1 X96.612 Y24.087 E3.51657
G1 X97.688 Y23.509 E3.59817
G1 X98.774 Y23.234 E3.67301
G1 X99.955 Y23.23 E3.75191
G1 X101.042 Y23.523 E3.82712
G1 X101.042 Y23.523 F7800
G1 X103.454 Y29.555
G1 F1800
G1 X103.454 Y26.956 E4.00075
G1 X103.12 Y26.012 E4.06765
G1 X102.858 Y25.616 E4.09937
G1 X102.858 Y29.538 E4.36138
G1 X102.263 Y29.538 E4.40113
G1 X102.263 Y24.889 E4.71171
G1 X101.668 Y24.392 E4.7635
G1 X101.668 Y29.538 E5.10728
G1 X101.073 Y29.538 E5.14703
G1 X101.073 Y24.068 E5.51246
G1 X100.478 Y23.871 E5.55433
G1 X100.478 Y29.538 E5.93292
G1 X99.883 Y29.538 E5.97267
G1 X99.883 Y23.713 E6.36181
G1 X99.288 Y23.714 E6.40156
G1 X99.288 Y29.538 E6.79063
G1 X98.692 Y29.538 E6.83045
G1 X98.692 Y23.751 E7.21705
G1 X98.097 Y23.902 E7.25806
G1 X98.097 Y29.538 E7.63458
G1 X97.502 Y29.538 E7.67433
G1 X97.502 Y24.156 E8.03388
G1 X96.907 Y24.476 E8.07901
G1 X96.907 Y29.538 E8.41718
G1 X96.312 Y29.538 E8.45693
G1 X96.312 Y25.036 E8.75769
G1 X95.717 Y25.839 E8.82446
G1 X95.717 Y29.779 E9.08767
G1 E7.08767 F2400
G92 E0
G1 X95.717 Y29.779 F7800
G1 X112.721 Y22.31
G1 E2 F2400
G1 F1800
G1 X113.417 Y22.424 E2.04712
G1 X114.461 Y22.84 E2.1222
G1 X115.391 Y23.469 E2.1972
G1 X116.164 Y24.284 E2.27224
G1 X116.744 Y25.246 E2.34728
G1 X117.105 Y26.31 E2.42234
G1 X117.229 Y27.427 E2.49742
G1 X117.11 Y28.545 E2.57253
G1 X116.753 Y29.612 E2.6477
G1 X116.509 Y30.02 E2.67946
G1 X107.522 Y30.02 E3.27984
G1 X107.094 Y29.088 E3.34835
G1 X106.854 Y27.989 E3.4235
G1 X106.857 Y26.865 E3.49859
G1 X107.101 Y25.768 E3.57367
G1 X107.574 Y24.749 E3.64872
G1 X108.255 Y23.856 E3.72374
G1 X109.111 Y23.129 E3.79877
G1 X110.104 Y22.604 E3.87381
G1 X111.186 Y22.303 E3.94884
G1 X112.308 Y22.243 E4.0239
G1 X112.641 Y22.297 E4.04644
G1 X112.641 Y22.297 F7800
G1 X116.546 Y29.47
G1 F1800
G1 X116.546 Y26.164 E4.2673
G1 X116.305 Y25.45 E4.31764
G1 X115.951 Y24.865 E4.36332
G1 X115.951 Y29.538 E4.6755
G1 X115.356 Y29.538 E4.71525
G1 X115.356 Y24.133 E5.07633
G1 X114.761 Y23.625 E5.1286
G1 X114.761 Y29.538 E5.52362
G1 X114.166 Y29.538 E5.56337
G1 X114.166 Y23.241 E5.98404
G1 X113.571 Y23.004 E6.02683
G1 X113.571 Y29.538 E6.46334
G1 X112.976 Y29.538 E6.50309
G1 X112.976 Y22.84 E6.95055
G1 X112.381 Y22.743 E6.99082
G1 X112.381 Y29.538 E7.44476
G1 X111.785 Y29.538 E7.48458
G1 X111.785 Y22.754 E7.93779
G1 X111.19 Y22.803 E7.97767
G1 X111.19 Y29.538 E8.4276
G1 X110.595 Y29.538 E8.46735
G1 X110.595 Y22.968 E8.90626
G1 X110 Y23.204 E8.94902
G1 X110 Y29.538 E9.37217
G1 X109.405 Y29.538 E9.41192
G1 X109.405 Y23.519 E9.81402
G1 X108.81 Y24.017 E9.86585
G1 X108.81 Y29.538 E10.23468
G1 X108.215 Y29.538 E10.27443
G1 X108.215 Y24.704 E10.59737
G1 X107.989 Y25 E10.62225
G1 X107.619 Y25.795 E10.68083
G1 X107.619 Y29.654 E10.93863
G1 E8.93863 F2400
G92 E0
G1 X107.619 Y29.654 F7800
G1 X138.645 Y33.752
G1 E2 F2400
;TYPE:Perimeter
;WIDTH:0.6
G1 F1800
G1 X138.704 Y33.774 E2.00421
G1 X139.118 Y33.854 E2.03238
G1 X140.097 Y34.393 E2.10704
G1 X140.501 Y34.724 E2.14193
G1 X140.719 Y34.981 E2.16444
G1 X141.063 Y35.287 E2.1952
G1 X141.373 Y35.866 E2.23908
G1 X141.634 Y36.248 E2.26999
G1 X141.781 Y36.698 E2.30162
G1 X141.807 Y36.931 E2.31728
G1 X141.941 Y37.323 E2.34496
G1 X141.985 Y37.854 E2.38056
G1 X141.96 Y38.16 E2.40107
G1 X141.985 Y38.652 E2.43398
G1 X141.799 Y39.25 E2.47582
G1 X141.7 Y39.736 E2.50895
G1 X141.16 Y40.695 E2.58247
G1 X140.781 Y41.125 E2.62076
G1 X140.59 Y41.288 E2.63753
G1 X140.263 Y41.651 E2.67017
G1 X139.707 Y41.943 E2.71212
G1 X139.293 Y42.217 E2.74529
G1 X138.829 Y42.358 E2.77769
G1 X138.64 Y42.377 E2.79038
G1 X138.225 Y42.515 E2.8196
G1 X137.887 Y42.56 E2.84238
G1 X136.868 Y42.547 E2.91046
G1 X136.388 Y42.365 E2.94475
G1 X136.231 Y42.365 E2.95524
G1 X135.717 Y42.221 E2.9909
G1 X135.319 Y41.966 E3.02248
G1 X134.871 Y41.726 E3.05643
G1 X134.454 Y41.364 E3.09332
G1 X134.292 Y41.167 E3.11036
G1 X133.923 Y40.837 E3.14343
G1 X133.701 Y40.401 E3.17612
G1 X133.351 Y39.856 E3.21939
G1 X133.209 Y39.359 E3.25392
G1 X133.194 Y39.209 E3.26399
G1 X133.052 Y38.762 E3.29532
G1 X133.019 Y38.258 E3.32906
G1 X133.061 Y38.042 E3.34376
G1 X133.006 Y37.742 E3.36414
G1 X133.028 Y37.422 E3.38557
G1 X133.076 Y37.238 E3.39827
G1 X133.203 Y36.892 E3.42289
G1 X133.29 Y36.437 E3.45384
G1 X133.866 Y35.414 E3.53227
G1 X134.211 Y35.025 E3.56701
G1 X134.404 Y34.865 E3.58376
G1 X134.733 Y34.495 E3.61684
G1 X135.171 Y34.271 E3.64971
G1 X135.716 Y33.922 E3.69294
G1 X136.206 Y33.78 E3.72702
