; generated by PrusaSlicer 2.8.1+linux-x64-GTK3 on 2024-10-28 at 11:24:30 UTC

; 

; external perimeters extrusion width = 0.45mm
; perimeters extrusion width = 0.45mm
; infill extrusion width = 0.45mm
; solid infill extrusion width = 0.45mm
; top infill extrusion width = 0.40mm
; support material extrusion width = 0.40mm
; first layer extrusion width = 0.60mm

M190 S60 ; set bed temperature and wait for it to be reached
M104 S200 ; set temperature
;TYPE:Custom
G28 ; home all axes
G1 Z5 F5000 ; lift nozzle
M109 S200 ; set temperature and wait for it to be reached
G21 ; set units to millimeters
G90 ; use absolute coordinates
M82 ; use absolute distances for extrusion
G92 E0
; Filament gcode
M107
;LAYER_CHANGE
;Z:0.3
;HEIGHT:0.3
G1 E-2 F2400
G1 Z.3 F7800
G1 X66.485 Y26.798
G1 E0 F2400
;TYPE:Skirt/Brim
;WIDTH:0.6
G1 F1800
G1 X67.363 Y25.061 E.13002
G1 X67.998 Y24.114 E.20619
G1 X68.678 Y23.275 E.27834
G1 X69.323 Y22.592 E.3411
G1 X70.56 Y21.537 E.44971
G1 X83.643 Y12.36 E1.51731
G1 X84.719 Y11.782 E1.59891
G1 X86.149 Y11.226 E1.70141
G1 X87.234 Y10.951 E1.77619
G1 X88.379 Y10.771 E1.85362
G1 X111.002 Y9.344 E3.36796
G1 X112.418 Y9.312 E3.46258
G1 X113.747 Y9.431 E3.55172
G1 X115.657 Y9.865 E3.68257
G1 X142.365 Y18.957 E5.56736
G1 X143.626 Y19.506 E5.65924
G1 X144.826 Y20.177 E5.75109
G1 X145.953 Y20.965 E5.84296
G1 X146.996 Y21.86 E5.93477
G1 X147.945 Y22.856 E6.02668
G1 X148.79 Y23.94 E6.1185
G1 X149.523 Y25.104 E6.2104
G1 X150.137 Y26.334 E6.30224
G1 X150.624 Y27.62 E6.39411
G1 X150.982 Y28.948 E6.48599
G1 X151.205 Y30.304 E6.57779
G1 X151.292 Y31.677 E6.6697
G1 X151.243 Y33.051 E6.76155
G1 X151.056 Y34.413 E6.85339
G1 X150.735 Y35.75 E6.94525
G1 X150.282 Y37.049 E7.03716
G1 X149.703 Y38.296 E7.12901
G1 X149.002 Y39.479 E7.22087
G1 X148.187 Y40.586 E7.3127
G1 X147.483 Y41.383 E7.38374
G1 X146.246 Y42.53 E7.49644
G1 X144.826 Y43.552 E7.61332
G1 X143.626 Y44.223 E7.70517
G1 X142.071 Y44.878 E7.81789
G1 X115.252 Y53.851 E9.70716
G1 X113.376 Y54.276 E9.83566
G1 X112.048 Y54.395 E9.92473
G1 X110.915 Y54.376 E10.00043
G1 X109.814 Y54.259 E10.0744
G1 X81.106 Y48.62 E12.0289
G1 X78.731 Y47.613 E12.20124
G1 X77.193 Y46.534 E12.32675
G1 X70.631 Y41.539 E12.87768
G1 X69.502 Y40.588 E12.9763
G1 X68.706 Y39.771 E13.0525
G1 X67.998 Y38.898 E13.12759
G1 X67.363 Y37.951 E13.20376
G1 X66.485 Y36.214 E13.33378
G1 X66.111 Y35.156 E13.40875
G1 X65.718 Y33.467 E13.5246
G1 X65.565 Y31.785 E13.63743
G1 X65.644 Y30.086 E13.75106
G1 X65.956 Y28.399 E13.86567
G1 X66.466 Y26.855 E13.9743
G1 E11.9743 F2400
G92 E0
G1 X66.466 Y26.855 F7800
G92 E0
G1 X116.503 Y40.592
G1 E2 F2400
;TYPE:Support material
G1 F1800
G1 X116.867 Y41.663 E2.07557
G1 X116.997 Y42.785 E2.15103
G1 X116.887 Y43.91 E2.22654
G1 X116.541 Y44.985 E2.30198
G1 X115.977 Y45.963 E2.3774
G1 X115.228 Y46.79 E2.45194
G1 X114.277 Y47.468 E2.52996
G1 X113.264 Y47.908 E2.60374
G1 X112.154 Y48.128 E2.67934
G1 X111.022 Y48.109 E2.75497
G1 X109.918 Y47.85 E2.83073
G1 X108.892 Y47.361 E2.90666
G1 X108.026 Y46.691 E2.97981
G1 X107.253 Y45.762 E3.06055
G1 X106.935 Y45.206 E3.10334
G1 X106.731 Y44.751 E3.13665
G1 X106.436 Y43.653 E3.2126
G1 X106.382 Y42.518 E3.28851
G1 X106.454 Y41.868 E3.3322
G1 X106.74 Y40.855 E3.40252
G1 X107.236 Y39.916 E3.47346
G1 X116.096 Y39.916 E4.06536
G1 X116.461 Y40.523 E4.11268
G1 X116.461 Y40.523 F7800
G1 X115.951 Y45.525
G1 F1800
G1 X115.951 Y40.61 E4.44103
G1 X115.824 Y40.398 E4.45754
G1 X115.356 Y40.398 E4.4888
G1 X115.356 Y45.93 E4.85837
G1 X114.761 Y46.534 E4.91501
G1 X114.761 Y40.398 E5.32493
G1 X114.166 Y40.398 E5.36468
G1 X114.166 Y46.959 E5.80299
G1 X114.042 Y47.045 E5.81307
G1 X113.571 Y47.249 E5.84736
G1 X113.571 Y40.398 E6.30504
G1 X112.976 Y40.398 E6.34479
G1 X112.976 Y47.473 E6.81744
G1 X112.381 Y47.592 E6.85798
G1 X112.381 Y40.398 E7.33858
G1 X111.785 Y40.398 E7.3784
G1 X111.785 Y47.64 E7.8622
G1 X111.19 Y47.629 E7.90196
G1 X111.19 Y40.398 E8.38503
G1 X110.595 Y40.398 E8.42478
G1 X110.595 Y47.513 E8.9001
G1 X110 Y47.355 E8.94123
G1 X110 Y40.398 E9.406
G1 X109.405 Y40.398 E9.44575
G1 X109.405 Y47.072 E9.89161
G1 X108.81 Y46.688 E9.93892
G1 X108.81 Y40.398 E10.35913
G1 X108.215 Y40.398 E10.39888
G1 X108.215 Y46.179 E10.78508
G1 X107.619 Y45.432 E10.84892
G1 X107.619 Y40.398 E11.18522
G1 X107.527 Y40.398 E11.19137
G1 X107.19 Y41.035 E11.23951
G1 X107.024 Y41.623 E11.28033
G1 X107.024 Y44.816 E11.49364
G1 E9.49364 F2400
G92 E0
G1 X107.024 Y44.816 F7800
G1 X101.747 Y37.339
G1 E2 F2400
G1 F1800
G1 X97.254 Y37.339 E2.30016
G1 X97.254 Y33.389 E2.56404
G1 X101.747 Y33.389 E2.8642
G1 X101.747 Y37.259 E3.12274
G1 X101.747 Y37.259 F7800
G1 X101.073 Y37.098
G1 F1800
G1 X101.073 Y33.872 E3.33825
G1 X100.478 Y33.872 E3.378
G1 X100.478 Y36.857 E3.57741
G1 X99.883 Y36.857 E3.61716
G1 X99.883 Y33.872 E3.81657
G1 X99.288 Y33.872 E3.85632
G1 X99.288 Y36.857 E4.05573
G1 X98.692 Y36.857 E4.09555
G1 X98.692 Y33.872 E4.29496
G1 X98.097 Y33.872 E4.33471
G1 X98.097 Y37.098 E4.55022
G1 E2.55022 F2400
G92 E0
G1 X98.097 Y37.098 F7800
G1 X91.747 Y37.339
G1 E2 F2400
G1 F1800
G1 X87.254 Y37.339 E2.30016
G1 X87.254 Y33.389 E2.56404
G1 X91.747 Y33.389 E2.8642
G1 X91.747 Y37.259 E3.12274
G1 X91.747 Y37.259 F7800
G1 X90.956 Y37.098
G1 F1800
G1 X90.956 Y33.872 E3.33825
G1 X90.361 Y33.872 E3.378
G1 X90.361 Y36.857 E3.57741
G1 X89.766 Y36.857 E3.61716
G1 X89.766 Y33.872 E3.81657
G1 X89.17 Y33.872 E3.85639
G1 X89.17 Y36.857 E4.0558
G1 X88.575 Y36.857 E4.09555
G1 X88.575 Y33.872 E4.29496
G1 X87.98 Y33.872 E4.33471
G1 X87.98 Y37.098 E4.55022
G1 E2.55022 F2400
G92 E0
G1 X87.98 Y37.098 F7800
G1 X91.119 Y17.337
G1 E2 F2400
G1 F1800
G1 X92.079 Y17.86 E2.07303
G1 X92.925 Y18.635 E2.14968
G1 X93.553 Y19.587 E2.22587
G1 X93.94 Y20.681 E2.30339
G1 X94.048 Y21.82 E2.37982
G1 X93.877 Y22.956 E2.45657
G1 X93.521 Y23.813 E2.51857
G1 X86.232 Y23.823 E3.00552
G1 X85.336 Y24.051 E3.06729
G1 X84.887 Y24.442 E3.10706
G1 X84.76 Y24.852 E3.13573
G1 X84.764 Y38.927 E4.07602
G1 X84.91 Y39.321 E4.10409
G1 X85.282 Y39.651 E4.13731
G1 X85.923 Y39.866 E4.18248
G1 X86.59 Y39.916 E4.22716
G1 X86.353 Y40.893 E4.29432
G1 X85.323 Y42.064 E4.39851
G1 X83.92 Y42.614 E4.49918
G1 X82.314 Y42.47 E4.6069
G1 X80.989 Y41.547 E4.71478
G1 X80.262 Y40.165 E4.8191
G1 X80.273 Y38.567 E4.92586
G1 X80.327 Y38.465 E4.93357
G1 X80.138 Y38.11 E4.96044
G1 X80.138 Y37.349 E5.01128
G1 X78.695 Y37.647 E5.10971
G1 X77.57 Y37.672 E5.18488
G1 X76.46 Y37.493 E5.25999
G1 X75.401 Y37.115 E5.33511
G1 X74.428 Y36.552 E5.41021
G1 X73.573 Y35.822 E5.48532
G1 X72.865 Y34.949 E5.56041
G1 X72.353 Y34.011 E5.6318
G1 X71.985 Y32.898 E5.71011
G1 X71.885 Y32.348 E5.74746
G1 X71.833 Y31.227 E5.82243
G1 X71.985 Y30.114 E5.89747
G1 X72.139 Y29.571 E5.93518
G1 X72.353 Y29 E5.97592
G1 X72.865 Y28.063 E6.04725
G1 X73.545 Y27.224 E6.1194
G1 X74.468 Y26.437 E6.20043
G1 X75.401 Y25.897 E6.27245
G1 X76.46 Y25.519 E6.34757
G1 X77.571 Y25.34 E6.42275
G1 X78.695 Y25.365 E6.49786
G1 X79.796 Y25.593 E6.57297
G1 X80.409 Y25.842 E6.61717
G1 X80.11 Y24.303 E6.72191
G1 X80.552 Y22.908 E6.81967
G1 X81.257 Y22.042 E6.89427
G1 X82.236 Y21.436 E6.97119
G1 X83.451 Y21.197 E7.05391
G1 X84.704 Y21.469 E7.13957
G1 X84.871 Y20.406 E7.21146
G1 X85.218 Y19.512 E7.27553
G1 X85.763 Y18.685 E7.3417
G1 X86.612 Y17.881 E7.41981
G1 X87.688 Y17.302 E7.50144
G1 X88.773 Y17.027 E7.57622
G1 X89.955 Y17.023 E7.65518
G1 X91.041 Y17.316 E7.73032
G1 X91.041 Y17.316 F7800
G1 X93.336 Y23.572
G1 F1800
G1 X93.336 Y20.415 E7.94122
G1 X93.119 Y19.805 E7.98447
G1 X92.741 Y19.232 E8.03033
G1 X92.741 Y23.331 E8.30417
G1 X92.146 Y23.331 E8.34392
G1 X92.146 Y18.575 E8.66165
G1 X91.551 Y18.121 E8.71165
G1 X91.551 Y23.331 E9.05971
G1 X90.956 Y23.331 E9.09946
G1 X90.956 Y17.797 E9.46916
G1 X90.361 Y17.632 E9.51041
G1 X90.361 Y23.331 E9.89113
G1 X89.766 Y23.331 E9.93088
G1 X89.766 Y17.506 E10.32002
G1 X89.17 Y17.508 E10.35984
G1 X89.17 Y23.331 E10.74885
G1 X88.575 Y23.331 E10.7886
G1 X88.575 Y17.574 E11.1732
G1 X87.98 Y17.725 E11.21421
G1 X87.98 Y23.331 E11.58872
G1 X87.385 Y23.331 E11.62847
G1 X87.385 Y18.012 E11.98381
G1 X86.79 Y18.376 E12.03041
G1 X86.79 Y23.331 E12.36143
G1 X86.195 Y23.343 E12.40119
G1 X86.195 Y18.94 E12.69533
G1 X85.6 Y19.862 E12.76864
G1 X85.6 Y23.443 E13.00787
G1 X85.004 Y23.682 E13.05077
G1 X85.004 Y22.028 E13.16127
G1 X84.409 Y21.899 E13.20194
G1 X84.409 Y41.904 E14.53838
G1 X83.849 Y42.123 E14.57855
G1 X83.814 Y21.769 E15.93831
G1 X83.446 Y21.689 E15.96347
G1 X83.219 Y21.734 E15.97893
G1 X83.219 Y42.067 E17.33728
G1 X82.624 Y42.014 E17.37719
G1 X82.624 Y21.851 E18.72419
G1 X82.415 Y21.892 E18.73842
G1 X82.029 Y22.131 E18.76875
G1 X82.029 Y41.684 E20.075
G1 X81.434 Y41.269 E20.12346
G1 X81.434 Y22.589 E21.37139
G1 X80.984 Y23.141 E21.41897
G1 X80.839 Y23.599 E21.45106
G1 X80.839 Y40.743 E22.59637
G1 X80.839 Y40.743 F7800
G1 X85.6 Y41.385
G1 F1800
G1 X85.6 Y40.286 E22.66979
G1 X85.004 Y40.047 E22.71269
G1 X85.004 Y41.93 E22.83848
G1 X85.004 Y41.93 F7800
G1 X80.243 Y37.081
G1 F1800
G1 X80.243 Y26.295 E23.55904
G1 X79.648 Y26.054 E23.60193
G1 X79.648 Y36.958 E24.33038
G1 X79.053 Y37.081 E24.37097
G1 X79.053 Y25.931 E25.11585
G1 X78.458 Y25.841 E25.15605
G1 X78.458 Y37.17 E25.91289
G1 X77.863 Y37.184 E25.95265
G1 X77.863 Y25.828 E26.71129
G1 X77.268 Y25.877 E26.75117
G1 X77.268 Y37.135 E27.50327
G1 X76.673 Y37.039 E27.54353
G1 X76.673 Y25.973 E28.2828
G1 X76.077 Y26.168 E28.32469
G1 X76.077 Y36.844 E29.0379
G1 X75.482 Y36.605 E29.08074
G1 X75.482 Y26.407 E29.76202
G1 X74.887 Y26.751 E29.80793
G1 X74.887 Y36.261 E30.44325
G1 X74.292 Y35.802 E30.49345
G1 X74.292 Y27.196 E31.06838
G1 X73.697 Y27.803 E31.12516
G1 X73.697 Y35.209 E31.61992
G1 X73.102 Y34.377 E31.68825
G1 X73.102 Y28.635 E32.07185
G1 X72.793 Y29.202 E32.11499
G1 X72.507 Y30.041 E32.17421
G1 X72.507 Y33.734 E32.42092
G1 E30.42092 F2400
G92 E0
G1 X72.507 Y33.734 F7800
G1 X101.105 Y17.338
G1 E2 F2400
G1 F1800
G1 X102.064 Y17.86 E2.07294
G1 X102.91 Y18.636 E2.14963
G1 X103.539 Y19.588 E2.22586
G1 X103.925 Y20.681 E2.3033
G1 X104.034 Y21.82 E2.37974
G1 X103.863 Y22.956 E2.45649
G1 X103.506 Y23.813 E2.51851
G1 X95.189 Y23.813 E3.07413
G1 X94.774 Y22.696 E3.15374
G1 X94.672 Y21.654 E3.22368
G1 X94.745 Y20.909 E3.27369
G1 X94.857 Y20.406 E3.30812
G1 X95.204 Y19.512 E3.37219
G1 X95.749 Y18.685 E3.43836
G1 X96.598 Y17.88 E3.51652
G1 X97.674 Y17.302 E3.59812
G1 X98.759 Y17.027 E3.6729
G1 X99.94 Y17.024 E3.7518
G1 X101.027 Y17.317 E3.82701
G1 X101.027 Y17.317 F7800
G1 X103.454 Y23.312
G1 F1800
G1 X103.451 Y20.785 E3.99583
G1 X103.105 Y19.805 E4.06526
G1 X102.858 Y19.432 E4.09515
G1 X102.858 Y23.331 E4.35562
G1 X102.263 Y23.331 E4.39537
G1 X102.263 Y18.697 E4.70495
G1 X101.668 Y18.193 E4.75704
G1 X101.668 Y23.331 E5.10029
G1 X101.073 Y23.331 E5.14004
G1 X101.073 Y17.869 E5.50493
G1 X100.478 Y17.668 E5.54689
G1 X100.478 Y23.331 E5.92521
G1 X99.883 Y23.331 E5.96496
G1 X99.883 Y17.508 E6.35397
G1 X99.288 Y17.508 E6.39372
G1 X99.288 Y23.331 E6.78273
G1 X98.692 Y23.331 E6.82255
G1 X98.692 Y17.541 E7.20935
G1 X98.097 Y17.692 E7.25036
G1 X98.097 Y23.331 E7.62708
G1 X97.502 Y23.331 E7.66683
G1 X97.502 Y17.941 E8.02691
G1 X96.907 Y18.261 E8.07204
G1 X96.907 Y23.331 E8.41074
G1 X96.312 Y23.331 E8.45049
G1 X96.312 Y18.815 E8.75218
G1 X95.717 Y19.61 E8.81852
G1 X95.717 Y23.572 E9.0832
G1 E7.0832 F2400
G92 E0
G1 X95.717 Y23.572 F7800
G1 X113.638 Y15.799
G1 E2 F2400
G1 F1800
G1 X114.676 Y16.248 E2.07555
G1 X115.579 Y16.894 E2.14972
G1 X116.358 Y17.751 E2.22709
G1 X116.918 Y18.719 E2.3018
G1 X117.264 Y19.794 E2.37724
G1 X117.375 Y20.919 E2.45276
G1 X117.246 Y22.042 E2.52828
G1 X116.882 Y23.112 E2.60378
G1 X116.462 Y23.813 E2.65837
G1 X107.625 Y23.813 E3.24873
G1 X107.117 Y22.849 E3.32153
G1 X106.832 Y21.836 E3.39183
G1 X106.754 Y20.656 E3.47083
G1 X106.92 Y19.548 E3.54568
G1 X107.109 Y18.955 E3.58726
G1 X107.668 Y17.88 E3.66821
G1 X108.322 Y17.099 E3.73626
G1 X108.719 Y16.757 E3.77127
G1 X109.302 Y16.331 E3.81951
G1 X110.293 Y15.859 E3.89284
G1 X111.397 Y15.599 E3.96861
G1 X112.529 Y15.579 E4.04425
G1 X113.56 Y15.783 E4.11446
G1 X113.56 Y15.783 F7800
G1 X116.546 Y23.203
G1 F1800
G1 X116.546 Y19.138 E4.38602
G1 X115.951 Y18.019 E4.47069
G1 X115.951 Y23.331 E4.82556
G1 X115.356 Y23.331 E4.86531
G1 X115.356 Y17.362 E5.26407
G1 X114.761 Y16.902 E5.31431
G1 X114.761 Y23.331 E5.7438
G1 X114.166 Y23.331 E5.78355
G1 X114.166 Y16.552 E6.23642
G1 X113.571 Y16.295 E6.27972
G1 X113.571 Y23.331 E6.74976
G1 X112.976 Y23.331 E6.78951
G1 X112.976 Y16.159 E7.26864
G1 X112.486 Y16.062 E7.30201
G1 X112.381 Y16.064 E7.30903
G1 X112.381 Y23.331 E7.7945
G1 X111.785 Y23.331 E7.83432
G1 X111.785 Y16.074 E8.31913
G1 X111.19 Y16.143 E8.35915
G1 X111.19 Y23.331 E8.83935
G1 X110.595 Y23.331 E8.8791
G1 X110.595 Y16.283 E9.34994
G1 X110 Y16.532 E9.39303
G1 X110 Y23.331 E9.84724
G1 X109.405 Y23.331 E9.88699
G1 X109.405 Y16.853 E10.31976
G1 X108.81 Y17.315 E10.37008
G1 X108.81 Y23.331 E10.77198
G1 X108.215 Y23.331 E10.81173
G1 X108.215 Y17.978 E11.16934
G1 X107.619 Y18.996 E11.24815
G1 X107.619 Y23.285 E11.53468
G1 E9.53468 F2400
G92 E0
G1 X107.619 Y23.285 F7800
G1 X102.478 Y38.077
G1 E2 F2400
;TYPE:External perimeter
;WIDTH:0.6
G1 F1800
G1 X102.304 Y38.164 E2.013
G1 X96.697 Y38.164 E2.38758
G1 X96.483 Y38.057 E2.40356
G1 X96.429 Y37.897 E2.41484
G1 X96.429 Y32.832 E2.75321
G1 X96.498 Y32.653 E2.76603
G1 X96.651 Y32.568 E2.77772
G1 X96.697 Y32.564 E2.7808
G1 X102.304 Y32.564 E3.15538
G1 X102.486 Y32.635 E3.16843
G1 X102.572 Y32.832 E3.18279
G1 X102.572 Y37.897 E3.52116
G1 X102.523 Y38.043 E3.53145
G1 X102.139 Y38.153 F7800
G1 E1.53145 F2400
G92 E0
G1 X92.491 Y32.65 F7800
G1 E2 F2400
G1 F1800
G1 X92.561 Y32.755 E2.00843
G1 X92.572 Y32.832 E2.01363
G1 X92.572 Y37.897 E2.352
G1 X92.518 Y38.057 E2.36328
G1 X92.304 Y38.164 E2.37926
G1 X86.697 Y38.164 E2.75384
G1 X86.515 Y38.093 E2.76689
G1 X86.429 Y37.897 E2.78119
G1 X86.429 Y32.832 E3.11956
G1 X86.537 Y32.618 E3.13557
G1 X86.697 Y32.564 E3.14685
G1 X92.304 Y32.564 E3.52143
G1 X92.445 Y32.616 E3.53147
G1 X92.563 Y32.998 F7800
G1 E1.53147 F2400
G92 E0
G1 X138.691 Y36.187 F7800
G1 E2 F2400
;TYPE:Perimeter
G1 F1800
G1 X138.029 Y36.339 E2.04538
G1 X137.408 Y36.325 E2.08688
G1 X137.1 Y36.361 E2.1076
G1 X136.868 Y36.341 E2.12316
G1 X136.388 Y36.159 E2.15745
G1 X136.231 Y36.158 E2.16794
G1 X135.717 Y36.014 E2.2036
G1 X135.319 Y35.759 E2.23518
G1 X134.871 Y35.519 E2.26913
G1 X134.454 Y35.158 E2.30598
G1 X134.292 Y34.96 E2.32307
G1 X133.923 Y34.63 E2.35614
G1 X133.701 Y34.194 E2.38883
G1 X133.351 Y33.649 E2.4321
G1 X133.209 Y33.152 E2.46663
G1 X133.194 Y33.003 E2.47663
G1 X133.052 Y32.556 E2.50796
G1 X133.019 Y32.052 E2.5417
G1 X133.061 Y31.835 E2.55647
G1 X133.006 Y31.536 E2.57678
G1 X133.028 Y31.215 E2.59827
G1 X133.166 Y30.825 E2.62591
G1 X133.29 Y30.23 E2.66651
G1 X133.866 Y29.208 E2.74488
G1 X134.211 Y28.818 E2.77967
G1 X134.404 Y28.658 E2.79642
G1 X134.733 Y28.289 E2.82945
G1 X135.171 Y28.065 E2.86232
G1 X135.716 Y27.715 E2.90559
G1 X136.206 Y27.574 E2.93965
G1 X136.37 Y27.554 E2.95069
G1 X136.776 Y27.421 E2.97923
G1 X137.181 Y27.374 E3.00647
G1 X137.54 Y27.407 E3.03055
G1 X137.96 Y27.37 E3.05872
G1 X138.339 Y27.435 E3.08441
G1 X138.704 Y27.567 E3.11034
G1 X139.118 Y27.647 E3.13851
G1 X140.097 Y28.186 E3.21317
G1 X140.501 Y28.517 E3.24806
G1 X140.719 Y28.775 E3.27062
G1 X141.063 Y29.08 E3.30133
G1 X141.373 Y29.659 E3.34521
G1 X141.634 Y30.042 E3.37617
G1 X141.787 Y30.532 E3.41046
G1 X141.807 Y30.724 E3.42336
G1 X141.949 Y31.173 E3.45482
G1 X141.984 Y31.664 E3.4877
G1 X141.96 Y31.953 E3.50707
G1 X141.985 Y32.445 E3.53998
G1 X141.799 Y33.043 E3.58182
G1 X141.706 Y33.513 E3.61383
G1 X141.179 Y34.461 E3.68629
G1 X140.781 Y34.918 E3.72677
G1 X140.59 Y35.082 E3.74359
G1 X140.258 Y35.448 E3.7766
G1 X139.829 Y35.665 E3.80872
G1 X139.404 Y35.958 E3.84321
G1 X139.056 Y36.103 E3.8684
G1 X138.75 Y36.173 E3.88937
G1 X138.75 Y36.173 F7800
G1 X138.14 Y35.764
G1 F1800
G1 X137.861 Y35.819 E3.90837
G1 X137.553 Y35.774 E3.92916
G1 X137.479 Y35.738 E3.93466
G1 X137.1 Y35.825 E3.96064
G1 X136.745 Y35.742 E3.985
G1 X136.462 Y35.618 E4.00564
G1 X136.275 Y35.624 E4.01814
G1 X135.922 Y35.519 E4.04274
G1 X135.683 Y35.366 E4.0617
