; generated by PrusaSlicer 2.8.1+linux-x64-GTK3 on 2024-10-22 at 15:37:30 UTC

; 

; external perimeters extrusion width = 0.45mm
; perimeters extrusion width = 0.45mm
; infill extrusion width = 0.45mm
; solid infill extrusion width = 0.45mm
; top infill extrusion width = 0.40mm
; support material extrusion width = 0.40mm
; first layer extrusion width = 0.60mm

M190 S60 ; set bed temperature and wait for it to be reached
M104 S200 ; set temperature
;TYPE:Custom
G28 ; home all axes
G1 Z5 F5000 ; lift nozzle
M109 S200 ; set temperature and wait for it to be reached
G21 ; set units to millimeters
G90 ; use absolute coordinates
M82 ; use absolute distances for extrusion
G92 E0
; Filament gcode
M107
;LAYER_CHANGE
;Z:0.3
;HEIGHT:0.3
G1 E-2 F2400
G1 Z.3 F7800
G1 X60.333 Y45.358
G1 E0 F2400
;TYPE:Skirt/Brim
;WIDTH:0.6
G1 F1800
G1 X61.013 Y44.519 E.07215
G1 X61.658 Y43.836 E.13491
G1 X62.895 Y42.781 E.24352
G1 X64.596 Y41.717 E.37756
G1 X65.631 Y41.237 E.45378
G1 X67.527 Y40.625 E.58688
G1 X102.404 Y33.42 E2.96605
G1 X103.952 Y33.196 E3.07054
G1 X106.183 Y33.194 E3.21958
G1 X107.348 Y33.355 E3.29815
G1 X109.35 Y33.898 E3.43673
G1 X135.914 Y44.557 E5.34888
G1 X137.982 Y45.622 E5.50428
G1 X139.642 Y46.845 E5.64202
G1 X140.421 Y47.567 E5.71298
G1 X141.342 Y48.588 E5.80484
G1 X142.679 Y50.549 E5.9634
G1 X143.293 Y51.779 E6.05524
G1 X143.681 Y52.769 E6.12628
G1 X144.068 Y54.088 E6.21811
G1 X144.322 Y55.439 E6.30995
G1 X144.441 Y56.81 E6.40188
G1 X144.322 Y59.179 E6.56034
G1 X144.068 Y60.531 E6.65224
G1 X143.78 Y61.554 E6.72324
G1 X143.293 Y62.84 E6.81511
G1 X142.158 Y64.924 E6.97364
G1 X140.894 Y66.553 E7.11138
G1 X139.402 Y67.975 E7.24907
G1 X137.982 Y68.997 E7.36595
G1 X136.158 Y69.958 E7.50368
G1 X106.796 Y81.009 E9.59955
G1 X104.793 Y81.506 E9.73742
G1 X103.66 Y81.641 E9.81365
G1 X101.616 Y81.628 E9.9502
G1 X80.912 Y79.131 E11.34336
G1 X78.959 Y78.667 E11.47746
G1 X77.705 Y78.175 E11.56745
G1 X76.699 Y77.649 E11.64329
G1 X75.446 Y76.786 E11.74493
G1 X74.603 Y76.039 E11.82018
G1 X69.593 Y71.418 E12.27551
G1 X68.983 Y70.769 E12.33501
G1 X60.333 Y60.142 E13.2504
G1 X59.698 Y59.195 E13.32657
G1 X59.186 Y58.257 E13.39796
G1 X58.606 Y56.886 E13.49741
G1 X58.153 Y55.26 E13.61017
G1 X57.927 Y53.606 E13.72169
G1 X57.9 Y52.47 E13.7976
G1 X58.053 Y50.788 E13.91043
G1 X58.446 Y49.098 E14.02634
G1 X58.821 Y48.042 E14.1012
G1 X59.698 Y46.305 E14.23119
G1 X60.299 Y45.408 E14.30332
G1 E12.30332 F2400
G92 E0
G1 X60.299 Y45.408 F7800
G92 E0
G1 X78.158 Y46.604
G1 E2 F2400
;TYPE:Support material
G1 F1800
G1 X79.189 Y47.785 E2.10473
G1 X79.709 Y49.984 E2.25569
G1 X79.482 Y49.984 E2.27085
G1 X79.482 Y49.092 E2.33044
G1 X79.174 Y48.784 E2.35954
G1 X78.025 Y48.784 E2.4363
G1 X77.717 Y49.092 E2.4654
G1 X77.716 Y64.322 E3.48285
G1 X77.793 Y64.643 E3.5049
G1 X78.021 Y64.938 E3.52981
G1 X78.558 Y65.232 E3.57071
G1 X79.188 Y65.351 E3.61354
G1 X86.891 Y65.361 E4.12814
G1 X87.484 Y66.769 E4.2302
G1 X88.101 Y65.361 E4.3329
G1 X96.888 Y65.361 E4.91992
G1 X97.324 Y66.356 E4.99249
G1 X97.631 Y65.795 E5.03521
G1 X97.983 Y65.361 E5.07254
G1 X107.55 Y65.361 E5.71167
G1 X108.028 Y65.999 E5.76493
G1 X108.528 Y67.007 E5.8401
G1 X108.837 Y68.089 E5.91527
G1 X108.944 Y69.209 E5.99043
G1 X108.847 Y70.33 E6.0656
G1 X108.549 Y71.414 E6.1407
G1 X108.059 Y72.426 E6.21582
G1 X107.401 Y73.321 E6.29003
G1 X106.562 Y74.112 E6.36706
G1 X105.631 Y74.713 E6.44109
G1 X104.592 Y75.141 E6.51616
G1 X103.492 Y75.375 E6.59129
G1 X102.366 Y75.405 E6.66654
G1 X101.253 Y75.231 E6.7418
G1 X100.19 Y74.856 E6.8171
G1 X99.211 Y74.295 E6.89248
G1 X98.349 Y73.563 E6.96803
G1 X97.666 Y72.724 E7.0403
G1 X97.332 Y72.162 E7.08397
G1 X96.748 Y70.747 E7.18623
G1 X95.901 Y71.69 E7.27091
G1 X94.936 Y72.383 E7.35028
G1 X93.837 Y72.804 E7.4289
G1 X92.748 Y72.971 E7.5025
G1 X91.659 Y72.908 E7.57537
G1 X90.606 Y72.62 E7.6483
G1 X89.6 Y72.095 E7.72411
G1 X88.756 Y71.347 E7.79945
G1 X88.119 Y70.479 E7.87138
G1 X87.453 Y69 E7.97974
G1 X87.178 Y69.909 E8.04318
G1 X86.629 Y70.882 E8.11781
G1 X85.904 Y71.69 E8.19033
G1 X84.939 Y72.383 E8.2697
G1 X83.84 Y72.804 E8.34832
G1 X82.751 Y72.971 E8.42192
G1 X81.662 Y72.908 E8.49479
G1 X80.608 Y72.62 E8.56778
G1 X79.603 Y72.095 E8.64353
G1 X78.759 Y71.347 E8.71887
G1 X78.122 Y70.479 E8.7908
G1 X77.683 Y69.505 E8.86217
G1 X77.474 Y68.549 E8.92754
G1 X77.411 Y67.635 E8.98875
G1 X76.769 Y67.884 E9.03475
G1 X75.161 Y67.738 E9.14261
G1 X73.843 Y66.812 E9.25022
G1 X73.123 Y65.445 E9.35344
G1 X73.127 Y63.848 E9.46013
G1 X73.404 Y63.326 E9.49961
G1 X73.096 Y62.748 E9.54336
G1 X73.096 Y61.147 E9.65032
G1 X73.512 Y60.364 E9.70955
G1 X73.095 Y59.581 E9.76881
G1 X73.095 Y58.271 E9.85633
G1 X72.132 Y58.663 E9.92579
G1 X71.031 Y58.891 E10.0009
G1 X69.906 Y58.916 E10.07607
G1 X68.796 Y58.737 E10.15118
G1 X67.737 Y58.359 E10.2263
G1 X66.764 Y57.796 E10.3014
G1 X65.908 Y57.066 E10.37656
G1 X65.2 Y56.193 E10.45165
G1 X64.688 Y55.255 E10.52304
G1 X64.32 Y54.141 E10.60142
G1 X64.168 Y53.029 E10.6764
G1 X64.168 Y52.47 E10.71374
G1 X64.32 Y51.358 E10.78872
G1 X64.689 Y50.244 E10.86712
G1 X65.2 Y49.308 E10.93836
G1 X65.881 Y48.469 E11.01055
G1 X66.335 Y48.054 E11.05164
G1 X66.803 Y47.681 E11.09162
G1 X67.736 Y47.141 E11.16364
G1 X68.795 Y46.763 E11.23876
G1 X69.905 Y46.584 E11.31387
G1 X71.029 Y46.609 E11.38898
G1 X72.131 Y46.836 E11.46415
G1 X73.172 Y47.26 E11.53924
G1 X73.603 Y47.535 E11.57339
G1 X73.836 Y47.098 E11.60647
G1 X75.139 Y46.201 E11.71215
G1 X76.732 Y46.045 E11.81908
G1 X78.083 Y46.575 E11.91603
G1 E9.91603 F2400
G92 E0
G1 X78.083 Y46.575 F7800
G1 X108.412 Y71.002
G1 E2 F2400
G1 F1800
G1 X108.361 Y68.179 E2.18862
G1 X108.076 Y67.182 E2.25789
G1 X107.817 Y66.659 E2.29688
G1 X107.817 Y71.819 E2.6416
G1 X107.222 Y72.751 E2.71547
G1 X107.222 Y65.843 E3.17696
G1 X106.627 Y65.843 E3.21671
G1 X106.627 Y73.397 E3.72136
G1 X106.032 Y73.88 E3.77256
G1 X106.032 Y65.843 E4.30948
G1 X105.436 Y65.843 E4.3493
G1 X105.436 Y74.265 E4.91194
G1 X104.841 Y74.517 E4.95511
G1 X104.841 Y65.843 E5.53458
G1 X104.246 Y65.843 E5.57433
G1 X104.246 Y74.722 E6.1675
G1 X103.651 Y74.848 E6.20813
G1 X103.651 Y65.843 E6.80971
G1 X103.056 Y65.843 E6.84946
G1 X103.056 Y74.904 E7.45478
G1 X102.461 Y74.92 E7.49454
G1 X102.461 Y65.843 E8.10093
G1 X101.866 Y65.843 E8.14068
G1 X101.866 Y74.839 E8.74166
G1 X101.27 Y74.726 E8.78219
G1 X101.27 Y65.843 E9.37562
G1 X100.675 Y65.843 E9.41537
G1 X100.675 Y74.516 E9.99477
G1 X100.08 Y74.238 E10.03864
G1 X100.08 Y65.843 E10.59947
G1 X99.485 Y65.843 E10.63922
G1 X99.485 Y73.895 E11.17714
G1 X98.89 Y73.39 E11.22928
G1 X98.89 Y65.843 E11.73346
G1 X98.295 Y65.843 E11.77321
G1 X98.295 Y72.733 E12.2335
G1 X97.7 Y71.817 E12.30647
G1 X97.7 Y66.674 E12.65005
G1 X97.246 Y67.504 E12.71325
G1 X97.105 Y67.134 E12.7397
G1 X97.105 Y70.323 E12.95274
G1 X96.922 Y69.832 E12.98775
G1 X96.509 Y70.291 E13.029
G1 X96.509 Y65.843 E13.32615
G1 X95.914 Y65.843 E13.3659
G1 X95.914 Y70.954 E13.70734
G1 X95.319 Y71.515 E13.76197
G1 X95.319 Y65.843 E14.14089
G1 X94.724 Y65.843 E14.18064
G1 X94.724 Y71.942 E14.58809
G1 X94.129 Y72.176 E14.6308
G1 X94.129 Y65.843 E15.05388
G1 X93.534 Y65.843 E15.09363
G1 X93.534 Y72.363 E15.5292
G1 X92.939 Y72.454 E15.56941
G1 X92.939 Y65.843 E16.01106
G1 X92.344 Y65.843 E16.05081
G1 X92.344 Y72.465 E16.4932
G1 X91.748 Y72.43 E16.53308
G1 X91.748 Y65.843 E16.97313
G1 X91.153 Y65.843 E17.01288
G1 X91.153 Y72.27 E17.44224
G1 X90.558 Y72.052 E17.48457
G1 X90.558 Y65.843 E17.89936
G1 X89.963 Y65.843 E17.93911
G1 X89.963 Y71.741 E18.33313
G1 X89.368 Y71.245 E18.38488
G1 X89.368 Y65.843 E18.74576
G1 X88.773 Y65.843 E18.78551
G1 X88.773 Y70.555 E19.1003
G1 X88.537 Y70.235 E19.12686
G1 X88.178 Y69.436 E19.18538
G1 X88.178 Y66.376 E19.3898
G1 X87.582 Y67.763 E19.49065
G1 X87.582 Y68.702 E19.55338
G1 X87.582 Y68.702 F7800
G1 X86.987 Y69.706
G1 F1800
G1 X86.987 Y66.818 E19.74631
G1 X86.616 Y65.843 E19.816
G1 X86.392 Y65.843 E19.83096
G1 X86.392 Y70.321 E20.13011
G1 X85.797 Y71.088 E20.19496
G1 X85.797 Y65.843 E20.54535
G1 X85.202 Y65.843 E20.5851
G1 X85.202 Y71.601 E20.96977
G1 X84.607 Y71.994 E21.01741
G1 X84.607 Y65.843 E21.42833
G1 X84.012 Y65.843 E21.46808
G1 X84.012 Y72.222 E21.89423
G1 X83.716 Y72.336 E21.91542
G1 X83.417 Y72.381 E21.93562
G1 X83.417 Y65.843 E22.37239
G1 X82.821 Y65.843 E22.41221
G1 X82.821 Y72.473 E22.85513
G1 X82.226 Y72.458 E22.89489
G1 X82.226 Y65.843 E23.33681
G1 X81.631 Y65.843 E23.37656
G1 X81.631 Y72.4 E23.8146
G1 X81.036 Y72.237 E23.85581
G1 X81.036 Y65.843 E24.28296
G1 X80.441 Y65.843 E24.32271
G1 X80.441 Y71.989 E24.7333
G1 X79.846 Y71.666 E24.77853
G1 X79.846 Y65.843 E25.16754
G1 X79.251 Y65.836 E25.20729
G1 X79.251 Y71.139 E25.56156
G1 X78.655 Y70.392 E25.6254
G1 X78.655 Y65.755 E25.93518
G1 X78.06 Y65.546 E25.97731
G1 X78.06 Y68.974 E26.20632
G1 X77.953 Y68.481 E26.24002
G1 X77.847 Y66.949 E26.34261
G1 X77.465 Y67.097 E26.36998
G1 X77.465 Y46.85 E27.72259
G1 X76.87 Y46.617 E27.76528
G1 X76.87 Y67.328 E29.14889
G1 X76.7 Y67.394 E29.16107
G1 X76.275 Y67.355 E29.18958
G1 X76.275 Y46.574 E30.57786
G1 X75.68 Y46.632 E30.6178
G1 X75.68 Y67.301 E31.9986
G1 X75.333 Y67.269 E32.02188
G1 X75.085 Y67.095 E32.04212
G1 X75.085 Y46.824 E33.39633
G1 X74.49 Y47.234 E33.4446
G1 X74.49 Y66.677 E34.7435
G1 X74.216 Y66.484 E34.76589
G1 X73.894 Y65.875 E34.81191
G1 X73.894 Y48.012 E36.00526
G1 X73.783 Y48.222 E36.02113
G1 X73.299 Y47.913 E36.05949
G1 X73.299 Y57.668 E36.71118
G1 X72.704 Y57.91 E36.75409
G1 X72.704 Y47.59 E37.44352
G1 X72.109 Y47.348 E37.48643
G1 X72.109 Y58.152 E38.2082
G1 X71.514 Y58.299 E38.24914
G1 X71.514 Y47.201 E38.99055
G1 X70.919 Y47.088 E39.03101
G1 X70.919 Y58.412 E39.78751
G1 X70.324 Y58.425 E39.82727
G1 X70.324 Y47.075 E40.58551
G1 X69.728 Y47.101 E40.62536
G1 X69.728 Y58.399 E41.38013
G1 X69.133 Y58.303 E41.42039
G1 X69.133 Y47.197 E42.16233
G1 X68.538 Y47.367 E42.20367
G1 X68.538 Y58.133 E42.9229
G1 X67.943 Y57.921 E42.9651
G1 X67.943 Y47.579 E43.656
G1 X67.348 Y47.923 E43.70191
G1 X67.348 Y57.577 E44.34685
G1 X66.753 Y57.153 E44.39566
G1 X66.753 Y48.338 E44.98455
G1 X66.158 Y48.892 E45.03886
G1 X66.158 Y56.608 E45.55433
G1 X65.563 Y55.851 E45.61865
G1 X65.563 Y49.649 E46.03298
G1 X64.967 Y50.873 E46.12393
G1 X64.967 Y55.263 E46.41721
G1 X64.967 Y55.263 F7800
G1 X78.655 Y48.543
G1 F1800
G1 X78.655 Y47.907 E46.4597
G1 X78.06 Y47.225 E46.52016
G1 X78.06 Y48.543 E46.60821
G1 E44.60821 F2400
G92 E0
G1 X78.06 Y48.543 F7800
G1 X83.578 Y50.056
G1 E2 F2400
G1 F1800
G1 X84.659 Y50.448 E2.07682
G1 X85.632 Y51.114 E2.15559
G1 X86.337 Y51.853 E2.22382
G1 X86.903 Y52.804 E2.29775
G1 X87.242 Y53.859 E2.37178
G1 X87.336 Y54.964 E2.44587
G1 X87.18 Y56.063 E2.52003
G1 X86.903 Y56.784 E2.57163
G1 X79.482 Y56.784 E3.06739
G1 X79.482 Y50.969 E3.45586
G1 X80.307 Y50.431 E3.52166
G1 X81.344 Y50.055 E3.59535
G1 X82.476 Y49.926 E3.67146
G1 X83.498 Y50.047 E3.74021
G1 X83.498 Y50.047 F7800
G1 X86.392 Y56.543
G1 F1800
G1 X86.392 Y52.888 E3.98438
G1 X85.797 Y51.985 E4.05662
G1 X85.797 Y56.302 E4.34502
G1 X85.202 Y56.302 E4.38477
G1 X85.202 Y51.403 E4.71205
G1 X84.607 Y50.996 E4.76021
G1 X84.607 Y56.302 E5.11468
G1 X84.012 Y56.302 E5.15443
G1 X84.012 Y50.726 E5.52694
G1 X83.417 Y50.522 E5.56896
G1 X83.417 Y56.302 E5.9551
G1 X82.821 Y56.302 E5.99492
G1 X82.821 Y50.452 E6.38573
G1 X82.475 Y50.412 E6.409
G1 X82.226 Y50.44 E6.42574
G1 X82.226 Y56.302 E6.81735
G1 X81.631 Y56.302 E6.8571
G1 X81.631 Y50.508 E7.24417
G1 X81.036 Y50.68 E7.28555
G1 X81.036 Y56.302 E7.66113
G1 X80.441 Y56.302 E7.70088
G1 X80.441 Y50.639 E8.0792
G1 E6.0792 F2400
G92 E0
G1 X80.441 Y50.639 F7800
G1 X94.074 Y50.053
G1 E2 F2400
G1 F1800
G1 X95.164 Y50.437 E2.0772
G1 X95.632 Y50.751 E2.11485
G1 X95.632 Y56.784 E2.51789
G1 X88.516 Y56.784 E2.99328
G1 X88.206 Y55.79 E3.06284
G1 X88.113 Y54.743 E3.13306
G1 X88.244 Y53.7 E3.20329
G1 X88.584 Y52.734 E3.2717
G1 X89.061 Y51.923 E3.33456
G1 X89.82 Y51.097 E3.4095
G1 X90.776 Y50.456 E3.48639
G1 X91.845 Y50.06 E3.56255
G1 X92.985 Y49.933 E3.63918
G1 X93.995 Y50.044 E3.70706
G1 X93.995 Y50.044 F7800
G1 X94.724 Y56.543
G1 F1800
G1 X94.724 Y50.793 E4.09119
G1 X94.129 Y50.583 E4.13334
G1 X94.129 Y56.302 E4.5154
G1 X93.534 Y56.302 E4.55515
G1 X93.534 Y50.478 E4.94422
G1 X92.939 Y50.424 E4.98413
G1 X92.939 Y56.302 E5.37681
G1 X92.344 Y56.302 E5.41656
G1 X92.344 Y50.49 E5.80483
G1 X91.748 Y50.61 E5.84545
G1 X91.748 Y56.302 E6.22571
G1 X91.153 Y56.302 E6.26546
G1 X91.153 Y50.83 E6.63102
G1 X90.558 Y51.182 E6.6772
G1 X90.558 Y56.302 E7.01924
G1 X89.963 Y56.302 E7.05899
G1 X89.963 Y51.654 E7.3695
G1 X89.368 Y52.353 E7.43082
G1 X89.368 Y56.302 E7.69463
G1 X88.87 Y56.302 E7.7279
G1 X88.773 Y55.989 E7.74979
G1 X88.773 Y52.925 E7.95448
G1 E5.95448 F2400
G92 E0
G1 X88.773 Y52.925 F7800
G1 X105.913 Y39.456
G1 E2 F2400
G1 F1800
G1 X107.016 Y39.715 E2.07569
G1 X108.044 Y40.168 E2.15074
G1 X108.971 Y40.799 E2.22565
G1 X109.756 Y41.575 E2.29939
G1 X110.41 Y42.507 E2.37545
G1 X110.874 Y43.522 E2.45001
G1 X111.149 Y44.608 E2.52485
G1 X111.225 Y45.727 E2.59978
G1 X111.097 Y46.844 E2.67489
G1 X110.77 Y47.921 E2.75008
G1 X110.252 Y48.922 E2.82538
G1 X109.991 Y49.258 E2.8538
G1 X100.142 Y49.258 E3.51177
G1 X99.783 Y48.73 E3.55442
G1 X99.293 Y47.691 E3.63116
G1 X99.102 Y47.076 E3.67418
G1 X98.935 Y45.999 E3.74699
G1 X98.958 Y44.908 E3.81989
G1 X99.174 Y43.835 E3.89301
G1 X99.431 Y43.105 E3.94471
G1 X99.968 Y42.117 E4.01983
G1 X100.702 Y41.221 E4.09721
G1 X101.586 Y40.481 E4.17423
G1 X102.586 Y39.922 E4.25076
G1 X103.672 Y39.558 E4.32728
G1 X104.788 Y39.407 E4.40251
G1 X105.833 Y39.452 E4.47239
G1 X105.833 Y39.452 F7800
G1 X110.197 Y48.503
G1 F1800
G1 X110.197 Y43.202 E4.82653
G1 X109.989 Y42.746 E4.86001
G1 X109.602 Y42.189 E4.90532
G1 X109.602 Y48.776 E5.34537
G1 X109.007 Y48.776 E5.38512
G1 X109.007 Y41.513 E5.87033
G1 X108.412 Y41.002 E5.92273
G1 X108.412 Y48.776 E6.44208
G1 X107.817 Y48.776 E6.48183
G1 X107.809 Y40.592 E7.02857
G1 X107.222 Y40.333 E7.07143
G1 X107.222 Y48.776 E7.63547
G1 X106.627 Y48.776 E7.67522
G1 X106.627 Y40.119 E8.25355
G1 X106.032 Y39.979 E8.29438
G1 X106.032 Y48.776 E8.88207
G1 X105.436 Y48.776 E8.92189
G1 X105.436 Y39.918 E9.51365
G1 X104.841 Y39.892 E9.55344
G1 X104.841 Y48.776 E10.14694
G1 X104.246 Y48.776 E10.18669
G1 X104.246 Y39.967 E10.77518
G1 X103.651 Y40.073 E10.81556
G1 X103.651 Y48.776 E11.39697
G1 X103.056 Y48.776 E11.43672
G1 X103.056 Y40.273 E12.00477
G1 X102.461 Y40.544 E12.04845
G1 X102.461 Y48.776 E12.59839
G1 X101.866 Y48.776 E12.63814
G1 X101.866 Y40.877 E13.16584
G1 X101.27 Y41.374 E13.21768
G1 X101.27 Y48.776 E13.71217
G1 X100.675 Y48.776 E13.75192
G1 X100.675 Y42.014 E14.20366
G1 X100.37 Y42.387 E14.23585
G1 X100.08 Y42.92 E14.27639
G1 X100.08 Y48.259 E14.63306
G1 X99.748 Y47.531 E14.68651
G1 X99.485 Y46.53 E14.75565
G1 X99.485 Y43.676 E14.94631
G1 E12.94631 F2400
G92 E0
G1 X99.485 Y43.676 F7800
G1 X79.613 Y58.681
G1 E2 F2400
;TYPE:Perimeter
;WIDTH:0.6
G1 F1800
G1 X96.189 Y58.681 E3.10737
G1 X96.42 Y58.661 E3.12286
G1 X96.756 Y58.555 E3.1464
G1 X96.992 Y58.413 E3.1648
G1 X97.326 Y58.049 E3.1978
G1 X97.487 Y57.671 E3.22525
G1 X97.528 Y57.342 E3.2474
G1 X97.528 Y51.154 E3.66079
G1 X130.485 Y51.154 E5.86249
G1 X131.019 Y51.172 E5.89818
G1 X131.565 Y51.223 E5.93481
G1 X132.159 Y51.343 E5.97529
G1 X133.062 Y51.647 E6.03894
G1 X133.585 Y51.898 E6.07769
G1 X134.385 Y52.415 E6.14132
G1 X134.842 Y52.799 E6.1812
G1 X135.259 Y53.226 E6.22107
G1 X135.834 Y53.985 E6.28468
G1 X136.132 Y54.502 E6.32455
G1 X136.385 Y55.061 E6.36554
G1 X136.581 Y55.646 E6.40676
G1 X136.727 Y56.325 E6.45316
G1 X136.785 Y56.853 E6.48865
G1 X136.8 Y57.46 E6.52921
G1 X136.749 Y58.13 E6.5741
G1 X136.658 Y58.67 E6.61068
G1 X136.49 Y59.269 E6.65224
G1 X136.265 Y59.84 E6.69324
G1 X135.986 Y60.386 E6.7342
G1 X135.653 Y60.901 E6.77517
G1 X135.28 Y61.368 E6.8151
G1 X134.836 Y61.802 E6.85658
G1 X134.334 Y62.234 E6.90082
G1 X133.838 Y62.568 E6.94077
G1 X133.273 Y62.873 E6.98366
G1 X132.77 Y63.089 E7.02023
G1 X132.175 Y63.273 E7.06184
G1 X131.59 Y63.391 E7.10171
G1 X130.606 Y63.465 E7.16763
G1 X79.612 Y63.465 E10.5743
G1 X79.613 Y58.741 E10.88989
G1 X79.613 Y58.741 F7800
G1 X79.077 Y58.145
G1 F1800
G1 X96.189 Y58.145 E12.03306
G1 X96.529 Y58.069 E12.05633
