; generated by PrusaSlicer 2.8.1+linux-x64-GTK3 on 2024-10-28 at 12:39:59 UTC

; 

; external perimeters extrusion width = 0.45mm
; perimeters extrusion width = 0.45mm
; infill extrusion width = 0.45mm
; solid infill extrusion width = 0.45mm
; top infill extrusion width = 0.40mm
; support material extrusion width = 0.40mm
; first layer extrusion width = 0.60mm

M190 S60 ; set bed temperature and wait for it to be reached
M104 S200 ; set temperature
;TYPE:Custom
G28 ; home all axes
G1 Z5 F5000 ; lift nozzle
M109 S200 ; set temperature and wait for it to be reached
G21 ; set units to millimeters
G90 ; use absolute coordinates
M82 ; use absolute distances for extrusion
G92 E0
; Filament gcode
M107
;LAYER_CHANGE
;Z:0.3
;HEIGHT:0.3
G1 E-2 F2400
G1 Z.3 F7800
G1 X65.768 Y31.324
G1 E0 F2400
;TYPE:Skirt/Brim
;WIDTH:0.6
G1 F1800
G1 X66.646 Y29.586 E.13008
G1 X67.281 Y28.64 E.2062
G1 X67.989 Y27.767 E.28129
G1 X68.785 Y26.951 E.35744
G1 X69.64 Y26.221 E.43255
G1 X70.571 Y25.563 E.50871
G1 X71.544 Y25 E.58381
G1 X72.578 Y24.521 E.65994
G1 X74.516 Y23.901 E.79587
G1 X110.085 Y16.808 E3.21886
G1 X111.561 Y16.589 E3.31854
G1 X112.717 Y16.534 E3.39585
G1 X113.85 Y16.584 E3.47161
G1 X114.992 Y16.741 E3.54862
G1 X117.07 Y17.311 E3.69257
G1 X142.922 Y28.017 E5.56186
G1 X144.06 Y28.556 E5.64598
G1 X145.241 Y29.259 E5.7378
G1 X146.346 Y30.077 E5.82965
G1 X147.365 Y31.001 E5.92154
G1 X148.286 Y32.022 E6.0134
G1 X149.102 Y33.129 E6.10527
G1 X149.803 Y34.312 E6.19713
G1 X150.382 Y35.559 E6.28898
G1 X150.835 Y36.857 E6.38082
G1 X151.156 Y38.194 E6.47268
G1 X151.343 Y39.556 E6.56452
G1 X151.392 Y40.931 E6.65644
G1 X151.305 Y42.303 E6.74828
G1 X151.134 Y43.401 E6.82252
G1 X150.835 Y44.629 E6.90695
G1 X150.382 Y45.927 E6.99879
G1 X149.803 Y47.174 E7.09064
G1 X149.102 Y48.357 E7.1825
G1 X148.286 Y49.465 E7.27443
G1 X147.365 Y50.485 E7.36624
G1 X146.346 Y51.409 E7.45813
G1 X145.499 Y52.051 E7.52913
G1 X144.334 Y52.781 E7.62098
G1 X143.102 Y53.392 E7.71285
G1 X115.364 Y64.493 E9.70879
G1 X113.221 Y65.039 E9.85653
G1 X112.088 Y65.17 E9.93272
G1 X110.084 Y65.157 E10.0666
G1 X87.87 Y62.566 E11.56068
G1 X85.893 Y62.1 E11.69637
G1 X84.637 Y61.607 E11.78651
G1 X83.631 Y61.08 E11.86238
G1 X82.381 Y60.219 E11.96378
G1 X76.68 Y55.07 E12.47698
G1 X75.991 Y54.337 E12.54419
G1 X67.249 Y43.39 E13.48008
G1 X66.134 Y41.545 E13.6241
G1 X65.551 Y40.168 E13.724
G1 X65.237 Y39.14 E13.79581
G1 X64.999 Y37.992 E13.87413
G1 X64.873 Y36.89 E13.94823
G1 X64.846 Y35.752 E14.02428
G1 X64.925 Y34.612 E14.10062
G1 X65.099 Y33.52 E14.17449
G1 X65.393 Y32.381 E14.25308
G1 X65.748 Y31.38 E14.32403
G1 E12.32403 F2400
G92 E0
G1 X65.748 Y31.38 F7800
G92 E0
G1 X113.571 Y22.846
G1 E2 F2400
;TYPE:Support material
G1 F1800
G1 X114.672 Y23.102 E2.07551
G1 X115.706 Y23.554 E2.1509
G1 X116.638 Y24.184 E2.22605
G1 X117.427 Y24.96 E2.29998
G1 X118.088 Y25.895 E2.37648
G1 X118.556 Y26.912 E2.45127
G1 X118.835 Y28.002 E2.52644
G1 X118.913 Y29.126 E2.60171
G1 X118.788 Y30.247 E2.67706
G1 X118.461 Y31.328 E2.75251
G1 X117.944 Y32.334 E2.82807
G1 X117.667 Y32.692 E2.85831
G1 X107.803 Y32.692 E3.51728
G1 X107.48 Y32.258 E3.55342
G1 X106.933 Y31.109 E3.63843
G1 X106.74 Y30.482 E3.68226
G1 X106.573 Y29.4 E3.7554
G1 X106.599 Y28.304 E3.82864
G1 X106.818 Y27.227 E3.90206
G1 X107.07 Y26.516 E3.95245
G1 X107.605 Y25.528 E4.02751
G1 X108.34 Y24.628 E4.10514
G1 X109.224 Y23.884 E4.18233
G1 X110.226 Y23.321 E4.25911
G1 X111.31 Y22.955 E4.33554
G1 X112.438 Y22.796 E4.41164
G1 X113.491 Y22.842 E4.48205
G1 X113.491 Y22.842 F7800
G1 X118.332 Y30.923
G1 F1800
G1 X118.332 Y27.98 E4.67866
G1 X118.1 Y27.074 E4.74114
G1 X117.737 Y26.286 E4.7991
G1 X117.737 Y31.682 E5.15958
G1 X117.43 Y32.21 E5.20038
G1 X117.142 Y32.21 E5.21962
G1 X117.142 Y25.388 E5.67537
G1 X116.546 Y24.77 E5.73273
G1 X116.546 Y32.21 E6.22976
G1 X115.951 Y32.21 E6.26951
G1 X115.951 Y24.302 E6.79781
G1 X115.356 Y23.927 E6.8448
G1 X115.356 Y32.21 E7.39815
G1 X114.761 Y32.21 E7.4379
G1 X114.761 Y23.667 E8.00862
G1 X114.166 Y23.479 E8.05031
G1 X114.166 Y32.21 E8.63359
G1 X113.571 Y32.21 E8.67334
G1 X113.571 Y23.341 E9.26584
G1 X112.976 Y23.302 E9.30567
G1 X112.976 Y32.21 E9.90077
G1 X112.381 Y32.21 E9.94052
G1 X112.381 Y23.29 E10.53642
G1 X111.785 Y23.375 E10.57664
G1 X111.785 Y32.21 E11.16687
G1 X111.19 Y32.21 E11.20662
G1 X111.19 Y23.504 E11.78823
G1 X110.595 Y23.705 E11.83019
G1 X110.595 Y32.21 E12.39837
G1 X110 Y32.21 E12.43812
G1 X110 Y24.001 E12.98653
G1 X109.405 Y24.362 E13.03302
G1 X109.405 Y32.21 E13.55731
G1 X108.81 Y32.21 E13.59706
G1 X108.81 Y24.862 E14.08795
G1 X108.215 Y25.543 E14.14836
G1 X108.215 Y32.21 E14.59375
G1 X108.045 Y32.21 E14.60511
G1 X107.619 Y31.484 E14.66134
G1 X107.619 Y26.007 E15.02723
G1 E13.02723 F2400
G92 E0
G1 X107.619 Y26.007 F7800
G1 X116.494 Y49.538
G1 E2 F2400
G1 F1800
G1 X116.992 Y50.547 E2.07517
G1 X117.298 Y51.63 E2.15035
G1 X117.403 Y52.749 E2.22543
G1 X117.303 Y53.871 E2.30068
G1 X117.003 Y54.954 E2.37575
G1 X116.51 Y55.965 E2.45089
G1 X115.843 Y56.87 E2.526
G1 X115.023 Y57.639 E2.6011
G1 X114.077 Y58.247 E2.67623
G1 X113.036 Y58.673 E2.75137
G1 X111.935 Y58.904 E2.82652
G1 X110.81 Y58.932 E2.9017
G1 X109.698 Y58.754 E2.97693
G1 X108.636 Y58.378 E3.05219
G1 X107.66 Y57.815 E3.12746
G1 X106.802 Y57.083 E3.2028
G1 X106.09 Y56.208 E3.27816
G1 X105.577 Y55.266 E3.34982
G1 X105.207 Y54.145 E3.42868
G1 X105.057 Y53.029 E3.50391
G1 X105.058 Y52.472 E3.54112
G1 X105.221 Y51.313 E3.61931
G1 X105.552 Y50.307 E3.69006
G1 X106.088 Y49.325 E3.7648
G1 X106.518 Y48.794 E3.81045
G1 X115.94 Y48.794 E4.43989
G1 X116.446 Y49.474 E4.49651
G1 X116.446 Y49.474 F7800
G1 X116.546 Y55.34
G1 F1800
G1 X116.546 Y50.743 E4.80361
G1 X115.951 Y49.616 E4.88875
G1 X115.951 Y55.911 E5.30929
G1 X115.356 Y56.666 E5.37351
G1 X115.356 Y49.276 E5.8672
G1 X114.761 Y49.276 E5.90695
G1 X114.761 Y57.224 E6.43792
G1 X114.166 Y57.617 E6.48556
G1 X114.166 Y49.276 E7.04278
G1 X113.571 Y49.276 E7.08253
G1 X113.571 Y57.933 E7.66086
G1 X112.976 Y58.177 E7.70382
G1 X112.976 Y49.276 E8.29845
G1 X112.381 Y49.276 E8.3382
G1 X112.381 Y58.318 E8.94225
G1 X111.785 Y58.426 E8.98271
G1 X111.785 Y49.276 E9.59398
G1 X111.19 Y49.276 E9.63373
G1 X111.19 Y58.44 E10.24593
G1 X110.595 Y58.409 E10.28573
G1 X110.595 Y49.276 E10.89586
G1 X110 Y49.276 E10.93561
G1 X110 Y58.314 E11.5394
G1 X109.405 Y58.139 E11.58083
G1 X109.405 Y49.276 E12.17293
G1 X108.81 Y49.276 E12.21268
G1 X108.81 Y57.922 E12.79028
G1 X108.215 Y57.578 E12.83619
G1 X108.215 Y49.276 E13.39081
G1 X107.619 Y49.276 E13.43063
G1 X107.619 Y57.147 E13.95646
G1 X107.024 Y56.593 E14.01077
G1 X107.024 Y49.276 E14.49959
G1 X106.748 Y49.276 E14.51803
G1 X106.429 Y49.706 E14.5538
G1 X106.429 Y55.822 E14.96238
G1 X105.834 Y54.578 E15.0545
G1 X105.834 Y50.294 E15.34069
G1 E13.34069 F2400
G92 E0
G1 X105.834 Y50.294 F7800
G1 X101.747 Y39.218
G1 E2 F2400
G1 F1800
G1 X97.254 Y39.218 E2.30016
G1 X97.254 Y35.268 E2.56404
G1 X101.747 Y35.268 E2.8642
G1 X101.747 Y39.138 E3.12274
G1 X101.747 Y39.138 F7800
G1 X101.073 Y38.977
G1 F1800
G1 X101.073 Y35.75 E3.33832
G1 X100.478 Y35.75 E3.37807
G1 X100.478 Y38.736 E3.57755
G1 X99.883 Y38.736 E3.6173
G1 X99.883 Y35.75 E3.81678
G1 X99.288 Y35.75 E3.85653
G1 X99.288 Y38.736 E4.05601
G1 X98.692 Y38.736 E4.09583
G1 X98.692 Y35.75 E4.29531
G1 X98.097 Y35.75 E4.33506
G1 X98.097 Y38.977 E4.55064
G1 E2.55064 F2400
G92 E0
G1 X98.097 Y38.977 F7800
G1 X91.747 Y39.218
G1 E2 F2400
G1 F1800
G1 X87.254 Y39.218 E2.30016
G1 X87.254 Y35.268 E2.56404
G1 X91.747 Y35.268 E2.8642
G1 X91.747 Y39.138 E3.12274
G1 X91.747 Y39.138 F7800
G1 X90.956 Y38.977
G1 F1800
G1 X90.956 Y35.75 E3.33832
G1 X90.361 Y35.75 E3.37807
G1 X90.361 Y38.736 E3.57755
G1 X89.766 Y38.736 E3.6173
G1 X89.766 Y35.75 E3.81678
G1 X89.17 Y35.75 E3.8566
G1 X89.17 Y38.736 E4.05608
G1 X88.575 Y38.736 E4.09583
G1 X88.575 Y35.75 E4.29531
G1 X87.98 Y35.75 E4.33506
G1 X87.98 Y38.977 E4.55064
G1 E2.55064 F2400
G92 E0
G1 X87.98 Y38.977 F7800
G1 X77.425 Y29.873
G1 E2 F2400
G1 F1800
G1 X78.006 Y29.899 E2.03885
G1 X79.077 Y30.121 E2.11192
G1 X80.118 Y30.544 E2.18699
G1 X81.003 Y31.11 E2.25717
G1 X81.157 Y30.921 E2.27346
G1 X82.136 Y30.315 E2.35038
G1 X83.351 Y30.076 E2.4331
G1 X84.694 Y30.367 E2.5249
G1 X85.828 Y31.248 E2.62083
G1 X86.464 Y32.47 E2.71286
G1 X86.485 Y32.692 E2.72776
G1 X85.733 Y32.761 E2.77821
G1 X85.082 Y33.021 E2.82504
G1 X84.787 Y33.321 E2.85315
G1 X84.663 Y33.686 E2.8789
G1 X84.66 Y47.755 E3.81879
G1 X84.717 Y48.032 E3.83768
G1 X84.894 Y48.302 E3.85925
G1 X85.365 Y48.613 E3.89696
G1 X86.132 Y48.784 E3.94946
G1 X93.826 Y48.794 E4.46346
G1 X94.421 Y50.208 E4.56595
G1 X95.04 Y48.794 E4.66907
G1 X103.828 Y48.794 E5.25616
G1 X104.361 Y50.045 E5.347
G1 X104.522 Y51.154 E5.42186
G1 X104.438 Y52.271 E5.49669
G1 X104.114 Y53.341 E5.57138
G1 X103.566 Y54.315 E5.64604
G1 X102.841 Y55.123 E5.71856
G1 X101.876 Y55.816 E5.79793
G1 X100.777 Y56.237 E5.87655
G1 X99.687 Y56.404 E5.95022
G1 X98.599 Y56.341 E6.02303
G1 X97.545 Y56.053 E6.09602
G1 X96.539 Y55.527 E6.17186
G1 X95.696 Y54.78 E6.24711
G1 X95.058 Y53.912 E6.31908
G1 X94.389 Y52.426 E6.42795
G1 X94.112 Y53.341 E6.49182
G1 X93.563 Y54.315 E6.56651
G1 X92.838 Y55.122 E6.63898
G1 X91.874 Y55.816 E6.71833
G1 X90.775 Y56.237 E6.79695
G1 X89.685 Y56.404 E6.87062
G1 X88.596 Y56.34 E6.9435
G1 X87.542 Y56.053 E7.01648
G1 X86.536 Y55.527 E7.09232
G1 X85.694 Y54.78 E7.16752
G1 X85.056 Y53.912 E7.23949
G1 X84.617 Y52.938 E7.31086
G1 X84.408 Y51.982 E7.37623
G1 X84.36 Y51.282 E7.4231
G1 X83.819 Y51.492 E7.46187
G1 X82.214 Y51.349 E7.56952
G1 X80.889 Y50.426 E7.6774
G1 X80.162 Y49.044 E7.78172
G1 X80.173 Y47.445 E7.88854
G1 X80.227 Y47.344 E7.89619
G1 X80.038 Y46.988 E7.92312
G1 X80.038 Y45.387 E8.03008
G1 X80.455 Y44.604 E8.08934
G1 X80.039 Y43.822 E8.14851
G1 X80.039 Y42.221 E8.25547
G1 X80.491 Y41.372 E8.31973
G1 X79.079 Y41.947 E8.42158
G1 X77.978 Y42.175 E8.49669
G1 X76.854 Y42.201 E8.5718
G1 X75.744 Y42.022 E8.64691
G1 X74.685 Y41.644 E8.72203
G1 X73.711 Y41.081 E8.79719
G1 X72.856 Y40.351 E8.8723
G1 X72.147 Y39.478 E8.94743
G1 X71.635 Y38.541 E9.01876
G1 X71.266 Y37.426 E9.09722
G1 X71.166 Y36.873 E9.13476
G1 X71.114 Y35.752 E9.20973
G1 X71.266 Y34.641 E9.28464
G1 X71.421 Y34.099 E9.3223
G1 X71.635 Y33.527 E9.3631
G1 X72.147 Y32.59 E9.43443
G1 X72.855 Y31.718 E9.50947
G1 X73.71 Y30.988 E9.58458
G1 X74.683 Y30.425 E9.65968
G1 X75.742 Y30.047 E9.7348
G1 X76.823 Y29.873 E9.80795
G1 X77.345 Y29.873 E9.84282
G1 E7.84282 F2400
G92 E0
G1 X77.345 Y29.873 F7800
G1 X103.454 Y54.023
G1 E2 F2400
G1 F1800
G1 X103.454 Y49.276 E2.31713
G1 X102.858 Y49.276 E2.35695
G1 X102.858 Y54.381 E2.69799
G1 X102.263 Y54.944 E2.75271
G1 X102.263 Y49.276 E3.13136
G1 X101.668 Y49.276 E3.17111
G1 X101.668 Y55.372 E3.57836
G1 X101.073 Y55.607 E3.6211
G1 X101.073 Y49.276 E4.04405
G1 X100.478 Y49.276 E4.0838
G1 X100.478 Y55.795 E4.5193
G1 X99.883 Y55.886 E4.55951
G1 X99.883 Y49.276 E5.00109
G1 X99.288 Y49.276 E5.04084
G1 X99.288 Y55.898 E5.48323
G1 X98.692 Y55.863 E5.52311
G1 X98.692 Y49.276 E5.96316
G1 X98.097 Y49.276 E6.00291
G1 X98.097 Y55.704 E6.43234
G1 X97.502 Y55.487 E6.47465
G1 X97.502 Y49.276 E6.88958
G1 X96.907 Y49.276 E6.92933
G1 X96.907 Y55.176 E7.32348
G1 X96.312 Y54.682 E7.37514
G1 X96.312 Y49.276 E7.73629
G1 X95.717 Y49.276 E7.77604
G1 X95.717 Y53.994 E8.09123
G1 X95.477 Y53.668 E8.11827
G1 X95.122 Y52.879 E8.17607
G1 X95.122 Y49.798 E8.3819
G1 X94.527 Y51.185 E8.48273
G1 X94.527 Y52.145 E8.54686
G1 X94.527 Y52.145 F7800
G1 X93.931 Y53.105
G1 F1800
G1 X93.931 Y50.277 E8.73579
G1 X93.55 Y49.276 E8.80734
G1 X93.336 Y49.276 E8.82164
G1 X93.336 Y53.735 E9.11953
G1 X92.741 Y54.509 E9.18475
G1 X92.741 Y49.276 E9.53434
G1 X92.146 Y49.276 E9.57409
G1 X92.146 Y55.026 E9.95822
G1 X91.551 Y55.423 E10.006
G1 X91.551 Y49.276 E10.41665
G1 X90.956 Y49.276 E10.4564
G1 X90.956 Y55.651 E10.88228
G1 X90.65 Y55.768 E10.90417
G1 X90.361 Y55.812 E10.9237
G1 X90.361 Y49.276 E11.36034
G1 X89.766 Y49.276 E11.40009
G1 X89.766 Y55.904 E11.84288
G1 X89.17 Y55.891 E11.88271
G1 X89.17 Y49.276 E12.32463
G1 X88.575 Y49.276 E12.36438
G1 X88.575 Y55.835 E12.80256
G1 X87.98 Y55.673 E12.84376
G1 X87.98 Y49.276 E13.27111
G1 X87.385 Y49.276 E13.31086
G1 X87.385 Y55.427 E13.72178
G1 X86.79 Y55.107 E13.76691
G1 X86.79 Y49.276 E14.15645
G1 X86.195 Y49.269 E14.1962
G1 X86.195 Y54.58 E14.551
G1 X85.6 Y53.838 E14.61454
G1 X85.6 Y49.189 E14.92512
G1 X85.004 Y48.98 E14.96731
G1 X85.004 Y52.452 E15.19926
G1 X84.887 Y51.914 E15.23604
G1 X84.795 Y50.594 E15.32444
G1 X84.409 Y50.745 E15.35213
G1 X84.409 Y30.799 E16.68463
G1 X83.814 Y30.67 E16.7253
G1 X83.814 Y50.977 E18.08192
G1 X83.75 Y51.002 E18.08651
G1 X83.219 Y50.955 E18.12212
G1 X83.219 Y30.593 E19.48241
G1 X82.624 Y30.71 E19.52292
G1 X82.624 Y50.901 E20.87179
G1 X82.385 Y50.88 E20.88782
G1 X82.029 Y50.632 E20.9168
G1 X82.029 Y30.948 E22.2318
G1 X81.434 Y31.345 E22.27958
G1 X81.434 Y50.217 E23.54033
G1 X81.261 Y50.097 E23.5544
G1 X80.839 Y49.294 E23.615
G1 X80.839 Y41.232 E24.15359
G1 E22.15359 F2400
G92 E0
G1 X80.839 Y41.232 F7800
G1 X85.6 Y32.545
G1 E2 F2400
G1 F1800
G1 X85.6 Y31.853 E2.04623
G1 X85.449 Y31.564 E2.06801
G1 X85.004 Y31.219 E2.10563
G1 X85.004 Y32.784 E2.21018
G1 X85.004 Y32.784 F7800
G1 X80.839 Y40.97
G1 F1800
G1 X80.839 Y31.576 E2.83775
G1 X80.243 Y31.196 E2.88497
G1 X80.243 Y40.953 E3.53679
G1 X79.648 Y41.195 E3.5797
G1 X79.648 Y30.873 E4.26927
G1 X79.053 Y30.631 E4.31218
G1 X79.053 Y41.437 E5.03408
G1 X78.458 Y41.584 E5.07502
G1 X78.458 Y30.485 E5.81649
G1 X77.863 Y30.375 E5.85691
G1 X77.863 Y41.696 E6.61321
G1 X77.268 Y41.709 E6.65297
G1 X77.268 Y30.355 E7.41148
G1 X76.673 Y30.385 E7.45128
G1 X76.673 Y41.683 E8.20605
G1 X76.077 Y41.587 E8.24638
G1 X76.077 Y30.482 E8.98825
G1 X75.482 Y30.652 E9.02959
G1 X75.482 Y41.417 E9.74875
G1 X74.887 Y41.205 E9.79095
G1 X74.887 Y30.864 E10.48178
G1 X74.292 Y31.208 E10.52769
G1 X74.292 Y40.86 E11.1725
G1 X73.697 Y40.435 E11.22135
G1 X73.697 Y31.633 E11.80937
G1 X73.102 Y32.179 E11.86332
G1 X73.102 Y39.889 E12.37839
G1 X72.507 Y39.131 E12.44277
G1 X72.507 Y32.937 E12.85656
G1 X71.912 Y34.163 E12.9476
G1 X71.912 Y38.544 E13.24027
G1 E11.24027 F2400
G92 E0
G1 X71.912 Y38.544 F7800
G1 X102.478 Y34.53
G1 E2 F2400
;TYPE:External perimeter
;WIDTH:0.6
G1 F1800
G1 X102.518 Y34.55 E2.00299
G1 X102.572 Y34.711 E2.01433
G1 X102.572 Y39.775 E2.35263
G1 X102.515 Y39.94 E2.36429
G1 X102.356 Y40.038 E2.37677
G1 X96.697 Y40.043 E2.75482
G1 X96.526 Y39.981 E2.76697
G1 X96.441 Y39.852 E2.77729
G1 X96.429 Y39.775 E2.7825
G1 X96.429 Y34.711 E3.1208
G1 X96.483 Y34.55 E3.13214
G1 X96.697 Y34.443 E3.14812
G1 X102.304 Y34.443 E3.5227
G1 X102.425 Y34.503 E3.53172
G1 X102.565 Y34.878 F7800
G1 E1.53172 F2400
G92 E0
G1 X92.486 Y39.964 F7800
G1 E2 F2400
G1 F1800
G1 X92.35 Y40.039 E2.01038
G1 X92.304 Y40.043 E2.01346
G1 X86.697 Y40.043 E2.38804
G1 X86.537 Y39.99 E2.3993
G1 X86.429 Y39.775 E2.41537
G1 X86.429 Y34.711 E2.75367
G1 X86.506 Y34.523 E2.76724
G1 X86.697 Y34.443 E2.78107
G1 X92.304 Y34.443 E3.15565
G1 X92.518 Y34.55 E3.17163
G1 X92.572 Y34.711 E3.18297
G1 X92.572 Y39.775 E3.52127
G1 X92.518 Y39.917 E3.53142
G1 X92.135 Y40.034 F7800
G1 E1.53142 F2400
G92 E0
G1 X93.643 Y35.268 F7800
G1 E2 F2400
;TYPE:Perimeter
G1 F1800
G1 X93.643 Y34.711 E2.03721
G1 X93.602 Y34.588 E2.04587
G1 X95.399 Y34.589 E2.16592
G1 X95.358 Y34.711 E2.17452
G1 X95.358 Y39.775 E2.51282
G1 X95.414 Y40.159 E2.53874
G1 X95.548 Y40.463 E2.56093
G1 X95.839 Y40.803 E2.59083
G1 X96.247 Y41.036 E2.62222
G1 X96.697 Y41.114 E2.65273
G1 X102.304 Y41.114 E3.02731
G1 X102.536 Y41.094 E3.04287
G1 X102.808 Y41.016 E3.06177
G1 X103.211 Y40.76 E3.09367
G1 X103.472 Y40.431 E3.12173
G1 X103.603 Y40.1 E3.14551
G1 X103.643 Y39.775 E3.16739
G1 X103.643 Y34.711 E3.50569
G1 X103.603 Y34.589 E3.51427
G1 X137.674 Y34.591 E5.7904
G1 X138.21 Y34.62 E5.82626
G1 X138.82 Y34.712 E5.86747
G1 X139.414 Y34.863 E5.90841
G1 X139.975 Y35.067 E5.94829
G1 X140.528 Y35.351 E5.98982
G1 X141.097 Y35.689 E6.03403
G1 X141.572 Y36.053 E6.07401
G1 X142.041 Y36.491 E6.11688
G1 X142.406 Y36.899 E6.15345
G1 X142.77 Y37.405 E6.19509
G1 X143.068 Y37.922 E6.23496
G1 X143.309 Y38.494 E6.27643
G1 X143.528 Y39.119 E6.32067
