; generated by PrusaSlicer 2.8.1+linux-x64-GTK3 on 2024-10-27 at 15:18:18 UTC

; 

; external perimeters extrusion width = 0.45mm
; perimeters extrusion width = 0.45mm
; infill extrusion width = 0.45mm
; solid infill extrusion width = 0.45mm
; top infill extrusion width = 0.40mm
; support material extrusion width = 0.40mm
; first layer extrusion width = 0.60mm

M190 S60 ; set bed temperature and wait for it to be reached
M104 S200 ; set temperature
;TYPE:Custom
G28 ; home all axes
G1 Z5 F5000 ; lift nozzle
M109 S200 ; set temperature and wait for it to be reached
G21 ; set units to millimeters
G90 ; use absolute coordinates
M82 ; use absolute distances for extrusion
G92 E0
; Filament gcode
M107
;LAYER_CHANGE
;Z:0.3
;HEIGHT:0.3
G1 E-2 F2400
G1 Z.3 F7800
G1 X69.429 Y48.424
G1 E0 F2400
;TYPE:Skirt/Brim
;WIDTH:0.6
G1 F1800
G1 X98.253 Y7.098 E3.366
G1 X99.834 Y5.525 E3.51499
G1 X101.866 Y4.605 E3.664
G1 X103.394 Y4.415 E3.76686
G1 X116.606 Y4.415 E4.64949
G1 X118.801 Y4.812 E4.79851
G1 X120.718 Y5.952 E4.94751
G1 X121.811 Y7.19 E5.05784
G1 X166.298 Y73.476 E10.39096
G1 X167.288 Y75.443 E10.53807
G1 X167.79 Y77.155 E10.65726
G1 X167.959 Y78.329 E10.7365
G1 X167.959 Y80.112 E10.85561
G1 X167.79 Y81.286 E10.93485
G1 X167.288 Y82.997 E11.05397
G1 X166.795 Y84.076 E11.13322
G1 X165.831 Y85.576 E11.25234
G1 X165.055 Y86.472 E11.33153
G1 X163.728 Y87.626 E11.44901
G1 X155.165 Y93.179 E12.13082
G1 X153.362 Y94.082 E12.26553
G1 X152.261 Y94.47 E12.34352
G1 X142.72 Y96.859 E13.00059
G1 X141.619 Y97.087 E13.0757
G1 X140.486 Y97.216 E13.15188
G1 X139.361 Y97.241 E13.22705
G1 X79.633 Y97.242 E17.2172
G1 X78.633 Y97.162 E17.28422
G1 X76.757 Y96.809 E17.41175
G1 X65.999 Y93.65 E18.16079
G1 X64.65 Y93.075 E18.25876
G1 X56.277 Y88.281 E18.90332
G1 X54.644 Y87.191 E19.03448
G1 X53.692 Y86.323 E19.12055
G1 X52.979 Y85.524 E19.19209
G1 X52.08 Y84.215 E19.29818
G1 X51.581 Y83.242 E19.37123
G1 X51.088 Y81.949 E19.46368
G1 X50.755 Y80.497 E19.5632
G1 X50.626 Y78.899 E19.6703
G1 X50.66 Y77.921 E19.73568
G1 X50.852 Y76.582 E19.82605
G1 X51.081 Y75.689 E19.88764
G1 X51.573 Y74.389 E19.9805
G1 X52.074 Y73.409 E20.05403
G1 X52.513 Y72.678 E20.11099
G1 X69.395 Y48.473 E22.08247
G1 E20.08247 F2400
G92 E0
G1 X69.395 Y48.473 F7800
G92 E0
G1 X71.203 Y81.118
G1 E2 F2400
;TYPE:Support material
G1 F1800
G1 X71.431 Y81.208 E2.01638
G1 X72.661 Y81.208 E2.09855
G1 X72.998 Y81.597 E2.13293
G1 X73.49 Y82.675 E2.21209
G1 X73.582 Y83.314 E2.25522
G1 X74.067 Y83.347 E2.2877
G1 X74.416 Y82.303 E2.36124
G1 X75.055 Y81.208 E2.44594
G1 X85.053 Y81.208 E3.11386
G1 X85.34 Y81.595 E3.14605
G1 X85.835 Y82.605 E3.22119
G1 X86.138 Y83.688 E3.29632
G1 X86.24 Y84.808 E3.37145
G1 X86.138 Y85.928 E3.44658
G1 X85.835 Y87.011 E3.52171
G1 X85.34 Y88.021 E3.59685
G1 X84.68 Y88.912 E3.67093
G1 X83.834 Y89.701 E3.74821
G1 X82.9 Y90.298 E3.82226
G1 X81.858 Y90.722 E3.89741
G1 X80.757 Y90.95 E3.97252
G1 X79.633 Y90.974 E4.04763
G1 X78.523 Y90.795 E4.12274
G1 X77.464 Y90.417 E4.19786
G1 X76.49 Y89.854 E4.27302
G1 X75.635 Y89.124 E4.34813
G1 X74.927 Y88.251 E4.42322
G1 X74.416 Y87.314 E4.49452
G1 X74.201 Y86.743 E4.53528
G1 X73.904 Y85.188 E4.64104
G1 X73.45 Y85.111 E4.6718
G1 X72.998 Y86.1 E4.74444
G1 X72.222 Y86.995 E4.82358
G1 X71.225 Y87.636 E4.90276
G1 X70.087 Y87.97 E4.98199
G1 X68.902 Y87.97 E5.06115
G1 X67.765 Y87.636 E5.14032
G1 X66.768 Y86.995 E5.2195
G1 X65.992 Y86.1 E5.29864
G1 X65.499 Y85.021 E5.37789
G1 X65.33 Y83.848 E5.45706
G1 X65.451 Y83.007 E5.51382
G1 X67.542 Y84.215 E5.67515
G1 X67.962 Y84.102 E5.70421
G1 X70.065 Y80.461 E5.98511
G1 X71.133 Y81.078 E6.06751
G1 E4.06751 F2400
G92 E0
G1 X71.133 Y81.078 F7800
G1 X85.6 Y86.943
G1 E2 F2400
G1 F1800
G1 X85.6 Y83.553 E2.22647
G1 X85.382 Y82.778 E2.28025
G1 X85.004 Y82.007 E2.33761
G1 X85.004 Y87.61 E2.71192
G1 X84.409 Y88.467 E2.78162
G1 X84.409 Y81.69 E3.23436
G1 X83.814 Y81.69 E3.27411
G1 X83.814 Y89.067 E3.76693
G1 X83.219 Y89.522 E3.81697
G1 X83.219 Y81.69 E4.34019
G1 X82.624 Y81.69 E4.37994
G1 X82.624 Y89.89 E4.92774
G1 X82.029 Y90.132 E4.97065
G1 X82.029 Y81.69 E5.53462
G1 X81.434 Y81.69 E5.57437
G1 X81.434 Y90.317 E6.1507
G1 X80.839 Y90.441 E6.1913
G1 X80.839 Y81.69 E6.77591
G1 X80.243 Y81.69 E6.81573
G1 X80.243 Y90.479 E7.40288
G1 X79.648 Y90.489 E7.44263
G1 X79.648 Y81.69 E8.03045
G1 X79.053 Y81.69 E8.0702
G1 X79.053 Y90.392 E8.65154
G1 X78.458 Y90.26 E8.69226
G1 X78.458 Y81.69 E9.26478
G1 X77.863 Y81.69 E9.30453
G1 X77.863 Y90.048 E9.86289
G1 X77.268 Y89.747 E9.90744
G1 X77.268 Y81.69 E10.44569
G1 X76.673 Y81.69 E10.48544
G1 X76.673 Y89.376 E10.99891
G1 X76.077 Y88.868 E11.05123
G1 X76.077 Y81.69 E11.53076
G1 X75.482 Y81.69 E11.57051
G1 X75.482 Y88.17 E12.00341
G1 X74.887 Y87.172 E12.08103
G1 X74.887 Y82.445 E12.39682
G1 X74.424 Y83.854 E12.4959
G1 X74.292 Y83.845 E12.50474
G1 X74.292 Y84.765 E12.5662
G1 X73.697 Y84.664 E12.60652
G1 X73.697 Y83.805 E12.66391
G1 X73.161 Y83.769 E12.6998
G1 X73.102 Y83.36 E12.72741
G1 X73.102 Y84.712 E12.81773
G1 X72.507 Y85.93 E12.90829
G1 X72.507 Y81.766 E13.18647
G1 X72.441 Y81.69 E13.19319
G1 X71.912 Y81.69 E13.22853
G1 X71.912 Y86.617 E13.55768
G1 X71.316 Y87.004 E13.60515
G1 X71.316 Y81.677 E13.96102
G1 X70.721 Y81.397 E14.00495
G1 X70.721 Y87.281 E14.39803
G1 X70.126 Y87.456 E14.43946
G1 X70.126 Y81.319 E14.84944
G1 X69.531 Y82.349 E14.92891
G1 X69.531 Y87.488 E15.27222
G1 X68.936 Y87.478 E15.31197
G1 X68.936 Y83.38 E15.58574
G1 X68.341 Y84.411 E15.66526
G1 X68.341 Y87.303 E15.85846
G1 X67.746 Y87.051 E15.90163
G1 X67.746 Y84.659 E16.06143
G1 X67.474 Y84.732 E16.08024
G1 X67.15 Y84.545 E16.10523
G1 X67.15 Y86.668 E16.24706
G1 X66.555 Y86.014 E16.30613
G1 X66.555 Y84.201 E16.42725
G1 X65.96 Y83.858 E16.47313
G1 X65.96 Y85.451 E16.57955
G1 E14.57955 F2400
G92 E0
G1 X65.96 Y85.451 F7800
G1 X62.058 Y74.394
G1 E2 F2400
G1 F1800
G1 X62.729 Y74.524 E2.04566
G1 X63.748 Y74.995 E2.12065
G1 X64.629 Y75.719 E2.19683
G1 X64.969 Y76.187 E2.23547
G1 X64.546 Y76.92 E2.29201
G1 X64.659 Y77.34 E2.32107
G1 X64.825 Y77.436 E2.33388
G1 X62.723 Y81.077 E2.61474
G1 X62.836 Y81.497 E2.6438
G1 X64.165 Y82.265 E2.74634
G1 X63.712 Y82.63 E2.7852
G1 X62.702 Y83.088 E2.85929
G1 X61.53 Y83.291 E2.93875
G1 X60.431 Y83.203 E3.0124
G1 X59.392 Y82.842 E3.08588
G1 X58.799 Y82.468 E3.13272
G1 X58.369 Y82.15 E3.16845
G1 X57.656 Y81.351 E3.23999
G1 X57.156 Y80.379 E3.31301
G1 X56.962 Y79.629 E3.36476
G1 X56.89 Y79.115 E3.39943
G1 X56.924 Y78.137 E3.46481
G1 X57.153 Y77.243 E3.52646
G1 X57.654 Y76.263 E3.59999
G1 X58.363 Y75.468 E3.67115
G1 X58.766 Y75.165 E3.70483
G1 X59.399 Y74.764 E3.75489
G1 X60.45 Y74.402 E3.82915
G1 X61.55 Y74.317 E3.90286
G1 X61.979 Y74.382 E3.93185
G1 X64.175 Y78.08 F7800
G1 F1800
G1 X64.175 Y75.97 E4.07281
G1 X63.58 Y75.481 E4.12426
G1 X63.58 Y78.629 E4.33456
G1 X62.985 Y79.66 E4.41408
G1 X62.985 Y75.173 E4.71384
G1 X62.389 Y74.949 E4.75638
G1 X62.389 Y82.658 E5.27138
G1 X61.794 Y82.764 E5.31176
G1 X61.794 Y74.842 E5.84099
G1 X61.199 Y74.828 E5.88075
G1 X61.199 Y82.781 E6.41205
G1 X60.604 Y82.733 E6.45193
G1 X60.604 Y74.874 E6.97695
G1 X60.009 Y75.064 E7.01868
G1 X60.009 Y82.546 E7.51852
G1 X59.414 Y82.286 E7.5619
G1 X59.414 Y75.326 E8.02687
G1 X58.819 Y75.729 E8.07488
G1 X58.819 Y81.883 E8.486
G1 X58.224 Y81.263 E8.54341
G1 X58.224 Y76.349 E8.87169
G1 X58.055 Y76.538 E8.88863
G1 X57.628 Y77.372 E8.95122
G1 X57.628 Y80.77 E9.17822
G1 X57.628 Y80.77 F7800
G1 X62.985 Y82.695
G1 F1800
G1 X62.985 Y81.862 E9.23387
G1 E7.23387 F2400
G92 E0
G1 X62.985 Y81.862 F7800
G1 X151.397 Y82.993
G1 E2 F2400
G1 F1800
G1 X152.038 Y84.102 E2.08557
G1 X152.458 Y84.215 E2.11463
G1 X153.776 Y83.453 E2.21634
G1 X153.858 Y84.09 E2.25925
G1 X153.724 Y85.211 E2.33467
G1 X153.309 Y86.269 E2.41059
G1 X152.633 Y87.2 E2.48745
G1 X151.755 Y87.92 E2.56331
G1 X150.736 Y88.391 E2.6383
G1 X150.061 Y88.521 E2.68422
G1 X149.555 Y88.597 E2.7184
G1 X148.455 Y88.511 E2.79211
G1 X147.405 Y88.149 E2.86631
G1 X146.771 Y87.747 E2.91646
G1 X146.368 Y87.443 E2.95018
G1 X145.624 Y86.607 E3.02494
G1 X144.931 Y88.021 E3.13014
G1 X144.271 Y88.912 E3.20422
G1 X143.425 Y89.701 E3.2815
G1 X142.491 Y90.298 E3.35555
G1 X141.449 Y90.722 E3.4307
G1 X140.348 Y90.95 E3.50581
G1 X139.224 Y90.974 E3.58092
G1 X138.114 Y90.795 E3.65603
G1 X137.054 Y90.417 E3.73121
G1 X136.081 Y89.854 E3.80631
G1 X135.226 Y89.124 E3.88142
G1 X134.518 Y88.251 E3.95651
G1 X134.006 Y87.314 E4.02784
G1 X133.638 Y86.2 E4.10622
G1 X133.538 Y85.65 E4.14357
G1 X133.486 Y84.529 E4.21854
G1 X133.638 Y83.417 E4.29352
G1 X134.006 Y82.303 E4.3719
G1 X134.645 Y81.208 E4.4566
G1 X144.644 Y81.208 E5.12459
G1 X144.931 Y81.595 E5.15678
G1 X145.281 Y82.31 E5.20996
G1 X145.662 Y81.567 E5.26574
G1 X145.981 Y81.208 E5.29782
G1 X148.569 Y81.208 E5.47071
G1 X149.935 Y80.461 E5.57472
G1 X151.357 Y82.923 E5.76466
G1 X151.357 Y82.923 F7800
G1 X152.85 Y86.494
G1 F1800
G1 X152.85 Y84.545 E5.89486
G1 X152.526 Y84.732 E5.91985
G1 X152.254 Y84.659 E5.93866
G1 X152.254 Y86.887 E6.0875
G1 X151.659 Y87.375 E6.13891
G1 X151.659 Y84.411 E6.33692
G1 X151.064 Y83.38 E6.41644
G1 X151.064 Y87.708 E6.70557
G1 X150.469 Y87.951 E6.74851
G1 X150.469 Y82.349 E7.12275
G1 X149.874 Y81.319 E7.20222
G1 X149.874 Y88.062 E7.65269
G1 X149.279 Y88.092 E7.69249
G1 X149.279 Y81.397 E8.13975
G1 X148.684 Y81.677 E8.18368
G1 X148.684 Y88.046 E8.60916
G1 X148.088 Y87.875 E8.65058
G1 X148.088 Y81.69 E9.06377
G1 X147.493 Y81.69 E9.10352
G1 X147.493 Y87.634 E9.50061
G1 X147.046 Y87.351 E9.53595
G1 X146.898 Y87.239 E9.54835
G1 X146.898 Y81.69 E9.91905
G1 X146.303 Y81.69 E9.9588
G1 X146.303 Y86.645 E10.28982
G1 X145.708 Y85.977 E10.34958
G1 X145.708 Y82.533 E10.57966
G1 X145.271 Y83.385 E10.64363
G1 X145.113 Y83.063 E10.66759
G1 X145.113 Y86.554 E10.90081
G1 X144.518 Y87.768 E10.99113
G1 X144.518 Y81.848 E11.38662
G1 X144.401 Y81.69 E11.39975
G1 X143.923 Y81.69 E11.43168
G1 X143.923 Y88.572 E11.89143
G1 X143.327 Y89.138 E11.94634
G1 X143.327 Y81.69 E12.44391
G1 X142.732 Y81.69 E12.48366
G1 X142.732 Y89.572 E13.01022
G1 X142.137 Y89.921 E13.0563
G1 X142.137 Y81.69 E13.60618
G1 X141.542 Y81.69 E13.64593
G1 X141.542 Y90.164 E14.21204
G1 X140.947 Y90.333 E14.25336
G1 X140.947 Y81.69 E14.83076
G1 X140.352 Y81.69 E14.87051
G1 X140.352 Y90.457 E15.45619
G1 X139.757 Y90.481 E15.49597
G1 X139.757 Y81.69 E16.08326
G1 X139.161 Y81.69 E16.12308
G1 X139.161 Y90.476 E16.71003
G1 X138.566 Y90.38 E16.75029
G1 X138.566 Y81.69 E17.33083
G1 X137.971 Y81.69 E17.37058
G1 X137.971 Y90.233 E17.9413
G1 X137.376 Y90.02 E17.98352
G1 X137.376 Y81.69 E18.54001
G1 X136.781 Y81.69 E18.57976
G1 X136.781 Y89.702 E19.115
G1 X136.186 Y89.31 E19.1626
G1 X136.186 Y81.69 E19.67166
G1 X135.591 Y81.69 E19.71141
G1 X135.591 Y88.801 E20.18646
G1 X134.996 Y88.075 E20.24917
G1 X134.996 Y81.69 E20.67572
G1 X134.89 Y81.69 E20.6828
G1 X134.4 Y82.625 E20.75332
G1 X134.4 Y87.533 E21.0812
G1 E19.0812 F2400
G92 E0
G1 X134.4 Y87.533 F7800
G1 X158.813 Y75.283
G1 E2 F2400
G1 F1800
G1 X159.321 Y75.433 E2.03539
G1 X160.318 Y76.073 E2.11454
G1 X161.094 Y76.969 E2.19373
G1 X161.586 Y78.047 E2.27289
G1 X161.755 Y79.22 E2.35206
G1 X161.586 Y80.394 E2.4313
G1 X161.094 Y81.472 E2.51046
G1 X160.318 Y82.368 E2.58965
G1 X159.321 Y83.008 E2.6688
G1 X158.183 Y83.342 E2.74803
G1 X156.998 Y83.342 E2.82719
G1 X154.99 Y82.753 E2.96699
G1 X157.164 Y81.497 E3.13472
G1 X157.277 Y81.077 E3.16378
G1 X155.175 Y77.436 E3.44464
G1 X155.341 Y77.34 E3.45745
G1 X155.454 Y76.92 E3.48651
G1 X154.938 Y76.026 E3.55547
G1 X155.861 Y75.433 E3.62876
G1 X156.998 Y75.099 E3.70793
G1 X158.183 Y75.099 E3.78709
G1 X158.736 Y75.261 E3.82559
G1 X158.736 Y75.261 F7800
G1 X161.181 Y80.7
G1 F1800
G1 X161.181 Y78.618 E3.96468
G1 X161.119 Y78.184 E3.99397
G1 X160.586 Y77.119 E4.07353
G1 X160.586 Y81.322 E4.35431
G1 X159.991 Y82.004 E4.41477
G1 X159.991 Y76.436 E4.78674
G1 X159.396 Y76.054 E4.83398
G1 X159.396 Y82.387 E5.25706
G1 X158.801 Y82.659 E5.30077
G1 X158.801 Y75.782 E5.76019
G1 X158.206 Y75.608 E5.8016
G1 X158.206 Y82.833 E6.28427
G1 X157.611 Y82.86 E6.32406
G1 X157.611 Y75.581 E6.81034
G1 X157.015 Y75.596 E6.85017
G1 X157.015 Y79.66 E7.12167
G1 X156.42 Y78.629 E7.20119
G1 X156.42 Y75.771 E7.39212
G1 X155.825 Y76.028 E7.43542
G1 X155.825 Y78.08 E7.5725
G1 E5.5725 F2400
G92 E0
G1 X155.825 Y78.08 F7800
G1 X157.015 Y83.096
G1 E2 F2400
G1 F1800
G1 X157.015 Y82.14 E2.06387
G1 X156.42 Y82.483 E2.10975
G1 X156.42 Y82.921 E2.13901
G1 E.13901 F2400
G92 E0
G1 X156.42 Y82.921 F7800
G1 X122.751 Y23.852
G1 E2 F2400
;TYPE:Perimeter
;WIDTH:0.6
G1 F1800
G1 X122.795 Y23.892 E2.00397
;WIDTH:0.577997
G1 X122.994 Y24.217 E2.02838
;WIDTH:0.540293
G1 X123.193 Y24.542 E2.051
;WIDTH:0.551295
G1 X123.306 Y24.828 E2.06968
;WIDTH:0.6
G1 X123.419 Y25.114 E2.09022
G1 X123.45 Y25.578 E2.12129
G1 X123.388 Y26.038 E2.1523
G1 X123.236 Y26.478 E2.1834
G1 X122.962 Y26.92 E2.21814
G1 X122.588 Y27.303 E2.2539
G1 X122.15 Y27.591 E2.28892
G1 X121.642 Y27.774 E2.32499
G1 X121.096 Y27.831 E2.36166
G1 X120.634 Y27.781 E2.3927
G1 X120.192 Y27.639 E2.42371
G1 X119.786 Y27.413 E2.45475
G1 X119.441 Y27.104 E2.48569
;WIDTH:0.577998
G1 X119.242 Y26.779 E2.5101
;WIDTH:0.540293
G1 X119.043 Y26.454 E2.53272
;WIDTH:0.551294
G1 X118.93 Y26.168 E2.5514
;WIDTH:0.6
G1 X118.817 Y25.882 E2.57194
G1 X118.794 Y25.363 E2.60665
G1 X118.887 Y24.835 E2.64247
G1 X118.954 Y24.625 E2.6572
G1 X119.17 Y24.214 E2.68822
G1 X119.463 Y23.853 E2.71928
G1 X119.822 Y23.558 E2.75032
G1 X120.232 Y23.34 E2.78134
G1 X120.677 Y23.207 E2.81237
G1 X121.14 Y23.165 E2.84343
G1 X121.602 Y23.216 E2.87448
G1 X122.044 Y23.357 E2.90547
G1 X122.45 Y23.583 E2.93651
G1 X122.707 Y23.812 E2.95951
G1 X122.707 Y23.812 F7800
G1 X122.378 Y24.217
;TYPE:External perimeter
G1 F1800
G1 X122.393 Y24.229 E2.96079
G1 X122.619 Y24.507 E2.98472
G1 X122.786 Y24.824 E3.00866
G1 X122.887 Y25.168 E3.03261
G1 X122.917 Y25.525 E3.05654
G1 X122.876 Y25.881 E3.08048
G1 X122.765 Y26.221 E3.10437
G1 X122.576 Y26.548 E3.1296
G1 X122.204 Y26.929 E3.16517
G1 X121.834 Y27.149 E3.19393
G1 X121.492 Y27.258 E3.21791
G1 X121.136 Y27.297 E3.24183
G1 X120.779 Y27.265 E3.26578
G1 X120.436 Y27.163 E3.28969
G1 X120.12 Y26.995 E3.3136
G1 X119.843 Y26.767 E3.33757
G1 X119.617 Y26.489 E3.3615
G1 X119.45 Y26.172 E3.38544
G1 X119.35 Y25.829 E3.40931
G1 X119.322 Y25.455 E3.43437
G1 X119.437 Y24.858 E3.47499
G1 X119.597 Y24.537 E3.49895
G1 X119.818 Y24.255 E3.52289
G1 X120.222 Y23.946 E3.55687
G1 X120.692 Y23.75 E3.59089
G1 X121.1 Y23.699 E3.61836
G1 X121.457 Y23.731 E3.64231
G1 X121.8 Y23.833 E3.66622
G1 X122.116 Y24.001 E3.69013
G1 X122.332 Y24.178 E3.70879
G1 X122.592 Y24.482 F7800
G1 E1.70879 F2400
G92 E0
G1 X133.838 Y51.691 F7800
G1 E2 F2400
;TYPE:Perimeter
G1 F1800
G1 X133.786 Y51.662 E2.00398
G1 X133.622 Y51.5 E2.01938
;WIDTH:0.566377
G1 X133.458 Y51.339 E2.03377
;WIDTH:0.532754
G1 X133.191 Y50.97 E2.06038
;WIDTH:0.539492
G1 X133.024 Y50.627 E2.08299
;WIDTH:0.580201
G1 X132.858 Y50.284 E2.10751
;WIDTH:0.6
G1 X132.786 Y49.831 E2.13815
G1 X132.887 Y49.084 E2.18851
G1 X133.087 Y48.599 E2.22356
G1 X133.409 Y48.155 E2.2602
G1 X133.822 Y47.807 E2.29628
G1 X134.232 Y47.588 E2.32733
G1 X134.677 Y47.456 E2.35834
G1 X135.14 Y47.414 E2.3894
G1 X135.602 Y47.464 E2.42044
G1 X136.044 Y47.605 E2.45143
G1 X136.45 Y47.831 E2.48247
G1 X136.795 Y48.14 E2.51341
;WIDTH:0.577997
G1 X136.994 Y48.466 E2.53788
;WIDTH:0.540292
G1 X137.193 Y48.791 E2.5605
;WIDTH:0.551294
G1 X137.306 Y49.077 E2.57918
;WIDTH:0.6
G1 X137.419 Y49.363 E2.59972
G1 X137.442 Y49.886 E2.63469
G1 X137.349 Y50.41 E2.67024
G1 X137.149 Y50.894 E2.70523
G1 X136.827 Y51.339 E2.74192
G1 X136.414 Y51.687 E2.778
G1 X136.004 Y51.905 E2.80902
G1 X135.559 Y52.038 E2.84005
G1 X135.096 Y52.08 E2.87111
G1 X134.634 Y52.029 E2.90216
G1 X134.192 Y51.888 E2.93315
G1 X133.89 Y51.72 E2.95624
G1 X133.89 Y51.72 F7800
G1 X134.137 Y51.253
;TYPE:External perimeter
G1 F1800
G1 X134.12 Y51.243 E2.95756
G1 X133.843 Y51.016 E2.98149
G1 X133.617 Y50.738 E3.00542
G1 X133.45 Y50.421 E3.02936
G1 X133.35 Y50.077 E3.05329
G1 X133.322 Y49.704 E3.07828
G1 X133.414 Y49.176 E3.11408
G1 X133.597 Y48.786 E3.14286
G1 X133.818 Y48.504 E3.1668
G1 X134.09 Y48.271 E3.19073
G1 X134.547 Y48.048 E3.2247
