; generated by PrusaSlicer 2.8.1+linux-x64-GTK3 on 2024-10-07 at 09:47:46 UTC

; 

; external perimeters extrusion width = 0.45mm
; perimeters extrusion width = 0.45mm
; infill extrusion width = 0.45mm
; solid infill extrusion width = 0.45mm
; top infill extrusion width = 0.40mm
; support material extrusion width = 0.40mm
; first layer extrusion width = 0.60mm

M190 S60 ; set bed temperature and wait for it to be reached
M104 S200 ; set temperature
;TYPE:Custom
G28 ; home all axes
G1 Z5 F5000 ; lift nozzle
M109 S200 ; set temperature and wait for it to be reached
G21 ; set units to millimeters
G90 ; use absolute coordinates
M82 ; use absolute distances for extrusion
G92 E0
; Filament gcode
M107
;LAYER_CHANGE
;Z:0.3
;HEIGHT:0.3
G1 E-2 F2400
G1 Z.3 F7800
G1 X86.113 Y97.956
G1 E0 F2400
;TYPE:Skirt/Brim
;WIDTH:0.6
G1 F1800
G1 X88.184 Y96.367 E.17439
G1 X89.601 Y95.549 E.28369
G1 X92.013 Y94.55 E.4581
G1 X93.594 Y94.127 E.56743
G1 X97 Y93.732 E.79649
G1 X122.649 Y93.732 E2.50998
G1 X124.516 Y94.017 E2.63615
G1 X138.299 Y98.318 E3.60072
G1 X139.837 Y98.92 E3.71106
G1 X140.849 Y99.444 E3.78719
G1 X141.797 Y100.05 E3.86236
G1 X142.697 Y100.749 E3.93849
G1 X143.519 Y101.516 E4.0136
G1 X144.279 Y102.367 E4.08982
G1 X144.948 Y103.27 E4.1649
G1 X145.541 Y104.244 E4.24108
G1 X146.035 Y105.254 E4.31619
G1 X146.442 Y106.32 E4.39242
G1 X146.745 Y107.403 E4.46755
G1 X146.952 Y108.524 E4.5437
G1 X147.054 Y109.644 E4.61883
G1 X147.054 Y110.784 E4.69499
G1 X146.952 Y111.904 E4.77012
G1 X146.745 Y113.026 E4.84634
G1 X146.442 Y114.109 E4.92147
G1 X146.035 Y115.174 E4.99764
G1 X145.541 Y116.184 E5.07275
G1 X144.948 Y117.158 E5.14893
G1 X144.288 Y118.048 E5.22295
G1 X143.067 Y119.339 E5.34166
G1 X141.783 Y120.387 E5.45238
G1 X140.849 Y120.984 E5.52643
G1 X139.837 Y121.508 E5.60256
G1 X138.127 Y122.161 E5.72484
G1 X124.345 Y126.034 E6.68122
G1 X122.649 Y126.268 E6.7956
G1 X97 Y126.268 E8.50909
G1 X93.594 Y125.873 E8.73815
G1 X92.013 Y125.45 E8.84748
G1 X89.601 Y124.451 E9.02189
G1 X88.184 Y123.633 E9.13119
G1 X86.113 Y122.044 E9.30558
G1 X84.956 Y120.887 E9.41489
G1 X83.367 Y118.816 E9.58928
G1 X82.549 Y117.399 E9.69858
G1 X81.55 Y114.987 E9.87299
G1 X81.127 Y113.406 E9.98232
G1 X80.786 Y110.818 E10.15671
G1 X80.786 Y109.182 E10.266
G1 X81.127 Y106.594 E10.44039
G1 X81.55 Y105.013 E10.54972
G1 X82.512 Y102.692 E10.71757
G1 X83.367 Y101.184 E10.83338
G1 X84.956 Y99.113 E11.00777
G1 X86.071 Y97.999 E11.11306
G1 E9.11306 F2400
G92 E0
G1 X86.071 Y97.999 F7800
G92 E0
G1 X134.777 Y104.053
G1 E2 F2400
;TYPE:Support material
G1 F1800
G1 X135.362 Y104.079 E2.03912
G1 X136.432 Y104.301 E2.11212
G1 X137.473 Y104.725 E2.18721
G1 X138.421 Y105.331 E2.26238
G1 X139.243 Y106.098 E2.33749
G1 X139.912 Y107.001 E2.41257
G1 X140.407 Y108.011 E2.48771
G1 X140.71 Y109.094 E2.56284
G1 X140.812 Y110.214 E2.63797
G1 X140.71 Y111.334 E2.7131
G1 X140.406 Y112.417 E2.78825
G1 X139.912 Y113.427 E2.86336
G1 X139.252 Y114.317 E2.93738
G1 X138.843 Y114.709 E2.97523
G1 X138.407 Y115.106 E3.01462
G1 X137.473 Y115.703 E3.08867
G1 X136.432 Y116.127 E3.16376
G1 X135.331 Y116.355 E3.23887
G1 X134.207 Y116.38 E3.31398
G1 X133.098 Y116.202 E3.38902
G1 X132.039 Y115.825 E3.46412
G1 X131.066 Y115.262 E3.53922
G1 X130.21 Y114.533 E3.61433
G1 X129.502 Y113.661 E3.68937
G1 X128.989 Y112.723 E3.76079
G1 X128.619 Y111.609 E3.83921
G1 X128.467 Y110.497 E3.91419
G1 X128.467 Y109.932 E3.95194
G1 X128.619 Y108.819 E4.02698
G1 X128.989 Y107.705 E4.1054
G1 X129.502 Y106.767 E4.17682
G1 X130.21 Y105.895 E4.25186
G1 X131.066 Y105.166 E4.32697
G1 X132.039 Y104.603 E4.40207
G1 X133.098 Y104.226 E4.47717
G1 X134.178 Y104.052 E4.55025
G1 X134.697 Y104.053 E4.58492
G1 X134.697 Y104.053 F7800
G1 X139.757 Y113.196
G1 F1800
G1 X139.757 Y107.78 E4.94674
G1 X139.498 Y107.253 E4.98597
G1 X139.161 Y106.798 E5.0238
G1 X139.161 Y113.63 E5.48021
G1 X138.566 Y114.306 E5.54037
G1 X138.566 Y106.126 E6.08684
G1 X137.971 Y105.616 E6.13919
G1 X137.971 Y114.812 E6.75353
G1 X137.376 Y115.193 E6.80073
G1 X137.376 Y105.235 E7.46598
G1 X137.251 Y105.155 E7.47589
G1 X136.781 Y104.964 E7.50978
G1 X136.781 Y115.464 E8.21124
G1 X136.291 Y115.664 E8.2466
G1 X136.186 Y115.686 E8.25377
G1 X136.186 Y104.742 E8.98489
G1 X135.591 Y104.619 E9.02548
G1 X135.591 Y115.809 E9.77303
G1 X134.996 Y115.881 E9.81307
G1 X134.996 Y104.545 E10.57038
G1 X134.4 Y104.535 E10.6102
G1 X134.4 Y115.894 E11.36904
G1 X133.805 Y115.827 E11.40904
G1 X133.805 Y104.601 E12.159
G1 X133.21 Y104.698 E12.19927
G1 X133.21 Y115.73 E12.93627
G1 X132.615 Y115.518 E12.97847
G1 X132.615 Y104.91 E13.68714
G1 X132.02 Y105.171 E13.73055
G1 X132.02 Y115.257 E14.40435
G1 X131.425 Y114.913 E14.45026
G1 X131.425 Y105.515 E15.0781
G1 X130.83 Y106.001 E15.12942
G1 X130.83 Y114.427 E15.69232
G1 X130.234 Y113.798 E15.75021
G1 X130.234 Y106.63 E16.22907
G1 X129.639 Y107.52 E16.30059
G1 X129.639 Y112.908 E16.66054
G1 X129.231 Y111.996 E16.72729
G1 X129.044 Y111.25 E16.77867
G1 X129.044 Y108.244 E16.97949
G1 E14.97949 F2400
G92 E0
G1 X129.044 Y108.244 F7800
G1 X89.538 Y114.308
G1 E2 F2400
;TYPE:Perimeter
;WIDTH:0.6
G1 F1800
G1 X88.677 Y112.23 E2.15027
G1 X88.383 Y110 E2.30054
G1 X88.677 Y107.77 E2.45081
G1 X89.538 Y105.692 E2.60108
G1 X90.907 Y103.907 E2.75136
G1 X92.692 Y102.538 E2.90164
G1 X94.77 Y101.677 E3.05191
G1 X97.09 Y101.371 E3.20824
G1 X121.278 Y101.371 E4.82413
G1 X121.278 Y110 E5.40059
G1 X121.278 Y118.629 E5.97705
G1 X97.09 Y118.629 E7.59294
G1 X94.77 Y118.323 E7.74927
G1 X92.692 Y117.462 E7.89954
G1 X90.907 Y116.093 E8.04982
G1 X89.574 Y114.356 E8.19609
G1 X89.07 Y114.579 F7800
G1 F1800
G1 X88.155 Y112.37 E8.35582
G1 X87.843 Y110 E8.51551
G1 X88.155 Y107.63 E8.6752
G1 X89.07 Y105.421 E8.83493
G1 X90.525 Y103.525 E8.99459
G1 X92.421 Y102.07 E9.15425
G1 X94.63 Y101.155 E9.31398
G1 X97.055 Y100.836 E9.47738
G1 X121.814 Y100.836 E11.13141
G1 X121.814 Y110 E11.74361
G1 X121.814 Y119.164 E12.35581
G1 X97.055 Y119.164 E14.00984
G1 X94.63 Y118.845 E14.17324
G1 X92.421 Y117.93 E14.33297
G1 X90.525 Y116.475 E14.49263
G1 X89.106 Y114.626 E14.64834
G1 X89.106 Y114.626 F7800
G1 X88.602 Y114.849
;TYPE:External perimeter
G1 F1800
G1 X87.633 Y112.51 E14.81748
G1 X87.303 Y110 E14.9866
G1 X87.633 Y107.49 E15.15572
G1 X88.602 Y105.151 E15.32486
G1 X90.143 Y103.143 E15.49395
G1 X92.151 Y101.602 E15.66304
G1 X94.49 Y100.633 E15.83218
G1 X97.02 Y100.3 E16.00266
G1 X122.349 Y100.3 E17.69477
G1 X122.349 Y110 E18.34278
G1 X122.349 Y119.7 E18.99079
G1 X97.02 Y119.7 E20.6829
G1 X94.49 Y119.367 E20.85338
G1 X92.151 Y118.398 E21.02252
G1 X90.143 Y116.857 E21.19161
G1 X88.638 Y114.896 E21.35675
G1 X88.473 Y114.532 F7800
G1 E19.35675 F2400
G92 E0
G1 X120.016 Y101.532 F7800
G1 E2 F2400
;TYPE:Solid infill
;WIDTH:0.608536
G1 F1800
G1 X120.876 Y102.392 E2.08255
G1 X120.876 Y103.161 E2.13474
G1 X119.488 Y101.773 E2.26796
G1 X118.718 Y101.773 E2.32022
G1 X120.876 Y103.931 E2.52735
G1 X120.876 Y104.7 E2.57954
G1 X117.949 Y101.773 E2.86048
G1 X117.179 Y101.773 E2.91274
G1 X120.876 Y105.47 E3.26759
G1 X120.876 Y106.239 E3.31978
G1 X116.41 Y101.773 E3.74844
G1 X115.64 Y101.773 E3.8007
G1 X120.876 Y107.009 E4.30327
G1 X120.876 Y107.779 E4.35553
G1 X114.871 Y101.773 E4.93195
G1 X114.101 Y101.773 E4.98421
G1 X120.876 Y108.548 E5.63449
G1 X120.876 Y109.318 E5.68675
G1 X113.331 Y101.773 E6.41094
G1 X112.562 Y101.773 E6.46313
G1 X120.876 Y110.087 E7.26113
G1 X120.876 Y110.857 E7.31339
G1 X111.792 Y101.773 E8.1853
G1 X111.023 Y101.773 E8.23749
G1 X120.876 Y111.626 E9.18321
G1 X120.876 Y112.396 E9.23547
G1 X110.253 Y101.773 E10.25509
G1 X109.484 Y101.773 E10.30728
G1 X120.876 Y113.165 E11.40071
G1 X120.876 Y113.935 E11.45297
G1 X108.714 Y101.773 E12.62031
G1 X107.945 Y101.773 E12.6725
G1 X120.876 Y114.705 E13.9137
G1 X120.876 Y115.474 E13.96589
G1 X107.175 Y101.773 E15.28095
G1 X106.406 Y101.773 E15.33314
G1 X120.876 Y116.244 E16.72206
G1 X120.876 Y117.013 E16.77425
G1 X105.636 Y101.773 E18.23703
G1 X104.866 Y101.773 E18.28929
G1 X120.876 Y117.783 E19.82597
G1 X120.876 Y118.227 E19.8561
G1 X120.551 Y118.227 E19.87816
G1 X104.097 Y101.773 E21.45746
G1 X103.327 Y101.773 E21.50972
G1 X119.781 Y118.227 E23.08902
G1 X119.012 Y118.227 E23.14121
G1 X102.558 Y101.773 E24.72051
G1 X101.788 Y101.773 E24.77277
G1 X118.242 Y118.227 E26.35207
G1 X117.473 Y118.227 E26.40426
G1 X101.019 Y101.773 E27.98356
G1 X100.249 Y101.773 E28.03582
G1 X116.703 Y118.227 E29.61512
G1 X115.934 Y118.227 E29.66731
G1 X99.48 Y101.773 E31.24661
G1 X98.71 Y101.773 E31.29887
G1 X115.164 Y118.227 E32.87817
G1 X114.395 Y118.227 E32.93036
G1 X97.94 Y101.773 E34.50971
G1 X97.171 Y101.773 E34.5619
G1 X113.625 Y118.227 E36.1412
G1 X112.855 Y118.227 E36.19346
G1 X96.485 Y101.856 E37.76474
G1 X95.804 Y101.946 E37.81136
G1 X112.086 Y118.227 E39.3741
G1 X111.316 Y118.227 E39.42636
G1 X95.124 Y102.035 E40.98051
G1 X94.875 Y102.068 E40.99756
G1 X94.53 Y102.211 E41.02291
G1 X110.547 Y118.227 E42.56022
G1 X109.777 Y118.227 E42.61248
G1 X93.986 Y102.436 E44.12814
G1 X93.442 Y102.661 E44.16809
G1 X109.008 Y118.227 E45.66216
G1 X108.238 Y118.227 E45.71442
G1 X92.898 Y102.887 E47.18679
G1 X92.462 Y103.22 E47.22402
G1 X107.469 Y118.227 E48.66443
G1 X106.699 Y118.227 E48.71669
G1 X92.026 Y103.554 E50.12504
G1 X91.591 Y103.888 E50.16226
G1 X105.929 Y118.227 E51.53851
G1 X105.16 Y118.227 E51.5907
G1 X91.164 Y104.231 E52.93407
G1 X90.83 Y104.667 E52.97135
G1 X104.39 Y118.227 E54.27288
G1 X103.621 Y118.227 E54.32507
G1 X90.496 Y105.102 E55.58484
G1 X90.162 Y105.538 E55.62212
G1 X102.851 Y118.227 E56.84004
G1 X102.082 Y118.227 E56.89223
G1 X89.848 Y105.993 E58.06648
G1 X89.622 Y106.537 E58.10646
G1 X101.312 Y118.227 E59.2285
G1 X100.543 Y118.227 E59.28069
G1 X89.397 Y107.081 E60.35051
G1 X89.171 Y107.625 E60.39049
G1 X99.773 Y118.227 E61.4081
G1 X99.004 Y118.227 E61.46029
G1 X89.02 Y108.243 E62.41858
G1 X88.93 Y108.923 E62.46513
G1 X98.234 Y118.227 E63.35815
G1 X97.464 Y118.227 E63.41041
G1 X88.84 Y109.603 E64.23816
G1 X88.788 Y110 E64.26533
G1 X88.837 Y110.369 E64.29059
G1 X96.631 Y118.163 E65.03868
G1 X95.745 Y118.046 E65.09933
G1 X88.954 Y111.255 E65.75115
G1 X89.078 Y112.149 E65.81241
G1 X94.851 Y117.922 E66.36652
G1 X93.537 Y117.378 E66.46304
G1 X89.622 Y113.463 E66.83881
G1 X89.888 Y114.106 E66.88604
G1 X91.184 Y115.795 E67.03053
G1 X92.511 Y117.121 E67.15785
;LAYER_CHANGE
;Z:0.6
;HEIGHT:0.3
G1 Z.6 F7800
G1 E65.15785 F2400
G92 E0
G1 X92.511 Y117.121 Z.6 F7800
G1 X132.988 Y108.452
G1 E2 F2400
;TYPE:Support material
;WIDTH:0.4
G1 F3600
G1 X133.576 Y108.038 E2.0301
G1 X134.447 Y107.803 E2.06786
G1 X134.447 Y107.403 E2.0846
G1 X135.421 Y107.506 E2.1256
G1 X135.902 Y107.696 E2.14725
G1 X136.722 Y108.321 E2.19041
G1 X137.263 Y109.2 E2.23362
G1 X137.452 Y110.214 E2.2768
G1 X137.263 Y111.228 E2.31998
G1 X137.033 Y111.692 E2.34166
G1 X136.342 Y112.457 E2.38481
G1 X135.42 Y112.922 E2.42804
G1 X134.912 Y113.021 E2.44971
G1 X133.885 Y112.934 E2.49285
G1 X133.4 Y112.752 E2.51453
G1 X132.571 Y112.14 E2.55766
G1 X132.017 Y111.27 E2.60084
G1 X131.869 Y110.779 E2.62231
G1 X131.813 Y110.164 E2.64816
G1 X132.017 Y109.158 E2.69113
G1 X132.254 Y108.698 E2.71279
G1 X132.571 Y108.288 E2.73448
G1 X133.4 Y107.676 E2.77761
G1 X134.397 Y107.403 E2.82088
G1 X134.397 Y107.403 F7800
G1 X134.865 Y107.003
G1 F3600
G1 X135.533 Y107.121 E2.84928
G1 X136.083 Y107.337 E2.87402
G1 X136.585 Y107.651 E2.89881
G1 X137.02 Y108.052 E2.92358
G1 X137.375 Y108.525 E2.94834
G1 X137.638 Y109.055 E2.97311
G1 X137.799 Y109.625 E2.9979
G1 X137.853 Y110.214 E3.02266
G1 X137.799 Y110.803 E3.04742
G1 X137.638 Y111.373 E3.07221
G1 X137.375 Y111.903 E3.09698
G1 X136.962 Y112.432 E3.12507
G1 X136.083 Y113.091 E3.17106
G1 X135.533 Y113.308 E3.19581
G1 X134.952 Y113.42 E3.22058
G1 X134.361 Y113.425 E3.24532
G1 X133.778 Y113.321 E3.27011
G1 X133.225 Y113.113 E3.29484
G1 X132.719 Y112.807 E3.31959
G1 X132.277 Y112.414 E3.34435
G1 X131.915 Y111.946 E3.36912
G1 X131.644 Y111.421 E3.39385
G1 X131.475 Y110.856 E3.41854
G1 X131.411 Y110.161 E3.44776
G1 X131.474 Y109.574 E3.47247
G1 X131.644 Y109.007 E3.49725
G1 X131.915 Y108.482 E3.52198
G1 X132.277 Y108.014 E3.54675
G1 X132.719 Y107.621 E3.57151
G1 X133.225 Y107.315 E3.59626
G1 X133.779 Y107.107 E3.62103
G1 X134.815 Y107.003 E3.66462
G1 E1.66462 F2400
G92 E0
G1 X134.815 Y107.003 F7800
G1 X89.161 Y114.378
G1 E2 F2400
;TYPE:Perimeter
;WIDTH:0.45
G1 F3600
G1 X88.311 Y112.328 E2.10674
G1 X88.005 Y110 E2.21967
G1 X88.311 Y107.672 E2.3326
G1 X89.21 Y105.502 E2.44557
G1 X90.639 Y103.639 E2.5585
G1 X92.502 Y102.21 E2.67143
G1 X94.672 Y101.311 E2.7844
G1 X97.065 Y100.996 E2.90049
G1 X122.324 Y100.996 E4.11536
G1 X122.324 Y110 E4.54842
G1 X122.324 Y119.004 E4.98148
G1 X97.065 Y119.004 E6.19635
G1 X94.672 Y118.689 E6.31244
G1 X92.502 Y117.79 E6.42541
G1 X90.639 Y116.361 E6.53834
G1 X89.21 Y114.498 E6.65127
G1 X89.184 Y114.434 E6.65459
G1 X89.184 Y114.434 F7800
G1 X88.843 Y114.619
G1 F3600
G1 X87.936 Y112.429 E6.7686
G1 X87.616 Y110 E6.88644
G1 X87.936 Y107.571 E7.00428
G1 X88.873 Y105.308 E7.12208
G1 X90.364 Y103.364 E7.23991
G1 X92.308 Y101.873 E7.35774
G1 X94.571 Y100.936 E7.47554
G1 X97.04 Y100.611 E7.59531
G1 X122.709 Y100.611 E8.8299
G1 X122.709 Y110 E9.28148
G1 X122.709 Y119.389 E9.73306
G1 X97.04 Y119.389 E10.96765
G1 X94.571 Y119.064 E11.08742
G1 X92.308 Y118.127 E11.20522
G1 X90.364 Y116.636 E11.32305
G1 X88.873 Y114.692 E11.44088
G1 X88.866 Y114.674 E11.44181
G1 X88.866 Y114.674 F7800
G1 X88.525 Y114.86
;TYPE:External perimeter
G1 F1800
G1 X87.56 Y112.529 E11.56315
G1 X87.227 Y110 E11.68584
G1 X87.56 Y107.471 E11.80853
G1 X88.536 Y105.113 E11.93127
G1 X90.089 Y103.089 E12.05397
G1 X92.113 Y101.536 E12.17667
G1 X94.471 Y100.56 E12.29941
G1 X97.015 Y100.225 E12.42282
G1 X122.849 Y100.225 E13.66535
;TYPE:Overhang perimeter
;WIDTH:0.4
;HEIGHT:0.4
G1 F3600
G1 X123.095 Y100.225 E13.6782
G1 X123.095 Y110 E14.18889
G1 X123.095 Y119.775 E14.69958
G1 X122.849 Y119.775 E14.71243
;TYPE:External perimeter
;WIDTH:0.45
;HEIGHT:0.3
G1 F1800
G1 X97.015 Y119.775 E15.95496
G1 X94.471 Y119.44 E16.07837
G1 X92.113 Y118.464 E16.20111
G1 X90.089 Y116.911 E16.32381
G1 X88.555 Y114.911 E16.44504
G1 X88.396 Y114.544 F7800
G1 E14.44504 F2400
G92 E0
G1 X92.621 Y102.416 F7800
G1 E2 F2400
;TYPE:Solid infill
;WIDTH:0.404381
G1 F1200
G1 X92.28 Y102.715 E2.01923
;WIDTH:0.45
G1 X92.008 Y102.954 E2.03664
G1 X89.954 Y105.008 E2.17635
G1 X89.715 Y105.28 E2.19376
;WIDTH:0.404381
G1 X89.417 Y105.62 E2.21293
G1 X89.417 Y105.62 F7800
G1 X89.033 Y106.627
G1 F1200
G1 X88.992 Y106.638 E2.21473
G1 X88.973 Y106.567 E2.21785
G1 X89.044 Y106.586 E2.22097
;WIDTH:0.45
G1 X89.182 Y106.325 E2.23517
G1 X93.325 Y102.182 E2.51697
G1 X93.625 Y102.03 E2.53315
;WIDTH:0.404381
G1 X93.584 Y102.041 E2.53495
G1 X93.565 Y101.97 E2.53807
G1 X93.636 Y101.989 E2.54119
;WIDTH:0.45
G1 X94.256 Y101.797 E2.57241
G1 X88.797 Y107.256 E2.94372
G1 X88.656 Y107.517 E2.95799
;WIDTH:0.404381
G1 X88.585 Y107.498 E2.96111
G1 X88.604 Y107.569 E2.96423
G1 X88.645 Y107.558 E2.96603
;WIDTH:0.45
G1 X88.554 Y108.044 E2.98981
G1 X95.044 Y101.554 E3.43125
G1 X95.672 Y101.471 E3.46172
G1 X88.471 Y108.672 E3.95152
G1 X88.389 Y109.3 E3.98198
G1 X96.3 Y101.389 E4.52008
G1 X96.928 Y101.306 E4.55055
G1 X88.306 Y109.928 E5.13701
G1 X88.353 Y110.427 E5.16112
G1 X97.494 Y101.285 E5.78291
G1 X98.039 Y101.285 E5.80912
G1 X88.416 Y110.908 E6.46366
G1 X88.48 Y111.39 E6.48705
G1 X98.584 Y101.285 E7.17435
G1 X99.13 Y101.285 E7.20061
G1 X88.543 Y111.872 E7.92072
G1 X88.627 Y112.334 E7.9433
G1 X99.675 Y101.285 E8.69481
G1 X100.22 Y101.285 E8.72102
G1 X88.786 Y112.719 E9.49875
G1 X88.946 Y113.105 E9.51885
G1 X100.766 Y101.285 E10.32283
G1 X101.311 Y101.285 E10.34904
G1 X89.106 Y113.491 E11.17924
G1 X89.266 Y113.876 E11.19929
G1 X101.857 Y101.285 E12.05571
G1 X102.402 Y101.285 E12.08192
G1 X89.425 Y114.262 E12.9646
G1 X89.644 Y114.588 E12.98349
G1 X102.947 Y101.285 E13.88834
G1 X103.493 Y101.285 E13.9146
G1 X89.881 Y114.897 E14.84047
G1 X90.118 Y115.206 E14.8592
G1 X104.038 Y101.285 E15.80606
G1 X104.583 Y101.285 E15.83227
G1 X90.355 Y115.514 E16.80007
G1 X90.591 Y115.823 E16.81877
G1 X105.129 Y101.285 E17.80763
G1 X105.674 Y101.285 E17.83384
