; generated by PrusaSlicer 2.8.1+linux-x64-GTK3 on 2024-10-07 at 07:22:30 UTC

; 

; external perimeters extrusion width = 0.45mm
; perimeters extrusion width = 0.45mm
; infill extrusion width = 0.45mm
; solid infill extrusion width = 0.45mm
; top infill extrusion width = 0.40mm
; support material extrusion width = 0.40mm
; first layer extrusion width = 0.60mm

M190 S60 ; set bed temperature and wait for it to be reached
M104 S200 ; set temperature
;TYPE:Custom
G28 ; home all axes
G1 Z5 F5000 ; lift nozzle
M109 S200 ; set temperature and wait for it to be reached
G21 ; set units to millimeters
G90 ; use absolute coordinates
M82 ; use absolute distances for extrusion
G92 E0
; Filament gcode
M107
;LAYER_CHANGE
;Z:0.3
;HEIGHT:0.3
G1 E-2 F2400
G1 Z.3 F7800
G1 X81.452 Y98.295
G1 E0 F2400
;TYPE:Skirt/Brim
;WIDTH:0.6
G1 F1800
G1 X83.424 Y96.782 E.16605
G1 X84.841 Y95.964 E.27535
G1 X87.137 Y95.013 E.44137
G1 X88.374 Y94.644 E.52761
G1 X130.008 Y86.796 E3.35797
G1 X131.162 Y86.69 E3.43539
G1 X132.318 Y86.691 E3.51262
G1 X133.471 Y86.799 E3.58998
G1 X135.507 Y87.259 E3.72942
G1 X141.797 Y89.682 E4.17973
G1 X143.677 Y90.661 E4.32133
G1 X145.42 Y92.004 E4.46833
G1 X146.263 Y92.869 E4.54902
G1 X146.959 Y93.736 E4.62329
G1 X147.621 Y94.747 E4.70402
G1 X148.138 Y95.732 E4.77834
G1 X148.594 Y96.851 E4.85906
G1 X148.912 Y97.917 E4.93338
G1 X149.784 Y102.959 E5.27521
G1 X149.945 Y104.481 E5.37746
G1 X149.952 Y105.584 E5.45115
G1 X148.869 Y118.911 E6.3444
G1 X148.766 Y120.031 E6.41954
G1 X148.56 Y121.153 E6.49575
G1 X148.256 Y122.236 E6.5709
G1 X147.85 Y123.301 E6.64704
G1 X147.355 Y124.311 E6.72218
G1 X146.762 Y125.286 E6.79842
G1 X146.093 Y126.189 E6.8735
G1 X145.333 Y127.04 E6.94972
G1 X144.511 Y127.807 E7.02483
G1 X143.61 Y128.506 E7.10101
G1 X142.682 Y129.099 E7.17458
G1 X141.238 Y129.809 E7.28208
G1 X139.701 Y130.35 E7.39093
G1 X116.242 Y136.038 E9.00353
G1 X115.14 Y136.27 E9.07876
G1 X114.006 Y136.403 E9.15504
G1 X112.88 Y136.431 E9.23029
G1 X111.74 Y136.356 E9.30661
G1 X110.627 Y136.179 E9.3819
G1 X109.519 Y135.898 E9.45826
G1 X107.799 Y135.246 E9.58114
G1 X84.492 Y123.879 E11.31348
G1 X83.424 Y123.218 E11.39739
G1 X81.452 Y121.705 E11.56344
G1 X80.295 Y120.548 E11.67275
G1 X78.782 Y118.576 E11.8388
G1 X77.964 Y117.159 E11.9481
G1 X77.013 Y114.863 E12.11412
G1 X76.589 Y113.282 E12.22347
G1 X76.265 Y110.818 E12.3895
G1 X76.265 Y109.182 E12.49879
G1 X76.589 Y106.718 E12.66482
G1 X77.013 Y105.137 E12.77417
G1 X77.964 Y102.841 E12.94019
G1 X78.782 Y101.424 E13.04949
G1 X80.295 Y99.452 E13.21554
G1 X81.41 Y98.338 E13.32083
G1 E11.32083 F2400
G92 E0
G1 X81.41 Y98.338 F7800
G92 E0
G1 X132.312 Y92.959
G1 E2 F2400
;TYPE:Support material
G1 F1800
G1 X133.406 Y93.165 E2.07437
G1 X134.539 Y93.6 E2.15545
G1 X135.536 Y94.234 E2.23438
G1 X136.452 Y95.121 E2.31956
G1 X137.395 Y95.054 E2.38272
G1 X138.498 Y95.189 E2.45696
G1 X139.533 Y95.527 E2.5297
G1 X140.542 Y96.088 E2.60682
G1 X141.375 Y96.792 E2.67968
G1 X142.071 Y97.659 E2.75395
G1 X142.588 Y98.644 E2.82827
G1 X142.906 Y99.709 E2.90252
G1 X143.013 Y100.816 E2.97682
G1 X142.856 Y102.091 E3.06264
G1 X143.281 Y102.901 E3.12375
G1 X143.598 Y103.965 E3.19792
G1 X143.705 Y105.076 E3.27248
G1 X143.598 Y106.181 E3.34665
G1 X143.282 Y107.238 E3.42035
G1 X142.755 Y108.241 E3.49604
G1 X142.013 Y109.165 E3.57521
G1 X142.377 Y111.771 E3.75099
G1 X142.169 Y112.824 E3.8227
G1 X141.77 Y113.897 E3.89918
G1 X141.352 Y114.624 E3.9552
G1 X141.726 Y115.128 E3.99713
G1 X142.221 Y116.138 E4.07227
G1 X142.524 Y117.221 E4.1474
G1 X142.627 Y118.341 E4.22254
G1 X142.525 Y119.461 E4.29767
G1 X142.221 Y120.544 E4.37282
G1 X141.726 Y121.554 E4.44796
G1 X141.057 Y122.458 E4.52309
G1 X140.235 Y123.225 E4.5982
G1 X139.307 Y123.818 E4.67177
G1 X138.775 Y124.045 E4.71041
G1 X138.223 Y124.259 E4.74996
G1 X137.144 Y124.483 E4.82358
G1 X136.02 Y124.508 E4.89869
G1 X134.948 Y124.334 E4.97124
G1 X133.858 Y123.947 E5.04851
G1 X133.298 Y123.646 E5.09098
G1 X132.322 Y123.795 E5.15694
G1 X131.246 Y123.772 E5.22884
G1 X130.208 Y123.572 E5.29946
G1 X129.249 Y123.215 E5.36782
G1 X128.467 Y122.782 E5.42754
G1 X127.525 Y122.05 E5.50724
G1 X126.864 Y121.265 E5.5758
G1 X126.122 Y120.046 E5.67114
G1 X128.217 Y120.046 E5.8111
G1 X128.525 Y119.738 E5.8402
G1 X128.525 Y105.232 E6.80928
G1 X129.283 Y104.878 E6.86517
G1 X128.525 Y104.408 E6.92475
G1 X128.525 Y100.262 E7.20173
G1 X128.217 Y99.954 E7.23083
G1 X125.555 Y99.954 E7.40867
G1 X125.49 Y99.138 E7.46336
G1 X125.588 Y98.038 E7.53714
G1 X125.894 Y96.941 E7.61322
G1 X126.394 Y95.924 E7.68893
G1 X126.996 Y95.1 E7.7571
G1 X127.93 Y94.214 E7.8431
G1 X128.907 Y93.607 E7.91994
G1 X130.062 Y93.162 E8.00263
G1 X131.156 Y92.958 E8.07697
G1 X132.232 Y92.959 E8.14885
G1 X132.232 Y92.959 F7800
G1 X142.732 Y107.773
G1 F1800
G1 X142.732 Y102.893 E8.47486
G1 X142.338 Y102.141 E8.53158
G1 X142.529 Y100.816 E8.62101
G1 X142.43 Y99.802 E8.68907
G1 X142.137 Y98.823 E8.75734
G1 X142.137 Y108.626 E9.41223
G1 E7.41223 F2400
G92 E0
G1 X142.137 Y108.626 F7800
G1 X142.137 Y119.951
G1 E2 F2400
G1 F1800
G1 X142.137 Y118.279 E2.1117
G1 X142.048 Y117.309 E2.17677
G1 X141.769 Y116.311 E2.246
G1 X141.542 Y115.848 E2.28045
G1 X141.542 Y120.835 E2.61361
G1 X141.313 Y121.303 E2.64842
G1 X140.947 Y121.796 E2.68944
G1 X140.947 Y97.061 E4.34187
G1 X140.352 Y96.559 E4.39388
G1 X140.352 Y122.456 E6.12394
G1 X139.757 Y122.959 E6.17599
G1 X139.757 Y96.193 E7.9641
G1 X139.161 Y95.913 E8.00809
G1 X139.161 Y123.339 E9.8403
G1 X138.566 Y123.609 E9.88395
G1 X138.566 Y95.719 E11.74715
G1 X137.971 Y95.61 E11.78756
G1 X137.971 Y123.819 E13.67207
G1 X137.376 Y123.942 E13.71266
G1 X137.376 Y95.539 E15.61013
G1 X136.781 Y95.581 E15.64998
G1 X136.781 Y124.009 E17.54912
G1 X136.186 Y124.022 E17.58888
G1 X136.186 Y95.575 E19.48929
G1 X135.591 Y94.939 E19.54747
G1 X135.591 Y123.95 E21.48556
G1 X134.996 Y123.843 E21.52595
G1 X134.996 Y94.461 E23.48883
G1 X134.4 Y94.083 E23.53598
G1 X134.4 Y123.641 E25.51061
G1 X133.805 Y123.372 E25.55423
G1 X133.805 Y93.827 E27.528
G1 X133.21 Y93.619 E27.57011
G1 X133.21 Y123.172 E29.54441
G1 X132.615 Y123.262 E29.58461
G1 X132.615 Y93.507 E31.57241
G1 X132.02 Y93.441 E31.6124
G1 X132.02 Y123.306 E33.60754
G1 X131.425 Y123.294 E33.6473
G1 X131.425 Y93.44 E35.64171
G1 X130.83 Y93.509 E35.68173
G1 X130.83 Y123.201 E37.66532
G1 X130.234 Y123.068 E37.70612
G1 X130.234 Y93.62 E39.67341
G1 X129.639 Y93.824 E39.71543
G1 X129.639 Y104.532 E40.43078
G1 X129.044 Y104.162 E40.47759
G1 X129.044 Y94.089 E41.15052
G1 X128.449 Y94.459 E41.19733
G1 X128.449 Y99.504 E41.53436
G1 X127.854 Y99.472 E41.57417
G1 X127.854 Y94.95 E41.87626
G1 X127.259 Y95.557 E41.93304
G1 X127.259 Y99.472 E42.19458
G1 X126.664 Y99.472 E42.23433
G1 X126.664 Y96.468 E42.43501
G1 X126.346 Y97.114 E42.48311
G1 X126.069 Y98.11 E42.55217
G1 X126.069 Y99.713 E42.65926
G1 E40.65926 F2400
G92 E0
G1 X126.069 Y99.713 F7800
G1 X141.542 Y113.81
G1 E2 F2400
G1 F1800
G1 X141.542 Y97.385 E3.09728
G1 X129.639 Y123.104 F7800
G1 F1800
G1 X129.639 Y105.244 E4.29042
G1 X129.044 Y105.522 E4.33429
G1 X129.044 Y122.551 E5.47192
G1 X128.449 Y122.158 E5.51956
G1 X128.449 Y120.496 E5.63059
G1 X127.854 Y120.528 E5.6704
G1 X127.854 Y121.692 E5.74816
G1 X127.259 Y120.986 E5.80984
G1 X127.259 Y120.287 E5.85654
G1 E3.85654 F2400
G92 E0
G1 X127.259 Y120.287 F7800
G1 X118.398 Y120.765
G1 E2 F2400
G1 F1800
G1 X118.897 Y121.774 E2.0752
G1 X119.205 Y122.856 E2.15035
G1 X119.311 Y123.977 E2.22557
G1 X119.213 Y125.097 E2.30068
G1 X118.913 Y126.181 E2.37582
G1 X118.422 Y127.193 E2.45096
G1 X117.763 Y128.088 E2.52521
G1 X116.922 Y128.878 E2.60229
G1 X115.99 Y129.478 E2.67634
G1 X114.95 Y129.905 E2.75145
G1 X113.848 Y130.137 E2.82668
G1 X112.723 Y130.166 E2.90186
G1 X111.61 Y129.989 E2.97715
G1 X110.546 Y129.613 E3.05254
G1 X109.568 Y129.049 E3.12796
G1 X108.709 Y128.316 E3.2034
G1 X108.029 Y127.479 E3.27544
G1 X107.463 Y126.442 E3.35436
G1 X107.263 Y125.906 E3.39258
G1 X107.014 Y124.817 E3.46721
G1 X106.966 Y123.701 E3.54183
G1 X107.129 Y122.547 E3.61969
G1 X107.459 Y121.544 E3.69023
G1 X107.993 Y120.563 E3.76485
G1 X108.411 Y120.046 E3.80926
G1 X117.861 Y120.046 E4.44057
G1 X118.35 Y120.701 E4.49518
G1 X118.35 Y120.701 F7800
G1 X118.332 Y126.826
G1 F1800
G1 X118.332 Y121.718 E4.83642
G1 X117.737 Y120.685 E4.91606
G1 X117.737 Y127.311 E5.35871
G1 X117.142 Y128.016 E5.42034
G1 X117.142 Y120.528 E5.92058
G1 X116.546 Y120.528 E5.9604
G1 X116.546 Y128.546 E6.49605
G1 X115.951 Y128.929 E6.54332
G1 X115.951 Y120.528 E7.10455
G1 X115.356 Y120.528 E7.1443
G1 X115.356 Y129.217 E7.72477
G1 X114.761 Y129.452 E7.76751
G1 X114.761 Y120.528 E8.36368
G1 X114.166 Y120.528 E8.40343
G1 X114.166 Y129.578 E9.00802
G1 X113.571 Y129.662 E9.04816
G1 X113.571 Y120.528 E9.65836
G1 X112.976 Y120.528 E9.69811
G1 X112.976 Y129.677 E10.30931
G1 X112.381 Y129.623 E10.34922
G1 X112.381 Y120.528 E10.95682
G1 X111.785 Y120.528 E10.99664
G1 X111.785 Y129.529 E11.59796
G1 X111.19 Y129.329 E11.63989
G1 X111.19 Y120.528 E12.22784
G1 X110.595 Y120.528 E12.26759
G1 X110.595 Y129.085 E12.83924
G1 X110 Y128.742 E12.88512
G1 X110 Y120.528 E13.43386
G1 X109.405 Y120.528 E13.47361
G1 X109.405 Y128.276 E13.99122
G1 X108.81 Y127.676 E14.04767
G1 X108.81 Y120.528 E14.5252
G1 X108.641 Y120.528 E14.53649
G1 X108.215 Y121.164 E14.58763
G1 X108.215 Y126.848 E14.96735
G1 X107.906 Y126.251 E15.01226
G1 X107.619 Y125.39 E15.07289
G1 X107.619 Y121.827 E15.31092
G1 E13.31092 F2400
G92 E0
G1 X107.619 Y121.827 F7800
G1 X126.629 Y101.85
G1 E2 F2400
;TYPE:Perimeter
;WIDTH:0.6
G1 F1800
G1 X126.629 Y110 E2.54446
G1 X126.629 Y118.15 E3.08892
G1 X92.09 Y118.15 E5.39631
G1 X89.894 Y117.861 E5.54428
G1 X87.931 Y117.048 E5.68622
G1 X86.246 Y115.754 E5.82815
G1 X84.952 Y114.069 E5.97008
G1 X84.139 Y112.106 E6.11202
G1 X83.862 Y110 E6.25392
G1 X84.139 Y107.894 E6.39582
G1 X84.952 Y105.931 E6.53776
G1 X86.246 Y104.246 E6.67969
G1 X87.931 Y102.952 E6.82162
G1 X89.894 Y102.139 E6.96356
G1 X92.09 Y101.85 E7.11153
G1 X126.569 Y101.85 E9.41491
G1 X126.569 Y101.85 F7800
G1 X127.164 Y101.315
G1 F1800
G1 X127.164 Y110 E9.99511
G1 X127.164 Y118.685 E10.57531
G1 X92.055 Y118.685 E12.92078
G1 X89.754 Y118.382 E13.07583
G1 X87.661 Y117.515 E13.22718
G1 X85.864 Y116.136 E13.3785
G1 X84.485 Y114.339 E13.52982
G1 X83.618 Y112.246 E13.68117
G1 X83.322 Y110 E13.83251
G1 X83.618 Y107.754 E13.98385
G1 X84.485 Y105.661 E14.1352
G1 X85.864 Y103.864 E14.28652
G1 X87.661 Y102.485 E14.43784
G1 X89.754 Y101.618 E14.58919
G1 X92.055 Y101.315 E14.74424
G1 X127.104 Y101.315 E17.0857
G1 X127.104 Y101.315 F7800
G1 X127.7 Y100.779
;TYPE:External perimeter
G1 F1800
G1 X127.7 Y110 E17.70171
G1 X127.7 Y119.221 E18.31772
G1 X92.02 Y119.221 E20.70133
G1 X89.614 Y118.904 E20.86345
G1 X87.391 Y117.983 E21.0242
G1 X85.482 Y116.518 E21.18496
G1 X84.017 Y114.609 E21.34572
G1 X83.096 Y112.386 E21.50647
G1 X82.782 Y110 E21.66724
G1 X83.096 Y107.614 E21.82801
G1 X84.017 Y105.391 E21.98876
G1 X85.482 Y103.482 E22.14952
G1 X87.391 Y102.017 E22.31028
G1 X89.614 Y101.096 E22.47103
G1 X92.02 Y100.779 E22.63315
G1 X127.64 Y100.779 E25.01276
G1 X127.699 Y101.175 F7800
G1 E23.01276 F2400
G92 E0
G1 X126.468 Y103.095 F7800
G1 E2 F2400
;TYPE:Solid infill
;WIDTH:0.600469
G1 F1800
G1 X125.625 Y102.252 E2.07971
G1 X124.867 Y102.252 E2.13039
G1 X126.227 Y103.612 E2.25899
G1 X126.227 Y104.37 E2.30967
G1 X124.109 Y102.252 E2.50995
G1 X123.351 Y102.252 E2.56063
G1 X126.227 Y105.128 E2.83258
G1 X126.227 Y105.886 E2.88326
G1 X122.593 Y102.252 E3.22689
G1 X121.835 Y102.252 E3.27757
G1 X126.227 Y106.644 E3.69288
G1 X126.227 Y107.403 E3.74363
G1 X121.077 Y102.252 E4.23066
G1 X120.318 Y102.252 E4.28141
G1 X126.227 Y108.161 E4.84016
G1 X126.227 Y108.919 E4.89084
G1 X119.56 Y102.252 E5.52127
G1 X118.802 Y102.252 E5.57195
G1 X126.227 Y109.677 E6.27406
G1 X126.227 Y110.435 E6.32474
G1 X118.044 Y102.252 E7.09852
G1 X117.286 Y102.252 E7.1492
G1 X126.227 Y111.193 E7.99466
G1 X126.227 Y111.951 E8.04534
G1 X116.528 Y102.252 E8.96248
G1 X115.77 Y102.252 E9.01316
G1 X126.227 Y112.71 E10.00202
G1 X126.227 Y113.468 E10.0527
G1 X115.011 Y102.252 E11.11328
G1 X114.253 Y102.252 E11.16396
G1 X126.227 Y114.226 E12.29622
G1 X126.227 Y114.984 E12.3469
G1 X113.495 Y102.252 E13.55083
G1 X112.737 Y102.252 E13.60151
G1 X126.227 Y115.742 E14.87712
G1 X126.227 Y116.5 E14.9278
G1 X111.979 Y102.252 E16.27509
G1 X111.221 Y102.252 E16.32577
G1 X126.227 Y117.258 E17.74473
G1 X126.227 Y117.748 E17.77749
G1 X125.958 Y117.748 E17.79548
G1 X110.463 Y102.252 E19.26073
G1 X109.704 Y102.252 E19.31148
G1 X125.2 Y117.748 E20.77678
G1 X124.442 Y117.748 E20.82746
G1 X108.946 Y102.252 E22.29276
G1 X108.188 Y102.252 E22.34344
G1 X123.684 Y117.748 E23.80874
G1 X122.926 Y117.748 E23.85942
G1 X107.43 Y102.252 E25.32472
G1 X106.672 Y102.252 E25.3754
G1 X122.168 Y117.748 E26.8407
G1 X121.41 Y117.748 E26.89138
G1 X105.914 Y102.252 E28.35668
G1 X105.156 Y102.252 E28.40736
G1 X120.651 Y117.748 E29.87261
G1 X119.893 Y117.748 E29.92329
G1 X104.397 Y102.252 E31.38859
G1 X103.639 Y102.252 E31.43927
G1 X119.135 Y117.748 E32.90457
G1 X118.377 Y117.748 E32.95525
G1 X102.881 Y102.252 E34.42055
G1 X102.123 Y102.252 E34.47123
G1 X117.619 Y117.748 E35.93653
G1 X116.861 Y117.748 E35.98721
G1 X101.365 Y102.252 E37.45251
G1 X100.607 Y102.252 E37.50319
G1 X116.103 Y117.748 E38.96849
G1 X115.344 Y117.748 E39.01924
G1 X99.849 Y102.252 E40.48449
G1 X99.09 Y102.252 E40.53524
G1 X114.586 Y117.748 E42.00054
G1 X113.828 Y117.748 E42.05122
G1 X98.332 Y102.252 E43.51652
G1 X97.574 Y102.252 E43.5672
G1 X113.07 Y117.748 E45.0325
G1 X112.312 Y117.748 E45.08318
G1 X96.816 Y102.252 E46.54848
G1 X96.058 Y102.252 E46.59916
G1 X111.554 Y117.748 E48.06446
G1 X110.796 Y117.748 E48.11514
G1 X95.3 Y102.252 E49.58044
G1 X94.542 Y102.252 E49.63112
G1 X110.037 Y117.748 E51.09637
G1 X109.279 Y117.748 E51.14705
G1 X93.783 Y102.252 E52.61235
G1 X93.025 Y102.252 E52.66303
G1 X108.521 Y117.748 E54.12833
G1 X107.763 Y117.748 E54.17901
G1 X92.267 Y102.252 E55.64431
G1 X92.116 Y102.252 E55.65441
G1 X91.58 Y102.323 E55.69056
G1 X107.005 Y117.748 E57.14914
G1 X106.247 Y117.748 E57.19982
G1 X90.91 Y102.411 E58.65008
G1 X90.24 Y102.499 E58.69526
G1 X105.489 Y117.748 E60.1372
G1 X104.73 Y117.748 E60.18795
G1 X89.655 Y102.673 E61.61344
G1 X89.119 Y102.895 E61.65223
G1 X103.972 Y117.748 E63.05673
G1 X103.214 Y117.748 E63.10741
G1 X88.583 Y103.117 E64.49091
G1 X88.134 Y103.303 E64.52341
G1 X88.064 Y103.356 E64.52928
G1 X102.456 Y117.748 E65.89018
G1 X101.698 Y117.748 E65.94086
G1 X87.635 Y103.686 E67.27061
G1 X87.207 Y104.015 E67.30671
G1 X100.94 Y117.748 E68.6053
G1 X100.182 Y117.748 E68.65598
G1 X86.778 Y104.344 E69.92346
G1 X86.532 Y104.532 E69.94416
G1 X86.391 Y104.716 E69.95966
G1 X99.423 Y117.748 E71.19196
G1 X98.665 Y117.748 E71.24264
G1 X86.062 Y105.145 E72.43438
G1 X85.733 Y105.574 E72.47053
G1 X97.907 Y117.748 E73.6217
G1 X97.149 Y117.748 E73.67238
G1 X85.404 Y106.003 E74.78298
G1 X85.303 Y106.134 E74.79404
G1 X85.149 Y106.506 E74.82096
G1 X96.391 Y117.748 E75.884
G1 X95.633 Y117.748 E75.93468
G1 X84.927 Y107.042 E76.94704
G1 X84.705 Y107.578 E76.98583
G1 X94.875 Y117.748 E77.9475
G1 X94.116 Y117.748 E77.99825
G1 X84.512 Y108.143 E78.90645
G1 X84.424 Y108.813 E78.95163
G1 X93.358 Y117.748 E79.79647
G1 X92.6 Y117.748 E79.84715
G1 X84.335 Y109.483 E80.62869
G1 X84.267 Y110 E80.66356
G1 X84.294 Y110.2 E80.67705
G1 X91.8 Y117.706 E81.38682
G1 X90.927 Y117.591 E81.4457
G1 X84.409 Y111.073 E82.06204
G1 X84.524 Y111.946 E82.12092
G1 X90.054 Y117.476 E82.64384
G1 X89.999 Y117.469 E82.64755
G1 X88.787 Y116.967 E82.73527
G1 X84.587 Y112.768 E83.13237
;LAYER_CHANGE
;Z:0.6
;HEIGHT:0.3
G1 Z.6 F7800
G1 E81.13237 F2400
G92 E0
G1 X84.587 Y112.768 Z.6 F7800
G1 X111.472 Y122.247
G1 E2 F2400
;TYPE:Support material
;WIDTH:0.4
G1 F3600
G1 X112.066 Y121.825 E2.0305
G1 X112.926 Y121.588 E2.06784
G1 X112.926 Y121.188 E2.08458
G1 X113.903 Y121.284 E2.12567
G1 X114.386 Y121.472 E2.14737
G1 X115.211 Y122.093 E2.1906
G1 X115.757 Y122.97 E2.23384
G1 X115.95 Y123.984 E2.27705
G1 X115.766 Y124.999 E2.32023
G1 X115.538 Y125.464 E2.34191
G1 X114.85 Y126.231 E2.38504
G1 X114.411 Y126.508 E2.40677
G1 X113.421 Y126.801 E2.44999
