; generated by PrusaSlicer 2.8.1+linux-x64-GTK3 on 2024-10-16 at 08:11:51 UTC

; 

; external perimeters extrusion width = 0.45mm
; perimeters extrusion width = 0.45mm
; infill extrusion width = 0.45mm
; solid infill extrusion width = 0.45mm
; top infill extrusion width = 0.40mm
; support material extrusion width = 0.40mm
; first layer extrusion width = 0.60mm

M190 S60 ; set bed temperature and wait for it to be reached
M104 S200 ; set temperature
;TYPE:Custom
G28 ; home all axes
G1 Z5 F5000 ; lift nozzle
M109 S200 ; set temperature and wait for it to be reached
G21 ; set units to millimeters
G90 ; use absolute coordinates
M82 ; use absolute distances for extrusion
G92 E0
; Filament gcode
M107
;LAYER_CHANGE
;Z:0.3
;HEIGHT:0.3
G1 E-2 F2400
G1 Z.3 F7800
G1 X79.735 Y95.522
G1 E0 F2400
;TYPE:Skirt/Brim
;WIDTH:0.6
G1 F1800
G1 X80.88 Y94.844 E.0889
G1 X81.491 Y94.594 E.133
G1 X82.12 Y94.406 E.17686
G1 X83.563 Y94.209 E.27415
G1 X127.408 Y94.208 E3.20323
G1 X129.76 Y94.408 E3.36092
G1 X132.056 Y94.956 E3.51861
G1 X133.242 Y95.387 E3.60291
G1 X134.667 Y96.056 E3.70808
G1 X136.662 Y97.317 E3.86575
G1 X138.448 Y98.861 E4.02347
G1 X139.983 Y100.655 E4.1812
G1 X141.233 Y102.656 E4.33882
G1 X141.71 Y103.647 E4.41229
G1 X142.271 Y105.119 E4.51753
G1 X142.613 Y106.334 E4.60185
G1 X142.852 Y107.55 E4.68464
G1 X143.011 Y108.976 E4.78049
G1 X143.043 Y110.238 E4.86483
G1 X142.831 Y112.588 E5.02246
G1 X142.578 Y113.802 E5.1053
G1 X142.172 Y115.178 E5.20114
G1 X141.233 Y117.344 E5.35885
G1 X140.433 Y118.699 E5.46397
G1 X139.696 Y119.724 E5.54831
G1 X138.108 Y121.47 E5.70598
G1 X136.277 Y122.96 E5.86368
G1 X134.941 Y123.794 E5.96889
G1 X133.835 Y124.354 E6.05171
G1 X132.506 Y124.893 E6.14752
G1 X130.997 Y125.342 E6.2527
G1 X99.667 Y132.347 E8.39739
G1 X98.436 Y132.596 E8.48129
G1 X97.198 Y132.72 E8.56441
G1 X86.859 Y132.71 E9.25511
G1 X85.67 Y132.646 E9.33466
G1 X84.007 Y132.327 E9.44778
G1 X82.895 Y131.952 E9.52618
G1 X81.468 Y131.259 E9.63216
G1 X80.537 Y130.65 E9.70648
G1 X79.319 Y129.609 E9.81352
G1 X78.489 Y128.693 E9.8961
G1 X77.512 Y127.252 E10.01241
G1 X77 Y126.211 E10.08991
G1 X76.518 Y124.858 E10.18586
G1 X76.305 Y123.935 E10.24914
G1 X76.144 Y122.604 E10.33871
G1 X76.136 Y121.309 E10.42522
G1 X76.962 Y100.748 E11.79991
G1 X77.078 Y99.733 E11.86816
G1 X77.387 Y98.626 E11.94494
G1 X78.01 Y97.372 E12.03848
G1 X78.705 Y96.452 E12.11551
G1 X79.69 Y95.562 E12.2042
G1 E10.2042 F2400
G92 E0
G1 X79.69 Y95.562 F7800
G92 E0
G1 X82.994 Y119.728
G1 E2 F2400
;TYPE:Support material
G1 F1800
G1 X83.299 Y119.949 E2.02516
G1 X83.711 Y120.051 E2.05351
G1 X90.903 Y120.051 E2.53397
G1 X91.179 Y120.688 E2.58035
G1 X91.358 Y121.828 E2.65744
G1 X91.248 Y122.959 E2.73335
G1 X90.857 Y124.028 E2.80939
G1 X90.188 Y124.989 E2.88761
G1 X89.334 Y125.725 E2.96293
G1 X88.3 Y126.23 E3.03981
G1 X87.198 Y126.452 E3.11491
G1 X86.009 Y126.387 E3.19446
G1 X84.898 Y126.013 E3.27277
G1 X83.966 Y125.404 E3.34715
G1 X83.137 Y124.487 E3.42973
G1 X82.625 Y123.446 E3.50723
G1 X82.412 Y122.523 E3.57051
G1 X82.399 Y121.561 E3.63478
G1 X82.675 Y120.344 E3.71815
G1 X82.957 Y119.796 E3.75932
G1 X90.361 Y124.326 F7800
G1 F1800
G1 X90.361 Y120.533 E4.01271
G1 X89.766 Y120.533 E4.05246
G1 X89.766 Y124.717 E4.33197
G1 X89.17 Y125.229 E4.38446
G1 X89.17 Y120.533 E4.69818
G1 X88.575 Y120.533 E4.73793
G1 X88.575 Y125.559 E5.07369
G1 X87.98 Y125.803 E5.11665
G1 X87.98 Y120.533 E5.46871
G1 X87.385 Y120.533 E5.50846
G1 X87.385 Y125.922 E5.86847
G1 X86.79 Y125.947 E5.90825
G1 X86.79 Y120.533 E6.26993
G1 X86.195 Y120.533 E6.30968
G1 X86.195 Y125.915 E6.66923
G1 X85.6 Y125.741 E6.71064
G1 X85.6 Y120.533 E7.05856
G1 X85.004 Y120.533 E7.09838
G1 X85.004 Y125.507 E7.43067
G1 X84.409 Y125.118 E7.47816
G1 X84.409 Y120.533 E7.78446
G1 X83.814 Y120.533 E7.82421
G1 X83.814 Y124.517 E8.09036
G1 X83.54 Y124.214 E8.11765
G1 X83.219 Y123.562 E8.1662
G1 X83.219 Y120.177 E8.39234
G1 E6.39234 F2400
G92 E0
G1 X83.219 Y120.177 F7800
G1 X101.179 Y120.688
G1 E2 F2400
G1 F1800
G1 X101.358 Y121.828 E2.07709
G1 X101.248 Y122.958 E2.15294
G1 X100.857 Y124.028 E2.22904
G1 X100.188 Y124.989 E2.30726
G1 X99.334 Y125.725 E2.38258
G1 X98.3 Y126.23 E2.45946
G1 X97.198 Y126.452 E2.53456
G1 X96.009 Y126.387 E2.61411
G1 X94.898 Y126.013 E2.69242
G1 X93.966 Y125.404 E2.7668
G1 X93.137 Y124.487 E2.84938
G1 X92.625 Y123.446 E2.92688
G1 X92.412 Y122.523 E2.99016
G1 X92.399 Y121.561 E3.05443
G1 X92.675 Y120.344 E3.1378
G1 X92.826 Y120.051 E3.15982
G1 X100.903 Y120.051 E3.69941
G1 X101.147 Y120.614 E3.7404
G1 X100.478 Y124.155 F7800
G1 F1800
G1 X100.478 Y120.533 E3.98237
G1 X99.883 Y120.533 E4.02212
G1 X99.883 Y124.587 E4.29295
G1 X99.288 Y125.128 E4.34667
G1 X99.288 Y120.533 E4.65364
G1 X98.692 Y120.533 E4.69346
G1 X98.692 Y125.502 E5.02542
G1 X98.097 Y125.779 E5.06927
G1 X98.097 Y120.533 E5.41973
G1 X97.502 Y120.533 E5.45948
G1 X97.502 Y125.899 E5.81796
G1 X96.907 Y125.953 E5.85787
G1 X96.907 Y120.533 E6.21996
G1 X96.312 Y120.533 E6.25971
G1 X96.312 Y125.921 E6.61966
G1 X95.717 Y125.78 E6.66051
G1 X95.717 Y120.533 E7.01104
G1 X95.122 Y120.533 E7.05079
G1 X95.11 Y125.576 E7.38769
G1 X94.527 Y125.194 E7.43425
G1 X94.527 Y120.533 E7.74563
G1 X93.931 Y120.533 E7.78545
G1 X93.931 Y124.647 E8.06029
G1 X93.539 Y124.214 E8.09931
G1 X93.336 Y123.801 E8.13005
G1 X93.336 Y120.292 E8.36447
G1 E6.36447 F2400
G92 E0
G1 X93.336 Y120.292 F7800
G1 X130.726 Y112.637
G1 E2 F2400
;TYPE:Perimeter
;WIDTH:0.6
G1 F1800
G1 X130.639 Y112.756 E2.00985
G1 X130.276 Y113.146 E2.04544
G1 X129.86 Y113.501 E2.08197
G1 X129.463 Y113.757 E2.11353
G1 X128.958 Y114.018 E2.15151
G1 X128.466 Y114.192 E2.18637
G1 X128.035 Y114.3 E2.21605
G1 X127.502 Y114.366 E2.25193
G1 X126.893 Y114.356 E2.29262
G1 X126.229 Y114.245 E2.33759
G1 X125.387 Y113.953 E2.39713
G1 X124.765 Y113.595 E2.44507
G1 X124.253 Y113.176 E2.48927
G1 X123.659 Y112.488 E2.54999
G1 X123.301 Y111.87 E2.5977
G1 X123.073 Y111.278 E2.64008
G1 X122.952 Y110.784 E2.67406
G1 X122.886 Y110.255 E2.70967
G1 X122.886 Y109.745 E2.74374
G1 X122.951 Y109.219 E2.77915
G1 X123.005 Y108.98 E2.79552
G1 X123.136 Y108.529 E2.82689
G1 X123.399 Y107.94 E2.86998
G1 X123.657 Y107.514 E2.90325
G1 X124.076 Y107.001 E2.9475
G1 X124.763 Y106.407 E3.00817
G1 X125.382 Y106.05 E3.05591
G1 X126.011 Y105.813 E3.10081
G1 X126.468 Y105.7 E3.13226
G1 X127.068 Y105.633 E3.17259
G1 X127.606 Y105.644 E3.20854
G1 X128.105 Y105.711 E3.24218
G1 X128.721 Y105.884 E3.28492
G1 X129.201 Y106.086 E3.31971
G1 X129.693 Y106.372 E3.35773
G1 X130.105 Y106.688 E3.39242
G1 X130.486 Y107.058 E3.4279
G1 X130.834 Y107.498 E3.46538
G1 X131.171 Y108.062 E3.50927
G1 X131.365 Y108.523 E3.54268
G1 X131.529 Y109.093 E3.5823
G1 X131.607 Y109.641 E3.61928
G1 X131.619 Y110.199 E3.65657
G1 X131.552 Y110.781 E3.69571
G1 X131.419 Y111.322 E3.73293
G1 X131.204 Y111.865 E3.77195
G1 X130.943 Y112.341 E3.80822
G1 X130.762 Y112.588 E3.82868
G1 X130.762 Y112.588 F7800
G1 X130.447 Y112.115
G1 F1800
G1 X130.421 Y112.16 E3.83215
G1 X130.085 Y112.585 E3.86834
G1 X129.534 Y113.076 E3.91764
G1 X129.248 Y113.266 E3.94058
G1 X128.752 Y113.523 E3.9779
G1 X128.338 Y113.67 E4.00725
G1 X127.557 Y113.823 E4.06042
G1 X126.963 Y113.825 E4.1001
G1 X126.395 Y113.736 E4.13851
G1 X125.592 Y113.458 E4.19528
G1 X125.377 Y113.326 E4.21213
G1 X125.36 Y113.284 E4.21516
G1 X125.215 Y113.247 E4.22516
G1 X124.751 Y112.909 E4.26351
G1 X124.343 Y112.5 E4.3021
G1 X124.012 Y112.051 E4.33937
G1 X123.633 Y111.272 E4.39724
G1 X123.483 Y110.714 E4.43584
G1 X123.42 Y110.168 E4.47256
G1 X123.482 Y109.289 E4.53143
G1 X123.515 Y109.146 E4.54123
G1 X123.794 Y108.341 E4.59815
G1 X124.082 Y107.84 E4.63676
G1 X124.438 Y107.396 E4.67478
G1 X125.089 Y106.832 E4.73232
G1 X125.31 Y106.712 E4.74912
G1 X125.355 Y106.718 E4.75215
G1 X125.459 Y106.612 E4.76207
G1 X125.98 Y106.381 E4.80014
G1 X126.538 Y106.231 E4.83874
G1 X127.068 Y106.168 E4.8744
G1 X127.963 Y106.231 E4.93434
G1 X128.521 Y106.381 E4.97294
G1 X129.007 Y106.59 E5.00828
G1 X129.752 Y107.091 E5.06826
G1 X130.16 Y107.5 E5.10685
G1 X130.495 Y107.957 E5.1447
G1 X130.85 Y108.68 E5.19851
G1 X131.02 Y109.286 E5.24056
G1 X131.083 Y109.839 E5.27774
G1 X131.054 Y110.455 E5.31894
G1 X130.973 Y110.898 E5.34903
G1 X130.709 Y111.66 E5.4029
G1 X130.477 Y112.063 E5.43397
G1 X130.477 Y112.063 F7800
G1 X130.074 Y111.562
;TYPE:External perimeter
G1 F1800
G1 X130.015 Y111.593 E5.43842
G1 X130.015 Y111.805 E5.45258
G1 X129.71 Y112.203 E5.48608
G1 X129.514 Y112.264 E5.49979
G1 X129.45 Y112.463 E5.51375
G1 X129.045 Y112.77 E5.5477
G1 X128.847 Y112.761 E5.56094
G1 X128.745 Y112.944 E5.57494
G1 X128.282 Y113.136 E5.60842
G1 X128.079 Y113.079 E5.62251
G1 X127.944 Y113.226 E5.63584
G1 X127.448 Y113.296 E5.6693
G1 X127.379 Y113.29 E5.67393
G1 X127.251 Y113.186 E5.68495
G1 X127.067 Y113.296 E5.69927
G1 X126.562 Y113.227 E5.73332
G1 X126.427 Y113.08 E5.74665
G1 X126.237 Y113.14 E5.75996
G1 X125.754 Y112.941 E5.79486
G1 X125.661 Y112.761 E5.8084
G1 X125.458 Y112.77 E5.82197
G1 X125.043 Y112.452 E5.8569
G1 X124.998 Y112.253 E5.87053
G1 X124.799 Y112.208 E5.88416
G1 X124.484 Y111.799 E5.91865
G1 X124.489 Y111.596 E5.93222
G1 X124.311 Y111.499 E5.94576
G1 X124.115 Y111.027 E5.9799
G1 X124.172 Y110.828 E5.99373
G1 X124.023 Y110.685 E6.00753
G1 X123.956 Y110.178 E6.04169
G1 X124.066 Y110 E6.05567
G1 X123.956 Y109.821 E6.06971
G1 X124.024 Y109.311 E6.10408
G1 X124.17 Y109.175 E6.11741
G1 X124.113 Y108.979 E6.13105
G1 X124.309 Y108.506 E6.16525
G1 X124.488 Y108.408 E6.17888
G1 X124.483 Y108.203 E6.19258
G1 X124.8 Y107.791 E6.22731
G1 X124.998 Y107.746 E6.24087
G1 X125.043 Y107.547 E6.2545
G1 X125.456 Y107.231 E6.28924
G1 X125.657 Y107.24 E6.30268
G1 X125.749 Y107.062 E6.31607
G1 X126.233 Y106.861 E6.35108
G1 X126.424 Y106.92 E6.36443
G1 X126.559 Y106.773 E6.37776
G1 X127.068 Y106.704 E6.41207
G1 X127.25 Y106.807 E6.42604
G1 X127.421 Y106.704 E6.43938
G1 X127.931 Y106.77 E6.47373
G1 X128.081 Y106.909 E6.48739
G1 X128.286 Y106.865 E6.5014
G1 X128.75 Y107.06 E6.53502
G1 X128.843 Y107.238 E6.54844
G1 X129.043 Y107.229 E6.56181
G1 X129.443 Y107.53 E6.59525
G1 X129.488 Y107.583 E6.59989
G1 X129.505 Y107.748 E6.61097
G1 X129.701 Y107.789 E6.62435
G1 X130.02 Y108.204 E6.65932
G1 X130.012 Y108.405 E6.67276
G1 X130.189 Y108.496 E6.68606
G1 X130.389 Y108.975 E6.72074
G1 X130.33 Y109.172 E6.73448
G1 X130.478 Y109.307 E6.74786
G1 X130.548 Y109.824 E6.78271
G1 X130.437 Y110 E6.79661
G1 X130.547 Y110.169 E6.81008
G1 X130.484 Y110.672 E6.84395
G1 X130.463 Y110.728 E6.84795
G1 X130.332 Y110.824 E6.8588
G1 X130.388 Y111.032 E6.87319
G1 X130.191 Y111.499 E6.90705
G1 X130.127 Y111.534 E6.91192
G1 X129.947 Y111.891 F7800
G1 E4.91192 F2400
G92 E0
G1 X130.818 Y102.673 F7800
G1 E2 F2400
;TYPE:Perimeter
G1 F1800
G1 X131.143 Y102.835 E2.02426
G1 X131.845 Y103.263 E2.07919
G1 X132.5 Y103.76 E2.13412
G1 X132.878 Y104.101 E2.16813
G1 X133.363 Y104.603 E2.21476
G1 X133.872 Y105.241 E2.26928
G1 X134.304 Y105.91 E2.32248
G1 X134.847 Y107.037 E2.40605
G1 X135.1 Y107.792 E2.45924
G1 X135.277 Y108.568 E2.51241
G1 X135.402 Y109.928 E2.60365
G1 X135.397 Y110.315 E2.62951
G1 X135.342 Y111.011 E2.67615
G1 X135.201 Y111.814 E2.73062
G1 X134.985 Y112.581 E2.78385
G1 X134.499 Y113.734 E2.86744
G1 X134.101 Y114.424 E2.92065
G1 X133.624 Y115.086 E2.97516
G1 X133.165 Y115.611 E3.02175
G1 X132.804 Y115.971 E3.05581
G1 X132.167 Y116.505 E3.11134
G1 X131.75 Y116.798 E3.14539
G1 X131.154 Y117.159 E3.19194
G1 X130.419 Y117.513 E3.24644
G1 X129.655 Y117.791 E3.30075
G1 X128.867 Y117.992 E3.35508
G1 X128.063 Y118.113 E3.4094
G1 X127.217 Y118.155 E3.46599
G1 X84.596 Y118.155 E6.3133
G1 X84.596 Y101.845 E7.4029
G1 X127.355 Y101.848 E10.25943
G1 X128.06 Y101.887 E10.3066
G1 X128.851 Y102.006 E10.36004
G1 X130.058 Y102.346 E10.44381
G1 X130.687 Y102.607 E10.4893
G1 X130.765 Y102.646 E10.49513
G1 X130.765 Y102.646 F7800
G1 X131.039 Y102.184
G1 F1800
G1 X131.403 Y102.366 E10.52232
G1 X132.147 Y102.82 E10.58055
G1 X132.842 Y103.347 E10.63882
G1 X133.25 Y103.716 E10.67557
G1 X133.766 Y104.249 E10.72513
G1 X134.307 Y104.927 E10.78308
G1 X134.772 Y105.647 E10.84034
G1 X135.344 Y106.835 E10.92843
G1 X135.616 Y107.646 E10.98558
G1 X135.807 Y108.482 E11.04287
G1 X135.937 Y109.934 E11.14026
G1 X135.933 Y110.34 E11.16738
G1 X135.874 Y111.079 E11.21691
G1 X135.723 Y111.934 E11.27491
G1 X135.491 Y112.758 E11.3321
G1 X134.979 Y113.973 E11.42018
G1 X134.551 Y114.715 E11.4774
G1 X134.044 Y115.419 E11.53536
G1 X133.556 Y115.977 E11.58488
G1 X133.166 Y116.366 E11.62168
G1 X132.494 Y116.93 E11.68029
G1 X132.043 Y117.247 E11.71712
G1 X131.409 Y117.631 E11.76664
G1 X130.627 Y118.007 E11.82461
G1 X129.813 Y118.304 E11.8825
G1 X128.973 Y118.517 E11.94039
G1 X128.117 Y118.646 E11.99822
G1 X127.231 Y118.691 E12.05749
G1 X84.061 Y118.691 E14.94148
G1 X84.061 Y101.309 E16.10269
G1 X127.369 Y101.313 E18.9959
G1 X128.115 Y101.353 E19.04581
G1 X128.964 Y101.481 E19.10317
G1 X130.235 Y101.839 E19.19138
G1 X130.91 Y102.12 E19.24022
G1 X130.985 Y102.157 E19.24581
G1 X130.985 Y102.157 F7800
G1 X131.259 Y101.696
;TYPE:External perimeter
G1 F1800
G1 X131.662 Y101.897 E19.2759
G1 X132.449 Y102.377 E19.33748
G1 X133.183 Y102.934 E19.39904
G1 X133.623 Y103.33 E19.43859
G1 X134.169 Y103.895 E19.49108
G1 X134.742 Y104.614 E19.5525
G1 X135.24 Y105.385 E19.61382
G1 X135.841 Y106.633 E19.70636
G1 X136.133 Y107.501 E19.76754
G1 X136.337 Y108.395 E19.8288
G1 X136.473 Y109.94 E19.93241
G1 X136.468 Y110.364 E19.96074
G1 X136.406 Y111.147 E20.01321
G1 X136.246 Y112.053 E20.07467
G1 X135.998 Y112.935 E20.13588
G1 X135.46 Y114.212 E20.22845
G1 X135.002 Y115.006 E20.28969
G1 X134.464 Y115.753 E20.35119
G1 X133.947 Y116.344 E20.40365
G1 X133.528 Y116.762 E20.44319
G1 X132.821 Y117.356 E20.50488
G1 X132.336 Y117.696 E20.54445
G1 X131.664 Y118.102 E20.5969
G1 X130.835 Y118.501 E20.65836
G1 X129.971 Y118.816 E20.7198
G1 X129.08 Y119.043 E20.78122
G1 X128.17 Y119.18 E20.8427
G1 X127.244 Y119.226 E20.90464
G1 X83.84 Y119.226 E23.80426
G1 X83.719 Y119.204 E23.81248
G1 X83.586 Y119.12 E23.82299
G1 X83.525 Y118.97 E23.83381
G1 X83.525 Y101.097 E25.02782
G1 X83.554 Y100.956 E25.03744
G1 X83.64 Y100.827 E25.0478
G1 X83.78 Y100.774 E25.0578
G1 X127.384 Y100.777 E27.97078
G1 X128.17 Y100.82 E28.02337
G1 X129.077 Y100.957 E28.08465
G1 X130.411 Y101.332 E28.17722
G1 X131.132 Y101.632 E28.22939
G1 X131.205 Y101.669 E28.23486
G1 X131.563 Y101.847 F7800
G1 X131.362 Y103.157
;TYPE:Solid infill
;WIDTH:0.604559
G1 F1800
G1 X133.061 Y104.868 E28.39732
G1 X133.545 Y105.475 E28.44963
G1 X133.953 Y106.106 E28.50026
G1 X134.329 Y106.887 E28.55866
G1 X130.339 Y102.898 E28.93878
G1 X129.926 Y102.726 E28.96892
G1 X129.198 Y102.521 E29.01988
G1 X134.753 Y108.075 E29.54912
G1 X134.88 Y108.633 E29.58768
G1 X134.917 Y109.004 E29.6128
G1 X128.232 Y102.319 E30.24975
G1 X128.02 Y102.287 E30.2642
G1 X127.403 Y102.253 E30.30583
G1 X135.001 Y109.851 E31.02978
G1 X134.973 Y110.587 E31.0794
G1 X126.636 Y102.25 E31.87376
G1 X125.872 Y102.25 E31.92523
G1 X129.324 Y105.703 E32.25419
G1 X129.922 Y106.042 E32.3005
G1 X130.362 Y106.379 E32.33784
G1 X130.899 Y106.923 E32.38934
G1 X131.244 Y107.381 E32.42797
G1 X131.551 Y107.929 E32.47029
G1 X134.889 Y111.267 E32.78834
G1 X134.808 Y111.725 E32.81968
G1 X134.759 Y111.901 E32.83199
G1 X131.933 Y109.075 E33.10125
G1 X132.013 Y109.648 E33.14023
G1 X132.011 Y109.917 E33.15835
G1 X134.586 Y112.492 E33.4037
G1 X134.36 Y113.03 E33.44302
G1 X131.974 Y110.644 E33.67036
G1 X131.938 Y110.912 E33.68858
G1 X131.843 Y111.277 E33.71399
G1 X134.132 Y113.566 E33.93209
G1 X133.852 Y114.05 E33.96976
G1 X131.64 Y111.838 E34.18052
G1 X131.478 Y112.217 E34.20829
G1 X131.395 Y112.357 E34.21926
G1 X133.546 Y114.507 E34.42416
G1 X133.216 Y114.942 E34.46095
G1 X131.094 Y112.82 E34.66314
G1 X130.75 Y113.24 E34.69972
G1 X132.859 Y115.349 E34.90067
G1 X132.472 Y115.725 E34.93702
G1 X130.364 Y113.618 E35.13783
G1 X129.929 Y113.946 E35.17454
G1 X132.056 Y116.074 E35.37725
G1 X131.618 Y116.4 E35.41404
G1 X129.45 Y114.231 E35.62066
G1 X128.921 Y114.466 E35.65966
G1 X131.148 Y116.693 E35.87185
G1 X130.962 Y116.806 E35.88651
G1 X130.648 Y116.957 E35.90998
G1 X128.337 Y114.646 E36.13017
