; generated by PrusaSlicer 2.8.1+linux-x64-GTK3 on 2024-10-16 at 09:50:35 UTC

; 

; external perimeters extrusion width = 0.45mm
; perimeters extrusion width = 0.45mm
; infill extrusion width = 0.45mm
; solid infill extrusion width = 0.45mm
; top infill extrusion width = 0.40mm
; support material extrusion width = 0.40mm
; first layer extrusion width = 0.60mm

M190 S60 ; set bed temperature and wait for it to be reached
M104 S200 ; set temperature
;TYPE:Custom
G28 ; home all axes
G1 Z5 F5000 ; lift nozzle
M109 S200 ; set temperature and wait for it to be reached
G21 ; set units to millimeters
G90 ; use absolute coordinates
M82 ; use absolute distances for extrusion
G92 E0
; Filament gcode
M107
;LAYER_CHANGE
;Z:0.3
;HEIGHT:0.3
G1 E-2 F2400
G1 Z.3 F7800
G1 X79.913 Y89.219
G1 E0 F2400
;TYPE:Skirt/Brim
;WIDTH:0.6
G1 F1800
G1 X81.562 Y88.033 E.1357
G1 X82.424 Y87.565 E.20123
G1 X84.468 Y86.836 E.34621
G1 X85.952 Y86.573 E.44689
G1 X87.069 Y86.512 E.52162
G1 X97.177 Y86.503 E1.19689
G1 X98.32 Y86.608 E1.27357
G1 X99.783 Y86.892 E1.37313
G1 X131.3 Y94.735 E3.54285
G1 X132.8 Y95.214 E3.64804
G1 X134.244 Y95.84 E3.75318
G1 X135.619 Y96.606 E3.85833
G1 X136.911 Y97.506 E3.96352
G1 X138.107 Y98.53 E4.0687
G1 X139.196 Y99.668 E4.17393
G1 X140.165 Y100.908 E4.27906
G1 X141.006 Y102.239 E4.38424
G1 X141.582 Y103.362 E4.46856
G1 X142.172 Y104.822 E4.57376
G1 X142.613 Y106.334 E4.67898
G1 X142.902 Y107.881 E4.78412
G1 X143.035 Y109.45 E4.88931
G1 X143.011 Y111.024 E4.99447
G1 X142.831 Y112.588 E5.09964
G1 X142.496 Y114.127 E5.20486
G1 X142.009 Y115.624 E5.31003
G1 X141.376 Y117.065 E5.41518
G1 X140.602 Y118.437 E5.52042
G1 X139.696 Y119.724 E5.62557
G1 X138.666 Y120.915 E5.73076
G1 X137.522 Y121.997 E5.83595
G1 X136.019 Y123.136 E5.96193
G1 X134.667 Y123.944 E6.06715
G1 X133.242 Y124.613 E6.17232
G1 X131.757 Y125.137 E6.27752
G1 X130.228 Y125.51 E6.38266
G1 X128.668 Y125.729 E6.4879
G1 X127.252 Y125.794 E6.5826
G1 X84.509 Y125.789 E9.43806
G1 X83.23 Y125.635 E9.52412
G1 X82.092 Y125.295 E9.60347
G1 X81.151 Y124.845 E9.67315
G1 X80.235 Y124.221 E9.74719
G1 X79.389 Y123.407 E9.82562
G1 X78.825 Y122.664 E9.88794
G1 X78.399 Y121.917 E9.94539
G1 X78.076 Y121.129 E10.00228
G1 X77.865 Y120.356 E10.05581
G1 X77.745 Y119.51 E10.11289
G1 X76.15 Y97.907 E11.56002
G1 X76.181 Y96.672 E11.64255
G1 X76.3 Y95.718 E11.70678
G1 X76.635 Y94.273 E11.80587
G1 X77.127 Y92.967 E11.8991
G1 X77.673 Y91.924 E11.97775
G1 X78.235 Y91.059 E12.04666
G1 X79.148 Y89.954 E12.14242
G1 X79.869 Y89.26 E12.20927
G1 E10.20927 F2400
G92 E0
G1 X79.869 Y89.26 F7800
G92 E0
G1 X88.459 Y92.967
G1 E2 F2400
;TYPE:Support material
G1 F1800
G1 X89.545 Y93.45 E2.0794
G1 X90.449 Y94.183 E2.15715
G1 X91.134 Y95.094 E2.23329
G1 X91.581 Y96.142 E2.3094
G1 X91.7 Y96.865 E2.35835
G1 X92.208 Y96.866 E2.39229
G1 X92.321 Y96.2 E2.43742
G1 X92.698 Y95.29 E2.50322
G1 X93.291 Y94.421 E2.5735
G1 X94.05 Y93.716 E2.6427
G1 X95.083 Y93.129 E2.72207
G1 X96.072 Y92.832 E2.79106
G1 X97.177 Y92.771 E2.86499
G1 X98.27 Y92.974 E2.93926
G1 X99.319 Y93.458 E3.01644
G1 X100.196 Y94.17 E3.09191
G1 X100.869 Y95.054 E3.16613
G1 X101.319 Y96.073 E3.24055
G1 X101.501 Y97.12 E3.31154
G1 X101.447 Y98.306 E3.39085
G1 X101.099 Y99.412 E3.46831
G1 X100.778 Y99.949 E3.51011
G1 X92.907 Y99.949 E4.03594
G1 X92.703 Y99.654 E4.0599
G1 X92.308 Y98.688 E4.12962
G1 X92.221 Y98.203 E4.16254
G1 X91.753 Y98.171 E4.19388
G1 X91.331 Y99.478 E4.28563
G1 X91.042 Y99.949 E4.32255
G1 X84.61 Y99.955 E4.75224
G1 X84.027 Y100.124 E4.79279
G1 X83.575 Y100.571 E4.83526
G1 X82.895 Y99.683 E4.90998
G1 X82.49 Y98.46 E4.99605
G1 X82.401 Y97.446 E5.06405
G1 X82.52 Y96.492 E5.12828
G1 X82.93 Y95.338 E5.21009
G1 X83.491 Y94.473 E5.27897
G1 X84.256 Y93.738 E5.34984
G1 X85.301 Y93.134 E5.43047
G1 X86.294 Y92.831 E5.49983
G1 X87.41 Y92.77 E5.5745
G1 X88.38 Y92.952 E5.64043
G1 E3.64043 F2400
G92 E0
G1 X88.38 Y92.952 F7800
G1 X100.478 Y99.708
G1 E2 F2400
G1 F1800
G1 X100.478 Y95.361 E2.2904
G1 X99.883 Y94.554 E2.35738
G1 X99.883 Y99.467 E2.6856
G1 X99.288 Y99.467 E2.72535
G1 X99.288 Y94.054 E3.08697
G1 X98.692 Y93.7 E3.13328
G1 X98.692 Y99.467 E3.51855
G1 X98.097 Y99.467 E3.5583
G1 X98.097 Y93.432 E3.96147
G1 X97.502 Y93.322 E4.00189
G1 X97.502 Y99.467 E4.41241
G1 X96.907 Y99.467 E4.45216
G1 X96.907 Y93.269 E4.86622
G1 X96.312 Y93.302 E4.90603
G1 X96.312 Y99.467 E5.31789
G1 X95.717 Y99.467 E5.35764
G1 X95.717 Y93.442 E5.76014
G1 X95.122 Y93.651 E5.80227
G1 X95.122 Y99.467 E6.19081
G1 X94.527 Y99.467 E6.23056
G1 X94.527 Y93.989 E6.59652
G1 X93.931 Y94.484 E6.64828
G1 X93.931 Y99.467 E6.98117
G1 X93.336 Y99.467 E7.02092
G1 X93.336 Y95.209 E7.30538
G1 X93.124 Y95.52 E7.33052
G1 X92.787 Y96.334 E7.38938
G1 X92.741 Y98.373 E7.52563
G1 X92.63 Y97.748 E7.56804
G1 X92.146 Y97.715 E7.60045
G1 X92.146 Y97.348 E7.62497
G1 X91.551 Y97.347 E7.66472
G1 X91.551 Y97.674 E7.68657
G1 X91.411 Y97.664 E7.69595
G1 X90.956 Y99.072 E7.7948
G1 X90.956 Y95.905 E8.00637
G1 X90.714 Y95.337 E8.04762
G1 X90.361 Y94.868 E8.08683
G1 X90.361 Y99.467 E8.39407
G1 X89.766 Y99.467 E8.43382
G1 X89.766 Y94.25 E8.78234
G1 X89.17 Y93.811 E8.83179
G1 X89.17 Y99.467 E9.20964
G1 X88.575 Y99.467 E9.24939
G1 X88.575 Y93.546 E9.64494
G1 X87.98 Y93.367 E9.68645
G1 X87.98 Y99.467 E10.09396
G1 X87.385 Y99.467 E10.13371
G1 X87.379 Y93.255 E10.54871
G1 X86.79 Y93.287 E10.58812
G1 X86.79 Y99.467 E11.00098
G1 X86.195 Y99.467 E11.04073
G1 X86.195 Y93.366 E11.44831
G1 X85.6 Y93.547 E11.48986
G1 X85.6 Y99.467 E11.88535
G1 X85.004 Y99.467 E11.92517
G1 X85.004 Y93.84 E12.30108
G1 X84.409 Y94.259 E12.3497
G1 X84.409 Y99.494 E12.69943
G1 X83.814 Y99.691 E12.7413
G1 X83.814 Y94.861 E13.06397
G1 X83.219 Y95.904 E13.14419
G1 X83.219 Y99.709 E13.39838
G1 E11.39838 F2400
G92 E0
G1 X83.219 Y99.709 F7800
G1 X127.217 Y118.155
G1 E2 F2400
;TYPE:Perimeter
;WIDTH:0.6
G1 F1800
G1 X85.363 Y118.155 E4.79607
G1 X85.363 Y101.845 E5.88567
G1 X127.543 Y101.853 E8.70352
G1 X128.054 Y101.886 E8.73773
G1 X128.851 Y102.006 E8.79157
G1 X130.04 Y102.34 E8.87408
G1 X131.165 Y102.848 E8.95654
G1 X131.845 Y103.263 E9.00976
G1 X132.5 Y103.76 E9.06469
G1 X132.878 Y104.101 E9.0987
G1 X133.363 Y104.603 E9.14533
G1 X133.872 Y105.241 E9.19985
G1 X134.304 Y105.91 E9.25305
G1 X134.847 Y107.037 E9.33662
G1 X135.1 Y107.792 E9.38981
G1 X135.277 Y108.568 E9.44298
G1 X135.372 Y109.518 E9.50676
G1 X135.399 Y110.129 E9.54762
G1 X135.342 Y111.011 E9.60667
G1 X135.201 Y111.814 E9.66114
G1 X134.985 Y112.581 E9.71437
G1 X134.499 Y113.734 E9.79796
G1 X134.101 Y114.424 E9.85117
G1 X133.636 Y115.07 E9.90434
G1 X132.784 Y115.988 E9.98801
G1 X132.167 Y116.505 E10.04179
G1 X131.75 Y116.798 E10.07584
G1 X131.154 Y117.159 E10.12239
G1 X130.419 Y117.513 E10.17689
G1 X129.655 Y117.791 E10.2312
G1 X128.867 Y117.992 E10.28553
G1 X128.063 Y118.113 E10.33985
G1 X127.277 Y118.152 E10.39242
G1 X127.277 Y118.152 F7800
G1 X127.231 Y118.691
G1 F1800
G1 X84.828 Y118.691 E13.22517
G1 X84.828 Y101.309 E14.38638
G1 X127.56 Y101.318 E17.24111
G1 X128.111 Y101.353 E17.27799
G1 X128.964 Y101.481 E17.33561
G1 X130.224 Y101.836 E17.42306
G1 X131.416 Y102.374 E17.51043
G1 X132.147 Y102.82 E17.56764
G1 X132.842 Y103.347 E17.62591
G1 X133.25 Y103.716 E17.66266
G1 X133.766 Y104.249 E17.71222
G1 X134.307 Y104.927 E17.77017
G1 X134.772 Y105.647 E17.82743
G1 X135.344 Y106.835 E17.91552
G1 X135.616 Y107.646 E17.97267
G1 X135.807 Y108.482 E18.02996
G1 X135.905 Y109.465 E18.09596
G1 X135.935 Y110.135 E18.14076
G1 X135.874 Y111.079 E18.20396
G1 X135.723 Y111.934 E18.26196
G1 X135.491 Y112.758 E18.31915
G1 X134.979 Y113.973 E18.40723
G1 X134.551 Y114.715 E18.46445
G1 X134.051 Y115.41 E18.52165
G1 X133.154 Y116.376 E18.60972
G1 X132.494 Y116.93 E18.66729
G1 X132.043 Y117.247 E18.70412
G1 X131.409 Y117.631 E18.75364
G1 X130.627 Y118.007 E18.81161
G1 X129.813 Y118.304 E18.8695
G1 X128.973 Y118.517 E18.92739
G1 X128.117 Y118.646 E18.98522
G1 X127.291 Y118.688 E19.04047
G1 X127.291 Y118.688 F7800
G1 X127.244 Y119.226
;TYPE:External perimeter
G1 F1800
G1 X84.802 Y119.226 E21.87582
G1 X84.59 Y119.204 E21.89006
G1 X84.362 Y119.1 E21.9068
G1 X84.292 Y118.97 E21.91666
G1 X84.292 Y101.139 E23.10787
G1 X84.336 Y100.932 E23.12201
G1 X84.438 Y100.863 E23.13024
G1 X84.776 Y100.774 E23.15359
G1 X127.577 Y100.782 E26.01293
G1 X128.168 Y100.82 E26.05249
G1 X129.077 Y100.957 E26.1139
G1 X130.407 Y101.331 E26.2062
G1 X131.667 Y101.899 E26.29853
G1 X132.449 Y102.377 E26.35976
G1 X133.183 Y102.934 E26.42132
G1 X133.623 Y103.33 E26.46087
G1 X134.169 Y103.895 E26.51336
G1 X134.742 Y104.614 E26.57478
G1 X135.24 Y105.385 E26.6361
G1 X135.841 Y106.633 E26.72864
G1 X136.133 Y107.501 E26.78982
G1 X136.337 Y108.395 E26.85108
G1 X136.438 Y109.412 E26.91936
G1 X136.471 Y110.141 E26.96811
G1 X136.406 Y111.147 E27.03546
G1 X136.246 Y112.053 E27.09692
G1 X135.998 Y112.935 E27.15813
G1 X135.46 Y114.212 E27.2507
G1 X135.002 Y115.006 E27.31194
G1 X134.466 Y115.75 E27.3732
G1 X133.524 Y116.765 E27.46571
G1 X132.821 Y117.356 E27.52707
G1 X132.336 Y117.696 E27.56664
G1 X131.664 Y118.102 E27.61909
G1 X130.835 Y118.501 E27.68055
G1 X129.971 Y118.816 E27.74199
G1 X129.08 Y119.043 E27.80341
G1 X128.17 Y119.18 E27.86489
G1 X127.304 Y119.223 E27.92281
G1 X126.904 Y119.226 F7800
G1 E25.92281 F2400
G92 E0
G1 X134.108 Y105.903 F7800
G1 E2 F2400
;TYPE:Solid infill
;WIDTH:0.604534
G1 F1800
G1 X132.567 Y104.361 E2.14687
G1 X132.244 Y104.07 E2.17616
G1 X131.618 Y103.596 E2.22906
G1 X130.977 Y103.204 E2.27968
G1 X130.373 Y102.931 E2.32434
G1 X134.329 Y106.887 E2.70125
G1 X134.474 Y107.189 E2.72382
G1 X134.713 Y107.901 E2.77442
G1 X134.753 Y108.075 E2.78645
G1 X129.199 Y102.521 E3.31562
G1 X128.766 Y102.399 E3.34593
G1 X128.233 Y102.319 E3.38224
G1 X134.917 Y109.004 E4.01912
G1 X135.001 Y109.851 E4.07646
G1 X127.405 Y102.255 E4.80018
G1 X126.641 Y102.255 E4.85165
G1 X134.973 Y110.587 E5.6455
G1 X134.943 Y110.96 E5.67071
G1 X134.889 Y111.267 E5.69171
G1 X125.877 Y102.255 E6.55034
G1 X125.113 Y102.255 E6.60181
G1 X134.759 Y111.901 E7.52085
G1 X134.586 Y112.492 E7.56234
G1 X124.349 Y102.254 E8.53774
G1 X123.585 Y102.254 E8.58921
G1 X134.36 Y113.029 E9.61582
G1 X134.132 Y113.566 E9.65512
G1 X122.82 Y102.254 E10.73289
G1 X122.056 Y102.254 E10.78436
G1 X133.852 Y114.05 E11.90824
G1 X133.546 Y114.507 E11.94529
G1 X121.292 Y102.254 E13.11276
G1 X120.528 Y102.254 E13.16423
G1 X133.212 Y114.937 E14.37267
G1 X132.844 Y115.333 E14.40909
G1 X119.764 Y102.253 E15.65531
G1 X119 Y102.253 E15.70678
G1 X132.472 Y115.725 E16.99035
G1 X132.057 Y116.074 E17.02688
G1 X118.236 Y102.253 E18.3437
G1 X117.472 Y102.253 E18.39517
G1 X131.619 Y116.4 E19.74305
G1 X131.148 Y116.693 E19.78042
G1 X116.708 Y102.253 E21.15622
G1 X115.944 Y102.253 E21.20769
G1 X130.648 Y116.957 E22.60864
G1 X130.121 Y117.194 E22.64757
G1 X115.18 Y102.253 E24.0711
G1 X114.416 Y102.252 E24.12257
G1 X129.561 Y117.398 E25.56558
G1 X128.955 Y117.555 E25.60775
G1 X113.652 Y102.252 E27.06577
G1 X112.888 Y102.252 E27.11724
G1 X128.306 Y117.67 E28.58622
G1 X128.023 Y117.713 E28.6055
G1 X127.605 Y117.733 E28.63369
G1 X112.124 Y102.252 E30.10867
G1 X111.36 Y102.252 E30.16014
G1 X126.861 Y117.753 E31.63703
G1 X126.097 Y117.753 E31.6885
G1 X110.596 Y102.252 E33.16539
G1 X109.832 Y102.252 E33.21686
G1 X125.334 Y117.753 E34.69379
G1 X124.57 Y117.753 E34.74526
G1 X109.068 Y102.251 E36.22224
G1 X108.304 Y102.251 E36.27371
G1 X123.806 Y117.753 E37.75069
G1 X123.042 Y117.753 E37.80216
G1 X107.54 Y102.251 E39.27914
G1 X106.776 Y102.251 E39.33061
G1 X122.278 Y117.753 E40.80759
G1 X121.514 Y117.753 E40.85906
G1 X106.012 Y102.251 E42.33604
G1 X105.248 Y102.251 E42.38751
G1 X120.75 Y117.753 E43.86449
G1 X119.986 Y117.753 E43.91596
G1 X104.483 Y102.25 E45.39304
G1 X103.719 Y102.25 E45.44451
G1 X119.222 Y117.753 E46.92159
G1 X118.459 Y117.753 E46.97299
G1 X102.955 Y102.25 E48.45011
G1 X102.191 Y102.25 E48.50158
G1 X117.695 Y117.753 E49.9787
G1 X116.931 Y117.753 E50.03017
G1 X101.427 Y102.25 E51.50729
G1 X100.663 Y102.25 E51.55876
G1 X116.167 Y117.753 E53.03588
G1 X115.403 Y117.753 E53.08735
G1 X99.899 Y102.25 E54.56447
G1 X99.135 Y102.249 E54.61594
G1 X114.639 Y117.753 E56.09311
G1 X113.875 Y117.753 E56.14458
G1 X98.371 Y102.249 E57.62175
G1 X97.607 Y102.249 E57.67322
G1 X113.111 Y117.753 E59.15039
G1 X112.347 Y117.753 E59.20186
G1 X96.843 Y102.249 E60.67903
G1 X96.079 Y102.249 E60.7305
G1 X111.584 Y117.753 E62.20772
G1 X110.82 Y117.753 E62.25919
G1 X95.315 Y102.249 E63.73641
G1 X94.551 Y102.249 E63.78788
G1 X110.056 Y117.753 E65.2651
G1 X109.292 Y117.753 E65.31657
G1 X93.787 Y102.248 E66.79384
G1 X93.023 Y102.248 E66.84531
G1 X108.528 Y117.753 E68.32258
G1 X107.764 Y117.753 E68.37405
G1 X92.259 Y102.248 E69.85132
G1 X91.495 Y102.248 E69.90279
G1 X107 Y117.753 E71.38006
G1 X106.236 Y117.753 E71.43153
G1 X90.731 Y102.248 E72.9088
G1 X89.967 Y102.248 E72.96027
G1 X105.472 Y117.753 E74.43754
G1 X104.709 Y117.753 E74.48894
G1 X89.203 Y102.248 E75.96625
G1 X88.439 Y102.247 E76.01772
G1 X103.945 Y117.753 E77.49508
G1 X103.181 Y117.753 E77.54655
G1 X87.675 Y102.247 E79.02391
G1 X86.911 Y102.247 E79.07538
G1 X102.417 Y117.753 E80.55274
G1 X101.653 Y117.753 E80.60421
G1 X86.147 Y102.247 E82.08157
G1 X85.765 Y102.247 E82.10731
G1 X85.765 Y102.629 E82.13305
G1 X100.889 Y117.753 E83.57402
G1 X100.125 Y117.753 E83.62549
G1 X85.765 Y103.393 E84.99366
G1 X85.765 Y104.157 E85.04513
G1 X99.361 Y117.753 E86.34051
G1 X98.597 Y117.753 E86.39198
G1 X85.765 Y104.921 E87.61457
G1 X85.765 Y105.685 E87.66604
G1 X97.834 Y117.753 E88.81589
G1 X97.07 Y117.753 E88.86736
G1 X85.765 Y106.449 E89.94442
G1 X85.765 Y107.213 E89.99589
G1 X96.306 Y117.753 E91.00015
G1 X95.542 Y117.753 E91.05162
G1 X85.765 Y107.976 E91.98314
G1 X85.765 Y108.74 E92.03461
G1 X94.778 Y117.753 E92.89334
G1 X94.014 Y117.753 E92.94481
G1 X85.765 Y109.504 E93.73075
G1 X85.765 Y110.268 E93.78222
G1 X93.25 Y117.753 E94.49537
G1 X92.486 Y117.753 E94.54684
G1 X85.765 Y111.032 E95.1872
G1 X85.765 Y111.796 E95.23867
G1 X91.722 Y117.753 E95.80623
G1 X90.958 Y117.753 E95.8577
G1 X85.765 Y112.56 E96.35247
G1 X85.765 Y113.324 E96.40394
G1 X90.195 Y117.753 E96.82597
G1 X89.431 Y117.753 E96.87744
G1 X85.765 Y114.088 E97.22668
G1 X85.765 Y114.852 E97.27815
G1 X88.667 Y117.753 E97.5546
G1 X87.903 Y117.753 E97.60607
G1 X85.765 Y115.615 E97.80977
G1 X85.765 Y116.379 E97.86124
G1 X87.139 Y117.753 E97.99215
G1 X86.375 Y117.753 E98.04362
G1 X85.524 Y116.902 E98.1247
;LAYER_CHANGE
;Z:0.6
;HEIGHT:0.3
G1 Z.6 F7800
G1 E96.1247 F2400
G92 E0
G1 X85.524 Y116.902 Z.6 F7800
G1 X86.25 Y97.774
G1 E2 F2400
;TYPE:Support material
;WIDTH:0.4
G1 F3600
G1 X86.204 Y97.291 E2.02031
G1 X86.401 Y96.842 E2.04083
G1 X86.719 Y96.594 E2.05771
G1 X87.166 Y96.517 E2.0767
G1 X87.236 Y96.123 E2.09345
G1 X87.765 Y96.3 E2.1168
G1 X88.192 Y96.74 E2.14247
G1 X88.383 Y97.376 E2.17027
G1 X88.267 Y98.003 E2.19696
G1 X87.852 Y98.515 E2.22455
G1 X87.565 Y98.68 E2.23841
G1 X86.931 Y98.768 E2.2652
G1 X86.339 Y98.539 E2.29177
G1 X85.901 Y97.987 E2.32127
G1 X85.799 Y97.294 E2.35059
G1 X86.081 Y96.597 E2.38206
G1 X86.558 Y96.225 E2.40738
G1 X87.186 Y96.115 E2.43407
G1 X87.186 Y96.115 F7800
G1 X87.302 Y95.728
G1 F3600
G1 X87.976 Y95.957 E2.46387
G1 X88.294 Y96.212 E2.48093
G1 X88.54 Y96.537 E2.49799
G1 X88.785 Y97.337 E2.53301
G1 X88.767 Y97.761 E2.55077
G1 X88.58 Y98.259 E2.57304
G1 X88.095 Y98.837 E2.60462
G1 X87.442 Y99.131 E2.6346
G1 X86.884 Y99.168 E2.65801
G1 X86.175 Y98.908 E2.68962
G1 X85.77 Y98.545 E2.71239
G1 X85.456 Y97.923 E2.74156
G1 X85.4 Y97.258 E2.7695
G1 X85.55 Y96.707 E2.7934
G1 X86.041 Y96.063 E2.8273
G1 X86.792 Y95.737 E2.86157
G1 X87.252 Y95.72 E2.88084
G1 E.88084 F2400
G92 E0
G1 X87.252 Y95.72 F7800
G1 X95.949 Y97.528
G1 E2 F2400
G1 F3600
G1 X96.003 Y97.144 E2.01623
G1 X96.174 Y96.847 E2.03058
G1 X96.505 Y96.581 E2.04836
G1 X96.959 Y96.518 E2.06755
G1 X97.025 Y96.124 E2.08427
G1 X97.273 Y96.175 E2.09487
G1 X97.785 Y96.494 E2.12012
G1 X98.066 Y97.001 E2.14438
G1 X98.06 Y97.638 E2.17105
G1 X97.87 Y98.253 E2.19799
G1 X97.346 Y98.666 E2.22592
G1 X96.71 Y98.776 E2.25294
G1 X96.114 Y98.572 E2.27931
G1 X95.671 Y98.054 E2.30784
G1 X95.547 Y97.38 E2.33653
G1 X95.625 Y97.012 E2.35228
