; generated by PrusaSlicer 2.8.1+linux-x64-GTK3 on 2024-10-16 at 08:41:45 UTC

; 

; external perimeters extrusion width = 0.45mm
; perimeters extrusion width = 0.45mm
; infill extrusion width = 0.45mm
; solid infill extrusion width = 0.45mm
; top infill extrusion width = 0.40mm
; support material extrusion width = 0.40mm
; first layer extrusion width = 0.60mm

M190 S60 ; set bed temperature and wait for it to be reached
M104 S200 ; set temperature
;TYPE:Custom
G28 ; home all axes
G1 Z5 F5000 ; lift nozzle
M109 S200 ; set temperature and wait for it to be reached
G21 ; set units to millimeters
G90 ; use absolute coordinates
M82 ; use absolute distances for extrusion
G92 E0
; Filament gcode
M107
;LAYER_CHANGE
;Z:0.3
;HEIGHT:0.3
G1 E-2 F2400
G1 Z.3 F7800
G1 X95.197 Y86.24
G1 E0 F2400
;TYPE:Skirt/Brim
;WIDTH:0.6
G1 F1800
G1 X96.233 Y85.106 E.10261
G1 X97.011 Y84.507 E.1682
G1 X97.808 Y84.048 E.22964
G1 X98.716 Y83.673 E.29527
G1 X99.667 Y83.426 E.36091
G1 X101 Y83.298 E.45037
G1 X119.17 Y83.301 E1.66422
G1 X120.596 Y83.48 E1.76023
G1 X121.596 Y83.786 E1.83009
G1 X122.854 Y84.42 E1.9242
G1 X123.695 Y85.043 E1.99412
G1 X124.707 Y86.112 E2.09246
G1 X125.452 Y87.308 E2.18659
G1 X125.847 Y88.276 E2.25643
G1 X126.15 Y89.662 E2.35121
G1 X126.202 Y90.5 E2.4073
G1 X126.202 Y129.5 E5.01271
G1 X126.102 Y130.676 E5.09156
G1 X125.714 Y132.096 E5.1899
G1 X125.298 Y132.986 E5.25553
G1 X124.765 Y133.811 E5.32115
G1 X124.124 Y134.556 E5.38681
G1 X123.438 Y135.168 E5.44823
G1 X122.135 Y135.98 E5.5508
G1 X121.223 Y136.347 E5.61647
G1 X120.271 Y136.586 E5.68204
G1 X119 Y136.702 E5.7673
G1 X100.83 Y136.699 E6.98115
G1 X99.404 Y136.52 E7.07716
G1 X98.404 Y136.214 E7.14702
G1 X97.514 Y135.798 E7.21265
G1 X96.689 Y135.265 E7.27827
G1 X95.944 Y134.624 E7.34393
G1 X95.293 Y133.888 E7.40957
G1 X94.749 Y133.07 E7.4752
G1 X94.321 Y132.186 E7.54081
G1 X94.018 Y131.251 E7.60647
G1 X93.838 Y130.233 E7.67553
G1 X93.798 Y90.5 E10.32991
G1 X93.898 Y89.324 E10.40876
G1 X94.286 Y87.904 E10.5071
G1 X94.702 Y87.014 E10.57273
G1 X95.165 Y86.29 E10.63014
G1 E8.63014 F2400
G92 E0
G1 X95.165 Y86.29 F7800
G92 E0
G1 X102.222 Y125.864
G1 E2 F2400
;TYPE:Perimeter
;WIDTH:0.779725
G1 F1800
G1 X102.203 Y125.613 E2.02246
;WIDTH:0.754053
G1 X102.204 Y109.441 E3.41357
;WIDTH:0.780879
G1 X102.234 Y109.094 E3.4447
G1 X102.339 Y108.87 E3.46681
;WIDTH:0.735659
G1 X102.445 Y108.647 E3.48748
;WIDTH:0.690439
G1 X102.55 Y108.423 E3.5068
;WIDTH:0.645219
G1 X102.656 Y108.2 E3.52469
;WIDTH:0.6
G1 X102.929 Y107.831 E3.55535
G1 X103.316 Y107.481 E3.59021
G1 X103.709 Y107.245 E3.62083
G1 X104.168 Y107.074 E3.65355
G1 X104.722 Y106.988 E3.691
G1 X115.265 Y106.987 E4.39533
G1 X115.776 Y107.056 E4.42978
G1 X116.353 Y107.268 E4.47085
G1 X116.861 Y107.613 E4.51187
G1 X117.27 Y108.072 E4.55294
G1 X117.561 Y108.634 E4.59522
;WIDTH:0.646533
G1 X117.609 Y108.717 E4.60218
;WIDTH:0.693067
G1 X117.656 Y108.8 E4.60966
;WIDTH:0.739601
G1 X117.704 Y108.883 E4.61773
;WIDTH:0.786135
G1 X117.752 Y108.966 E4.62636
G1 X117.797 Y109.498 E4.67442
;WIDTH:0.753364
G1 X117.797 Y125.613 E6.05924
;WIDTH:0.784348
G1 X117.756 Y126.144 E6.10706
G1 X117.714 Y126.21 E6.11408
;WIDTH:0.738961
G1 X117.671 Y126.275 E6.12064
;WIDTH:0.693575
G1 X117.629 Y126.34 E6.12671
;WIDTH:0.648188
G1 X117.587 Y126.405 E6.13235
;WIDTH:0.602802
G1 X117.28 Y127.023 E6.17869
;WIDTH:0.6
G1 X116.956 Y127.417 E6.21277
G1 X116.634 Y127.675 E6.24033
G1 X116.004 Y127.989 E6.28736
;WIDTH:0.646422
G1 X115.952 Y128.028 E6.29208
;WIDTH:0.692845
G1 X115.9 Y128.067 E6.29718
;WIDTH:0.739268
G1 X115.848 Y128.106 E6.30265
;WIDTH:0.785691
G1 X115.796 Y128.145 E6.3085
;WIDTH:0.832114
G1 X115.743 Y128.185 E6.31486
G1 X115.208 Y128.226 E6.36624
;WIDTH:0.800769
;WIDTH:0.801458
G1 X104.735 Y128.225 E7.32905
;WIDTH:0.839549
G1 X104.203 Y128.173 E7.38073
G1 X104.145 Y128.131 E7.38765
;WIDTH:0.791639
G1 X104.086 Y128.088 E7.39427
;WIDTH:0.743729
G1 X104.027 Y128.046 E7.40041
;WIDTH:0.695819
G1 X103.969 Y128.003 E7.4061
;WIDTH:0.647909
G1 X103.91 Y127.96 E7.41141
;WIDTH:0.6
G1 X103.366 Y127.675 E7.45244
G1 X102.907 Y127.266 E7.49351
G1 X102.551 Y126.733 E7.53633
G1 X102.422 Y126.426 E7.55858
;WIDTH:0.644931
G1 X102.376 Y126.342 E7.56551
;WIDTH:0.689862
G1 X102.331 Y126.258 E7.57294
;WIDTH:0.734793
G1 X102.285 Y126.175 E7.58087
;WIDTH:0.779725
G1 X102.24 Y126.091 E7.58937
G1 X102.227 Y125.924 E7.60432
G1 X102.227 Y125.924 F7800
G1 X102.847 Y125.803
;WIDTH:0.6
G1 F1800
G1 X102.815 Y125.613 E7.61719
G1 X102.817 Y109.441 E8.69757
G1 X102.952 Y108.802 E8.7412
G1 X103.086 Y108.519 E8.76212
G1 X103.359 Y108.15 E8.79278
G1 X103.592 Y107.94 E8.81373
G1 X103.985 Y107.704 E8.84435
G1 X104.496 Y107.561 E8.8798
G1 X105.118 Y107.521 E8.92144
G1 X115.265 Y107.523 E9.59931
G1 X115.685 Y107.584 E9.62766
G1 X116.136 Y107.757 E9.65993
G1 X116.531 Y108.035 E9.6922
G1 X116.848 Y108.401 E9.72455
G1 X117.07 Y108.848 E9.75789
G1 X117.185 Y109.498 E9.80199
G1 X117.185 Y125.613 E10.87856
G1 X117.09 Y126.202 E10.91842
G1 X116.856 Y126.696 E10.95494
G1 X116.532 Y127.076 E10.9883
G1 X116.117 Y127.362 E11.02197
G1 X115.631 Y127.543 E11.05662
G1 X115.208 Y127.59 E11.08505
G1 X104.735 Y127.588 E11.7847
G1 X104.315 Y127.528 E11.81304
G1 X103.864 Y127.354 E11.84533
G1 X103.412 Y127.027 E11.8826
G1 X103.152 Y126.71 E11.90999
G1 X102.916 Y126.219 E11.94638
G1 X102.857 Y125.862 E11.97055
G1 X102.857 Y125.862 F7800
G1 X103.368 Y125.752
;TYPE:External perimeter
G1 F1800
G1 X103.351 Y125.613 E11.97991
G1 X103.352 Y109.442 E13.06022
G1 X103.472 Y108.932 E13.09522
G1 X103.516 Y108.838 E13.10215
G1 X103.867 Y108.399 E13.1397
G1 X104.352 Y108.13 E13.17675
G1 X104.793 Y108.057 E13.20661
G1 X115.265 Y108.058 E13.9062
G1 X115.656 Y108.13 E13.93276
G1 X115.975 Y108.281 E13.95634
G1 X116.248 Y108.504 E13.97989
G1 X116.46 Y108.789 E14.00362
G1 X116.599 Y109.132 E14.02834
G1 X116.649 Y109.498 E14.05302
G1 X116.649 Y125.613 E15.12959
G1 X116.594 Y125.999 E15.15564
G1 X116.432 Y126.369 E15.18262
G1 X116.202 Y126.653 E15.20703
G1 X115.912 Y126.867 E15.23111
G1 X115.525 Y127.017 E15.25884
G1 X115.208 Y127.054 E15.28016
G1 X104.735 Y127.053 E15.97981
G1 X104.344 Y126.981 E16.00637
G1 X104.025 Y126.831 E16.02992
G1 X103.752 Y126.607 E16.05351
G1 X103.539 Y126.319 E16.07744
G1 X103.391 Y125.942 E16.1045
G1 X103.375 Y125.811 E16.11332
G1 X103.354 Y125.412 F7800
G1 E14.11332 F2400
G92 E0
G1 X115.227 Y98.478 F7800
G1 E2 F2400
;TYPE:Perimeter
G1 F1800
G1 X115.338 Y99.367 E2.05985
G1 X115.259 Y100.427 E2.13086
G1 X114.971 Y101.451 E2.20192
G1 X114.486 Y102.397 E2.27294
G1 X114.094 Y102.905 E2.31581
G1 X113.744 Y103.315 E2.35182
G1 X113.008 Y103.912 E2.41513
G1 X112.288 Y104.327 E2.47065
G1 X111.318 Y104.675 E2.5395
G1 X110.266 Y104.833 E2.61057
G1 X109.204 Y104.78 E2.68161
G1 X108.174 Y104.518 E2.75261
G1 X107.216 Y104.057 E2.82363
G1 X106.368 Y103.415 E2.89468
G1 X106.222 Y103.279 E2.90801
G1 X105.664 Y102.617 E2.96585
G1 X105.133 Y101.696 E3.03687
G1 X104.794 Y100.688 E3.10792
G1 X104.662 Y99.633 E3.17895
G1 X104.741 Y98.573 E3.24996
G1 X105.029 Y97.549 E3.32102
G1 X105.514 Y96.603 E3.39204
G1 X106.065 Y95.889 E3.45229
G1 X106.781 Y95.238 E3.51694
G1 X107.683 Y94.689 E3.58748
G1 X108.682 Y94.325 E3.65851
G1 X109.734 Y94.167 E3.72958
G1 X110.796 Y94.22 E3.80062
G1 X111.826 Y94.482 E3.87162
G1 X112.784 Y94.943 E3.94264
G1 X113.632 Y95.585 E4.01369
G1 X114.336 Y96.383 E4.08478
G1 X114.867 Y97.304 E4.1558
G1 X115.206 Y98.312 E4.22685
G1 X115.219 Y98.418 E4.23398
G1 X115.219 Y98.418 F7800
G1 X114.706 Y98.57
G1 F1800
G1 X114.805 Y99.42 E4.29115
G1 X114.726 Y100.374 E4.3551
G1 X114.459 Y101.293 E4.41903
G1 X114.015 Y102.141 E4.48298
G1 X113.684 Y102.561 E4.5187
G1 X113.298 Y102.996 E4.55755
G1 X112.674 Y103.493 E4.61084
G1 X112.032 Y103.857 E4.66014
G1 X111.147 Y104.167 E4.72278
G1 X110.2 Y104.302 E4.78668
G1 X109.244 Y104.246 E4.85066
G1 X108.319 Y104.002 E4.91457
G1 X107.46 Y103.58 E4.97851
G1 X106.614 Y102.915 E5.0504
G1 X106.075 Y102.273 E5.1064
G1 X105.603 Y101.44 E5.17036
G1 X105.306 Y100.531 E5.23425
G1 X105.195 Y99.58 E5.29821
G1 X105.274 Y98.626 E5.36216
G1 X105.541 Y97.707 E5.42609
G1 X105.985 Y96.859 E5.49004
G1 X106.481 Y96.227 E5.54371
G1 X107.133 Y95.642 E5.60223
G1 X107.951 Y95.153 E5.6659
G1 X108.853 Y94.833 E5.72984
G1 X109.8 Y94.698 E5.79374
G1 X110.756 Y94.754 E5.85772
G1 X111.681 Y94.998 E5.92163
G1 X112.54 Y95.42 E5.98557
G1 X113.298 Y96.004 E6.04949
G1 X113.925 Y96.727 E6.11342
G1 X114.397 Y97.56 E6.17738
G1 X114.694 Y98.469 E6.24127
G1 X114.699 Y98.51 E6.24403
G1 X114.186 Y98.661 F7800
;TYPE:External perimeter
G1 F1800
G1 X114.272 Y99.473 E6.29858
G1 X114.193 Y100.32 E6.35541
G1 X113.947 Y101.135 E6.41228
G1 X113.545 Y101.885 E6.46913
G1 X112.964 Y102.577 E6.52949
G1 X112.34 Y103.075 E6.58282
G1 X111.776 Y103.386 E6.62585
G1 X110.977 Y103.659 E6.68226
G1 X110.133 Y103.77 E6.73913
G1 X109.284 Y103.712 E6.79598
G1 X108.464 Y103.487 E6.85279
G1 X107.704 Y103.103 E6.90967
G1 X107.007 Y102.55 E6.96911
G1 X106.485 Y101.929 E7.02331
G1 X106.073 Y101.184 E7.08018
G1 X105.818 Y100.373 E7.13697
G1 X105.728 Y99.527 E7.19381
G1 X105.807 Y98.68 E7.25064
G1 X106.053 Y97.865 E7.30751
G1 X106.455 Y97.115 E7.36436
G1 X106.896 Y96.565 E7.41146
G1 X107.486 Y96.046 E7.46395
G1 X108.219 Y95.617 E7.52069
G1 X109.023 Y95.341 E7.57748
G1 X109.867 Y95.23 E7.63435
G1 X110.716 Y95.288 E7.6912
G1 X111.536 Y95.513 E7.74801
G1 X112.296 Y95.897 E7.80489
G1 X112.964 Y96.423 E7.86169
G1 X113.515 Y97.071 E7.91851
G1 X113.927 Y97.816 E7.97538
G1 X114.175 Y98.603 E8.0305
G1 X114.221 Y99 F7800
G1 E6.0305 F2400
G92 E0
G1 X118.563 Y128.968 F7800
G1 E2 F2400
;TYPE:Perimeter
G1 F1800
G1 X118.563 Y129.063 E2.00635
G1 X116.218 Y129.063 E2.16301
;WIDTH:0.645034
G1 X116.118 Y129.04 E2.17044
;WIDTH:0.690069
G1 X116.017 Y129.018 E2.17851
;WIDTH:0.735104
G1 X115.917 Y128.995 E2.18709
;WIDTH:0.780139
G1 X115.817 Y128.973 E2.19623
;WIDTH:0.825173
G1 X115.716 Y128.95 E2.20606
G1 X115.208 Y128.962 E2.25428
;WIDTH:0.801458
G1 X104.735 Y128.962 E3.21709
;WIDTH:0.839549
G1 X104.137 Y128.943 E3.27494
G1 X104.045 Y128.967 E3.28413
;WIDTH:0.791639
G1 X103.953 Y128.991 E3.29275
;WIDTH:0.743729
G1 X103.861 Y129.015 E3.30081
;WIDTH:0.695819
G1 X103.769 Y129.039 E3.3083
;WIDTH:0.647909
G1 X103.677 Y129.063 E3.31522
;WIDTH:0.6
G1 X101.437 Y129.063 E3.46486
G1 X101.437 Y126.624 E3.6278
;WIDTH:0.644931
G1 X101.46 Y126.502 E3.63679
;WIDTH:0.689862
G1 X101.482 Y126.38 E3.64646
;WIDTH:0.734793
G1 X101.505 Y126.258 E3.65684
;WIDTH:0.779725
G1 X101.527 Y126.137 E3.66781
G1 X101.514 Y125.613 E3.71458
;WIDTH:0.754053
G1 X101.514 Y109.441 E5.10569
;WIDTH:0.780879
G1 X101.528 Y109.007 E5.14449
G1 X101.505 Y108.892 E5.15497
;WIDTH:0.735659
G1 X101.483 Y108.778 E5.16469
;WIDTH:0.690439
G1 X101.46 Y108.663 E5.17385
;WIDTH:0.645219
G1 X101.437 Y108.549 E5.18228
;WIDTH:0.6
G1 X101.437 Y90.938 E6.35879
G1 X118.563 Y90.938 E7.5029
G1 X118.563 Y108.425 E8.67113
;WIDTH:0.646533
G1 X118.539 Y108.547 E8.68016
;WIDTH:0.693067
G1 X118.516 Y108.67 E8.68997
;WIDTH:0.739601
G1 X118.493 Y108.792 E8.70043
;WIDTH:0.786135
G1 X118.47 Y108.914 E8.71161
G1 X118.486 Y109.498 E8.7642
;WIDTH:0.753364
G1 X118.486 Y125.613 E10.14902
;WIDTH:0.777589
G1 X118.474 Y126.116 E10.19378
G1 X118.496 Y126.236 E10.20463
;WIDTH:0.733893
G1 X118.518 Y126.356 E10.21482
;WIDTH:0.690196
G1 X118.539 Y126.476 E10.22433
;WIDTH:0.646499
G1 X118.561 Y126.597 E10.23326
;WIDTH:0.602802
G1 X118.563 Y126.93 E10.25562
;WIDTH:0.6
G1 X118.563 Y128.908 E10.38776
G1 X118.563 Y128.908 F7800
G1 X119.035 Y129.564
G1 F1800
G1 X118.937 Y129.598 E10.39469
G1 X101.112 Y129.598 E11.5855
G1 X100.947 Y129.567 E11.59672
G1 X100.902 Y129.437 E11.60591
G1 X100.902 Y90.612 E14.19963
G1 X100.931 Y90.457 E14.21016
G1 X101.047 Y90.403 E14.21871
G1 X118.895 Y90.403 E15.41105
G1 X119.044 Y90.435 E15.42123
G1 X119.098 Y90.606 E15.43321
G1 X119.098 Y129.388 E18.02406
G1 X119.072 Y129.527 E18.03351
G1 X119.072 Y129.527 F7800
G1 X119.292 Y130.045
;TYPE:External perimeter
G1 F1800
G1 X118.977 Y130.134 E18.05538
G1 X101.031 Y130.134 E19.25427
G1 X100.663 Y130.024 E19.27993
G1 X100.465 Y129.829 E19.2985
G1 X100.366 Y129.477 E19.32293
G1 X100.366 Y90.612 E21.91932
G1 X100.406 Y90.349 E21.93709
G1 X100.517 Y90.098 E21.95542
G1 X100.715 Y89.946 E21.9721
G1 X100.996 Y89.867 E21.9916
G1 X118.895 Y89.867 E23.18735
G1 X119.255 Y89.928 E23.21174
G1 X119.454 Y90.069 E23.22803
G1 X119.577 Y90.255 E23.24293
G1 X119.634 Y90.606 E23.26669
G1 X119.634 Y129.469 E25.86295
G1 X119.524 Y129.837 E25.88861
G1 X119.344 Y130.02 E25.90576
G1 X118.957 Y130.12 F7800
G1 E23.90576 F2400
G92 E0
G1 X118.4 Y127.516 F7800
G1 E2 F2400
;TYPE:Solid infill
;WIDTH:0.674546
G1 F1800
G1 X117.802 Y126.917 E2.06441
G1 X117.603 Y127.264 E2.09485
G1 X117.459 Y127.437 E2.11198
G1 X118.16 Y128.138 E2.18743
G1 X118.161 Y128.661 E2.22723
G1 X117.82 Y128.661 E2.25318
G1 X117.03 Y127.872 E2.33815
G1 X116.875 Y127.997 E2.3533
G1 X116.507 Y128.211 E2.3857
G1 X117.198 Y128.902 E2.46007
G1 E.46007 F2400
G92 E0
G1 X101.598 Y126.935 F7800
G1 E2 F2400
;WIDTH:0.635929
G1 F1800
G1 X103.324 Y128.661 E2.17401
G1 X102.516 Y128.661 E2.23161
G1 X101.598 Y127.743 E2.32416
G1 E.32416 F2400
G92 E0
G1 X101.598 Y127.743 F7800
G1 X117.296 Y91.099
G1 E2 F2400
;WIDTH:0.611042
G1 F1800
G1 X118.161 Y91.964 E2.08341
G1 X118.161 Y92.737 E2.13612
G1 X116.764 Y91.34 E2.27083
G1 X115.991 Y91.34 E2.32354
G1 X118.161 Y93.51 E2.53278
G1 X118.161 Y94.283 E2.58549
G1 X115.218 Y91.34 E2.86927
G1 X114.444 Y91.34 E2.92204
G1 X118.161 Y95.056 E3.2804
G1 X118.161 Y95.83 E3.33317
G1 X113.671 Y91.34 E3.76612
G1 X112.898 Y91.34 E3.81883
G1 X118.161 Y96.603 E4.32631
G1 X118.161 Y97.376 E4.37902
G1 X112.125 Y91.34 E4.96104
G1 X111.352 Y91.34 E5.01375
G1 X118.161 Y98.149 E5.67031
G1 X118.161 Y98.922 E5.72302
G1 X110.579 Y91.34 E6.45411
G1 X109.806 Y91.34 E6.50682
G1 X118.161 Y99.695 E7.31245
G1 X118.161 Y100.468 E7.36516
G1 X115.458 Y97.765 E7.6258
G1 X115.592 Y98.2 E7.65683
G1 X115.658 Y98.527 E7.67958
G1 X115.679 Y98.76 E7.69553
G1 X118.161 Y101.241 E7.93481
G1 X118.161 Y102.014 E7.98752
G1 X115.738 Y99.592 E8.22111
G1 X115.67 Y100.297 E8.2694
G1 X118.161 Y102.787 E8.50955
G1 X118.161 Y103.56 E8.56226
G1 X115.54 Y100.94 E8.81494
G1 X115.364 Y101.537 E8.85738
G1 X118.161 Y104.334 E9.12708
G1 X118.161 Y105.107 E9.17979
G1 X115.122 Y102.068 E9.47283
G1 X114.85 Y102.569 E9.5117
G1 X118.161 Y105.88 E9.83096
G1 X118.161 Y106.653 E9.88367
G1 X114.524 Y103.016 E10.23437
G1 X114.169 Y103.434 E10.27176
G1 X118.161 Y107.426 E10.65669
G1 X118.161 Y108.199 E10.7094
G1 X113.771 Y103.809 E11.13271
G1 X113.345 Y104.156 E11.17017
G1 X115.85 Y106.661 E11.41171
G1 X115.557 Y106.61 E11.43199
G1 X115.001 Y106.585 E11.46994
G1 X112.879 Y104.463 E11.67455
G1 X112.371 Y104.728 E11.71362
G1 X114.228 Y106.585 E11.89268
G1 X113.455 Y106.585 E11.94539
G1 X111.805 Y104.935 E12.10449
G1 X111.212 Y105.115 E12.14674
G1 X112.681 Y106.585 E12.28844
G1 X111.908 Y106.585 E12.34115
G1 X110.521 Y105.198 E12.47489
G1 X110.103 Y105.246 E12.50358
G1 X109.773 Y105.223 E12.52613
G1 X111.135 Y106.585 E12.65746
G1 X110.362 Y106.585 E12.71017
G1 X108.575 Y104.798 E12.88248
G1 E10.88248 F2400
G92 E0
G1 X108.575 Y104.798 F7800
G1 X112.118 Y94.425
G1 E2 F2400
G1 F1800
G1 X109.033 Y91.34 E2.29747
G1 X108.26 Y91.34 E2.35018
G1 X110.732 Y93.812 E2.58854
G1 X109.908 Y93.762 E2.64483
G1 X107.487 Y91.34 E2.87832
G1 X106.713 Y91.34 E2.93109
G1 X109.203 Y93.829 E3.17114
G1 X108.806 Y93.88 E3.19843
G1 X108.547 Y93.947 E3.21667
G1 X105.94 Y91.34 E3.46805
G1 X105.167 Y91.34 E3.52076
G1 X107.969 Y94.141 E3.79089
G1 X107.792 Y94.201 E3.80363
G1 X107.427 Y94.373 E3.83114
G1 X104.394 Y91.34 E4.1236
G1 X103.621 Y91.34 E4.17631
G1 X106.937 Y94.656 E4.49605
G1 X106.786 Y94.743 E4.50793
G1 X106.478 Y94.97 E4.53402
G1 X102.848 Y91.34 E4.88404
G1 X102.075 Y91.34 E4.93675
G1 X106.066 Y95.331 E5.32158
G1 X105.897 Y95.479 E5.3369
G1 X105.689 Y95.727 E5.35897
G1 X101.839 Y91.877 E5.73021
G1 X101.839 Y92.65 E5.78292
G1 X105.337 Y96.148 E6.12021
G1 X105.164 Y96.405 E6.14133
G1 X105.043 Y96.628 E6.15863
G1 X101.839 Y93.423 E6.46762
G1 X101.839 Y94.196 E6.52033
G1 X104.772 Y97.129 E6.80314
