; generated by PrusaSlicer 2.8.1+linux-x64-GTK3 on 2024-10-16 at 09:37:22 UTC

; 

; external perimeters extrusion width = 0.45mm
; perimeters extrusion width = 0.45mm
; infill extrusion width = 0.45mm
; solid infill extrusion width = 0.45mm
; top infill extrusion width = 0.40mm
; support material extrusion width = 0.40mm
; first layer extrusion width = 0.60mm

M190 S60 ; set bed temperature and wait for it to be reached
M104 S200 ; set temperature
;TYPE:Custom
G28 ; home all axes
G1 Z5 F5000 ; lift nozzle
M109 S200 ; set temperature and wait for it to be reached
G21 ; set units to millimeters
G90 ; use absolute coordinates
M82 ; use absolute distances for extrusion
G92 E0
; Filament gcode
M107
;LAYER_CHANGE
;Z:0.3
;HEIGHT:0.3
G1 E-2 F2400
G1 Z.3 F7800
G1 X95.197 Y86.49
G1 E0 F2400
;TYPE:Skirt/Brim
;WIDTH:0.6
G1 F1800
G1 X96.233 Y85.356 E.10261
G1 X97.011 Y84.757 E.1682
G1 X97.808 Y84.298 E.22964
G1 X98.716 Y83.923 E.29527
G1 X99.667 Y83.676 E.36091
G1 X101 Y83.548 E.45037
G1 X119.17 Y83.551 E1.66422
G1 X120.596 Y83.73 E1.76023
G1 X121.596 Y84.036 E1.83009
G1 X122.854 Y84.67 E1.9242
G1 X123.695 Y85.293 E1.99412
G1 X124.707 Y86.362 E2.09246
G1 X125.452 Y87.558 E2.18659
G1 X125.847 Y88.526 E2.25643
G1 X126.15 Y89.912 E2.35121
G1 X126.202 Y90.75 E2.4073
G1 X126.202 Y129.25 E4.97931
G1 X126.102 Y130.426 E5.05816
G1 X125.714 Y131.846 E5.1565
G1 X125.298 Y132.736 E5.22213
G1 X124.765 Y133.561 E5.28775
G1 X124.124 Y134.306 E5.35341
G1 X123.438 Y134.918 E5.41483
G1 X122.135 Y135.73 E5.5174
G1 X121.223 Y136.097 E5.58307
G1 X120.271 Y136.336 E5.64864
G1 X119 Y136.452 E5.7339
G1 X100.83 Y136.449 E6.94775
G1 X99.404 Y136.27 E7.04376
G1 X98.404 Y135.964 E7.11362
G1 X97.514 Y135.548 E7.17925
G1 X96.689 Y135.015 E7.24487
G1 X95.944 Y134.374 E7.31053
G1 X95.293 Y133.638 E7.37617
G1 X94.749 Y132.82 E7.4418
G1 X94.321 Y131.936 E7.50741
G1 X94.018 Y131.001 E7.57307
G1 X93.838 Y129.983 E7.64213
G1 X93.798 Y90.75 E10.26311
G1 X93.898 Y89.574 E10.34196
G1 X94.286 Y88.154 E10.4403
G1 X94.702 Y87.264 E10.50593
G1 X95.165 Y86.54 E10.56334
G1 E8.56334 F2400
G92 E0
G1 X95.165 Y86.54 F7800
G92 E0
G1 X101.591 Y125.249
G1 E2 F2400
;TYPE:Perimeter
;WIDTH:0.710413
G1 F1800
G1 X101.556 Y124.788 E2.03725
;WIDTH:0.679978
G1 X101.553 Y124.703 E2.04378
;WIDTH:0.677073
G1 X101.553 Y109.36 E3.21627
;WIDTH:0.695018
G1 X101.579 Y108.853 E3.2562
G1 X101.662 Y108.573 E3.27917
;WIDTH:0.647509
G1 X101.745 Y108.293 E3.30041
;WIDTH:0.6
G1 X102.011 Y107.623 E3.34857
G1 X102.415 Y106.991 E3.39868
G1 X103.067 Y106.343 E3.46009
G1 X103.718 Y105.931 E3.51156
G1 X104.42 Y105.663 E3.56176
G1 X105.17 Y105.551 E3.61242
G1 X106.116 Y105.525 E3.67564
G1 X114.574 Y105.525 E4.24068
G1 X115.077 Y105.56 E4.27436
G1 X115.573 Y105.682 E4.30848
G1 X116.13 Y105.861 E4.34756
G1 X116.776 Y106.227 E4.39716
G1 X117.471 Y106.855 E4.45974
G1 X117.993 Y107.635 E4.52244
;WIDTH:0.636934
G1 X118.327 Y108.512 E4.58946
;WIDTH:0.672982
G1 X118.364 Y108.598 E4.59657
;WIDTH:0.709031
G1 X118.401 Y108.685 E4.60417
G1 X118.444 Y109.277 E4.65189
;WIDTH:0.679848
G1 X118.447 Y109.36 E4.65827
;WIDTH:0.677072
G1 X118.447 Y124.703 E5.83075
;WIDTH:0.726973
G1 X118.375 Y125.545 E5.90059
G1 X118.296 Y125.735 E5.9176
;WIDTH:0.684648
G1 X118.216 Y125.925 E5.93355
;WIDTH:0.642324
G1 X118.137 Y126.114 E5.94832
;WIDTH:0.6
G1 X117.707 Y126.905 E6.00847
G1 X117.192 Y127.48 E6.06004
G1 X116.926 Y127.725 E6.0842
G1 X116.299 Y128.122 E6.13378
G1 X115.58 Y128.4 E6.18528
G1 X114.722 Y128.534 E6.24329
G1 X105.426 Y128.538 E6.86431
G1 X104.592 Y128.441 E6.9204
G1 X103.72 Y128.132 E6.9822
G1 X102.93 Y127.607 E7.04557
G1 X102.509 Y127.189 E7.0852
G1 X102.008 Y126.43 E7.14596
;WIDTH:0.632375
G1 X101.835 Y125.999 E7.17886
;WIDTH:0.664751
G1 X101.662 Y125.568 E7.21364
;WIDTH:0.710413
G1 X101.601 Y125.391 E7.22873
G1 X101.595 Y125.309 E7.23535
G1 X101.595 Y125.309 F7800
G1 X102.178 Y125.177
;TYPE:External perimeter
;WIDTH:0.6
G1 F1800
G1 X102.127 Y124.703 E7.2672
G1 X102.127 Y109.36 E8.29219
G1 X102.161 Y108.896 E8.32327
G1 X102.282 Y108.368 E8.35946
G1 X102.506 Y107.829 E8.39845
G1 X102.861 Y107.288 E8.44168
G1 X103.436 Y106.731 E8.49516
G1 X103.993 Y106.39 E8.53879
G1 X104.6 Y106.167 E8.58199
G1 X105.235 Y106.082 E8.62479
G1 X106.116 Y106.061 E8.68366
G1 X114.574 Y106.061 E9.2487
G1 X115.076 Y106.1 E9.28234
G1 X115.805 Y106.302 E9.33288
G1 X116.512 Y106.693 E9.38685
G1 X117.102 Y107.243 E9.44074
G1 X117.54 Y107.921 E9.49466
G1 X117.801 Y108.685 E9.5486
G1 X117.873 Y109.36 E9.59395
G1 X117.873 Y124.703 E10.61894
G1 X117.78 Y125.472 E10.67069
G1 X117.607 Y125.995 E10.70749
G1 X117.241 Y126.641 E10.75709
G1 X116.639 Y127.273 E10.8154
G1 X116.013 Y127.669 E10.86489
G1 X115.4 Y127.896 E10.90856
G1 X114.722 Y127.998 E10.95436
G1 X105.426 Y128.002 E11.57538
G1 X104.658 Y127.909 E11.62706
G1 X103.912 Y127.631 E11.68024
G1 X103.237 Y127.168 E11.73492
G1 X102.865 Y126.778 E11.77093
G1 X102.46 Y126.143 E11.82125
G1 X102.201 Y125.389 E11.87451
G1 X102.185 Y125.237 E11.88472
G1 X102.142 Y124.839 F7800
G1 E9.88472 F2400
G92 E0
G1 X108.262 Y95.23 F7800
G1 E2 F2400
;TYPE:Perimeter
G1 F1800
G1 X108.788 Y95.037 E2.03743
G1 X109.745 Y94.89 E2.10211
G1 X110.713 Y94.936 E2.16685
G1 X111.653 Y95.173 E2.23161
G1 X112.527 Y95.591 E2.29633
G1 X113.301 Y96.174 E2.36106
G1 X113.944 Y96.899 E2.4258
G1 X114.431 Y97.738 E2.49061
G1 X114.742 Y98.655 E2.5553
G1 X114.865 Y99.617 E2.62009
G1 X114.795 Y100.583 E2.68479
G1 X114.534 Y101.517 E2.74958
G1 X114.173 Y102.236 E2.80333
G1 X113.944 Y102.601 E2.83212
G1 X113.492 Y103.139 E2.87906
G1 X112.751 Y103.764 E2.94382
G1 X111.901 Y104.23 E3.00858
G1 X110.972 Y104.505 E3.0733
;WIDTH:0.57283
G1 X110.595 Y104.539 E3.09731
;WIDTH:0.54678
G1 X110.218 Y104.574 E3.12009
;WIDTH:0.545391
G1 X109.289 Y104.537 E3.17587
;WIDTH:0.58813
G1 X109.026 Y104.512 E3.19313
;WIDTH:0.6
G1 X108.347 Y104.327 E3.24014
G1 X107.473 Y103.909 E3.30486
G1 X106.699 Y103.326 E3.36959
G1 X106.158 Y102.722 E3.42376
G1 X105.906 Y102.38 E3.45214
G1 X105.569 Y101.762 E3.49917
G1 X105.258 Y100.844 E3.56392
G1 X105.143 Y100.077 E3.61573
G1 X105.17 Y99.155 E3.67735
G1 X105.383 Y98.212 E3.74193
G1 X105.78 Y97.327 E3.80673
G1 X106.343 Y96.539 E3.87143
G1 X107.052 Y95.878 E3.93619
G1 X107.878 Y95.371 E4.00094
G1 X108.206 Y95.25 E4.0243
G1 X108.206 Y95.25 F7800
G1 X108.443 Y95.728
G1 F1800
G1 X108.958 Y95.545 E4.06081
G1 X109.812 Y95.422 E4.11845
G1 X110.673 Y95.47 E4.17606
G1 X111.508 Y95.689 E4.23373
G1 X112.283 Y96.068 E4.29136
G1 X112.967 Y96.593 E4.34896
G1 X113.534 Y97.244 E4.40663
G1 X113.96 Y97.994 E4.46425
G1 X114.23 Y98.813 E4.52186
G1 X114.332 Y99.67 E4.57952
G1 X114.262 Y100.53 E4.63716
G1 X114.023 Y101.359 E4.6948
G1 X113.703 Y101.98 E4.74147
G1 X113.534 Y102.256 E4.76309
G1 X113.082 Y102.795 E4.81008
G1 X112.417 Y103.345 E4.86773
G1 X111.657 Y103.753 E4.92536
G1 X110.831 Y104.002 E4.98299
G1 X110.168 Y104.081 E5.0276
G1 X109.327 Y104.03 E5.08389
G1 X108.492 Y103.811 E5.14156
G1 X107.717 Y103.432 E5.19919
G1 X107.033 Y102.907 E5.25679
G1 X106.568 Y102.378 E5.30384
G1 X106.376 Y102.124 E5.32511
G1 X106.04 Y101.506 E5.3721
G1 X105.77 Y100.686 E5.42977
G1 X105.674 Y100.011 E5.47532
G1 X105.705 Y99.182 E5.53074
G1 X105.902 Y98.344 E5.58825
G1 X106.262 Y97.56 E5.64588
G1 X106.77 Y96.862 E5.70355
G1 X107.406 Y96.28 E5.76114
G1 X108.146 Y95.835 E5.81883
G1 X108.387 Y95.748 E5.83595
G1 X108.387 Y95.748 F7800
G1 X108.624 Y96.226
;TYPE:External perimeter
G1 F1800
G1 X109.129 Y96.052 E5.87163
G1 X109.879 Y95.953 E5.92217
G1 X110.633 Y96.004 E5.97266
G1 X111.363 Y96.204 E6.02323
G1 X112.039 Y96.545 E6.07381
G1 X112.633 Y97.012 E6.12429
G1 X113.124 Y97.588 E6.17485
G1 X113.49 Y98.25 E6.22538
G1 X113.718 Y98.971 E6.2759
G1 X113.799 Y99.723 E6.32643
G1 X113.729 Y100.477 E6.37702
G1 X113.511 Y101.201 E6.42753
G1 X113.232 Y101.724 E6.46713
G1 X112.936 Y102.135 E6.50097
G1 X112.633 Y102.488 E6.53205
G1 X112.083 Y102.927 E6.57906
G1 X111.413 Y103.276 E6.62953
G1 X110.686 Y103.486 E6.68008
G1 X110.115 Y103.548 E6.71845
G1 X109.367 Y103.496 E6.76854
G1 X108.637 Y103.296 E6.81911
G1 X107.961 Y102.955 E6.86969
G1 X107.367 Y102.488 E6.92017
G1 X106.846 Y101.868 E6.97427
G1 X106.51 Y101.25 E7.02126
G1 X106.282 Y100.528 E7.07184
G1 X106.206 Y99.946 E7.11105
G1 X106.24 Y99.21 E7.16027
G1 X106.421 Y98.476 E7.21077
G1 X106.745 Y97.792 E7.26133
G1 X107.197 Y97.186 E7.31184
G1 X107.761 Y96.681 E7.36241
G1 X108.413 Y96.298 E7.41293
G1 X108.568 Y96.245 E7.42387
G1 X108.946 Y96.115 F7800
G1 E5.42387 F2400
G92 E0
G1 X106.907 Y91.188 F7800
G1 E2 F2400
;TYPE:Perimeter
G1 F1800
G1 X118.563 Y91.188 E2.77868
G1 X118.563 Y107.596 E3.87482
G1 X118.445 Y107.348 E3.89317
G1 X118.048 Y106.721 E3.94275
G1 X117.84 Y106.468 E3.96463
G1 X117.303 Y105.956 E4.0142
G1 X117.04 Y105.761 E4.03607
G1 X116.394 Y105.395 E4.08567
G1 X115.716 Y105.165 E4.1335
G1 X115.116 Y105.026 E4.17464
G1 X114.574 Y104.99 E4.21093
G1 X111.256 Y105.003 E4.43259
;WIDTH:0.573519
G1 X110.768 Y105.016 E4.46359
;WIDTH:0.547039
G1 X109.974 Y105.03 E4.5114
;WIDTH:0.553597
G1 X109.467 Y105.013 E4.54235
;WIDTH:0.58813
G1 X108.959 Y104.996 E4.57555
;WIDTH:0.6
G1 X105.645 Y104.99 E4.79694
G1 X105.104 Y105.019 E4.83313
G1 X104.239 Y105.159 E4.89167
G1 X103.442 Y105.471 E4.94885
G1 X102.698 Y105.956 E5.00818
G1 X101.97 Y106.693 E5.07739
G1 X101.64 Y107.188 E5.11713
G1 X101.437 Y107.608 E5.14829
G1 X101.437 Y91.188 E6.24523
G1 X106.847 Y91.188 E6.60665
G1 E4.60665 F2400
G92 E0
G1 X106.847 Y91.188 F7800
G1 X116.017 Y128.813
G1 E2 F2400
G1 F1800
G1 X116.586 Y128.575 E2.0412
G1 X117.213 Y128.178 E2.09078
G1 X117.466 Y127.97 E2.11266
G1 X117.978 Y127.432 E2.16228
G1 X118.173 Y127.169 E2.18415
G1 X118.563 Y126.47 E2.23762
G1 X118.563 Y128.813 E2.39414
G1 X116.077 Y128.813 E2.56022
G1 X116.077 Y128.813 F7800
G1 X115.528 Y128.888
;WIDTH:0.449175
G1 F1800
G1 X115.214 Y128.911 E2.57533
;WIDTH:0.402649
G1 X114.9 Y128.935 E2.58862
;WIDTH:0.356123
G1 X114.722 Y128.941 E2.5951
;WIDTH:0.342949
G1 X105.427 Y128.943 E2.91805
;WIDTH:0.37273
G1 X105.13 Y128.926 E2.92949
;WIDTH:0.406123
G1 X104.833 Y128.91 E2.94217
;WIDTH:0.439517
G1 X104.537 Y128.893 E2.95604
G1 E.95604 F2400
G92 E0
G1 X104.537 Y128.893 F7800
G1 X101.437 Y126.467
G1 E2 F2400
;WIDTH:0.6
G1 F1800
G1 X101.557 Y126.718 E2.01859
G1 X102.122 Y127.559 E2.08627
G1 X102.622 Y128.045 E2.13285
G1 X103.239 Y128.478 E2.18321
G1 X103.528 Y128.632 E2.20509
G1 X104 Y128.813 E2.23886
G1 X101.437 Y128.813 E2.41008
G1 X101.437 Y126.527 E2.5628
G1 E.5628 F2400
G92 E0
G1 X101.437 Y126.527 F7800
G1 X119.047 Y90.695
G1 E2 F2400
G1 F1800
G1 X119.098 Y90.856 E2.01128
G1 X119.098 Y107.648 E3.13308
;WIDTH:0.636343
G1 X119.08 Y107.983 E3.15701
;WIDTH:0.672687
G1 X119.062 Y108.318 E3.18246
;WIDTH:0.709031
G1 X119.044 Y108.654 E3.20951
G1 X119.06 Y109.36 E3.26629
;WIDTH:0.677072
G1 X119.06 Y124.703 E4.43877
;WIDTH:0.681408
G1 X119.058 Y124.844 E4.44962
;WIDTH:0.706459
G1 X119.045 Y125.245 E4.48175
;WIDTH:0.73151
G1 X119.033 Y125.647 E4.51521
G1 X119.054 Y125.854 E4.53252
;WIDTH:0.687673
G1 X119.076 Y126.062 E4.54878
;WIDTH:0.643836
G1 X119.098 Y126.269 E4.56382
;WIDTH:0.6
G1 X119.098 Y129.138 E4.75548
G1 X119.067 Y129.303 E4.7667
G1 X118.937 Y129.348 E4.77589
G1 X101.112 Y129.348 E5.9667
G1 X100.947 Y129.317 E5.97792
G1 X100.902 Y129.187 E5.98711
G1 X100.902 Y126.417 E6.17216
;WIDTH:0.636804
G1 X100.92 Y126.086 E6.19583
;WIDTH:0.673608
G1 X100.939 Y125.755 E6.22102
;WIDTH:0.710413
G1 X100.957 Y125.423 E6.24781
G1 X100.94 Y124.703 E6.30584
;WIDTH:0.677073
G1 X100.94 Y109.36 E7.47833
;WIDTH:0.695018
G1 X100.949 Y108.83 E7.52002
G1 X100.925 Y108.514 E7.54495
;WIDTH:0.647509
G1 X100.902 Y108.198 E7.56799
;WIDTH:0.6
G1 X100.902 Y90.862 E8.72613
G1 X100.931 Y90.707 E8.73666
G1 X101.047 Y90.653 E8.74521
G1 X118.895 Y90.653 E9.93755
G1 X118.996 Y90.674 E9.94444
G1 X118.996 Y90.674 F7800
G1 X119.451 Y90.317
;TYPE:External perimeter
G1 F1800
G1 X119.454 Y90.319 E9.94468
G1 X119.577 Y90.505 E9.95958
G1 X119.634 Y90.856 E9.98334
G1 X119.634 Y129.219 E12.54619
G1 X119.524 Y129.587 E12.57185
G1 X119.329 Y129.785 E12.59042
G1 X118.977 Y129.884 E12.61485
G1 X101.031 Y129.884 E13.81374
G1 X100.663 Y129.774 E13.8394
G1 X100.465 Y129.579 E13.85797
G1 X100.366 Y129.227 E13.8824
G1 X100.366 Y90.862 E16.44539
G1 X100.406 Y90.599 E16.46316
G1 X100.517 Y90.348 E16.48149
G1 X100.715 Y90.196 E16.49817
G1 X100.996 Y90.117 E16.51767
G1 X118.895 Y90.117 E17.71342
G1 X119.255 Y90.178 E17.73781
G1 X119.402 Y90.282 E17.74984
G1 X119.585 Y90.638 F7800
G1 E15.74984 F2400
G92 E0
G1 X118.402 Y92.452 F7800
G1 E2 F2400
;TYPE:Solid infill
;WIDTH:0.609495
G1 F1800
G1 X117.54 Y91.59 E2.08288
G1 X116.769 Y91.59 E2.1353
G1 X118.161 Y92.982 E2.26914
G1 X118.161 Y93.753 E2.32156
G1 X115.998 Y91.59 E2.52954
G1 X115.227 Y91.59 E2.58196
G1 X118.161 Y94.523 E2.86402
G1 X118.161 Y95.294 E2.91644
G1 X114.456 Y91.59 E3.27263
G1 X113.686 Y91.59 E3.32498
G1 X118.161 Y96.065 E3.75526
G1 X118.161 Y96.836 E3.80768
G1 X112.915 Y91.59 E4.31209
G1 X112.144 Y91.59 E4.36451
G1 X118.161 Y97.607 E4.94306
G1 X118.161 Y98.378 E4.99548
G1 X111.373 Y91.59 E5.64816
G1 X110.602 Y91.59 E5.70058
G1 X118.161 Y99.149 E6.42739
G1 X118.161 Y99.92 E6.47981
G1 X109.831 Y91.59 E7.28075
G1 X109.06 Y91.59 E7.33317
G1 X118.161 Y100.691 E8.20825
G1 X118.161 Y101.462 E8.26067
G1 X115.076 Y98.377 E8.5573
G1 X115.194 Y98.871 E8.59183
G1 X115.233 Y99.305 E8.62146
G1 X118.161 Y102.233 E8.90299
G1 X118.161 Y103.003 E8.95534
G1 X115.241 Y100.084 E9.23606
G1 X115.168 Y100.782 E9.28378
G1 X118.161 Y103.774 E9.57151
G1 X118.161 Y104.545 E9.62393
G1 X114.994 Y101.378 E9.92844
G1 X114.917 Y101.641 E9.94707
G1 X114.789 Y101.944 E9.96943
G1 X118.161 Y105.316 E10.29365
G1 X118.161 Y106.087 E10.34607
G1 X114.515 Y102.442 E10.69659
G1 X114.384 Y102.68 E10.71506
G1 X114.204 Y102.901 E10.73444
G1 X116.18 Y104.877 E10.92444
G1 X115.476 Y104.682 E10.97411
G1 X115.159 Y104.627 E10.99598
G1 X113.858 Y103.326 E11.12107
G1 X113.468 Y103.707 E11.15814
G1 X114.349 Y104.588 E11.24285
G1 X113.578 Y104.588 E11.29527
G1 X113.039 Y104.049 E11.3471
G1 X112.717 Y104.263 E11.37339
G1 X112.562 Y104.342 E11.38522
G1 X113.048 Y104.829 E11.432
G1 E9.432 F2400
G92 E0
G1 X113.048 Y104.829 F7800
G1 X111.732 Y95.033
G1 E2 F2400
G1 F1800
G1 X108.289 Y91.59 E2.33105
G1 X107.518 Y91.59 E2.38347
G1 X110.443 Y94.515 E2.66471
G1 X109.909 Y94.478 E2.7011
G1 X109.663 Y94.506 E2.71793
G1 X106.747 Y91.59 E2.99831
G1 X105.977 Y91.59 E3.05066
G1 X108.971 Y94.585 E3.33859
G1 X108.664 Y94.655 E3.36
G1 X108.369 Y94.754 E3.38116
G1 X105.206 Y91.59 E3.68534
G1 X104.435 Y91.59 E3.73776
G1 X107.808 Y94.963 E4.06208
G1 X107.309 Y95.235 E4.10072
G1 X103.664 Y91.59 E4.45119
G1 X102.893 Y91.59 E4.50361
G1 X106.84 Y95.537 E4.88312
G1 X106.426 Y95.894 E4.92029
G1 X102.122 Y91.59 E5.33413
G1 X101.839 Y91.59 E5.35337
G1 X101.839 Y92.078 E5.38655
G1 X106.039 Y96.278 E5.79039
G1 X105.706 Y96.715 E5.82774
G1 X101.839 Y92.849 E6.19951
G1 X101.839 Y93.62 E6.25193
G1 X105.403 Y97.184 E6.59462
G1 X105.152 Y97.704 E6.63388
G1 X101.839 Y94.391 E6.95243
G1 X101.839 Y95.162 E7.00485
G1 X104.952 Y98.275 E7.30417
G1 X104.804 Y98.897 E7.34764
G1 X101.839 Y95.932 E7.63273
G1 X101.839 Y96.703 E7.68515
G1 X104.746 Y99.61 E7.96466
G1 X104.731 Y99.917 E7.98556
G1 X104.784 Y100.419 E8.01988
G1 X101.839 Y97.474 E8.30305
G1 X101.839 Y98.245 E8.35547
G1 X105.425 Y101.831 E8.70027
G1 E6.70027 F2400
G92 E0
G1 X105.425 Y101.831 F7800
G1 X107.652 Y104.829
G1 E2 F2400
G1 F1800
G1 X101.839 Y99.016 E2.55893
G1 X101.839 Y99.787 E2.61135
G1 X106.64 Y104.588 E3.07297
G1 X105.869 Y104.588 E3.12539
G1 X101.839 Y100.558 E3.51288
G1 X101.839 Y101.329 E3.5653
G1 X105.13 Y104.62 E3.88174
G1 X104.438 Y104.699 E3.92909
G1 X101.839 Y102.1 E4.17899
G1 X101.839 Y102.871 E4.23141
G1 X103.843 Y104.875 E4.4241
G1 X103.538 Y104.983 E4.4461
G1 X103.295 Y105.098 E4.46438
G1 X101.839 Y103.642 E4.60438
G1 X101.839 Y104.412 E4.65673
G1 X102.809 Y105.382 E4.75
G1 X102.369 Y105.714 E4.78748
G1 X101.839 Y105.183 E4.83849
G1 X101.839 Y105.954 E4.89091
G1 X102.145 Y106.26 E4.92033
G1 E2.92033 F2400
G92 E0
G1 X102.145 Y106.26 F7800
G1 X118.402 Y128.305
G1 E2 F2400
;WIDTH:0.620342
G1 F1800
