; generated by PrusaSlicer 2.8.1+linux-x64-GTK3 on 2024-10-17 at 06:41:30 UTC

; 

; external perimeters extrusion width = 0.45mm
; perimeters extrusion width = 0.45mm
; infill extrusion width = 0.45mm
; solid infill extrusion width = 0.45mm
; top infill extrusion width = 0.40mm
; support material extrusion width = 0.40mm
; first layer extrusion width = 0.60mm

M190 S60 ; set bed temperature and wait for it to be reached
M104 S200 ; set temperature
;TYPE:Custom
G28 ; home all axes
G1 Z5 F5000 ; lift nozzle
M109 S200 ; set temperature and wait for it to be reached
G21 ; set units to millimeters
G90 ; use absolute coordinates
M82 ; use absolute distances for extrusion
G92 E0
; Filament gcode
M107
;LAYER_CHANGE
;Z:0.3
;HEIGHT:0.3
G1 E-2 F2400
G1 Z.3 F7800
G1 X94.589 Y84.732
G1 E0 F2400
;TYPE:Skirt/Brim
;WIDTH:0.6
G1 F1800
G1 X95.303 Y84.051 E.06592
G1 X96.243 Y83.354 E.1441
G1 X97.102 Y82.868 E.21003
G1 X98.183 Y82.42 E.2882
G1 X99.134 Y82.157 E.35412
G1 X101 Y81.956 E.4795
G1 X119.154 Y81.958 E1.69229
G1 X120.565 Y82.097 E1.78701
G1 X122.107 Y82.524 E1.8939
G1 X123.388 Y83.13 E1.98857
G1 X124.725 Y84.075 E2.09795
G1 X125.894 Y85.291 E2.21064
G1 X126.682 Y86.47 E2.30538
G1 X127.33 Y87.933 E2.41227
G1 X127.675 Y89.308 E2.50697
G1 X127.794 Y90.75 E2.60363
G1 X127.794 Y129.25 E5.17564
G1 X127.653 Y130.814 E5.28055
G1 X127.226 Y132.357 E5.3875
G1 X126.827 Y133.259 E5.45339
G1 X126.204 Y134.293 E5.53404
G1 X125.411 Y135.268 E5.618
G1 X124.697 Y135.949 E5.68392
G1 X123.683 Y136.693 E5.76794
G1 X122.62 Y137.264 E5.84855
G1 X121.699 Y137.619 E5.91449
G1 X120.564 Y137.903 E5.99265
G1 X119 Y138.044 E6.09756
G1 X100.846 Y138.042 E7.31035
G1 X99.436 Y137.903 E7.405
G1 X97.893 Y137.476 E7.51195
G1 X96.72 Y136.932 E7.59833
G1 X95.886 Y136.404 E7.66427
G1 X94.982 Y135.661 E7.74244
G1 X94.106 Y134.709 E7.82887
G1 X93.38 Y133.638 E7.91531
G1 X92.818 Y132.473 E8.00172
G1 X92.509 Y131.536 E8.06763
G1 X92.265 Y130.265 E8.15409
G1 X92.206 Y129.25 E8.22201
G1 X92.206 Y90.75 E10.79402
G1 X92.347 Y89.185 E10.89899
G1 X92.774 Y87.643 E11.00588
G1 X93.173 Y86.741 E11.07177
G1 X93.775 Y85.737 E11.14998
G1 X94.551 Y84.778 E11.23239
G1 E9.23239 F2400
G92 E0
G1 X94.551 Y84.778 F7800
G92 E0
G1 X107.195 Y95.79
G1 E2 F2400
;TYPE:Perimeter
;WIDTH:0.6
G1 F1800
G1 X107.878 Y95.371 E2.05353
G1 X108.788 Y95.037 E2.11829
G1 X109.745 Y94.89 E2.18297
G1 X110.713 Y94.936 E2.24771
G1 X111.653 Y95.173 E2.31247
G1 X112.527 Y95.591 E2.37719
G1 X113.301 Y96.174 E2.44192
G1 X113.944 Y96.9 E2.50671
G1 X114.431 Y97.738 E2.57146
G1 X114.742 Y98.655 E2.63615
G1 X114.865 Y99.617 E2.70094
G1 X114.795 Y100.583 E2.76564
G1 X114.534 Y101.517 E2.83043
G1 X114.173 Y102.236 E2.88418
G1 X113.944 Y102.6 E2.91291
G1 X113.492 Y103.139 E2.9599
G1 X112.751 Y103.764 E3.02466
G1 X111.901 Y104.23 E3.08942
G1 X110.972 Y104.505 E3.15414
;WIDTH:0.57283
G1 X110.595 Y104.539 E3.17815
;WIDTH:0.546779
G1 X110.218 Y104.574 E3.20093
;WIDTH:0.545391
G1 X109.289 Y104.537 E3.25671
;WIDTH:0.58813
G1 X109.026 Y104.512 E3.27397
;WIDTH:0.6
G1 X108.347 Y104.327 E3.32098
G1 X107.473 Y103.909 E3.3857
G1 X106.699 Y103.326 E3.45043
G1 X106.158 Y102.722 E3.5046
G1 X105.906 Y102.38 E3.53298
G1 X105.569 Y101.762 E3.58001
G1 X105.258 Y100.845 E3.6447
G1 X105.135 Y99.883 E3.70949
G1 X105.205 Y98.917 E3.77419
G1 X105.466 Y97.983 E3.83898
G1 X105.906 Y97.119 E3.90375
G1 X106.371 Y96.505 E3.9552
G1 X107.053 Y95.877 E4.01714
G1 X107.144 Y95.822 E4.02424
G1 X107.144 Y95.822 F7800
G1 X107.493 Y96.227
G1 F1800
G1 X108.146 Y95.835 E4.07512
G1 X108.958 Y95.545 E4.13272
G1 X109.812 Y95.422 E4.19036
G1 X110.673 Y95.47 E4.24797
G1 X111.508 Y95.689 E4.30564
G1 X112.283 Y96.068 E4.36327
G1 X112.967 Y96.593 E4.42087
G1 X113.534 Y97.244 E4.47854
G1 X113.96 Y97.994 E4.53616
G1 X114.23 Y98.813 E4.59377
G1 X114.332 Y99.67 E4.65143
G1 X114.262 Y100.53 E4.70907
G1 X114.023 Y101.359 E4.76671
G1 X113.703 Y101.98 E4.81338
G1 X113.534 Y102.256 E4.835
G1 X113.082 Y102.795 E4.88199
G1 X112.417 Y103.345 E4.93964
G1 X111.657 Y103.753 E4.99727
G1 X110.831 Y104.002 E5.0549
G1 X110.168 Y104.081 E5.09951
G1 X109.327 Y104.03 E5.1558
G1 X108.492 Y103.811 E5.21347
G1 X107.717 Y103.432 E5.2711
G1 X107.033 Y102.907 E5.3287
G1 X106.568 Y102.378 E5.37575
G1 X106.376 Y102.124 E5.39702
G1 X106.04 Y101.506 E5.44401
G1 X105.77 Y100.687 E5.50162
G1 X105.668 Y99.83 E5.55928
G1 X105.738 Y98.97 E5.61692
G1 X105.977 Y98.141 E5.67456
G1 X106.376 Y97.376 E5.7322
G1 X106.789 Y96.84 E5.7774
G1 X107.407 Y96.279 E5.83316
G1 X107.441 Y96.258 E5.83583
G1 X107.441 Y96.258 F7800
G1 X107.79 Y96.664
;TYPE:External perimeter
G1 F1800
G1 X108.413 Y96.298 E5.8841
G1 X109.129 Y96.052 E5.93468
G1 X109.879 Y95.953 E5.98522
G1 X110.633 Y96.004 E6.03571
G1 X111.363 Y96.204 E6.08628
G1 X112.039 Y96.545 E6.13686
G1 X112.633 Y97.012 E6.18734
G1 X113.124 Y97.588 E6.2379
G1 X113.49 Y98.25 E6.28843
G1 X113.718 Y98.971 E6.33895
G1 X113.799 Y99.723 E6.38948
G1 X113.729 Y100.477 E6.44007
G1 X113.511 Y101.201 E6.49058
G1 X113.232 Y101.724 E6.53018
G1 X112.936 Y102.135 E6.56402
G1 X112.633 Y102.488 E6.5951
G1 X112.083 Y102.927 E6.64211
G1 X111.413 Y103.276 E6.69258
G1 X110.686 Y103.486 E6.74313
G1 X110.115 Y103.548 E6.7815
G1 X109.367 Y103.496 E6.83159
G1 X108.637 Y103.296 E6.88216
G1 X107.961 Y102.955 E6.93274
G1 X107.367 Y102.488 E6.98322
G1 X106.846 Y101.868 E7.03732
G1 X106.508 Y101.247 E7.08455
G1 X106.282 Y100.529 E7.13484
G1 X106.201 Y99.777 E7.18537
G1 X106.271 Y99.023 E7.23596
G1 X106.489 Y98.299 E7.28647
G1 X106.847 Y97.632 E7.33704
G1 X107.207 Y97.174 E7.37596
G1 X107.742 Y96.698 E7.4238
G1 X108.084 Y96.492 F7800
G1 E5.4238 F2400
G92 E0
G1 X101.254 Y125.933 F7800
G1 E2 F2400
;TYPE:Perimeter
G1 F1800
G1 X101.182 Y125.714 E2.0154
G1 X101.062 Y124.834 E2.07473
G1 X101.056 Y109.36 E3.10848
G1 X101.157 Y108.46 E3.16898
G1 X101.237 Y108.141 E3.19095
G1 X101.508 Y107.442 E3.24103
G1 X101.97 Y106.692 E3.29988
G1 X102.557 Y106.07 E3.35702
G1 X103.414 Y105.488 E3.42623
G1 X104.239 Y105.159 E3.48557
G1 X105.104 Y105.019 E3.54411
G1 X105.645 Y104.99 E3.5803
G1 X108.959 Y104.996 E3.80169
;WIDTH:0.58813
G1 X109.467 Y105.013 E3.83489
;WIDTH:0.553597
G1 X109.974 Y105.03 E3.86584
;WIDTH:0.547039
G1 X110.768 Y105.016 E3.91365
;WIDTH:0.573519
G1 X111.256 Y105.003 E3.94465
;WIDTH:0.6
G1 X114.574 Y104.99 E4.16631
G1 X115.116 Y105.026 E4.2026
G1 X115.895 Y105.215 E4.25615
G1 X116.394 Y105.395 E4.29159
G1 X117.04 Y105.761 E4.34119
G1 X117.303 Y105.956 E4.36306
G1 X117.841 Y106.468 E4.41268
G1 X118.048 Y106.721 E4.43452
G1 X118.446 Y107.349 E4.48419
G1 X118.586 Y107.645 E4.50606
G1 X118.818 Y108.349 E4.55558
G1 X118.944 Y109.36 E4.62364
G1 X118.944 Y124.703 E5.64863
G1 X118.843 Y125.602 E5.70907
G1 X118.764 Y125.92 E5.73096
G1 X118.496 Y126.613 E5.7806
G1 X118.14 Y127.225 E5.8279
G1 X117.566 Y127.865 E5.88533
G1 X117.213 Y128.177 E5.9168
G1 X116.586 Y128.574 E5.96638
G1 X115.761 Y128.904 E6.02574
G1 X114.918 Y129.055 E6.08295
G1 X114.722 Y129.07 E6.09608
G1 X105.427 Y129.073 E6.71704
G1 X104.837 Y129.026 E6.75658
G1 X104.112 Y128.864 E6.80621
G1 X103.463 Y128.604 E6.85292
G1 X102.621 Y128.045 E6.92044
G1 X102.113 Y127.549 E6.96787
G1 X101.554 Y126.714 E7.035
G1 X101.414 Y126.418 E7.05687
G1 X101.273 Y125.99 E7.08697
G1 X101.273 Y125.99 F7800
G1 X101.778 Y125.789
G1 F1800
G1 X101.69 Y125.546 E7.10424
G1 X101.592 Y124.703 E7.16094
G1 X101.592 Y109.36 E8.18593
G1 X101.688 Y108.526 E8.24201
G1 X102.007 Y107.635 E8.30523
G1 X102.416 Y106.99 E8.35625
G1 X102.936 Y106.449 E8.40638
G1 X103.701 Y105.941 E8.46773
G1 X104.42 Y105.663 E8.51923
G1 X105.17 Y105.551 E8.56989
G1 X106.116 Y105.525 E8.63311
G1 X114.574 Y105.525 E9.19815
G1 X115.077 Y105.56 E9.23183
G1 X115.752 Y105.731 E9.27835
G1 X116.13 Y105.861 E9.30505
G1 X116.776 Y106.227 E9.35465
G1 X117.471 Y106.856 E9.41727
G1 X117.993 Y107.635 E9.47991
G1 X118.31 Y108.517 E9.54252
G1 X118.408 Y109.36 E9.59922
G1 X118.408 Y124.703 E10.62421
G1 X118.312 Y125.537 E10.68029
G1 X117.997 Y126.421 E10.74298
G1 X117.687 Y126.938 E10.78325
G1 X117.178 Y127.495 E10.83366
G1 X116.926 Y127.725 E10.85645
G1 X116.3 Y128.122 E10.90597
G1 X115.58 Y128.4 E10.95753
G1 X114.722 Y128.534 E11.01554
G1 X105.426 Y128.538 E11.63656
G1 X104.954 Y128.504 E11.66817
G1 X104.23 Y128.341 E11.71775
G1 X103.68 Y128.115 E11.75747
G1 X102.929 Y127.606 E11.81808
G1 X102.501 Y127.18 E11.85842
G1 X102.007 Y126.428 E11.91853
G1 X101.798 Y125.845 E11.9599
G1 X101.798 Y125.845 F7800
G1 X102.291 Y125.646
;TYPE:External perimeter
G1 F1800
G1 X102.199 Y125.378 E11.97883
G1 X102.127 Y124.703 E12.02418
G1 X102.127 Y109.36 E13.04917
G1 X102.22 Y108.591 E13.10092
G1 X102.507 Y107.829 E13.15532
G1 X102.861 Y107.288 E13.19851
G1 X103.314 Y106.827 E13.24169
G1 X103.987 Y106.394 E13.29515
G1 X104.6 Y106.167 E13.33882
G1 X105.235 Y106.082 E13.38162
G1 X106.116 Y106.061 E13.44049
G1 X114.574 Y106.061 E14.00553
G1 X115.076 Y106.1 E14.03917
G1 X115.866 Y106.327 E14.09408
G1 X116.512 Y106.693 E14.14368
G1 X117.102 Y107.244 E14.19761
G1 X117.54 Y107.922 E14.25153
G1 X117.801 Y108.685 E14.3054
G1 X117.873 Y109.36 E14.35075
G1 X117.873 Y124.703 E15.37574
G1 X117.78 Y125.471 E15.42742
G1 X117.497 Y126.228 E15.48141
G1 X117.202 Y126.693 E15.5182
G1 X116.69 Y127.231 E15.56782
G1 X116.013 Y127.669 E15.62169
G1 X115.4 Y127.896 E15.66536
G1 X114.722 Y127.998 E15.71116
G1 X105.426 Y128.002 E16.33218
G1 X105.071 Y127.981 E16.35594
G1 X104.347 Y127.818 E16.40552
G1 X103.851 Y127.599 E16.44174
G1 X103.237 Y127.168 E16.49186
G1 X102.857 Y126.769 E16.52867
G1 X102.46 Y126.141 E16.5783
G1 X102.31 Y125.703 E16.60923
G1 X102.202 Y125.318 F7800
G1 E14.60923 F2400
G92 E0
G1 X119.965 Y129.866 F7800
G1 E2 F2400
;TYPE:Perimeter
G1 F1800
G1 X119.673 Y130.173 E2.0283
G1 X119.344 Y130.346 E2.05313
G1 X119.04 Y130.402 E2.07378
G1 X101.13 Y130.405 E3.27026
G1 X100.682 Y130.348 E3.30043
G1 X100.357 Y130.192 E3.32451
G1 X100.124 Y129.992 E3.34502
G1 X99.916 Y129.638 E3.37245
G1 X99.848 Y129.29 E3.39614
G1 X99.845 Y90.88 E5.96213
G1 X99.901 Y90.436 E5.99203
G1 X100.088 Y90.062 E6.01996
G1 X100.329 Y89.824 E6.04259
G1 X100.591 Y89.676 E6.06269
G1 X100.871 Y89.607 E6.08196
G1 X118.931 Y89.597 E7.28846
G1 X119.214 Y89.62 E7.30743
G1 X119.638 Y89.795 E7.33807
G1 X119.966 Y90.125 E7.36915
G1 X120.114 Y90.471 E7.39429
G1 X120.152 Y90.817 E7.41754
G1 X120.155 Y128.9 E9.96169
G1 X120.126 Y129.474 E10.00009
G1 X119.997 Y129.817 E10.02457
G1 X119.997 Y129.817 F7800
G1 X120.43 Y130.131
G1 F1800
G1 X120.394 Y130.195 E10.02948
G1 X119.986 Y130.614 E10.06855
G1 X119.543 Y130.847 E10.10199
G1 X119.073 Y130.938 E10.13397
G1 X101.876 Y130.941 E11.28282
G1 X100.86 Y130.923 E11.3507
G1 X100.364 Y130.811 E11.38467
G1 X99.979 Y130.593 E11.41423
G1 X99.644 Y130.256 E11.44597
G1 X99.41 Y129.819 E11.47909
G1 X99.312 Y129.323 E11.51287
G1 X99.309 Y90.88 E14.08107
G1 X99.327 Y90.612 E14.09901
G1 X99.438 Y90.117 E14.1329
G1 X99.661 Y89.731 E14.16268
G1 X100.003 Y89.393 E14.1948
G1 X100.373 Y89.184 E14.22319
G1 X100.825 Y89.071 E14.25432
G1 X118.931 Y89.062 E15.4639
G1 X119.139 Y89.073 E15.47781
G1 X119.645 Y89.192 E15.51254
G1 X120.065 Y89.452 E15.54554
G1 X120.409 Y89.821 E15.57924
G1 X120.636 Y90.34 E15.61708
G1 X120.688 Y90.817 E15.64913
G1 X120.691 Y128.9 E18.19328
G1 X120.672 Y129.403 E18.22691
G1 X120.555 Y129.905 E18.26135
G1 X120.459 Y130.079 E18.27463
G1 X120.459 Y130.079 F7800
G1 X120.884 Y130.389
;TYPE:External perimeter
G1 F1800
G1 X120.725 Y130.656 E18.29539
G1 X120.299 Y131.054 E18.33434
G1 X119.741 Y131.348 E18.37648
G1 X119.106 Y131.473 E18.41972
G1 X101.131 Y131.476 E19.62055
G1 X100.566 Y131.432 E19.65841
G1 X100.151 Y131.306 E19.68738
G1 X99.829 Y131.124 E19.71209
G1 X99.426 Y130.824 E19.74565
G1 X99.131 Y130.446 E19.77768
G1 X98.905 Y130 E19.81108
G1 X98.777 Y129.356 E19.85494
G1 X98.774 Y90.88 E22.42534
G1 X98.818 Y90.316 E22.46313
G1 X98.943 Y89.902 E22.49202
G1 X99.233 Y89.401 E22.53069
G1 X99.677 Y88.962 E22.5724
G1 X100.154 Y88.692 E22.60902
G1 X100.778 Y88.536 E22.65199
G1 X118.931 Y88.526 E23.86471
G1 X119.432 Y88.567 E23.89829
G1 X119.851 Y88.695 E23.92756
G1 X120.236 Y88.9 E23.9567
G1 X120.573 Y89.177 E23.98584
G1 X120.931 Y89.656 E24.02579
G1 X121.158 Y90.209 E24.06572
G1 X121.223 Y90.817 E24.10657
G1 X121.226 Y129.12 E26.66542
G1 X121.182 Y129.684 E26.70321
G1 X121.054 Y130.105 E26.73261
G1 X120.915 Y130.337 E26.75068
G1 X120.692 Y130.669 F7800
G1 E24.75068 F2400
G92 E0
G1 X118.307 Y89.764 F7800
G1 E2 F2400
;TYPE:Solid infill
;WIDTH:0.602535
G1 F1800
G1 X119.75 Y91.208 E2.13702
G1 X119.75 Y91.969 E2.1881
G1 X117.787 Y90.005 E2.37448
G1 X117.026 Y90.005 E2.42556
G1 X119.75 Y92.73 E2.68418
G1 X119.751 Y93.491 E2.73526
G1 X116.265 Y90.006 E3.06612
G1 X115.504 Y90.006 E3.1172
G1 X119.751 Y94.252 E3.5203
G1 X119.751 Y95.013 E3.57138
G1 X114.743 Y90.006 E4.04671
G1 X113.982 Y90.006 E4.09779
G1 X119.751 Y95.774 E4.64536
G1 X119.751 Y96.536 E4.69651
G1 X113.221 Y90.006 E5.31636
G1 X112.46 Y90.006 E5.36744
G1 X119.751 Y97.297 E6.05953
G1 X119.751 Y98.058 E6.11061
G1 X111.7 Y90.006 E6.87489
G1 X110.939 Y90.007 E6.92597
G1 X119.751 Y98.819 E7.76244
G1 X119.751 Y99.58 E7.81352
G1 X110.178 Y90.007 E8.72223
G1 X109.417 Y90.007 E8.77331
G1 X119.751 Y100.341 E9.75426
G1 X119.751 Y101.102 E9.80534
G1 X108.656 Y90.007 E10.85852
G1 X107.895 Y90.007 E10.9096
G1 X119.751 Y101.863 E12.03502
G1 X119.751 Y102.625 E12.08617
G1 X114.866 Y97.739 E12.54992
G1 X114.787 Y97.551 E12.56361
G1 X114.444 Y96.922 E12.6117
G1 X114.256 Y96.646 E12.63411
G1 X113.706 Y95.999 E12.69111
G1 X112.997 Y95.418 E12.75264
G1 X112.716 Y95.237 E12.77508
G1 X112.009 Y94.883 E12.82815
G1 X107.134 Y90.007 E13.29095
G1 X106.373 Y90.008 E13.34203
G1 X110.934 Y94.568 E13.77493
G1 X110.75 Y94.536 E13.78747
G1 X110.091 Y94.487 E13.83183
G1 X105.612 Y90.008 E14.257
G1 X104.851 Y90.008 E14.30808
G1 X109.376 Y94.532 E14.73756
G1 X108.91 Y94.592 E14.7691
G1 X108.722 Y94.64 E14.78212
G1 X104.091 Y90.008 E15.22176
G1 X103.33 Y90.008 E15.27284
G1 X108.149 Y94.828 E15.73033
G1 X107.986 Y94.882 E15.74186
G1 X107.617 Y95.057 E15.76927
G1 X102.569 Y90.008 E16.24849
G1 X101.808 Y90.009 E16.29957
G1 X107.135 Y95.336 E16.80523
G1 X106.695 Y95.657 E16.84179
G1 X101.047 Y90.009 E17.37792
G1 X100.91 Y90.009 E17.38712
G1 X100.749 Y90.048 E17.39824
G1 X100.573 Y90.148 E17.41183
G1 X100.498 Y90.221 E17.41886
G1 X106.291 Y96.014 E17.96876
G1 X106.209 Y96.087 E17.97613
G1 X105.934 Y96.418 E18.00501
G1 X100.256 Y90.74 E18.54399
G1 X100.247 Y91.492 E18.59447
G1 X105.604 Y96.849 E19.10298
G1 X105.33 Y97.336 E19.14049
G1 X100.247 Y92.253 E19.62299
G1 X100.247 Y93.014 E19.67407
G1 X105.086 Y97.853 E20.13341
G1 X104.906 Y98.434 E20.17424
G1 X100.247 Y93.775 E20.61649
G1 X100.247 Y94.536 E20.66757
G1 X104.786 Y99.075 E21.09843
G1 X104.735 Y99.583 E21.1327
G1 X104.735 Y99.785 E21.14626
G1 X100.247 Y95.297 E21.57228
G1 X100.247 Y96.058 E21.62336
G1 X104.809 Y100.621 E22.05645
G1 X104.823 Y100.754 E22.06543
G1 X105.094 Y101.667 E22.12935
G1 X100.247 Y96.82 E22.58945
G1 X100.247 Y97.581 E22.64053
G1 X107.26 Y104.593 E23.30619
G1 X106.501 Y104.596 E23.35714
G1 X100.247 Y98.342 E23.9508
G1 X100.247 Y99.103 E24.00188
G1 X105.743 Y104.598 E24.52354
G1 X105.22 Y104.6 E24.55864
G1 X105.009 Y104.626 E24.57291
G1 X100.247 Y99.864 E25.02494
G1 X100.247 Y100.625 E25.07602
G1 X104.344 Y104.722 E25.46492
G1 X104.129 Y104.772 E25.47974
G1 X103.764 Y104.902 E25.50575
G1 X100.247 Y101.386 E25.83955
G1 X100.248 Y102.147 E25.89063
G1 X103.232 Y105.132 E26.17393
G1 X102.764 Y105.425 E26.21099
G1 X100.248 Y102.909 E26.44982
G1 X100.248 Y103.67 E26.5009
G1 X102.323 Y105.745 E26.69787
G1 X101.938 Y106.121 E26.73399
G1 X100.248 Y104.431 E26.89441
G1 X100.248 Y105.192 E26.94549
G1 X101.592 Y106.536 E27.07307
G1 X101.289 Y106.995 E27.10999
G1 X100.248 Y105.953 E27.20885
G1 X100.248 Y106.714 E27.25993
G1 X101.049 Y107.515 E27.33596
G1 X100.843 Y108.07 E27.3757
G1 X100.248 Y107.475 E27.43218
G1 X100.248 Y108.236 E27.48326
G1 X100.725 Y108.713 E27.52854
G1 X100.654 Y109.404 E27.57517
G1 X100.248 Y108.998 E27.61371
G1 X100.248 Y109.759 E27.66479
G1 X100.654 Y110.165 E27.70333
G1 X100.654 Y110.926 E27.75441
