; generated by PrusaSlicer 2.8.1+linux-x64-GTK3 on 2024-10-18 at 09:53:46 UTC

; 

; external perimeters extrusion width = 0.45mm
; perimeters extrusion width = 0.45mm
; infill extrusion width = 0.45mm
; solid infill extrusion width = 0.45mm
; top infill extrusion width = 0.40mm
; support material extrusion width = 0.40mm
; first layer extrusion width = 0.60mm

M190 S60 ; set bed temperature and wait for it to be reached
M104 S200 ; set temperature
;TYPE:Custom
G28 ; home all axes
G1 Z5 F5000 ; lift nozzle
M109 S200 ; set temperature and wait for it to be reached
G21 ; set units to millimeters
G90 ; use absolute coordinates
M82 ; use absolute distances for extrusion
G92 E0
; Filament gcode
M107
;LAYER_CHANGE
;Z:0.3
;HEIGHT:0.3
G1 E-2 F2400
G1 Z.3 F7800
G1 X93.848 Y84.321
G1 E0 F2400
;TYPE:Skirt/Brim
;WIDTH:0.6
G1 F1800
G1 X94.499 Y83.661 E.06193
G1 X95.234 Y83.096 E.12386
G1 X96.039 Y82.635 E.18583
G1 X96.899 Y82.289 E.24776
G1 X97.799 Y82.063 E.30975
G1 X99 Y81.956 E.3903
G1 X121.203 Y81.959 E1.87358
G1 X122.107 Y82.047 E1.93426
G1 X123.009 Y82.26 E1.99618
G1 X123.875 Y82.594 E2.05819
G1 X124.686 Y83.043 E2.12012
G1 X125.429 Y83.598 E2.18208
G1 X126.089 Y84.249 E2.24401
G1 X126.916 Y85.41 E2.33924
G1 X127.472 Y86.683 E2.43204
G1 X127.757 Y88.043 E2.52487
G1 X127.789 Y93.707 E2.90326
G1 X127.595 Y95.089 E2.99649
G1 X118.086 Y132.918 E5.60229
G1 X117.825 Y133.731 E5.65933
G1 X117.445 Y134.538 E5.71892
G1 X116.652 Y135.679 E5.81175
G1 X115.643 Y136.635 E5.90461
G1 X114.429 Y137.38 E5.99977
G1 X113.12 Y137.848 E6.09264
G1 X111.769 Y138.038 E6.18378
G1 X108.263 Y138.04 E6.418
G1 X106.903 Y137.853 E6.50971
G1 X106.019 Y137.574 E6.57164
G1 X105.181 Y137.178 E6.63356
G1 X104.405 Y136.671 E6.69548
G1 X103.73 Y136.088 E6.75506
G1 X103.116 Y135.393 E6.81701
G1 X102.602 Y134.621 E6.87897
G1 X102.198 Y133.787 E6.94088
G1 X101.915 Y132.922 E7.00168
G1 X92.36 Y94.897 E9.62093
G1 X92.207 Y93.487 E9.71568
G1 X92.206 Y88.751 E10.03207
G1 X92.397 Y87.153 E10.13958
G1 X92.844 Y85.875 E10.23003
G1 X93.293 Y85.064 E10.29196
G1 X93.812 Y84.369 E10.34991
G1 E8.34991 F2400
G92 E0
G1 X93.812 Y84.369 F7800
G92 E0
G1 X111.049 Y104.495
G1 E2 F2400
;TYPE:Perimeter
;WIDTH:0.6
G1 F1800
G1 X110.976 Y104.518 E2.00511
G1 X110.222 Y104.614 E2.05589
G1 X109.287 Y104.564 E2.11844
G1 X108.347 Y104.327 E2.1832
G1 X107.473 Y103.909 E2.24792
G1 X106.711 Y103.31 E2.31267
;WIDTH:0.559783
G1 X106.513 Y103.057 E2.33252
;WIDTH:0.521629
G1 X106.314 Y102.804 E2.35088
;WIDTH:0.483475
G1 X106.115 Y102.551 E2.36771
;WIDTH:0.463612
G1 X105.629 Y101.73 E2.41522
;WIDTH:0.509074
G1 X105.505 Y101.435 E2.43297
;WIDTH:0.554537
G1 X105.382 Y101.14 E2.45251
;WIDTH:0.6
G1 X105.258 Y100.845 E2.47389
G1 X105.135 Y99.883 E2.53868
G1 X105.205 Y98.917 E2.60338
G1 X105.466 Y97.983 E2.66817
G1 X105.797 Y97.319 E2.71773
G1 X106.088 Y96.859 E2.75409
G1 X106.529 Y96.34 E2.79959
G1 X107.053 Y95.878 E2.84626
G1 X107.878 Y95.371 E2.91095
G1 X108.792 Y95.051 E2.97564
;WIDTH:0.571099
G1 X109.273 Y95 E3.00621
;WIDTH:0.525752
G1 X109.753 Y94.95 E3.03398
;WIDTH:0.50303
G1 X110.71 Y94.984 E3.08637
;WIDTH:0.539934
G1 X110.841 Y94.989 E3.09415
;WIDTH:0.576839
G1 X110.973 Y94.994 E3.10259
;WIDTH:0.6
G1 X111.653 Y95.173 E3.14957
G1 X112.527 Y95.591 E3.21429
G1 X113.301 Y96.174 E3.27902
G1 X113.933 Y96.886 E3.34262
G1 X114.202 Y97.317 E3.37656
G1 X114.534 Y97.983 E3.42627
G1 X114.742 Y98.655 E3.47326
G1 X114.865 Y99.617 E3.53805
G1 X114.795 Y100.583 E3.60275
G1 X114.742 Y100.845 E3.62061
G1 X114.618 Y101.174 E3.6441
;WIDTH:0.558019
G1 X114.494 Y101.504 E3.6658
;WIDTH:0.516039
G1 X114.259 Y101.923 E3.69286
;WIDTH:0.477895
G1 X114.024 Y102.342 E3.71764
;WIDTH:0.465777
G1 X113.737 Y102.723 E3.74152
;WIDTH:0.491803
G1 X113.451 Y103.105 E3.76696
;WIDTH:0.532922
G1 X113.372 Y103.21 E3.77464
;WIDTH:0.574041
G1 X113.293 Y103.315 E3.78299
;WIDTH:0.6
G1 X112.751 Y103.764 E3.83001
G1 X111.901 Y104.23 E3.89477
G1 X111.106 Y104.477 E3.95038
G1 X111.106 Y104.477 F7800
G1 X110.942 Y103.968
G1 F1800
G1 X110.831 Y104.002 E3.95814
G1 X110.168 Y104.081 E4.00275
G1 X109.327 Y104.03 E4.05904
G1 X108.492 Y103.811 E4.11671
G1 X107.717 Y103.432 E4.17434
G1 X107.033 Y102.907 E4.23194
G1 X106.466 Y102.256 E4.28961
G1 X106.04 Y101.506 E4.34723
G1 X105.77 Y100.687 E4.40484
G1 X105.668 Y99.83 E4.4625
G1 X105.738 Y98.97 E4.52014
G1 X105.977 Y98.141 E4.57778
G1 X106.268 Y97.575 E4.6203
G1 X106.506 Y97.193 E4.65037
G1 X106.883 Y96.741 E4.68969
G1 X107.407 Y96.279 E4.73636
G1 X108.146 Y95.835 E4.79395
G1 X108.958 Y95.545 E4.85155
G1 X109.812 Y95.422 E4.90919
G1 X110.673 Y95.47 E4.9668
G1 X111.508 Y95.689 E5.02447
G1 X112.283 Y96.068 E5.0821
G1 X112.967 Y96.593 E5.1397
G1 X113.523 Y97.23 E5.19619
G1 X113.96 Y97.994 E5.25499
G1 X114.23 Y98.813 E5.3126
G1 X114.332 Y99.67 E5.37026
G1 X114.262 Y100.53 E5.4279
G1 X114.023 Y101.359 E5.48554
G1 X113.624 Y102.124 E5.54318
G1 X113.082 Y102.795 E5.6008
G1 X112.417 Y103.345 E5.65845
G1 X111.657 Y103.753 E5.71608
G1 X111 Y103.951 E5.76192
G1 X111 Y103.951 F7800
G1 X110.836 Y103.443
;TYPE:External perimeter
G1 F1800
G1 X110.686 Y103.486 E5.77234
G1 X110.115 Y103.548 E5.81071
G1 X109.367 Y103.496 E5.8608
G1 X108.637 Y103.296 E5.91137
G1 X107.961 Y102.955 E5.96195
G1 X107.367 Y102.488 E6.01243
G1 X106.876 Y101.912 E6.06299
G1 X106.51 Y101.25 E6.11352
G1 X106.282 Y100.529 E6.16404
G1 X106.201 Y99.777 E6.21457
G1 X106.271 Y99.023 E6.26516
G1 X106.489 Y98.299 E6.31567
G1 X106.738 Y97.831 E6.35108
G1 X106.925 Y97.528 E6.37487
G1 X107.237 Y97.143 E6.40798
G1 X107.761 Y96.681 E6.45465
G1 X108.413 Y96.298 E6.50517
G1 X109.129 Y96.052 E6.55575
G1 X109.879 Y95.953 E6.60629
G1 X110.633 Y96.004 E6.65678
G1 X111.363 Y96.204 E6.70735
G1 X112.039 Y96.545 E6.75793
G1 X112.633 Y97.012 E6.80841
G1 X113.112 Y97.575 E6.85779
G1 X113.49 Y98.25 E6.90947
G1 X113.718 Y98.971 E6.95999
G1 X113.799 Y99.723 E7.01052
G1 X113.729 Y100.477 E7.06111
G1 X113.511 Y101.201 E7.11162
G1 X113.154 Y101.868 E7.16216
G1 X112.671 Y102.451 E7.21274
G1 X112.083 Y102.927 E7.26328
G1 X111.413 Y103.276 E7.31375
G1 X110.893 Y103.426 E7.34991
G1 X110.5 Y103.502 F7800
G1 E5.34991 F2400
G92 E0
G1 X117.079 Y93.674 F7800
G1 E2 F2400
;TYPE:Perimeter
G1 F1800
G1 X117.19 Y93.556 E2.01082
G1 X117.46 Y93.176 E2.04196
G1 X117.71 Y92.598 E2.08403
G1 X117.79 Y92.28 E2.10594
G1 X117.845 Y91.753 E2.14134
G1 X117.846 Y89.595 E2.28551
G1 X120.147 Y89.596 E2.43923
G1 X120.155 Y93.209 E2.6806
G1 X115.19 Y101.051 E3.30066
G1 X115.031 Y101.345 E3.32299
;WIDTH:0.554286
G1 X114.873 Y101.638 E3.34333
;WIDTH:0.508572
G1 X114.714 Y101.932 E3.36185
;WIDTH:0.462859
G1 X114.191 Y102.775 E3.41116
;WIDTH:0.487799
G1 X113.994 Y103.046 E3.42885
;WIDTH:0.53092
G1 X113.796 Y103.318 E3.44843
;WIDTH:0.574041
G1 X113.599 Y103.589 E3.46973
;WIDTH:0.6
G1 X111.019 Y107.657 E3.79154
G1 X110.802 Y108.169 E3.82869
G1 X110.705 Y108.533 E3.85386
G1 X110.655 Y109.038 E3.88776
G1 X110.655 Y130.396 E5.31459
G1 X109.35 Y130.399 E5.40177
G1 X109.336 Y108.881 E6.83929
G1 X109.246 Y108.333 E6.87639
G1 X109.133 Y107.974 E6.90153
G1 X108.905 Y107.52 E6.93547
G1 X106.788 Y104.177 E7.19981
G1 X106.593 Y103.904 E7.22222
;WIDTH:0.564121
G1 X106.399 Y103.63 E7.24315
;WIDTH:0.528243
G1 X106.204 Y103.357 E7.26256
;WIDTH:0.492365
G1 X105.928 Y102.945 E7.28903
;WIDTH:0.466395
G1 X105.652 Y102.533 E7.3139
;WIDTH:0.488182
G1 X105.137 Y101.676 E7.36675
;WIDTH:0.525454
G1 X105.028 Y101.468 E7.38025
;WIDTH:0.562727
G1 X104.918 Y101.26 E7.39488
;WIDTH:0.6
G1 X104.808 Y101.052 E7.4106
G1 X99.854 Y93.229 E8.0292
G1 X99.847 Y89.596 E8.2719
G1 X102.152 Y89.596 E8.42589
G1 X102.157 Y91.828 E8.575
G1 X102.177 Y92.059 E8.59049
G1 X102.297 Y92.598 E8.62738
G1 X102.46 Y93.015 E8.65729
G1 X102.845 Y93.607 E8.70447
G1 X103.264 Y93.994 E8.74257
G1 X103.591 Y94.213 E8.76886
G1 X103.99 Y94.402 E8.79835
G1 X104.403 Y94.521 E8.82706
G1 X104.999 Y94.595 E8.86718
G1 X108.012 Y94.595 E9.06846
G1 X108.518 Y94.576 E9.10229
;WIDTH:0.562152
G1 X109.024 Y94.557 E9.13373
;WIDTH:0.524304
G1 X110.023 Y94.533 E9.19105
;WIDTH:0.510085
G1 X110.358 Y94.55 E9.2097
;WIDTH:0.543462
G1 X110.694 Y94.567 E9.2298
;WIDTH:0.576839
G1 X111.03 Y94.583 E9.2513
;WIDTH:0.6
G1 X115.001 Y94.595 E9.51659
G1 X115.373 Y94.554 E9.54159
G1 X115.981 Y94.415 E9.58326
G1 X116.617 Y94.082 E9.63122
G1 X116.945 Y93.816 E9.65943
G1 X117.038 Y93.718 E9.66846
G1 X117.038 Y93.718 F7800
G1 X116.681 Y93.31
G1 F1800
G1 X116.755 Y93.244 E9.67508
G1 X117.078 Y92.749 E9.71457
G1 X117.253 Y92.253 E9.74971
G1 X117.309 Y91.752 E9.78339
G1 X117.311 Y89.059 E9.9633
G1 X120.681 Y89.06 E10.18843
G1 X120.69 Y93.363 E10.47589
G1 X111.816 Y107.382 E11.5843
G1 X111.487 Y107.923 E11.6266
G1 X111.253 Y108.505 E11.66851
G1 X111.191 Y109.038 E11.70436
G1 X111.191 Y130.931 E13.16693
G1 X108.814 Y130.935 E13.32573
G1 X108.809 Y109.039 E14.7885
G1 X108.684 Y108.29 E14.83923
G1 X108.452 Y107.806 E14.87509
G1 X99.319 Y93.385 E16.01544
G1 X99.31 Y89.06 E16.30437
G1 X102.686 Y89.06 E16.5299
G1 X102.692 Y91.827 E16.71475
G1 X102.705 Y91.965 E16.72401
G1 X102.82 Y92.48 E16.75926
G1 X102.92 Y92.739 E16.77781
G1 X103.242 Y93.246 E16.81793
G1 X103.624 Y93.597 E16.85259
G1 X104.219 Y93.917 E16.89772
G1 X104.482 Y93.991 E16.91597
G1 X104.999 Y94.059 E16.95081
G1 X115.119 Y94.051 E17.62688
G1 X115.764 Y93.925 E17.67078
G1 X116.279 Y93.666 E17.70929
G1 X116.636 Y93.35 E17.74114
G1 X116.636 Y93.35 F7800
G1 X116.294 Y92.953
;TYPE:External perimeter
G1 F1800
G1 X116.546 Y92.616 E17.76925
G1 X116.711 Y92.212 E17.7984
G1 X116.774 Y91.752 E17.82942
G1 X116.775 Y88.825 E18.02496
G1 X116.837 Y88.61 E18.03991
G1 X117.025 Y88.524 E18.05372
G1 X120.924 Y88.525 E18.31419
G1 X121.154 Y88.593 E18.33021
G1 X121.216 Y88.734 E18.3405
G1 X121.226 Y93.373 E18.65041
G1 X121.195 Y93.567 E18.66353
G1 X111.985 Y108.12 E19.81408
G1 X111.789 Y108.586 E19.84785
G1 X111.726 Y109.038 E19.87834
G1 X111.726 Y131.201 E21.35895
G1 X111.69 Y131.358 E21.36971
G1 X111.548 Y131.466 E21.38163
G1 X108.559 Y131.471 E21.58131
G1 X108.335 Y131.395 E21.59711
G1 X108.279 Y131.277 E21.60584
G1 X108.274 Y109.039 E23.09146
G1 X108.189 Y108.509 E23.12732
G1 X107.999 Y108.093 E23.15787
G1 X99.14 Y94.104 E24.26405
G1 X98.783 Y93.503 E24.31075
G1 X98.774 Y88.8 E24.62494
G1 X98.826 Y88.614 E24.63784
G1 X99.011 Y88.524 E24.65158
G1 X102.964 Y88.524 E24.91566
G1 X103.151 Y88.587 E24.92884
G1 X103.221 Y88.724 E24.93912
G1 X103.228 Y91.825 E25.14628
G1 X103.347 Y92.385 E25.18453
G1 X103.61 Y92.849 E25.22016
G1 X103.983 Y93.201 E25.25442
G1 X104.448 Y93.433 E25.28914
G1 X104.999 Y93.524 E25.32645
G1 X115.001 Y93.524 E25.99464
G1 X115.438 Y93.462 E26.02413
G1 X115.882 Y93.287 E26.05601
G1 X116.254 Y92.997 E26.08752
G1 X116.497 Y92.68 F7800
G1 E24.08752 F2400
G92 E0
G1 X119.989 Y90.879 F7800
G1 E2 F2400
;TYPE:Solid infill
;WIDTH:0.617773
G1 F1800
G1 X119.107 Y89.997 E2.08609
G1 X118.324 Y89.997 E2.14013
G1 X119.749 Y91.422 E2.27923
G1 X119.751 Y92.206 E2.33334
G1 X118.247 Y90.703 E2.4801
G1 X118.247 Y91.485 E2.53408
G1 X119.752 Y92.991 E2.68103
G1 X119.753 Y93.093 E2.68807
G1 X119.489 Y93.51 E2.72214
G1 X118.2 Y92.221 E2.84796
G1 X118.129 Y92.614 E2.87552
G1 X118.042 Y92.846 E2.89262
G1 X119.185 Y93.989 E3.00419
G1 X118.882 Y94.468 E3.04331
G1 X117.795 Y93.382 E3.14937
G1 X117.471 Y93.84 E3.18809
G1 X118.578 Y94.947 E3.29615
G1 X118.275 Y95.427 E3.33533
G1 X117.076 Y94.227 E3.45242
G1 X116.863 Y94.4 E3.47136
G1 X116.617 Y94.551 E3.49128
G1 X117.972 Y95.906 E3.62354
G1 X117.668 Y96.385 E3.6627
G1 X116.084 Y94.801 E3.81732
G1 X115.702 Y94.912 E3.84478
G1 X115.448 Y94.948 E3.86249
G1 X117.365 Y96.864 E4.04956
G1 X117.062 Y97.344 E4.08874
G1 X114.71 Y94.992 E4.31832
G1 X113.929 Y94.993 E4.37223
G1 X116.758 Y97.823 E4.64842
G1 X116.455 Y98.302 E4.68754
G1 X113.147 Y94.994 E5.01044
G1 X112.366 Y94.995 E5.06435
G1 X116.151 Y98.781 E5.43386
G1 X115.848 Y99.261 E5.47304
G1 X115.126 Y98.539 E5.54352
G1 X115.194 Y98.87 E5.56684
G1 X115.251 Y99.446 E5.60679
G1 X115.719 Y99.915 E5.65252
G1 E3.65252 F2400
G92 E0
G1 X115.719 Y99.915 F7800
G1 X111.904 Y104.4
G1 E2 F2400
;WIDTH:0.61233
G1 F1800
G1 X112.329 Y104.826 E2.04113
G1 X112.03 Y105.301 E2.07949
G1 X111.513 Y104.784 E2.12946
G1 X110.895 Y104.941 E2.17304
G1 X111.731 Y105.777 E2.25384
G1 X111.431 Y106.252 E2.29224
G1 X110.188 Y105.01 E2.41233
G1 X110.041 Y105.022 E2.42241
G1 X109.377 Y104.973 E2.46791
G1 X111.132 Y106.728 E2.63753
G1 X110.832 Y107.203 E2.67593
G1 X108.384 Y104.755 E2.91253
G1 X107.921 Y104.59 E2.94612
G1 X107.4 Y104.323 E2.98613
G1 X107.372 Y104.353 E2.98893
G1 X107.653 Y104.799 E3.02496
G1 X110.562 Y107.707 E3.30607
G1 X110.429 Y108.018 E3.32919
G1 X110.348 Y108.268 E3.34715
G1 X108.972 Y106.892 E3.48014
G1 X109.34 Y107.478 E3.52743
G1 X109.571 Y107.983 E3.56538
G1 X109.656 Y108.352 E3.59126
G1 X110.264 Y108.96 E3.65002
G1 X110.264 Y109.735 E3.70299
G1 X109.736 Y109.206 E3.75407
G1 X109.736 Y109.982 E3.8071
G1 X110.264 Y110.509 E3.85808
G1 X110.263 Y111.284 E3.91105
G1 X109.737 Y110.757 E3.96194
G1 X109.737 Y111.533 E4.01497
G1 X110.263 Y112.058 E4.06576
G1 X110.262 Y112.833 E4.11873
G1 X109.738 Y112.308 E4.16942
G1 X109.739 Y113.084 E4.22245
G1 X110.262 Y113.607 E4.273
G1 X110.262 Y114.382 E4.32597
G1 X109.739 Y113.859 E4.37652
G1 X109.74 Y114.635 E4.42955
G1 X110.261 Y115.156 E4.47991
G1 X110.261 Y115.931 E4.53288
G1 X109.74 Y115.41 E4.58324
G1 X109.741 Y116.186 E4.63627
G1 X110.26 Y116.705 E4.68643
G1 X110.26 Y117.48 E4.7394
G1 X109.742 Y116.961 E4.78951
G1 X109.742 Y117.737 E4.84254
G1 X110.26 Y118.254 E4.89256
G1 X110.259 Y119.029 E4.94553
G1 X109.743 Y118.512 E4.99545
G1 X109.743 Y119.288 E5.04848
G1 X110.259 Y119.803 E5.0983
G1 X110.258 Y120.578 E5.15127
G1 X109.744 Y120.063 E5.201
G1 X109.745 Y120.839 E5.25403
G1 X110.258 Y121.352 E5.30361
G1 X110.258 Y122.127 E5.35658
G1 X109.745 Y121.614 E5.40616
G1 X109.746 Y122.39 E5.45919
G1 X110.257 Y122.901 E5.50858
G1 X110.257 Y123.676 E5.56155
G1 X109.746 Y123.165 E5.61094
G1 X109.747 Y123.941 E5.66397
G1 X110.256 Y124.45 E5.71317
G1 X110.256 Y125.225 E5.76614
G1 X109.747 Y124.716 E5.81534
G1 X109.748 Y125.492 E5.86837
G1 X110.256 Y125.999 E5.91742
G1 X110.255 Y126.774 E5.97039
G1 X109.749 Y126.267 E6.01934
G1 X109.749 Y127.043 E6.07237
G1 X110.255 Y127.548 E6.12123
G1 X110.254 Y128.323 E6.1742
G1 X109.75 Y127.818 E6.22296
G1 X109.75 Y128.594 E6.27599
G1 X110.254 Y129.097 E6.32465
G1 X110.254 Y129.872 E6.37762
G1 X109.51 Y129.128 E6.44953
G1 E4.44953 F2400
G92 E0
G1 X109.51 Y129.128 F7800
G1 X101.994 Y90.919
G1 E2 F2400
;WIDTH:0.642624
G1 F1800
G1 X101.073 Y89.997 E2.09399
G1 X100.255 Y89.997 E2.15299
G1 X101.996 Y91.738 E2.33056
G1 E.33056 F2400
G92 E0
G1 X101.996 Y91.738 F7800
G1 X106.648 Y94.755
G1 E2 F2400
G1 F1800
G1 X107.195 Y95.301 E2.05574
G1 X107.062 Y95.378 E2.06682
G1 X106.715 Y95.64 E2.09818
G1 X106.072 Y94.996 E2.16381
G1 X105.254 Y94.996 E2.22281
G1 X106.28 Y96.023 E2.32751
G1 X106.057 Y96.254 E2.35067
G1 X105.898 Y96.458 E2.36932
G1 X104.36 Y94.92 E2.52619
G1 X103.828 Y94.769 E2.56607
G1 X103.41 Y94.572 E2.5994
G1 X103.001 Y94.298 E2.63491
G1 X102.548 Y93.877 E2.67951
G1 X102.367 Y93.64 E2.70102
G1 X102.11 Y93.212 E2.73703
G1 X101.913 Y92.718 E2.77539
G1 X101.843 Y92.403 E2.79866
G1 X100.251 Y90.811 E2.96104
G1 X100.252 Y91.63 E3.02011
G1 X105.554 Y96.931 E3.56084
G1 X105.264 Y97.459 E3.60429
G1 X100.254 Y92.45 E4.11524
G1 X100.255 Y93.112 E4.16298
G1 X100.526 Y93.539 E4.19945
G1 X105.027 Y98.041 E4.65858
G1 X104.845 Y98.677 E4.70629
G1 X101.938 Y95.769 E5.00284
G1 X103.351 Y98 E5.1933
G1 X104.976 Y99.625 E5.35904
;LAYER_CHANGE
;Z:0.6
;HEIGHT:0.3
G1 Z.6 F7800
G1 E3.35904 F2400
G92 E0
G1 X104.976 Y99.625 Z.6 F7800
G1 X110.974 Y104.126
G1 E2 F2400
;TYPE:Perimeter
;WIDTH:0.45
G1 F900
G1 X110.874 Y104.157 E2.00504
G1 X110.184 Y104.24 E2.03847
G1 X109.315 Y104.19 E2.08034
G1 X108.448 Y103.966 E2.12341
G1 X107.644 Y103.575 E2.16641
G1 X106.933 Y103.032 E2.20944
G1 X106.343 Y102.359 E2.25249
G1 X105.898 Y101.583 E2.29551
G1 X105.617 Y100.734 E2.33852
G1 X105.509 Y99.846 E2.38154
G1 X105.579 Y98.954 E2.42457
G1 X105.824 Y98.094 E2.46758
G1 X106.235 Y97.299 E2.51062
G1 X106.669 Y96.733 E2.54492
G1 X107.301 Y96.158 E2.58602
