; generated by PrusaSlicer 2.8.1+linux-x64-GTK3 on 2024-10-16 at 11:29:45 UTC

; 

; external perimeters extrusion width = 0.45mm
; perimeters extrusion width = 0.45mm
; infill extrusion width = 0.45mm
; solid infill extrusion width = 0.45mm
; top infill extrusion width = 0.40mm
; support material extrusion width = 0.40mm
; first layer extrusion width = 0.60mm

M190 S60 ; set bed temperature and wait for it to be reached
M104 S200 ; set temperature
;TYPE:Custom
G28 ; home all axes
G1 Z5 F5000 ; lift nozzle
M109 S200 ; set temperature and wait for it to be reached
G21 ; set units to millimeters
G90 ; use absolute coordinates
M82 ; use absolute distances for extrusion
G92 E0
; Filament gcode
M107
;LAYER_CHANGE
;Z:0.3
;HEIGHT:0.3
G1 E-2 F2400
G1 Z.3 F7800
G1 X96.864 Y61.233
G1 E0 F2400
;TYPE:Skirt/Brim
;WIDTH:0.6
G1 F1800
G1 X98.317 Y59.373 E.15768
G1 X100.032 Y57.751 E.31538
G1 X101.969 Y56.402 E.47307
G1 X104.085 Y55.357 E.63073
G1 X106.198 Y54.673 E.7791
G1 X108.191 Y54.311 E.91442
G1 X110.55 Y54.217 E1.07214
G1 X112.588 Y54.421 E1.20897
G1 X114.881 Y54.98 E1.36664
G1 X117.065 Y55.876 E1.52434
G1 X119.092 Y57.087 E1.68208
G1 X120.915 Y58.586 E1.83975
G1 X122.494 Y60.34 E1.99741
G1 X123.557 Y61.899 E2.12347
G1 X124.613 Y64.01 E2.28116
G1 X125.342 Y66.255 E2.43885
G1 X136.208 Y114.665 E5.75337
G1 X136.436 Y116.586 E5.8826
G1 X136.437 Y117.719 E5.95829
G1 X136.333 Y118.862 E6.03496
G1 X136.126 Y119.974 E6.11052
G1 X135.759 Y121.27 E6.2005
G1 X125.045 Y154.804 E8.55232
G1 X124.491 Y156.278 E8.65752
G1 X123.794 Y157.69 E8.76272
G1 X122.683 Y159.411 E8.89957
G1 X121.47 Y160.856 E9.02561
G1 X119.968 Y162.249 E9.16246
G1 X118.031 Y163.598 E9.32015
G1 X115.915 Y164.643 E9.47781
G1 X114.127 Y165.244 E9.60383
G1 X111.809 Y165.689 E9.76151
G1 X109.763 Y165.791 E9.89836
G1 X107.881 Y165.65 E10.02444
G1 X105.572 Y165.16 E10.18213
G1 X103.363 Y164.33 E10.33978
G1 X101.301 Y163.181 E10.49748
G1 X99.433 Y161.737 E10.65521
G1 X97.802 Y160.031 E10.81288
G1 X96.443 Y158.101 E10.97057
G1 X95.509 Y156.278 E11.10741
G1 X95.107 Y155.254 E11.1809
G1 X94.677 Y153.829 E11.28034
G1 X84.404 Y111.504 E14.18997
G1 X84.186 Y109.872 E14.29996
G1 X84.16 Y108.82 E14.37026
G1 X84.256 Y107.516 E14.45761
G1 X84.42 Y106.561 E14.52234
G1 X94.693 Y66.107 E17.31066
G1 X95.214 Y64.452 E17.42657
G1 X95.84 Y63.007 E17.53177
G1 X96.834 Y61.285 E17.6646
G1 E15.6646 F2400
G92 E0
G1 X96.834 Y61.285 F7800
G92 E0
G1 X124.698 Y111.015
G1 E2 F2400
;TYPE:Support material
G1 F1800
G1 X125.802 Y111.241 E2.07528
G1 X126.847 Y111.664 E2.15059
G1 X127.797 Y112.27 E2.22587
G1 X128.622 Y113.038 E2.30117
G1 X129.293 Y113.942 E2.37638
G1 X129.788 Y114.953 E2.45158
G1 X130.092 Y116.037 E2.52679
G1 X130.195 Y117.156 E2.60186
G1 X130.141 Y117.75 E2.64171
G1 X130.092 Y118.281 E2.67733
G1 X129.788 Y119.363 E2.75241
G1 X129.292 Y120.374 E2.82764
G1 X128.621 Y121.278 E2.90285
G1 X127.797 Y122.046 E2.9781
G1 X126.846 Y122.651 E3.0534
G1 X125.802 Y123.074 E3.12865
G1 X124.697 Y123.301 E3.20401
G1 X123.569 Y123.322 E3.27938
G1 X122.456 Y123.139 E3.35473
G1 X121.395 Y122.756 E3.43009
G1 X120.422 Y122.187 E3.50539
G1 X120.051 Y121.867 E3.53812
G1 X120.051 Y112.434 E4.1683
G1 X120.466 Y112.102 E4.2038
G1 X121.396 Y111.559 E4.27574
G1 X122.457 Y111.176 E4.3511
G1 X123.57 Y110.993 E4.42645
G1 X124.617 Y111.013 E4.49641
G1 X124.617 Y111.013 F7800
G1 X129.639 Y119.001
G1 F1800
G1 X129.616 Y116.125 E4.68855
G1 X129.336 Y115.126 E4.75786
G1 X129.044 Y114.53 E4.8022
G1 X129.044 Y119.785 E5.15326
G1 X128.449 Y120.701 E5.22623
G1 X128.449 Y113.614 E5.69968
G1 X127.854 Y112.981 E5.75772
G1 X127.854 Y121.334 E6.31575
G1 X127.259 Y121.817 E6.36695
G1 X127.259 Y112.498 E6.98951
G1 X126.664 Y112.119 E7.03664
G1 X126.664 Y122.196 E7.70984
G1 X126.069 Y122.446 E7.75296
G1 X126.069 Y111.869 E8.45956
G1 X125.473 Y111.666 E8.50162
G1 X125.473 Y122.65 E9.23541
G1 X124.878 Y122.772 E9.27599
G1 X124.878 Y111.544 E10.02608
G1 X124.283 Y111.489 E10.066
G1 X124.283 Y122.827 E10.82344
G1 X123.688 Y122.838 E10.8632
G1 X123.688 Y111.477 E11.62218
G1 X123.093 Y111.56 E11.66231
G1 X123.093 Y122.755 E12.4102
G1 X122.498 Y122.641 E12.45067
G1 X122.498 Y111.674 E13.18332
G1 X121.903 Y111.889 E13.22558
G1 X121.903 Y122.427 E13.92958
G1 X121.308 Y122.146 E13.97354
G1 X121.308 Y112.169 E14.64006
G1 X120.712 Y112.523 E14.68637
G1 X120.712 Y122.078 E15.3247
G1 E13.3247 F2400
G92 E0
G1 X120.712 Y122.078 F7800
G1 X97.948 Y103.285
G1 E2 F2400
G1 F1800
G1 X98.993 Y103.673 E2.07447
G1 X99.949 Y104.249 E2.14903
G1 X99.949 Y113.883 E2.79263
G1 X99.007 Y114.454 E2.86622
G1 X97.962 Y114.844 E2.94073
G1 X96.864 Y115.034 E3.01517
G1 X95.75 Y115.017 E3.0896
G1 X94.658 Y114.794 E3.16406
G1 X93.627 Y114.372 E3.23848
G1 X92.69 Y113.765 E3.31306
G1 X91.882 Y112.994 E3.38767
G1 X91.231 Y112.086 E3.46231
G1 X90.759 Y111.07 E3.53715
G1 X90.495 Y110.026 E3.60909
G1 X90.428 Y108.827 E3.68931
G1 X90.496 Y108.1 E3.73809
G1 X90.76 Y107.059 E3.80984
G1 X91.231 Y106.047 E3.88441
G1 X91.88 Y105.14 E3.95892
G1 X92.685 Y104.371 E4.03329
G1 X93.619 Y103.765 E4.10767
G1 X94.648 Y103.342 E4.18199
G1 X95.738 Y103.117 E4.25634
G1 X96.851 Y103.098 E4.33071
G1 X97.869 Y103.271 E4.39969
G1 X97.869 Y103.271 F7800
G1 X99.288 Y114.002
G1 F1800
G1 X99.288 Y104.413 E5.04029
G1 X98.692 Y104.075 E5.08606
G1 X98.692 Y114.056 E5.75284
G1 X98.097 Y114.279 E5.79529
G1 X98.097 Y103.854 E6.49174
G1 X97.502 Y103.698 E6.53283
G1 X97.502 Y114.435 E7.25012
G1 X96.907 Y114.537 E7.29045
G1 X96.907 Y103.596 E8.02137
G1 X96.312 Y103.589 E8.06112
G1 X96.312 Y114.544 E8.79297
G1 X95.717 Y114.518 E8.83276
G1 X95.717 Y103.613 E9.56127
G1 X95.122 Y103.736 E9.60186
G1 X95.122 Y114.396 E10.31401
G1 X94.527 Y114.219 E10.35548
G1 X94.527 Y103.913 E11.04398
G1 X93.931 Y104.157 E11.087
G1 X93.931 Y113.976 E11.74296
G1 X93.336 Y113.609 E11.78966
G1 X93.336 Y104.523 E12.39665
G1 X92.741 Y104.984 E12.44693
G1 X92.741 Y113.147 E12.99226
G1 X92.146 Y112.535 E13.04928
G1 X92.146 Y105.597 E13.51278
G1 X91.551 Y106.501 E13.58508
G1 X91.551 Y111.631 E13.92779
G1 X91.215 Y110.908 E13.98105
G1 X90.972 Y109.944 E14.04746
G1 X90.956 Y107.268 E14.22623
G1 E12.22623 F2400
G92 E0
G1 X90.956 Y107.268 F7800
G1 X117.883 Y152.043
G1 E2 F2400
;TYPE:Perimeter
;WIDTH:0.6
G1 F1800
G1 X117.791 Y152.403 E2.02482
G1 X117.513 Y153.167 E2.07913
G1 X117.16 Y153.899 E2.13342
G1 X116.737 Y154.593 E2.18772
G1 X116.246 Y155.241 E2.24203
G1 X115.693 Y155.837 E2.29635
G1 X115.084 Y156.375 E2.35064
G1 X114.424 Y156.849 E2.40492
G1 X113.72 Y157.255 E2.45921
G1 X112.979 Y157.59 E2.51354
G1 X112.208 Y157.849 E2.56788
G1 X111.416 Y158.029 E2.62214
G1 X110.609 Y158.131 E2.67648
G1 X109.797 Y158.151 E2.73074
G1 X108.983 Y158.09 E2.78527
G1 X108.296 Y157.972 E2.83184
G1 X107.801 Y157.852 E2.86587
G1 X107.018 Y157.589 E2.92105
G1 X106.381 Y157.305 E2.96764
G1 X105.931 Y157.066 E3.00168
G1 X105.241 Y156.62 E3.05657
G1 X104.605 Y156.113 E3.11091
G1 X104.023 Y155.546 E3.16519
G1 X103.501 Y154.923 E3.21949
G1 X103.052 Y154.265 E3.27271
G1 X102.481 Y153.151 E3.35634
G1 X102.209 Y152.403 E3.40951
G1 X102.008 Y151.616 E3.46377
G1 X101.887 Y150.812 E3.51809
G1 X101.845 Y149.966 E3.57468
G1 X101.845 Y70.034 E8.91457
G1 X101.887 Y69.188 E8.97116
G1 X102.008 Y68.384 E9.02548
G1 X102.209 Y67.597 E9.07974
G1 X102.487 Y66.833 E9.13405
G1 X102.84 Y66.101 E9.18834
G1 X103.263 Y65.407 E9.24264
G1 X103.754 Y64.759 E9.29695
G1 X104.307 Y64.163 E9.35127
G1 X104.916 Y63.625 E9.40556
G1 X105.576 Y63.151 E9.45984
G1 X106.28 Y62.745 E9.51413
G1 X107.021 Y62.41 E9.56846
G1 X107.792 Y62.151 E9.6228
G1 X108.584 Y61.971 E9.67706
G1 X109.378 Y61.871 E9.73052
G1 X110.258 Y61.866 E9.78931
G1 X111.005 Y61.908 E9.83929
G1 X111.814 Y62.051 E9.89417
G1 X112.597 Y62.271 E9.9485
G1 X113.362 Y62.572 E10.00342
G1 X113.819 Y62.798 E10.03748
G1 X114.421 Y63.149 E10.08403
G1 X115.084 Y63.625 E10.13855
G1 X115.681 Y64.152 E10.19175
G1 X116.509 Y65.091 E10.27538
G1 X116.758 Y65.456 E10.3049
G1 X117.161 Y66.123 E10.35696
G1 X117.508 Y66.847 E10.4106
G1 X117.791 Y67.632 E10.46635
G1 X117.978 Y68.359 E10.5165
G1 X118.074 Y68.896 E10.55294
G1 X118.134 Y69.618 E10.60134
G1 X118.155 Y70.238 E10.64278
G1 X118.155 Y149.966 E15.96904
G1 X118.113 Y150.812 E16.02563
G1 X117.992 Y151.616 E16.07995
G1 X117.898 Y151.985 E16.10539
G1 X117.898 Y151.985 F7800
G1 X118.405 Y152.162
G1 F1800
G1 X118.304 Y152.561 E16.13289
G1 X118.007 Y153.375 E16.19078
G1 X117.631 Y154.156 E16.24869
G1 X117.18 Y154.895 E16.30653
G1 X116.657 Y155.586 E16.36442
G1 X116.067 Y156.221 E16.42233
G1 X115.418 Y156.794 E16.48017
G1 X114.715 Y157.3 E16.53803
G1 X113.964 Y157.733 E16.59594
G1 X113.175 Y158.089 E16.65377
G1 X112.354 Y158.365 E16.71163
G1 X111.509 Y158.558 E16.76953
G1 X110.649 Y158.665 E16.82743
G1 X109.783 Y158.687 E16.8853
G1 X108.918 Y158.622 E16.94325
G1 X108.187 Y158.497 E16.99279
G1 X107.652 Y158.367 E17.02957
G1 X106.824 Y158.088 E17.08794
G1 X106.147 Y157.786 E17.13746
G1 X105.66 Y157.529 E17.17425
G1 X104.927 Y157.055 E17.23256
G1 X104.25 Y156.515 E17.29041
G1 X103.63 Y155.91 E17.34828
G1 X103.073 Y155.247 E17.40613
G1 X102.591 Y154.539 E17.46335
G1 X101.989 Y153.366 E17.55143
G1 X101.696 Y152.561 E17.60866
G1 X101.483 Y151.722 E17.66649
G1 X101.354 Y150.865 E17.72439
G1 X101.309 Y149.979 E17.78366
G1 X101.309 Y70.021 E23.12528
G1 X101.354 Y69.135 E23.18455
G1 X101.483 Y68.278 E23.24245
G1 X101.696 Y67.439 E23.30028
G1 X101.993 Y66.625 E23.35817
G1 X102.369 Y65.844 E23.41608
G1 X102.82 Y65.105 E23.47392
G1 X103.343 Y64.414 E23.53181
G1 X103.933 Y63.779 E23.58972
G1 X104.582 Y63.206 E23.64756
G1 X105.285 Y62.7 E23.70542
G1 X106.036 Y62.267 E23.76333
G1 X106.825 Y61.911 E23.82116
G1 X107.646 Y61.635 E23.87902
G1 X108.491 Y61.442 E23.93692
G1 X109.343 Y61.336 E23.99428
G1 X110.537 Y61.329 E24.07405
G1 X111.075 Y61.377 E24.11013
G1 X111.934 Y61.528 E24.1684
G1 X112.768 Y61.763 E24.22629
G1 X113.579 Y62.081 E24.28449
G1 X114.073 Y62.326 E24.32133
G1 X114.713 Y62.699 E24.37082
G1 X115.418 Y63.206 E24.42883
G1 X116.06 Y63.773 E24.48605
G1 X116.932 Y64.761 E24.57408
G1 X117.2 Y65.155 E24.60591
G1 X117.632 Y65.867 E24.66155
G1 X118.002 Y66.639 E24.71874
G1 X118.303 Y67.474 E24.77804
G1 X118.503 Y68.251 E24.83164
G1 X118.604 Y68.824 E24.87051
G1 X118.669 Y69.591 E24.92193
G1 X118.691 Y70.238 E24.96518
G1 X118.691 Y149.979 E30.29231
G1 X118.646 Y150.865 E30.35158
G1 X118.517 Y151.722 E30.40948
G1 X118.42 Y152.104 E30.43581
G1 X118.42 Y152.104 F7800
G1 X118.928 Y152.281
;TYPE:External perimeter
G1 F1800
G1 X118.816 Y152.719 E30.46601
G1 X118.501 Y153.584 E30.52751
G1 X118.102 Y154.412 E30.58891
G1 X117.623 Y155.197 E30.65034
G1 X117.067 Y155.93 E30.7118
G1 X116.442 Y156.605 E30.77326
G1 X115.752 Y157.213 E30.8347
G1 X115.006 Y157.75 E30.89611
G1 X114.209 Y158.21 E30.95759
G1 X113.371 Y158.588 E31.019
G1 X112.499 Y158.881 E31.08045
G1 X111.602 Y159.086 E31.14192
G1 X110.689 Y159.2 E31.20339
G1 X109.77 Y159.223 E31.2648
G1 X108.852 Y159.154 E31.3263
G1 X108.078 Y159.021 E31.37877
G1 X107.503 Y158.882 E31.41829
G1 X106.629 Y158.588 E31.47989
G1 X105.912 Y158.268 E31.53234
G1 X105.389 Y157.991 E31.57188
G1 X104.614 Y157.491 E31.63349
G1 X103.895 Y156.917 E31.69495
G1 X103.237 Y156.275 E31.75636
G1 X102.646 Y155.571 E31.81777
G1 X102.129 Y154.813 E31.87907
G1 X101.497 Y153.581 E31.97157
G1 X101.184 Y152.719 E32.03284
G1 X100.957 Y151.828 E32.09426
G1 X100.82 Y150.919 E32.15567
G1 X100.774 Y149.993 E32.21761
G1 X100.774 Y70.007 E37.5611
G1 X100.82 Y69.081 E37.62304
G1 X100.957 Y68.172 E37.68445
G1 X101.184 Y67.281 E37.74587
G1 X101.499 Y66.416 E37.80737
G1 X101.898 Y65.588 E37.86877
G1 X102.377 Y64.803 E37.9302
G1 X102.933 Y64.07 E37.99166
G1 X103.558 Y63.395 E38.05312
G1 X104.248 Y62.787 E38.11456
G1 X104.994 Y62.25 E38.17597
G1 X105.791 Y61.79 E38.23745
G1 X106.629 Y61.412 E38.29886
G1 X107.501 Y61.119 E38.36031
G1 X108.398 Y60.914 E38.42178
G1 X109.308 Y60.8 E38.48305
G1 X110.559 Y60.793 E38.56662
G1 X111.145 Y60.845 E38.60592
G1 X112.053 Y61.005 E38.66751
G1 X112.938 Y61.254 E38.72893
G1 X113.796 Y61.591 E38.79051
G1 X114.327 Y61.854 E38.8301
G1 X115.005 Y62.25 E38.88255
G1 X115.752 Y62.787 E38.94401
G1 X116.44 Y63.394 E39.0053
G1 X117.356 Y64.432 E39.09778
G1 X117.872 Y65.189 E39.15898
G1 X118.312 Y65.997 E39.22044
G1 X118.67 Y66.845 E39.28193
G1 X118.941 Y67.724 E39.34338
G1 X119.135 Y68.751 E39.4132
G1 X119.204 Y69.565 E39.46777
G1 X119.226 Y70.238 E39.51275
G1 X119.226 Y149.993 E44.84081
G1 X119.18 Y150.919 E44.90275
G1 X119.043 Y151.828 E44.96416
G1 X118.942 Y152.223 E44.9914
G1 X118.844 Y152.611 F7800
G1 E42.9914 F2400
G92 E0
G1 X114.115 Y63.157 F7800
G1 E2 F2400
;TYPE:Solid infill
;WIDTH:0.602156
G1 F1800
G1 X115.403 Y64.444 E2.12213
G1 X116.191 Y65.338 E2.20206
G1 X116.614 Y65.958 E2.2524
G1 X116.984 Y66.637 E2.30427
G1 X117.092 Y66.894 E2.32297
G1 X113.097 Y62.899 E2.70192
G1 X112.469 Y62.652 E2.74718
G1 X111.941 Y62.504 E2.78396
G1 X117.506 Y68.069 E3.31184
G1 X117.647 Y68.742 E3.35796
G1 X117.683 Y69.007 E3.3759
G1 X110.99 Y62.314 E4.01078
G1 X110.498 Y62.267 E4.04393
G1 X110.184 Y62.268 E4.06499
G1 X117.742 Y69.826 E4.78192
G1 X117.753 Y70.598 E4.83371
G1 X109.428 Y62.272 E5.62344
G1 X108.75 Y62.355 E5.66926
G1 X117.753 Y71.358 E6.52326
G1 X117.753 Y72.119 E6.5743
G1 X108.122 Y62.488 E7.48787
G1 X107.901 Y62.539 E7.50308
G1 X107.535 Y62.661 E7.52896
G1 X117.753 Y72.879 E8.49821
G1 X117.753 Y73.64 E8.54925
G1 X106.982 Y62.869 E9.57096
G1 X106.458 Y63.106 E9.60953
G1 X117.753 Y74.4 E10.6809
G1 X117.753 Y75.161 E10.73194
G1 X105.976 Y63.384 E11.84907
G1 X105.795 Y63.489 E11.86311
G1 X105.519 Y63.687 E11.88589
G1 X117.753 Y75.922 E13.04642
G1 X117.753 Y76.682 E13.0974
G1 X105.084 Y64.013 E14.29915
G1 X104.68 Y64.37 E14.33531
G1 X117.753 Y77.443 E15.57538
G1 X117.753 Y78.203 E15.62636
G1 X104.306 Y64.755 E16.90195
G1 X103.952 Y65.163 E16.93818
G1 X117.753 Y78.964 E18.24731
G1 X117.753 Y79.724 E18.29829
G1 X103.625 Y65.595 E19.63848
G1 X103.333 Y66.064 E19.67554
G1 X117.753 Y80.485 E21.04343
G1 X117.753 Y81.245 E21.09441
G1 X103.065 Y66.557 E22.48767
G1 X102.825 Y67.078 E22.52615
G1 X117.753 Y82.006 E23.94218
G1 X117.753 Y82.766 E23.99316
G1 X102.622 Y67.635 E25.42845
G1 X102.461 Y68.234 E25.47005
G1 X117.753 Y83.527 E26.92066
G1 X117.753 Y84.287 E26.97164
G1 X102.341 Y68.875 E28.43358
G1 X102.287 Y69.228 E28.45753
G1 X102.271 Y69.565 E28.48016
G1 X117.753 Y85.048 E29.94879
G1 X117.753 Y85.808 E29.99977
G1 X102.247 Y70.302 E31.47063
G1 X102.247 Y71.062 E31.52161
G1 X117.753 Y86.569 E32.99252
G1 X117.753 Y87.329 E33.0435
G1 X102.247 Y71.823 E34.51436
G1 X102.247 Y72.583 E34.56534
G1 X117.753 Y88.09 E36.03625
G1 X117.753 Y88.851 E36.08729
G1 X102.247 Y73.344 E37.5582
G1 X102.247 Y74.104 E37.60918
G1 X117.753 Y89.611 E39.08009
G1 X117.753 Y90.372 E39.13113
G1 X102.247 Y74.865 E40.60204
G1 X102.247 Y75.625 E40.65302
G1 X117.753 Y91.132 E42.12393
G1 X117.753 Y91.893 E42.17497
G1 X102.247 Y76.386 E43.64588
G1 X102.247 Y77.146 E43.69686
G1 X117.753 Y92.653 E45.16777
G1 X117.753 Y93.414 E45.21881
G1 X102.247 Y77.907 E46.68972
G1 X102.247 Y78.668 E46.74076
G1 X117.753 Y94.174 E48.21162
G1 X117.753 Y94.935 E48.26266
G1 X102.247 Y79.428 E49.73357
G1 X102.247 Y80.189 E49.78461
G1 X117.753 Y95.695 E51.25547
G1 X117.753 Y96.456 E51.30651
G1 X102.247 Y80.949 E52.77742
G1 X102.247 Y81.71 E52.82846
G1 X117.753 Y97.216 E54.29932
G1 X117.753 Y97.977 E54.35036
G1 X102.247 Y82.47 E55.82127
G1 X102.247 Y83.231 E55.87231
G1 X117.753 Y98.737 E57.34317
G1 X117.753 Y99.498 E57.39421
G1 X102.247 Y83.991 E58.86512
G1 X102.247 Y84.752 E58.91616
G1 X117.753 Y100.258 E60.38702
G1 X117.753 Y101.019 E60.43806
G1 X102.247 Y85.512 E61.90897
G1 X102.247 Y86.273 E61.96001
G1 X117.753 Y101.779 E63.43087
G1 X117.753 Y102.54 E63.48191
G1 X102.247 Y87.033 E64.95282
G1 X102.247 Y87.794 E65.00386
G1 X117.753 Y103.301 E66.47477
G1 X117.753 Y104.061 E66.52575
G1 X102.247 Y88.554 E67.99666
G1 X102.247 Y89.315 E68.0477
G1 X117.753 Y104.822 E69.51861
G1 X117.753 Y105.582 E69.56959
G1 X102.247 Y90.075 E71.0405
G1 X102.247 Y90.836 E71.09154
G1 X117.753 Y106.343 E72.56245
G1 X117.753 Y107.103 E72.61343
G1 X102.247 Y91.596 E74.08434
