; generated by PrusaSlicer 2.8.1+linux-x64-GTK3 on 2024-10-18 at 09:01:55 UTC

; 

; external perimeters extrusion width = 0.45mm
; perimeters extrusion width = 0.45mm
; infill extrusion width = 0.45mm
; solid infill extrusion width = 0.45mm
; top infill extrusion width = 0.40mm
; support material extrusion width = 0.40mm
; first layer extrusion width = 0.60mm

M190 S60 ; set bed temperature and wait for it to be reached
M104 S200 ; set temperature
;TYPE:Custom
G28 ; home all axes
G1 Z5 F5000 ; lift nozzle
M109 S200 ; set temperature and wait for it to be reached
G21 ; set units to millimeters
G90 ; use absolute coordinates
M82 ; use absolute distances for extrusion
G92 E0
; Filament gcode
M107
;LAYER_CHANGE
;Z:0.3
;HEIGHT:0.3
G1 E-2 F2400
G1 Z.3 F7800
G1 X96.864 Y61.233
G1 E0 F2400
;TYPE:Skirt/Brim
;WIDTH:0.6
G1 F1800
G1 X98.317 Y59.373 E.15768
G1 X99.668 Y58.056 E.28372
G1 X101.563 Y56.649 E.4414
G1 X103.647 Y55.541 E.59908
G1 X105.873 Y54.756 E.75676
G1 X108.191 Y54.311 E.91444
G1 X110.55 Y54.217 E1.07216
G1 X112.896 Y54.475 E1.22983
G1 X115.178 Y55.08 E1.38755
G1 X117.344 Y56.018 E1.54524
G1 X119.092 Y57.087 E1.68212
G1 X120.915 Y58.586 E1.83979
G1 X122.494 Y60.34 E1.99745
G1 X123.794 Y62.31 E2.15513
G1 X124.613 Y64.01 E2.28119
G1 X125.045 Y65.196 E2.36551
G1 X125.448 Y66.718 E2.47069
G1 X135.929 Y114.524 E5.74024
G1 X136.146 Y116.394 E5.866
G1 X136.146 Y117.506 E5.94029
G1 X135.855 Y119.677 E6.08662
G1 X135.515 Y120.914 E6.17232
G1 X125.092 Y154.658 E8.53169
G1 X124.491 Y156.278 E8.64712
G1 X123.794 Y157.69 E8.75232
G1 X122.683 Y159.411 E8.88917
G1 X121.47 Y160.856 E9.01521
G1 X119.968 Y162.249 E9.15206
G1 X118.031 Y163.598 E9.30975
G1 X116.044 Y164.589 E9.45809
G1 X114.127 Y165.244 E9.59343
G1 X111.809 Y165.689 E9.75111
G1 X109.762 Y165.791 E9.88803
G1 X107.881 Y165.65 E10.01404
G1 X105.572 Y165.16 E10.17173
G1 X103.362 Y164.33 E10.32944
G1 X101.301 Y163.181 E10.48708
G1 X99.433 Y161.737 E10.64481
G1 X97.802 Y160.031 E10.80248
G1 X96.443 Y158.101 E10.96017
G1 X95.509 Y156.278 E11.09701
G1 X95.107 Y155.254 E11.1705
G1 X94.668 Y153.791 E11.27254
G1 X84.925 Y112.511 E14.10604
G1 X84.612 Y110.682 E14.23
G1 X84.566 Y109.724 E14.29407
G1 X84.635 Y108.309 E14.38871
G1 X84.895 Y106.844 E14.48811
G1 X94.674 Y66.184 E17.28187
G1 X95.107 Y64.746 E17.3822
G1 X95.704 Y63.289 E17.48739
G1 X96.834 Y61.285 E17.64108
G1 E15.64108 F2400
G92 E0
G1 X96.834 Y61.285 F7800
G92 E0
G1 X124.137 Y110.797
G1 E2 F2400
;TYPE:Support material
G1 F1800
G1 X124.681 Y110.837 E2.03644
G1 X125.723 Y111.082 E2.10795
G1 X126.769 Y111.533 E2.18405
G1 X127.708 Y112.198 E2.26092
G1 X128.462 Y112.978 E2.33339
G1 X129.066 Y113.848 E2.40414
G1 X129.522 Y114.82 E2.47587
G1 X129.806 Y115.866 E2.54828
G1 X129.903 Y116.95 E2.62099
G1 X129.806 Y118.034 E2.6937
G1 X129.376 Y119.396 E2.78912
G1 X129.064 Y120.056 E2.83789
G1 X128.462 Y120.922 E2.90835
G1 X127.708 Y121.702 E2.98082
G1 X126.769 Y122.367 E3.05769
G1 X125.723 Y122.818 E3.13379
G1 X124.659 Y123.069 E3.20682
G1 X123.569 Y123.131 E3.27976
G1 X122.485 Y123.003 E3.35268
G1 X121.439 Y122.69 E3.42562
G1 X120.432 Y122.185 E3.50088
G1 X120.051 Y121.887 E3.53319
G1 X120.051 Y112.012 E4.19289
G1 X120.438 Y111.712 E4.2256
G1 X121.439 Y111.21 E4.30041
G1 X122.485 Y110.897 E4.37335
G1 X123.55 Y110.772 E4.44499
G1 X124.056 Y110.793 E4.47882
G1 X124.056 Y110.793 F7800
G1 X129.044 Y119.533
G1 F1800
G1 X129.044 Y114.936 E4.78592
G1 X128.449 Y113.804 E4.87135
G1 X128.449 Y120.096 E5.29169
G1 X127.854 Y120.858 E5.35628
G1 X127.854 Y113.042 E5.87843
G1 X127.259 Y112.471 E5.93352
G1 X127.259 Y121.429 E6.53196
G1 X126.664 Y121.851 E6.58069
G1 X126.664 Y112.049 E7.23552
G1 X126.069 Y111.756 E7.27983
G1 X126.069 Y122.144 E7.9738
G1 X125.473 Y122.381 E8.01665
G1 X125.473 Y111.519 E8.74229
G1 X124.878 Y111.379 E8.78312
G1 X124.878 Y122.522 E9.52753
G1 X124.283 Y122.607 E9.56768
G1 X124.283 Y111.291 E10.32365
G1 X123.688 Y111.26 E10.36345
G1 X123.688 Y122.641 E11.12376
G1 X123.093 Y122.589 E11.16366
G1 X123.093 Y111.311 E11.91709
G1 X122.583 Y111.371 E11.9514
G1 X122.498 Y111.396 E11.95732
G1 X122.498 Y122.504 E12.69939
G1 X121.903 Y122.326 E12.74088
G1 X121.903 Y111.574 E13.45917
G1 X121.308 Y111.815 E13.50206
G1 X121.308 Y122.085 E14.18815
G1 X120.712 Y121.786 E14.2327
G1 X120.712 Y111.844 E14.89688
G1 E12.89688 F2400
G92 E0
G1 X120.712 Y111.844 F7800
G1 X96.198 Y104.346
G1 E2 F2400
G1 F1800
G1 X96.722 Y104.364 E2.03503
G1 X97.707 Y104.585 E2.10247
G1 X98.651 Y104.972 E2.17063
G1 X99.217 Y105.328 E2.2153
G1 X99.949 Y106.015 E2.28237
G1 X99.949 Y113.285 E2.76805
G1 X98.861 Y114.17 E2.86174
G1 X97.896 Y114.642 E2.93351
G1 X96.827 Y114.913 E3.00718
G1 X95.726 Y114.963 E3.08081
G1 X94.564 Y114.778 E3.15942
G1 X93.49 Y114.306 E3.23779
G1 X92.39 Y113.429 E3.33177
G1 X91.68 Y112.54 E3.40778
G1 X91.175 Y111.536 E3.48286
G1 X90.873 Y110.382 E3.56255
G1 X90.827 Y109.424 E3.62662
G1 X90.989 Y108.309 E3.70189
G1 X91.365 Y107.267 E3.77589
G1 X91.824 Y106.475 E3.83704
G1 X92.527 Y105.64 E3.90996
G1 X93.508 Y104.955 E3.98989
G1 X94.552 Y104.536 E4.06504
G1 X95.599 Y104.343 E4.13616
G1 X96.118 Y104.345 E4.17083
G1 X96.118 Y104.345 F7800
G1 X99.288 Y113.551
G1 F1800
G1 X99.288 Y106.024 E4.67367
G1 X98.692 Y105.567 E4.72384
G1 X98.692 Y113.694 E5.26677
G1 X98.097 Y114.007 E5.31168
G1 X98.097 Y105.266 E5.89563
G1 X97.562 Y105.047 E5.93425
G1 X97.502 Y105.034 E5.93835
G1 X97.502 Y114.244 E6.55363
G1 X96.907 Y114.396 E6.59466
G1 X96.907 Y104.9 E7.22904
G1 X96.312 Y104.832 E7.26905
G1 X96.312 Y114.454 E7.91185
G1 X95.717 Y114.473 E7.95162
G1 X95.717 Y104.825 E8.59616
G1 X95.122 Y104.921 E8.63642
G1 X95.122 Y114.379 E9.26827
G1 X94.527 Y114.235 E9.30917
G1 X94.527 Y105.065 E9.92178
G1 X93.931 Y105.304 E9.96468
G1 X93.931 Y113.973 E10.54382
G1 X93.336 Y113.59 E10.59109
G1 X93.336 Y105.663 E11.12066
G1 X92.741 Y106.134 E11.17136
G1 X92.741 Y113.096 E11.63646
G1 X92.146 Y112.361 E11.69963
G1 X92.146 Y106.88 E12.06579
G1 X91.797 Y107.482 E12.11228
G1 X91.551 Y108.114 E12.15759
G1 X91.551 Y111.783 E12.4027
G1 E10.4027 F2400
G92 E0
G1 X91.551 Y111.783 F7800
G1 X118.153 Y150
G1 E2 F2400
;TYPE:Perimeter
;WIDTH:0.6
G1 F1800
G1 X118.113 Y150.812 E2.05431
G1 X117.992 Y151.616 E2.10863
G1 X117.791 Y152.403 E2.16289
G1 X117.513 Y153.167 E2.2172
G1 X117.16 Y153.899 E2.27149
G1 X116.737 Y154.593 E2.32579
G1 X116.246 Y155.241 E2.3801
G1 X115.693 Y155.837 E2.43442
G1 X115.084 Y156.375 E2.48871
G1 X114.424 Y156.849 E2.54299
G1 X113.72 Y157.255 E2.59728
G1 X112.979 Y157.59 E2.65161
G1 X112.208 Y157.849 E2.70595
G1 X111.416 Y158.029 E2.76021
G1 X110.609 Y158.131 E2.81455
G1 X109.797 Y158.151 E2.86881
G1 X108.983 Y158.09 E2.92334
G1 X108.296 Y157.972 E2.96991
G1 X107.801 Y157.852 E3.00394
G1 X107.021 Y157.59 E3.05891
G1 X106.295 Y157.262 E3.11213
G1 X105.227 Y156.61 E3.19572
G1 X104.605 Y156.113 E3.24891
G1 X104.023 Y155.546 E3.30319
G1 X103.501 Y154.923 E3.35749
G1 X103.052 Y154.265 E3.41071
G1 X102.481 Y153.151 E3.49434
G1 X102.209 Y152.403 E3.54751
G1 X102.008 Y151.616 E3.60177
G1 X101.887 Y150.812 E3.65609
G1 X101.845 Y149.966 E3.71268
G1 X101.845 Y70.034 E9.05257
G1 X101.887 Y69.188 E9.10916
G1 X102.008 Y68.384 E9.16348
G1 X102.209 Y67.597 E9.21774
G1 X102.487 Y66.833 E9.27205
G1 X102.84 Y66.101 E9.32634
G1 X103.263 Y65.407 E9.38064
G1 X103.754 Y64.759 E9.43495
G1 X104.307 Y64.163 E9.48927
G1 X104.916 Y63.625 E9.54356
G1 X105.576 Y63.151 E9.59784
G1 X106.28 Y62.745 E9.65213
G1 X107.021 Y62.41 E9.70646
G1 X107.792 Y62.151 E9.7608
G1 X108.584 Y61.971 E9.81506
G1 X109.385 Y61.87 E9.86899
G1 X110.333 Y61.856 E9.93233
G1 X111.011 Y61.909 E9.97776
G1 X111.814 Y62.051 E10.03224
G1 X112.597 Y62.271 E10.08657
G1 X113.338 Y62.562 E10.13975
G1 X114.437 Y63.161 E10.22337
G1 X115.084 Y63.625 E10.27656
G1 X115.681 Y64.152 E10.32976
G1 X116.509 Y65.091 E10.41339
G1 X116.758 Y65.456 E10.44291
G1 X117.161 Y66.123 E10.49497
G1 X117.508 Y66.847 E10.54861
G1 X117.791 Y67.632 E10.60436
G1 X117.978 Y68.359 E10.65451
G1 X118.074 Y68.896 E10.69095
G1 X118.134 Y69.618 E10.73935
G1 X118.155 Y70.238 E10.78079
G1 X118.155 Y149.94 E16.10531
G1 X118.69 Y150 F7800
G1 F1800
G1 X118.646 Y150.865 E16.16317
G1 X118.517 Y151.722 E16.22107
G1 X118.304 Y152.561 E16.2789
G1 X118.007 Y153.375 E16.33679
G1 X117.631 Y154.156 E16.3947
G1 X117.18 Y154.895 E16.45254
G1 X116.657 Y155.586 E16.51043
G1 X116.067 Y156.221 E16.56834
G1 X115.418 Y156.794 E16.62618
G1 X114.715 Y157.3 E16.68404
G1 X113.964 Y157.733 E16.74195
G1 X113.175 Y158.089 E16.79978
G1 X112.354 Y158.365 E16.85764
G1 X111.509 Y158.558 E16.91554
G1 X110.649 Y158.665 E16.97344
G1 X109.783 Y158.687 E17.03131
G1 X108.918 Y158.622 E17.08926
G1 X108.187 Y158.497 E17.1388
G1 X107.652 Y158.367 E17.17558
G1 X106.825 Y158.089 E17.23387
G1 X106.044 Y157.737 E17.2911
G1 X104.92 Y157.049 E17.37914
G1 X104.25 Y156.515 E17.43638
G1 X103.63 Y155.91 E17.49425
G1 X103.073 Y155.247 E17.5521
G1 X102.591 Y154.539 E17.60932
G1 X101.989 Y153.366 E17.6974
G1 X101.696 Y152.561 E17.75463
G1 X101.483 Y151.722 E17.81246
G1 X101.354 Y150.865 E17.87036
G1 X101.309 Y149.979 E17.92963
G1 X101.309 Y70.021 E23.27125
G1 X101.354 Y69.135 E23.33052
G1 X101.483 Y68.278 E23.38842
G1 X101.696 Y67.439 E23.44625
G1 X101.993 Y66.625 E23.50414
G1 X102.369 Y65.844 E23.56205
G1 X102.82 Y65.105 E23.61989
G1 X103.343 Y64.414 E23.67778
G1 X103.933 Y63.779 E23.73569
G1 X104.582 Y63.206 E23.79353
G1 X105.285 Y62.7 E23.85139
G1 X106.036 Y62.267 E23.9093
G1 X106.825 Y61.911 E23.96713
G1 X107.646 Y61.635 E24.02499
G1 X108.491 Y61.442 E24.08289
G1 X109.347 Y61.335 E24.14052
G1 X110.35 Y61.32 E24.20753
G1 X111.079 Y61.377 E24.25638
G1 X111.934 Y61.528 E24.31438
G1 X112.768 Y61.763 E24.37227
G1 X113.565 Y62.076 E24.42947
G1 X114.723 Y62.706 E24.51754
G1 X115.418 Y63.206 E24.57474
G1 X116.06 Y63.773 E24.63196
G1 X116.932 Y64.761 E24.71999
G1 X117.2 Y65.155 E24.75182
G1 X117.632 Y65.867 E24.80746
G1 X118.002 Y66.639 E24.86465
G1 X118.303 Y67.474 E24.92395
G1 X118.503 Y68.251 E24.97755
G1 X118.604 Y68.824 E25.01642
G1 X118.669 Y69.591 E25.06784
G1 X118.691 Y70.238 E25.11109
G1 X118.691 Y149.94 E30.43561
G1 X118.691 Y149.94 F7800
G1 X119.226 Y150
;TYPE:External perimeter
G1 F1800
G1 X119.18 Y150.919 E30.49708
G1 X119.043 Y151.828 E30.55849
G1 X118.816 Y152.719 E30.61991
G1 X118.501 Y153.584 E30.68141
G1 X118.102 Y154.412 E30.74281
G1 X117.623 Y155.197 E30.80424
G1 X117.067 Y155.93 E30.8657
G1 X116.442 Y156.605 E30.92716
G1 X115.752 Y157.213 E30.9886
G1 X115.005 Y157.75 E31.05006
G1 X114.209 Y158.21 E31.11148
G1 X113.371 Y158.588 E31.17289
G1 X112.499 Y158.881 E31.23434
G1 X111.602 Y159.086 E31.29581
G1 X110.689 Y159.2 E31.35728
G1 X109.77 Y159.223 E31.41869
G1 X108.852 Y159.154 E31.48019
G1 X108.078 Y159.021 E31.53266
G1 X107.503 Y158.882 E31.57218
G1 X106.629 Y158.588 E31.63378
G1 X105.794 Y158.211 E31.69498
G1 X104.612 Y157.489 E31.78751
G1 X103.895 Y156.917 E31.84878
G1 X103.237 Y156.275 E31.91019
G1 X102.646 Y155.571 E31.9716
G1 X102.129 Y154.813 E32.0329
G1 X101.497 Y153.581 E32.1254
G1 X101.184 Y152.719 E32.18667
G1 X100.957 Y151.828 E32.24809
G1 X100.82 Y150.919 E32.3095
G1 X100.774 Y149.993 E32.37144
G1 X100.774 Y70.007 E37.71493
G1 X100.82 Y69.081 E37.77687
G1 X100.957 Y68.172 E37.83828
G1 X101.184 Y67.281 E37.8997
G1 X101.499 Y66.416 E37.9612
G1 X101.898 Y65.588 E38.0226
G1 X102.377 Y64.803 E38.08403
G1 X102.933 Y64.07 E38.14549
G1 X103.558 Y63.395 E38.20695
G1 X104.248 Y62.787 E38.26839
G1 X104.994 Y62.25 E38.3298
G1 X105.791 Y61.79 E38.39128
G1 X106.629 Y61.412 E38.45269
G1 X107.501 Y61.119 E38.51414
G1 X108.398 Y60.914 E38.57561
G1 X109.31 Y60.8 E38.63701
G1 X110.367 Y60.784 E38.70763
G1 X111.147 Y60.846 E38.7599
G1 X112.053 Y61.005 E38.82135
G1 X112.938 Y61.254 E38.88277
G1 X113.792 Y61.589 E38.94405
G1 X115.008 Y62.252 E39.03658
G1 X115.752 Y62.787 E39.0978
G1 X116.44 Y63.394 E39.15909
G1 X117.356 Y64.432 E39.25157
G1 X117.872 Y65.189 E39.31277
G1 X118.312 Y65.997 E39.37423
G1 X118.67 Y66.845 E39.43572
G1 X118.941 Y67.724 E39.49717
G1 X119.135 Y68.751 E39.56699
G1 X119.204 Y69.565 E39.62156
G1 X119.226 Y70.238 E39.66654
G1 X119.226 Y149.94 E44.99106
G1 X119.209 Y150.34 F7800
G1 E42.99106 F2400
G92 E0
G1 X114.14 Y63.182 F7800
G1 E2 F2400
;TYPE:Solid infill
;WIDTH:0.602156
G1 F1800
G1 X115.403 Y64.444 E2.11976
G1 X116.191 Y65.338 E2.19969
G1 X116.614 Y65.958 E2.25003
G1 X116.984 Y66.637 E2.3019
G1 X117.092 Y66.894 E2.3206
G1 X113.097 Y62.899 E2.69955
G1 X112.469 Y62.652 E2.74481
G1 X111.941 Y62.504 E2.78159
G1 X117.506 Y68.069 E3.30947
G1 X117.647 Y68.742 E3.35559
G1 X117.683 Y69.007 E3.37353
G1 X110.99 Y62.314 E4.00841
G1 X110.176 Y62.26 E4.06313
G1 X117.742 Y69.826 E4.78082
G1 X117.753 Y70.598 E4.83261
G1 X109.427 Y62.271 E5.62244
G1 X108.75 Y62.355 E5.6682
G1 X117.753 Y71.358 E6.5222
G1 X117.753 Y72.119 E6.57324
G1 X108.122 Y62.488 E7.48681
G1 X107.901 Y62.539 E7.50202
G1 X107.535 Y62.661 E7.5279
G1 X117.753 Y72.879 E8.49715
G1 X117.753 Y73.64 E8.54819
G1 X106.982 Y62.869 E9.5699
G1 X106.458 Y63.106 E9.60847
G1 X117.753 Y74.4 E10.67984
G1 X117.753 Y75.161 E10.73088
G1 X105.976 Y63.384 E11.84801
G1 X105.795 Y63.489 E11.86205
G1 X105.519 Y63.687 E11.88483
G1 X117.753 Y75.922 E13.04536
G1 X117.753 Y76.682 E13.09634
G1 X105.084 Y64.013 E14.29809
G1 X104.68 Y64.37 E14.33425
G1 X117.753 Y77.443 E15.57432
G1 X117.753 Y78.203 E15.6253
G1 X104.306 Y64.755 E16.90089
G1 X103.952 Y65.163 E16.93712
G1 X117.753 Y78.964 E18.24625
G1 X117.753 Y79.724 E18.29723
G1 X103.625 Y65.595 E19.63742
G1 X103.333 Y66.064 E19.67448
G1 X117.753 Y80.485 E21.04237
G1 X117.753 Y81.245 E21.09335
G1 X103.065 Y66.557 E22.48661
G1 X102.825 Y67.078 E22.52509
G1 X117.753 Y82.006 E23.94112
G1 X117.753 Y82.766 E23.9921
G1 X102.622 Y67.635 E25.42739
G1 X102.461 Y68.234 E25.46899
G1 X117.753 Y83.527 E26.9196
G1 X117.753 Y84.287 E26.97058
G1 X102.341 Y68.875 E28.43252
G1 X102.287 Y69.228 E28.45647
G1 X102.271 Y69.565 E28.4791
G1 X117.753 Y85.048 E29.94773
G1 X117.753 Y85.808 E29.99871
G1 X102.247 Y70.302 E31.46957
G1 X102.247 Y71.062 E31.52055
G1 X117.753 Y86.569 E32.99146
G1 X117.753 Y87.329 E33.04244
G1 X102.247 Y71.823 E34.5133
G1 X102.247 Y72.583 E34.56428
G1 X117.753 Y88.09 E36.03519
G1 X117.753 Y88.851 E36.08623
G1 X102.247 Y73.344 E37.55714
G1 X102.247 Y74.104 E37.60812
G1 X117.753 Y89.611 E39.07903
G1 X117.753 Y90.372 E39.13007
G1 X102.247 Y74.865 E40.60098
G1 X102.247 Y75.625 E40.65196
G1 X117.753 Y91.132 E42.12287
G1 X117.753 Y91.893 E42.17391
G1 X102.247 Y76.386 E43.64482
G1 X102.247 Y77.146 E43.6958
G1 X117.753 Y92.653 E45.16671
G1 X117.753 Y93.414 E45.21775
G1 X102.247 Y77.907 E46.68866
G1 X102.247 Y78.668 E46.7397
G1 X117.753 Y94.174 E48.21056
G1 X117.753 Y94.935 E48.2616
G1 X102.247 Y79.428 E49.73251
G1 X102.247 Y80.189 E49.78355
G1 X117.753 Y95.695 E51.25441
G1 X117.753 Y96.456 E51.30545
G1 X102.247 Y80.949 E52.77636
G1 X102.247 Y81.71 E52.8274
G1 X117.753 Y97.216 E54.29826
G1 X117.753 Y97.977 E54.3493
G1 X102.247 Y82.47 E55.82021
G1 X102.247 Y83.231 E55.87125
G1 X117.753 Y98.737 E57.34211
G1 X117.753 Y99.498 E57.39315
G1 X102.247 Y83.991 E58.86406
G1 X102.247 Y84.752 E58.9151
G1 X117.753 Y100.258 E60.38596
G1 X117.753 Y101.019 E60.437
G1 X102.247 Y85.512 E61.90791
G1 X102.247 Y86.273 E61.95895
G1 X117.753 Y101.779 E63.42981
G1 X117.753 Y102.54 E63.48085
G1 X102.247 Y87.033 E64.95176
G1 X102.247 Y87.794 E65.0028
G1 X117.753 Y103.301 E66.47371
G1 X117.753 Y104.061 E66.52469
G1 X102.247 Y88.554 E67.9956
G1 X102.247 Y89.315 E68.04664
G1 X117.753 Y104.822 E69.51755
G1 X117.753 Y105.582 E69.56853
G1 X102.247 Y90.075 E71.03944
G1 X102.247 Y90.836 E71.09048
G1 X117.753 Y106.343 E72.56139
G1 X117.753 Y107.103 E72.61237
G1 X102.247 Y91.596 E74.08328
G1 X102.247 Y92.357 E74.13432
G1 X117.753 Y107.864 E75.60523
G1 X117.753 Y108.624 E75.65621
G1 X102.247 Y93.118 E77.12707
G1 X102.247 Y93.878 E77.17805
G1 X117.753 Y109.385 E78.64896
G1 X117.753 Y110.145 E78.69994
G1 X102.247 Y94.639 E80.1708
G1 X102.247 Y95.399 E80.22178
G1 X117.753 Y110.906 E81.69269
G1 X117.753 Y111.666 E81.74367
G1 X102.247 Y96.16 E83.21453
G1 X102.247 Y96.92 E83.26551
G1 X117.753 Y112.427 E84.73642
G1 X117.753 Y113.187 E84.7874
