; generated by PrusaSlicer 2.8.1+linux-x64-GTK3 on 2024-10-15 at 08:23:15 UTC

; 

; external perimeters extrusion width = 0.45mm
; perimeters extrusion width = 0.45mm
; infill extrusion width = 0.45mm
; solid infill extrusion width = 0.45mm
; top infill extrusion width = 0.40mm
; support material extrusion width = 0.40mm
; first layer extrusion width = 0.60mm

M190 S60 ; set bed temperature and wait for it to be reached
M104 S200 ; set temperature
;TYPE:Custom
G28 ; home all axes
G1 Z5 F5000 ; lift nozzle
M109 S200 ; set temperature and wait for it to be reached
G21 ; set units to millimeters
G90 ; use absolute coordinates
M82 ; use absolute distances for extrusion
G92 E0
; Filament gcode
M107
;LAYER_CHANGE
;Z:0.3
;HEIGHT:0.3
G1 E-2 F2400
G1 Z.3 F7800
G1 X82.762 Y82.739
G1 E0 F2400
;TYPE:Skirt/Brim
;WIDTH:0.6
G1 F1800
G1 X103.908 Y61.587 E1.9981
G1 X104.706 Y60.912 E2.06792
G1 X108.597 Y58.144 E2.38692
G1 X111.531 Y57.022 E2.59677
G1 X113.839 Y56.802 E2.75166
G1 X138.376 Y56.802 E4.39086
G1 X141.547 Y56.804 E4.6027
G1 X143.213 Y57.031 E4.71503
G1 X178.082 Y66.678 E7.13198
G1 X178.933 Y66.999 E7.19274
G1 X179.877 Y67.474 E7.26334
G1 X180.641 Y67.966 E7.32405
G1 X181.581 Y68.738 E7.40531
G1 X185.148 Y72.3 E7.74207
G1 X186.107 Y73.467 E7.84298
G1 X186.732 Y74.511 E7.92427
G1 X187.16 Y75.477 E7.99485
G1 X187.513 Y76.641 E8.07611
G1 X187.694 Y77.682 E8.1467
G1 X187.755 Y78.743 E8.2177
G1 X187.755 Y94.258 E9.25419
G1 X187.694 Y95.319 E9.32519
G1 X187.438 Y96.659 E9.41633
G1 X186.93 Y98.08 E9.51714
G1 X186.107 Y99.533 E9.6287
G1 X185.25 Y100.594 E9.71981
G1 X183.688 Y102.161 E9.86762
G1 X182.888 Y102.851 E9.9382
G1 X181.749 Y103.6 E10.02927
G1 X180.511 Y104.173 E10.1204
G1 X47.185 Y153.697 E19.62192
G1 X44.302 Y154.05 E19.81596
G1 X42.694 Y153.869 E19.92406
G1 X41.173 Y153.501 E20.0286
G1 X38.326 Y152.422 E20.232
G1 X36.951 Y151.695 E20.33591
G1 X35.614 Y150.758 E20.44498
G1 X33.61 Y148.44 E20.64968
G1 X31.497 Y144.085 E20.97305
G1 X30.889 Y141.382 E21.15814
G1 X30.891 Y139.781 E21.2651
G1 X31.265 Y137.657 E21.40918
G1 X32.632 Y134.015 E21.66906
G1 X33.345 Y132.608 E21.77444
G1 X34.485 Y131.029 E21.90454
G1 X82.719 Y82.781 E26.46221
G1 E24.46221 F2400
G92 E0
G1 X82.719 Y82.781 F7800
G92 E0
G1 X139.553 Y63.525
G1 E2 F2400
;TYPE:Support material
G1 F1800
G1 X139.933 Y63.25 E2.03134
G1 X141.543 Y63.072 E2.13955
G1 X142.982 Y63.618 E2.24237
G1 X144.029 Y64.799 E2.34781
G1 X144.18 Y65.43 E2.39115
G1 X145.245 Y65.827 E2.46708
G1 X146.3 Y67.01 E2.57297
G1 X146.464 Y67.685 E2.61938
G1 X147.484 Y68.066 E2.69212
G1 X148.54 Y69.249 E2.79806
G1 X148.914 Y70.797 E2.90445
G1 X148.61 Y71.975 E2.98573
G1 X144.775 Y71.975 E3.24193
G1 X140.645 Y67.845 E3.63212
G1 X140.452 Y67.765 E3.64608
G1 X113.382 Y67.765 E5.4545
G1 X113.189 Y67.845 E5.46846
G1 X42.564 Y138.463 E12.14058
G1 X42.208 Y138.906 E12.17855
G1 X41.957 Y139.4 E12.21557
G1 X41.772 Y140.334 E12.27918
G1 X41.918 Y141.274 E12.34273
G1 X42.376 Y142.108 E12.40629
G1 X43.108 Y142.745 E12.47112
G1 X43.628 Y142.985 E12.50938
G1 X44.187 Y143.112 E12.54768
G1 X44.76 Y143.12 E12.58596
G1 X45.322 Y143.009 E12.62423
G1 X45.848 Y142.783 E12.66248
G1 X46.317 Y142.453 E12.70079
G1 X89.745 Y99.025 E16.80374
G1 X92.771 Y99.025 E17.00589
G1 X92.933 Y99.201 E17.02187
G1 X93.332 Y100.738 E17.12795
G1 X92.971 Y102.245 E17.23147
G1 X91.926 Y103.472 E17.33914
G1 X90.883 Y103.852 E17.4133
G1 X90.732 Y104.484 E17.45671
G1 X89.687 Y105.711 E17.56438
G1 X88.643 Y106.091 E17.6386
G1 X88.492 Y106.723 E17.68201
G1 X87.447 Y107.949 E17.78963
G1 X86.404 Y108.33 E17.86381
G1 X86.253 Y108.962 E17.90722
G1 X85.208 Y110.188 E18.01484
G1 X84.164 Y110.568 E18.08906
G1 X84.013 Y111.201 E18.13253
G1 X82.968 Y112.427 E18.24015
G1 X81.925 Y112.807 E18.31431
G1 X81.773 Y113.439 E18.35773
G1 X80.728 Y114.666 E18.4654
G1 X79.685 Y115.046 E18.53956
G1 X79.534 Y115.678 E18.58297
G1 X78.489 Y116.904 E18.69059
G1 X77.446 Y117.285 E18.76477
G1 X77.294 Y117.917 E18.80819
G1 X76.249 Y119.143 E18.91581
G1 X75.206 Y119.524 E18.98999
G1 X75.055 Y120.156 E19.0334
G1 X74.01 Y121.382 E19.14102
G1 X72.967 Y121.762 E19.21518
G1 X72.815 Y122.394 E19.2586
G1 X71.77 Y123.621 E19.36627
G1 X70.727 Y124.001 E19.44043
G1 X70.576 Y124.633 E19.48384
G1 X69.531 Y125.859 E19.59146
G1 X68.487 Y126.24 E19.6657
G1 X68.336 Y126.872 E19.70911
G1 X67.291 Y128.098 E19.81673
G1 X66.248 Y128.479 E19.89091
G1 X66.096 Y129.111 E19.93433
G1 X65.051 Y130.337 E20.04195
G1 X64.008 Y130.717 E20.11611
G1 X63.857 Y131.35 E20.15958
G1 X62.812 Y132.576 E20.2672
G1 X61.769 Y132.956 E20.34136
G1 X61.617 Y133.588 E20.38478
G1 X60.572 Y134.815 E20.49245
G1 X59.529 Y135.195 E20.56661
G1 X59.378 Y135.827 E20.61002
G1 X58.333 Y137.053 E20.71764
G1 X57.29 Y137.434 E20.79182
G1 X57.138 Y138.066 E20.83524
G1 X56.093 Y139.292 E20.94286
G1 X55.05 Y139.673 E21.01704
G1 X54.899 Y140.305 E21.06045
G1 X53.854 Y141.531 E21.16807
G1 X52.81 Y141.911 E21.24229
G1 X52.659 Y142.543 E21.2857
G1 X51.614 Y143.77 E21.39337
G1 X50.571 Y144.15 E21.46753
G1 X50.419 Y144.782 E21.51095
G1 X49.374 Y146.008 E21.61857
G1 X47.856 Y146.562 E21.72652
G1 X47.149 Y146.468 E21.77417
G1 X46.456 Y147.262 E21.84458
G1 X45.003 Y147.821 E21.94858
G1 X43.394 Y147.64 E22.05675
G1 X42.104 Y146.711 E22.16295
G1 X40.547 Y146.561 E22.26745
G1 X39.21 Y145.625 E22.37648
G1 X38.502 Y144.217 E22.48176
G1 X38.511 Y143.198 E22.54984
G1 X37.889 Y142.768 E22.60036
G1 X37.157 Y141.391 E22.70454
G1 X37.159 Y139.79 E22.8115
G1 X37.891 Y138.418 E22.91539
G1 X38.233 Y138.181 E22.94319
G1 X38.223 Y136.848 E23.03224
G1 X38.936 Y135.442 E23.13756
G1 X40.276 Y134.508 E23.24668
G1 X40.512 Y134.486 E23.26251
G1 X41.165 Y133.194 E23.35922
G1 X42.503 Y132.259 E23.46827
G1 X42.757 Y132.235 E23.48531
G1 X43.404 Y130.955 E23.58112
G1 X44.742 Y130.02 E23.69017
G1 X44.996 Y129.996 E23.70721
G1 X45.643 Y128.716 E23.80302
G1 X46.982 Y127.781 E23.91212
G1 X47.235 Y127.757 E23.9291
G1 X47.882 Y126.477 E24.02491
G1 X49.221 Y125.542 E24.13401
G1 X49.474 Y125.518 E24.15099
G1 X50.121 Y124.237 E24.24686
G1 X51.46 Y123.303 E24.35592
G1 X51.713 Y123.279 E24.3729
G1 X52.36 Y121.998 E24.46877
G1 X53.699 Y121.063 E24.57787
G1 X53.953 Y121.04 E24.59491
G1 X54.6 Y119.759 E24.69078
G1 X55.938 Y118.824 E24.79983
G1 X56.192 Y118.8 E24.81687
G1 X56.839 Y117.52 E24.91268
G1 X58.177 Y116.585 E25.02173
G1 X58.431 Y116.561 E25.03877
G1 X59.078 Y115.281 E25.13458
G1 X60.417 Y114.346 E25.24368
G1 X60.67 Y114.322 E25.26066
G1 X61.317 Y113.042 E25.35647
G1 X62.656 Y112.107 E25.46557
G1 X62.909 Y112.083 E25.48255
G1 X63.556 Y110.802 E25.57842
G1 X64.895 Y109.868 E25.68748
G1 X65.148 Y109.844 E25.70446
G1 X65.795 Y108.563 E25.80033
G1 X67.134 Y107.628 E25.90943
G1 X67.388 Y107.605 E25.92647
G1 X68.035 Y106.324 E26.02234
G1 X69.373 Y105.389 E26.13139
G1 X69.627 Y105.365 E26.14843
G1 X70.274 Y104.085 E26.24424
G1 X71.612 Y103.15 E26.35329
G1 X71.866 Y103.126 E26.37033
G1 X72.513 Y101.846 E26.46614
G1 X73.852 Y100.911 E26.57524
G1 X74.105 Y100.887 E26.59222
G1 X74.752 Y99.606 E26.68809
G1 X76.091 Y98.672 E26.79715
G1 X76.344 Y98.648 E26.81413
G1 X76.991 Y97.367 E26.91
G1 X78.33 Y96.433 E27.01906
G1 X78.583 Y96.409 E27.03604
G1 X79.23 Y95.128 E27.13191
G1 X80.569 Y94.193 E27.24101
G1 X80.823 Y94.17 E27.25805
G1 X81.47 Y92.889 E27.35392
G1 X82.808 Y91.954 E27.46297
G1 X83.062 Y91.93 E27.48001
G1 X83.709 Y90.65 E27.57582
G1 X85.047 Y89.715 E27.68487
G1 X85.301 Y89.691 E27.70191
G1 X85.948 Y88.411 E27.79772
G1 X87.287 Y87.476 E27.90682
G1 X87.54 Y87.452 E27.9238
G1 X88.187 Y86.171 E28.01967
G1 X89.526 Y85.237 E28.12873
G1 X89.779 Y85.213 E28.14571
G1 X90.426 Y83.932 E28.24158
G1 X91.765 Y82.998 E28.35064
G1 X92.018 Y82.974 E28.36762
G1 X92.665 Y81.693 E28.46349
G1 X94.004 Y80.758 E28.57259
G1 X94.258 Y80.735 E28.58963
G1 X94.905 Y79.454 E28.6855
G1 X96.243 Y78.519 E28.79455
G1 X96.497 Y78.495 E28.81159
G1 X97.144 Y77.215 E28.9074
G1 X98.482 Y76.28 E29.01645
G1 X98.736 Y76.256 E29.03349
G1 X99.383 Y74.976 E29.1293
G1 X100.722 Y74.041 E29.2384
G1 X100.975 Y74.017 E29.25538
G1 X101.622 Y72.736 E29.35125
G1 X102.961 Y71.802 E29.46031
G1 X103.214 Y71.778 E29.47729
G1 X103.861 Y70.497 E29.57316
G1 X105.2 Y69.562 E29.68226
G1 X105.453 Y69.539 E29.69923
G1 X106.1 Y68.258 E29.7951
G1 X107.439 Y67.323 E29.9042
G1 X107.693 Y67.299 E29.92124
G1 X108.34 Y66.019 E30.01705
G1 X109.678 Y65.084 E30.1261
G1 X110.517 Y65.005 E30.1824
G1 X110.908 Y64.203 E30.24201
G1 X112.23 Y63.251 E30.35084
G1 X113.839 Y63.07 E30.45901
G1 X114.953 Y63.499 E30.53876
G1 X115.297 Y63.251 E30.56709
G1 X116.906 Y63.07 E30.67526
G1 X118.019 Y63.499 E30.75495
G1 X118.364 Y63.251 E30.78333
G1 X119.972 Y63.07 E30.89143
G1 X121.086 Y63.499 E30.97118
G1 X121.43 Y63.251 E30.99951
G1 X123.039 Y63.07 E31.10768
G1 X124.153 Y63.499 E31.18743
G1 X124.497 Y63.251 E31.21576
G1 X126.106 Y63.07 E31.32393
G1 X127.219 Y63.499 E31.40362
G1 X127.564 Y63.251 E31.432
G1 X129.172 Y63.07 E31.5401
G1 X130.286 Y63.499 E31.61985
G1 X130.63 Y63.251 E31.64818
G1 X132.239 Y63.07 E31.75635
G1 X133.353 Y63.499 E31.8361
G1 X133.697 Y63.251 E31.86443
G1 X135.306 Y63.07 E31.9726
G1 X136.419 Y63.499 E32.05229
G1 X136.764 Y63.251 E32.08067
G1 X138.372 Y63.07 E32.18877
G1 X139.479 Y63.496 E32.26801
G1 X139.479 Y63.496 F7800
G1 X148.088 Y71.734
G1 F1800
G1 X148.088 Y69.468 E32.41939
G1 X147.493 Y68.8 E32.47915
G1 X147.493 Y71.493 E32.65906
G1 X146.898 Y71.493 E32.69881
G1 X146.898 Y68.362 E32.90798
G1 X146.303 Y68.14 E32.95041
G1 X146.303 Y71.493 E33.17441
G1 X145.708 Y71.493 E33.21416
G1 X145.708 Y67.071 E33.50957
G1 X145.113 Y66.404 E33.56928
G1 X145.113 Y71.493 E33.90925
G1 X144.975 Y71.493 E33.91847
G1 X144.518 Y71.034 E33.96174
G1 X144.518 Y66.071 E34.2933
G1 X143.923 Y65.849 E34.33573
G1 X143.923 Y70.439 E34.64237
G1 X143.327 Y69.845 E34.69858
G1 X143.327 Y64.735 E35.03996
G1 X142.732 Y64.063 E35.09992
G1 X142.732 Y69.25 E35.44644
G1 X142.137 Y68.655 E35.50265
G1 X142.137 Y63.813 E35.82612
G1 X141.542 Y63.587 E35.86864
G1 X141.542 Y68.06 E36.16746
G1 X140.947 Y67.465 E36.22367
G1 X140.947 Y63.623 E36.48034
G1 X140.352 Y63.689 E36.52033
G1 X140.352 Y67.283 E36.76043
G1 X139.757 Y67.283 E36.80018
G1 X139.757 Y63.973 E37.02131
G1 X139.624 Y64.069 E37.03227
G1 X139.161 Y63.89 E37.06543
G1 X139.161 Y67.283 E37.2921
G1 X138.566 Y67.283 E37.33185
G1 X138.566 Y63.661 E37.57382
G1 X138.309 Y63.562 E37.59222
G1 X137.971 Y63.6 E37.61494
G1 X137.971 Y67.283 E37.86098
G1 X137.376 Y67.283 E37.90073
G1 X137.376 Y63.667 E38.1423
G1 X136.943 Y63.716 E38.17141
G1 X136.781 Y63.832 E38.18472
G1 X136.781 Y67.283 E38.41527
G1 X136.186 Y67.283 E38.45502
G1 X136.186 Y63.925 E38.67935
G1 X135.591 Y63.696 E38.72194
G1 X135.591 Y67.283 E38.96157
G1 X134.996 Y67.283 E39.00132
G1 X134.996 Y63.59 E39.24803
G1 X134.4 Y63.657 E39.2881
G1 X134.4 Y67.283 E39.53034
G1 X133.805 Y67.283 E39.57009
G1 X133.805 Y63.767 E39.80498
G1 X133.423 Y64.042 E39.83642
G1 X133.21 Y63.96 E39.85167
G1 X133.21 Y67.283 E40.07366
G1 X132.615 Y67.283 E40.11341
G1 X132.615 Y63.731 E40.3507
G1 X132.176 Y63.562 E40.38213
G1 X132.02 Y63.58 E40.39262
G1 X132.02 Y67.283 E40.64
G1 X131.425 Y67.283 E40.67975
G1 X131.425 Y63.647 E40.92265
G1 X130.83 Y63.713 E40.96264
G1 X130.83 Y67.283 E41.20114
G1 X130.234 Y67.283 E41.24096
G1 X130.234 Y63.996 E41.46055
G1 X129.639 Y63.766 E41.50317
G1 X129.639 Y67.283 E41.73812
G1 X129.044 Y67.283 E41.77787
G1 X129.044 Y63.57 E42.02592
G1 X128.449 Y63.636 E42.06591
G1 X128.449 Y67.283 E42.30955
G1 X127.854 Y67.283 E42.3493
G1 X127.854 Y63.703 E42.58846
G1 X127.259 Y64.031 E42.63385
G1 X127.259 Y67.283 E42.8511
G1 X126.664 Y67.283 E42.89085
G1 X126.664 Y63.801 E43.12347
G1 X126.069 Y63.572 E43.16606
G1 X126.069 Y67.283 E43.41397
G1 X125.473 Y67.283 E43.45379
G1 X125.473 Y63.626 E43.6981
G1 X124.878 Y63.693 E43.7381
G1 X124.878 Y67.283 E43.97793
G1 X124.283 Y67.283 E44.01768
G1 X124.283 Y63.999 E44.23707
G1 X124.223 Y64.042 E44.242
G1 X123.688 Y63.836 E44.2803
G1 X123.688 Y67.283 E44.51058
G1 X123.093 Y67.283 E44.55033
G1 X123.093 Y63.607 E44.79591
G1 X122.976 Y63.562 E44.80428
G1 X122.498 Y63.616 E44.83642
G1 X122.498 Y67.283 E45.0814
G1 X121.903 Y67.283 E45.12115
G1 X121.903 Y63.683 E45.36165
G1 X121.61 Y63.716 E45.38135
G1 X121.308 Y63.933 E45.40619
G1 X121.308 Y67.283 E45.62999
G1 X120.712 Y67.283 E45.66981
G1 X120.712 Y63.872 E45.89768
G1 X120.117 Y63.642 E45.9403
G1 X120.117 Y67.283 E46.18354
G1 X119.522 Y67.283 E46.22329
G1 X119.522 Y63.606 E46.46893
G1 X118.927 Y63.673 E46.50893
G1 X118.927 Y67.283 E46.7501
G1 X118.332 Y67.283 E46.78985
G1 X118.332 Y63.868 E47.01799
G1 X118.089 Y64.042 E47.03796
G1 X117.737 Y63.907 E47.06315
G1 X117.737 Y67.283 E47.28869
G1 X117.142 Y67.283 E47.32844
G1 X117.142 Y63.677 E47.56934
G1 X116.842 Y63.562 E47.5908
G1 X116.546 Y63.595 E47.6107
G1 X116.546 Y67.283 E47.85708
G1 X115.951 Y67.283 E47.89683
G1 X115.951 Y63.662 E48.13873
G1 X115.476 Y63.716 E48.17067
G1 X115.356 Y63.802 E48.18053
G1 X115.356 Y67.283 E48.41308
G1 X114.761 Y67.283 E48.45283
G1 X114.761 Y63.942 E48.67603
G1 X114.166 Y63.712 E48.71865
G1 X114.166 Y67.283 E48.95721
G1 X113.571 Y67.283 E48.99696
G1 X113.571 Y63.585 E49.24401
G1 X112.976 Y63.652 E49.28401
G1 X112.976 Y67.412 E49.5352
G1 X112.381 Y67.972 E49.58979
G1 X112.381 Y63.737 E49.87271
G1 X111.785 Y64.165 E49.92173
G1 X111.785 Y68.567 E50.21581
G1 X111.19 Y69.162 E50.27202
G1 X111.19 Y64.724 E50.5685
G1 X110.832 Y65.46 E50.62318
G1 X110.595 Y65.482 E50.63908
G1 X110.595 Y69.757 E50.92467
G1 X110 Y70.352 E50.98088
G1 X110 Y65.538 E51.30248
G1 X109.85 Y65.552 E51.31254
G1 X109.405 Y65.863 E51.34881
G1 X109.405 Y70.948 E51.68852
G1 X108.81 Y71.543 E51.74473
G1 X108.81 Y66.279 E52.09639
G1 X108.715 Y66.345 E52.10412
G1 X108.215 Y67.335 E52.17821
G1 X108.215 Y72.138 E52.49908
G1 X107.619 Y72.733 E52.55534
G1 X107.619 Y67.791 E52.88549
G1 X107.024 Y68.201 E52.93376
G1 X107.024 Y73.328 E53.27627
G1 X106.429 Y73.923 E53.33248
G1 X106.429 Y68.676 E53.68301
G1 X105.834 Y69.854 E53.77118
G1 X105.834 Y74.518 E54.08276
G1 X105.239 Y75.113 E54.13897
G1 X105.239 Y70.123 E54.47233
G1 X104.644 Y70.539 E54.52083
G1 X104.644 Y75.708 E54.86615
G1 X104.049 Y76.303 E54.92236
G1 X104.049 Y71.195 E55.2636
G1 X103.525 Y72.233 E55.34128
G1 X103.454 Y72.24 E55.34605
G1 X103.454 Y76.898 E55.65723
G1 X102.858 Y77.493 E55.71349
G1 X102.858 Y72.461 E56.04965
G1 X102.263 Y72.877 E56.09815
G1 X102.263 Y78.088 E56.44627
G1 X101.668 Y78.683 E56.50248
G1 X101.668 Y73.714 E56.83444
G1 X101.285 Y74.472 E56.89118
G1 X101.073 Y74.492 E56.90541
G1 X101.073 Y79.278 E57.22514
G1 X100.478 Y79.874 E57.2814
G1 X100.478 Y74.799 E57.62044
G1 X99.883 Y75.215 E57.66894
G1 X99.883 Y80.469 E58.01994
G1 X99.288 Y81.064 E58.07615
G1 X99.288 Y76.233 E58.39889
G1 X99.046 Y76.711 E58.43468
G1 X98.692 Y76.744 E58.45843
G1 X98.692 Y81.659 E58.78678
G1 X98.097 Y82.254 E58.84299
G1 X98.097 Y77.137 E59.18483
G1 X97.519 Y77.541 E59.23194
G1 X97.502 Y82.849 E59.58654
G1 X96.907 Y83.444 E59.64275
G1 X96.907 Y78.752 E59.9562
G1 X96.807 Y78.95 E59.97102
G1 X96.312 Y79.059 E60.00488
G1 X96.312 Y84.039 E60.33757
G1 X95.717 Y84.634 E60.39378
G1 X95.717 Y79.475 E60.73843
G1 X95.28 Y79.78 E60.77403
G1 X95.122 Y80.093 E60.79745
G1 X95.122 Y85.229 E61.14056
G1 X94.527 Y85.824 E61.19677
G1 X94.527 Y81.193 E61.50615
G1 X94.176 Y81.226 E61.5297
G1 X93.931 Y81.397 E61.54966
G1 X93.931 Y86.419 E61.88516
G1 X93.336 Y87.014 E61.94137
G1 X93.336 Y81.813 E62.28882
G1 X93.041 Y82.019 E62.31286
G1 X92.741 Y82.612 E62.35726
G1 X92.741 Y87.609 E62.69109
G1 X92.146 Y88.205 E62.74735
G1 X92.146 Y83.446 E63.06528
G1 X91.937 Y83.466 E63.07931
G1 X91.551 Y83.735 E63.11074
G1 X91.551 Y88.8 E63.44911
G1 X90.956 Y89.395 E63.50532
G1 X90.956 Y84.15 E63.85571
G1 X90.802 Y84.258 E63.86828
G1 X90.361 Y85.131 E63.93362
G1 X90.361 Y89.99 E64.25823
G1 X89.766 Y90.585 E64.31444
G1 X89.766 Y85.698 E64.64092
G1 X89.17 Y86.073 E64.68796
G1 X89.17 Y91.18 E65.02914
G1 X88.575 Y91.775 E65.08535
G1 X88.563 Y86.497 E65.43795
G1 X87.98 Y87.65 E65.52426
G1 X87.98 Y92.37 E65.83958
G1 X87.385 Y92.965 E65.89579
G1 X87.385 Y87.995 E66.22781
G1 X86.79 Y88.411 E66.27631
G1 X86.79 Y93.56 E66.62029
