; generated by PrusaSlicer 2.8.1+linux-x64-GTK3 on 2024-10-16 at 13:37:51 UTC

; 

; external perimeters extrusion width = 0.45mm
; perimeters extrusion width = 0.45mm
; infill extrusion width = 0.45mm
; solid infill extrusion width = 0.45mm
; top infill extrusion width = 0.40mm
; support material extrusion width = 0.40mm
; first layer extrusion width = 0.60mm

M190 S60 ; set bed temperature and wait for it to be reached
M104 S200 ; set temperature
;TYPE:Custom
G28 ; home all axes
G1 Z5 F5000 ; lift nozzle
M109 S200 ; set temperature and wait for it to be reached
G21 ; set units to millimeters
G90 ; use absolute coordinates
M82 ; use absolute distances for extrusion
G92 E0
; Filament gcode
M107
;LAYER_CHANGE
;Z:0.3
;HEIGHT:0.3
G1 E-2 F2400
G1 Z.3 F7800
G1 X35.313 Y72.339
G1 E0 F2400
;TYPE:Skirt/Brim
;WIDTH:0.6
G1 F1800
G1 X36.011 Y71.998 E.0519
G1 X72.561 Y58.518 E2.65441
G1 X74.644 Y58.159 E2.79562
G1 X102.881 Y58.148 E4.682
G1 X104.303 Y58.269 E4.77734
G1 X106.829 Y59.042 E4.95382
G1 X108.076 Y59.738 E5.04922
G1 X109.391 Y60.718 E5.15878
G1 X185.61 Y136.884 E12.35723
G1 X188.433 Y139.849 E12.63073
G1 X189.282 Y140.997 E12.72612
G1 X190.37 Y143.404 E12.90258
G1 X190.764 Y145.346 E13.03496
G1 X191.2 Y148.871 E13.27224
G1 X191.111 Y150.944 E13.41086
G1 X190.78 Y152.45 E13.51387
G1 X189.709 Y154.783 E13.68537
G1 X188.869 Y155.917 E13.77965
G1 X188.057 Y156.818 E13.86068
G1 X185.041 Y159.571 E14.13348
G1 X183.45 Y160.629 E14.26112
G1 X182.447 Y161.094 E14.33498
G1 X181.034 Y161.554 E14.43425
G1 X180.07 Y161.746 E14.49992
G1 X178.805 Y161.866 E14.58481
G1 X176.338 Y161.849 E14.74962
G1 X174.291 Y161.49 E14.88846
G1 X172.945 Y161.014 E14.98384
G1 X35.732 Y106.498 E24.84741
G1 X34.299 Y105.77 E24.95479
G1 X33.197 Y104.967 E25.04588
G1 X32.226 Y104.01 E25.13696
G1 X31.326 Y102.797 E25.23786
G1 X30.754 Y101.728 E25.31886
G1 X30.373 Y100.743 E25.38941
G1 X30.077 Y99.563 E25.47068
G1 X29.947 Y98.513 E25.54136
G1 X29.927 Y80.702 E26.73123
G1 X29.988 Y79.641 E26.80223
G1 X30.168 Y78.604 E26.87254
G1 X30.418 Y77.727 E26.93346
G1 X30.882 Y76.605 E27.01457
G1 X31.402 Y75.686 E27.08511
G1 X31.932 Y74.946 E27.14592
G1 X32.748 Y74.044 E27.22718
G1 X33.548 Y73.354 E27.29776
G1 X34.295 Y72.836 E27.35849
G1 X35.259 Y72.365 E27.43017
G1 E25.43017 F2400
G92 E0
G1 X35.259 Y72.365 F7800
G92 E0
G1 X103.774 Y64.514
G1 E2 F2400
;TYPE:Support material
G1 F1800
G1 X105.021 Y65.21 E2.0954
G1 X105.87 Y66.358 E2.19079
G1 X105.935 Y66.662 E2.21156
G1 X107.291 Y67.418 E2.31528
G1 X108.14 Y68.566 E2.41067
G1 X108.217 Y68.925 E2.4352
G1 X109.53 Y69.658 E2.53566
G1 X110.379 Y70.806 E2.63105
G1 X110.456 Y71.164 E2.65551
G1 X111.769 Y71.897 E2.75597
G1 X112.618 Y73.045 E2.85136
G1 X112.695 Y73.404 E2.87589
G1 X114.008 Y74.136 E2.97632
G1 X114.857 Y75.284 E3.07171
G1 X114.934 Y75.643 E3.09624
G1 X116.247 Y76.376 E3.1967
G1 X117.096 Y77.524 E3.29209
G1 X117.173 Y77.882 E3.31655
G1 X118.486 Y78.615 E3.41701
G1 X119.335 Y79.763 E3.5124
G1 X119.412 Y80.122 E3.53693
G1 X120.725 Y80.854 E3.63736
G1 X121.574 Y82.002 E3.73275
G1 X121.651 Y82.361 E3.75728
G1 X122.964 Y83.094 E3.85774
G1 X123.813 Y84.242 E3.95313
G1 X123.89 Y84.6 E3.97759
G1 X125.203 Y85.333 E4.07805
G1 X126.052 Y86.481 E4.17344
G1 X126.129 Y86.84 E4.19797
G1 X127.442 Y87.572 E4.2984
G1 X128.291 Y88.72 E4.39379
G1 X128.368 Y89.079 E4.41832
G1 X129.681 Y89.812 E4.51878
G1 X130.53 Y90.96 E4.61417
G1 X130.607 Y91.318 E4.63863
G1 X131.92 Y92.051 E4.73909
G1 X132.769 Y93.199 E4.83448
G1 X132.846 Y93.558 E4.85901
G1 X134.159 Y94.29 E4.95944
G1 X135.008 Y95.438 E5.05483
G1 X135.085 Y95.797 E5.07936
G1 X136.398 Y96.53 E5.17982
G1 X137.247 Y97.678 E5.27521
G1 X137.324 Y98.036 E5.29967
G1 X138.637 Y98.769 E5.40013
G1 X139.486 Y99.917 E5.49552
G1 X139.563 Y100.276 E5.52005
G1 X140.876 Y101.008 E5.62048
G1 X141.725 Y102.156 E5.71587
G1 X141.802 Y102.515 E5.7404
G1 X143.115 Y103.248 E5.84086
G1 X143.964 Y104.396 E5.93625
G1 X144.041 Y104.754 E5.96071
G1 X145.354 Y105.487 E6.06117
G1 X146.203 Y106.635 E6.15656
G1 X146.28 Y106.994 E6.18109
G1 X147.593 Y107.726 E6.28152
G1 X148.442 Y108.874 E6.37691
G1 X148.519 Y109.233 E6.40144
G1 X149.832 Y109.966 E6.5019
G1 X150.681 Y111.113 E6.59723
G1 X150.758 Y111.472 E6.62176
G1 X152.071 Y112.205 E6.72222
G1 X152.92 Y113.353 E6.81761
G1 X152.997 Y113.711 E6.84207
G1 X154.31 Y114.444 E6.94253
G1 X155.159 Y115.592 E7.03792
G1 X155.236 Y115.951 E7.06245
G1 X156.549 Y116.684 E7.16291
G1 X157.398 Y117.831 E7.25824
G1 X157.475 Y118.19 E7.28277
G1 X158.788 Y118.923 E7.38323
G1 X159.637 Y120.071 E7.47862
G1 X159.714 Y120.429 E7.50308
G1 X161.027 Y121.162 E7.60354
G1 X161.876 Y122.31 E7.69893
G1 X161.953 Y122.669 E7.72346
G1 X163.266 Y123.402 E7.82392
G1 X164.115 Y124.549 E7.91925
G1 X164.192 Y124.908 E7.94378
G1 X165.505 Y125.641 E8.04424
G1 X166.354 Y126.789 E8.13963
G1 X166.431 Y127.147 E8.16409
G1 X167.744 Y127.88 E8.26455
G1 X168.593 Y129.028 E8.35994
G1 X168.671 Y129.387 E8.38448
G1 X169.983 Y130.119 E8.48485
G1 X170.832 Y131.267 E8.58024
G1 X170.91 Y131.626 E8.60478
G1 X172.222 Y132.359 E8.70518
G1 X173.071 Y133.507 E8.80057
G1 X173.149 Y133.865 E8.82505
G1 X174.461 Y134.598 E8.92545
G1 X175.31 Y135.746 E9.02084
G1 X175.388 Y136.105 E9.04538
G1 X176.7 Y136.837 E9.14575
G1 X177.549 Y137.985 E9.24114
G1 X177.627 Y138.344 E9.26568
G1 X178.939 Y139.077 E9.36608
G1 X179.788 Y140.225 E9.46147
G1 X179.866 Y140.583 E9.48595
G1 X181.178 Y141.316 E9.58635
G1 X182.027 Y142.464 E9.68174
G1 X182.113 Y142.861 E9.70888
G1 X183.394 Y143.577 E9.80692
G1 X184.243 Y144.725 E9.90231
G1 X184.543 Y146.116 E9.99737
G1 X184.411 Y146.739 E10.03991
G1 X184.587 Y147.447 E10.08865
G1 X184.518 Y147.72 E10.10746
G1 X184.98 Y149.641 E10.23945
G1 X184.811 Y150.435 E10.29368
G1 X184.67 Y151.055 E10.33616
G1 X183.831 Y152.189 E10.4304
G1 X182.678 Y152.833 E10.51863
G1 X180.815 Y154.942 E10.70662
G1 X179.813 Y155.406 E10.78039
G1 X178.849 Y155.598 E10.84606
G1 X177.851 Y155.456 E10.9134
G1 X176.381 Y155.581 E11.01196
G1 X175.036 Y155.105 E11.10727
G1 X174.044 Y154.153 E11.19912
G1 X173.824 Y153.661 E11.23512
G1 X172.515 Y153.198 E11.32788
G1 X171.485 Y152.209 E11.42327
G1 X171.1 Y151.25 E11.49231
G1 X170.276 Y150.958 E11.55071
G1 X169.246 Y149.97 E11.64606
G1 X168.861 Y149.011 E11.7151
G1 X168.036 Y148.719 E11.77356
G1 X167.006 Y147.731 E11.86891
G1 X166.622 Y146.772 E11.93792
G1 X165.797 Y146.48 E11.99638
G1 X164.767 Y145.492 E12.09173
G1 X164.382 Y144.533 E12.16077
G1 X163.558 Y144.241 E12.21917
G1 X162.528 Y143.253 E12.31452
G1 X162.143 Y142.294 E12.38356
G1 X161.319 Y142.002 E12.44196
G1 X160.289 Y141.014 E12.53731
G1 X159.904 Y140.055 E12.60635
G1 X159.079 Y139.763 E12.66481
G1 X158.049 Y138.775 E12.76016
G1 X157.665 Y137.816 E12.82917
G1 X156.84 Y137.524 E12.88763
G1 X155.81 Y136.536 E12.98298
G1 X155.425 Y135.577 E13.05202
G1 X154.601 Y135.285 E13.11042
G1 X153.571 Y134.297 E13.20577
G1 X153.186 Y133.337 E13.27487
G1 X152.362 Y133.046 E13.33325
G1 X151.332 Y132.058 E13.4286
G1 X150.947 Y131.098 E13.4977
G1 X150.122 Y130.807 E13.55614
G1 X149.092 Y129.819 E13.65149
G1 X148.708 Y128.859 E13.72056
G1 X147.883 Y128.568 E13.779
G1 X146.853 Y127.58 E13.87435
G1 X146.468 Y126.62 E13.94345
G1 X145.644 Y126.329 E14.00183
G1 X144.614 Y125.34 E14.09722
G1 X144.229 Y124.381 E14.16626
G1 X143.405 Y124.089 E14.22466
G1 X142.375 Y123.101 E14.32001
G1 X141.99 Y122.142 E14.38905
G1 X141.165 Y121.85 E14.44751
G1 X140.135 Y120.862 E14.54286
G1 X139.75 Y119.903 E14.6119
G1 X138.926 Y119.611 E14.6703
G1 X137.896 Y118.623 E14.76565
G1 X137.511 Y117.664 E14.83469
G1 X136.687 Y117.372 E14.89309
G1 X135.657 Y116.384 E14.98844
G1 X135.272 Y115.425 E15.05748
G1 X134.448 Y115.133 E15.11588
G1 X133.418 Y114.145 E15.21123
G1 X133.033 Y113.186 E15.28027
G1 X132.208 Y112.894 E15.33873
G1 X131.178 Y111.906 E15.43408
G1 X130.793 Y110.947 E15.50312
G1 X129.969 Y110.655 E15.56152
G1 X128.939 Y109.667 E15.65687
G1 X128.554 Y108.708 E15.72591
G1 X127.73 Y108.416 E15.78431
G1 X126.7 Y107.428 E15.87966
G1 X126.315 Y106.468 E15.94876
G1 X125.491 Y106.177 E16.00714
G1 X124.461 Y105.189 E16.10249
G1 X124.076 Y104.229 E16.17159
G1 X123.251 Y103.938 E16.23003
G1 X122.221 Y102.95 E16.32538
G1 X121.836 Y101.99 E16.39448
G1 X121.208 Y101.768 E16.43898
G1 X120.529 Y102.095 E16.48933
G1 X119.191 Y102.208 E16.57903
G1 X118.002 Y101.787 E16.66329
G1 X117.363 Y102.095 E16.71068
G1 X116.025 Y102.208 E16.80038
G1 X114.835 Y101.787 E16.88471
G1 X114.196 Y102.095 E16.9321
G1 X112.858 Y102.208 E17.0218
G1 X111.668 Y101.788 E17.1061
G1 X111.029 Y102.095 E17.15346
G1 X109.691 Y102.209 E17.24317
G1 X108.502 Y101.788 E17.32743
G1 X107.863 Y102.095 E17.37479
G1 X106.525 Y102.209 E17.4645
G1 X105.335 Y101.788 E17.54883
G1 X104.696 Y102.095 E17.59619
G1 X103.358 Y102.209 E17.6859
G1 X102.168 Y101.788 E17.77023
G1 X101.529 Y102.096 E17.81762
G1 X100.191 Y102.209 E17.90732
G1 X99.002 Y101.788 E17.99158
G1 X98.363 Y102.096 E18.03897
G1 X97.025 Y102.209 E18.12867
G1 X95.835 Y101.788 E18.213
G1 X95.196 Y102.096 E18.26039
G1 X93.858 Y102.209 E18.35009
G1 X92.668 Y101.788 E18.43442
G1 X92.029 Y102.096 E18.48181
G1 X90.691 Y102.209 E18.57151
G1 X89.502 Y101.789 E18.65575
G1 X88.863 Y102.096 E18.70311
G1 X87.525 Y102.21 E18.79282
G1 X86.335 Y101.789 E18.87715
G1 X85.696 Y102.096 E18.92451
G1 X84.358 Y102.21 E19.01422
G1 X83.012 Y101.734 E19.1096
G1 X81.982 Y100.746 E19.20495
G1 X81.514 Y99.579 E19.28895
G1 X80.45 Y99.297 E19.36249
G1 X79.958 Y99.042 E19.39951
G1 X79.336 Y98.642 E19.44891
G1 X78.569 Y97.817 E19.52416
G1 X78.042 Y96.774 E19.60223
G1 X77.849 Y95.754 E19.67158
G1 X77.849 Y95.113 E19.7144
G1 X78.032 Y94.144 E19.78028
G1 X78.344 Y93.458 E19.83063
G1 X78.643 Y92.967 E19.86903
G1 X79.369 Y92.188 E19.94017
G1 X80.34 Y91.607 E20.01576
G1 X81.577 Y91.291 E20.10105
G1 X82.674 Y91.317 E20.17436
G1 X83.169 Y91.473 E20.20903
G1 X83.169 Y96.453 E20.54172
G1 X83.477 Y96.761 E20.57082
G1 X123.638 Y96.764 E23.25379
G1 X176.793 Y149.914 E28.27549
G1 X177.396 Y150.3 E28.32332
G1 X178.247 Y150.376 E28.3804
G1 X178.843 Y150.176 E28.4224
G1 X179.37 Y149.778 E28.46652
G1 X179.684 Y149.336 E28.50274
G1 X179.883 Y148.739 E28.54478
G1 X179.807 Y147.889 E28.60179
G1 X179.422 Y147.285 E28.64964
G1 X102.059 Y69.922 E35.95867
G1 X101.867 Y69.842 E35.97257
G1 X75.522 Y69.842 E37.73256
G1 X75.33 Y69.922 E37.74646
G1 X68.098 Y77.177 E38.43081
G1 X62.601 Y77.177 E38.79804
G1 X62.547 Y77.043 E38.80769
G1 X62.605 Y75.686 E38.89843
G1 X63.116 Y74.538 E38.98238
G1 X64.108 Y73.587 E39.07418
G1 X64.906 Y73.305 E39.13072
G1 X65.354 Y72.298 E39.20435
G1 X66.346 Y71.346 E39.2962
G1 X67.144 Y71.064 E39.35274
G1 X67.592 Y70.057 E39.42637
G1 X68.584 Y69.106 E39.51817
G1 X69.381 Y68.824 E39.57465
G1 X69.83 Y67.817 E39.64831
G1 X70.822 Y66.865 E39.74016
G1 X72.056 Y66.429 E39.82759
G1 X72.334 Y65.836 E39.87134
G1 X73.306 Y64.903 E39.96135
G1 X74.652 Y64.427 E40.05673
G1 X76.074 Y64.547 E40.15206
G1 X76.58 Y64.829 E40.19076
G1 X77.718 Y64.427 E40.27139
G1 X79.141 Y64.547 E40.36679
G1 X79.646 Y64.829 E40.40543
G1 X80.785 Y64.427 E40.48612
G1 X82.208 Y64.547 E40.58152
G1 X82.713 Y64.829 E40.62016
G1 X83.852 Y64.427 E40.70085
G1 X85.274 Y64.547 E40.79618
G1 X85.78 Y64.829 E40.83488
G1 X86.918 Y64.427 E40.91551
G1 X88.341 Y64.547 E41.01091
G1 X88.846 Y64.829 E41.04955
G1 X89.985 Y64.427 E41.13024
G1 X91.408 Y64.547 E41.22564
G1 X91.913 Y64.829 E41.26428
G1 X93.052 Y64.427 E41.34497
G1 X94.474 Y64.547 E41.4403
G1 X94.98 Y64.829 E41.479
G1 X96.118 Y64.427 E41.55963
G1 X97.541 Y64.547 E41.65503
G1 X98.046 Y64.829 E41.69367
G1 X99.185 Y64.427 E41.77436
G1 X100.608 Y64.547 E41.86976
G1 X101.116 Y64.831 E41.90864
G1 X102.351 Y64.394 E41.99616
G1 X103.694 Y64.508 E42.0862
G1 X103.694 Y64.508 F7800
G1 X184.391 Y151.026
G1 F1800
G1 X184.391 Y149.198 E42.20832
G1 X184.018 Y147.729 E42.30957
G1 X184.09 Y147.445 E42.32914
G1 X183.917 Y146.747 E42.37718
G1 X184.05 Y146.117 E42.4202
G1 X183.796 Y144.938 E42.50077
G1 X183.796 Y151.425 E42.93414
G1 X183.505 Y151.819 E42.96686
G1 X183.201 Y151.988 E42.9901
G1 X183.201 Y144.126 E43.51532
G1 X183.068 Y143.947 E43.53022
G1 X182.606 Y143.689 E43.56557
G1 X182.606 Y152.321 E44.14223
G1 X182.365 Y152.455 E44.16065
G1 X182.011 Y152.877 E44.19745
G1 X182.011 Y143.357 E44.83344
G1 X181.688 Y143.176 E44.85818
G1 X181.578 Y142.667 E44.89297
G1 X181.416 Y142.448 E44.91117
G1 X181.416 Y153.585 E45.65518
G1 X181.287 Y153.635 E45.66442
G1 X181.163 Y153.887 E45.68318
G1 X180.821 Y154.242 E45.71611
G1 X180.821 Y141.669 E46.55605
G1 X180.226 Y141.336 E46.6016
G1 X180.226 Y154.684 E47.49332
G1 X179.63 Y154.939 E47.53663
G1 X179.63 Y150.201 E47.85315
G1 X179.035 Y150.619 E47.90173
G1 X179.035 Y155.058 E48.19828
G1 X178.823 Y155.108 E48.21283
G1 X178.44 Y155.059 E48.23863
G1 X178.44 Y150.832 E48.52102
G1 X177.845 Y150.862 E48.56082
G1 X177.845 Y154.973 E48.83546
G1 X177.25 Y155.024 E48.87535
G1 X177.25 Y150.759 E49.16028
G1 X176.655 Y150.427 E49.2058
G1 X176.655 Y155.074 E49.51624
G1 X176.444 Y155.092 E49.53039
G1 X176.06 Y154.956 E49.5576
G1 X176.06 Y149.863 E49.89784
G1 X175.465 Y149.268 E49.95405
G1 X175.465 Y154.745 E50.31994
G1 X175.294 Y154.685 E50.33205
G1 X174.869 Y154.277 E50.37141
G1 X174.869 Y148.673 E50.74579
G1 X174.274 Y148.078 E50.802
G1 X174.274 Y153.486 E51.16328
G1 X174.18 Y153.275 E51.17871
G1 X173.679 Y153.098 E51.21421
G1 X173.679 Y147.483 E51.58932
G1 X173.084 Y146.888 E51.64553
G1 X173.084 Y152.888 E52.04636
G1 X172.774 Y152.778 E52.06833
G1 X172.489 Y152.505 E52.0947
G1 X172.489 Y146.293 E52.5097
G1 X171.894 Y145.698 E52.56591
G1 X171.894 Y151.934 E52.98251
G1 X171.466 Y150.868 E53.05925
G1 X171.299 Y150.809 E53.07108
G1 X171.299 Y145.103 E53.45227
G1 X170.703 Y144.508 E53.50853
G1 X170.703 Y150.598 E53.91537
G1 X170.534 Y150.539 E53.92733
G1 X170.108 Y150.13 E53.96678
G1 X170.108 Y143.913 E54.38211
G1 X169.513 Y143.318 E54.43832
G1 X169.513 Y149.342 E54.84076
G1 X169.227 Y148.629 E54.89208
G1 X168.918 Y148.52 E54.91397
G1 X168.918 Y142.723 E55.30124
G1 X168.323 Y142.128 E55.35745
G1 X168.323 Y148.309 E55.77037
G1 X167.728 Y147.755 E55.82468
G1 X167.728 Y141.533 E56.24034
G1 X167.133 Y140.938 E56.29655
G1 X167.133 Y146.751 E56.68489
G1 X166.988 Y146.39 E56.71088
G1 X166.538 Y146.231 E56.74276
G1 X166.538 Y140.343 E57.13611
G1 X165.942 Y139.748 E57.19237
G1 X165.942 Y145.952 E57.60683
G1 X165.347 Y145.381 E57.66192
G1 X165.347 Y139.153 E58.07798
G1 X164.752 Y138.558 E58.13419
G1 X164.752 Y144.16 E58.50843
G1 X164.157 Y143.942 E58.55076
G1 X164.157 Y137.963 E58.95019
G1 X163.562 Y137.368 E59.0064
G1 X163.562 Y143.577 E59.42119
G1 X162.967 Y143.006 E59.47628
G1 X162.967 Y136.773 E59.89268
G1 X162.372 Y136.178 E59.94889
G1 X162.372 Y141.863 E60.32868
G1 X161.776 Y141.653 E60.3709
G1 X161.776 Y135.583 E60.77641
G1 X161.181 Y134.988 E60.83262
G1 X161.181 Y141.202 E61.24775
G1 X160.697 Y140.738 E61.29254
G1 X160.586 Y140.461 E61.31248
G1 X160.586 Y134.393 E61.71786
G1 X159.991 Y133.798 E61.77407
G1 X159.991 Y139.574 E62.15994
G1 X159.396 Y139.364 E62.20209
G1 X159.396 Y133.203 E62.61368
G1 X158.801 Y132.608 E62.66989
G1 X158.801 Y138.828 E63.08542
G1 X158.458 Y138.499 E63.11717
G1 X158.206 Y137.87 E63.16244
G1 X158.206 Y132.013 E63.55372
G1 X157.611 Y131.418 E63.60993
G1 X157.611 Y137.285 E64.00188
G1 X157.015 Y137.024 E64.04535
G1 X157.015 Y130.823 E64.45961
G1 X156.42 Y130.228 E64.51582
G1 X156.42 Y136.453 E64.93168
G1 X156.219 Y136.26 E64.9503
G1 X155.825 Y135.279 E65.02092
G1 X155.825 Y129.633 E65.3981
G1 X155.23 Y129.038 E65.45431
G1 X155.23 Y134.996 E65.85234
G1 X154.86 Y134.865 E65.87856
G1 X154.635 Y134.65 E65.89935
G1 X154.635 Y128.443 E66.31401
G1 X154.04 Y127.848 E66.37022
G1 X154.04 Y134.079 E66.78648
G1 X153.98 Y134.021 E66.79205
G1 X153.552 Y132.956 E66.86873
G1 X153.445 Y132.918 E66.87632
G1 X153.445 Y127.253 E67.25477
G1 X152.85 Y126.658 E67.31098
G1 X152.85 Y132.707 E67.71509
G1 X152.62 Y132.626 E67.73138
G1 X152.254 Y132.275 E67.76526
G1 X152.254 Y126.063 E68.18026
G1 X151.659 Y125.467 E68.23652
G1 X151.659 Y131.58 E68.6449
G1 X151.313 Y130.717 E68.70701
G1 X151.064 Y130.629 E68.72465
G1 X151.064 Y124.872 E69.10925
