; generated by PrusaSlicer 2.8.1+linux-x64-GTK3 on 2024-10-18 at 11:22:29 UTC

; 

; external perimeters extrusion width = 0.45mm
; perimeters extrusion width = 0.45mm
; infill extrusion width = 0.45mm
; solid infill extrusion width = 0.45mm
; top infill extrusion width = 0.40mm
; support material extrusion width = 0.40mm
; first layer extrusion width = 0.60mm

M190 S60 ; set bed temperature and wait for it to be reached
M104 S200 ; set temperature
;TYPE:Custom
G28 ; home all axes
G1 Z5 F5000 ; lift nozzle
M109 S200 ; set temperature and wait for it to be reached
G21 ; set units to millimeters
G90 ; use absolute coordinates
M82 ; use absolute distances for extrusion
G92 E0
; Filament gcode
M107
;LAYER_CHANGE
;Z:0.3
;HEIGHT:0.3
G1 E-2 F2400
G1 Z.3 F7800
G1 X84.727 Y95.75
G1 E0 F2400
;TYPE:Skirt/Brim
;WIDTH:0.6
G1 F1800
G1 X85.48 Y95.21 E.0619
G1 X86.662 Y94.565 E.15186
G1 X87.653 Y94.181 E.22286
G1 X88.971 Y93.86 E.31348
G1 X90.199 Y93.738 E.39592
G1 X125.5 Y93.732 E2.75422
G1 X127.695 Y94.129 E2.90324
G1 X128.804 Y94.674 E2.98579
G1 X136.787 Y99.645 E3.61404
G1 X137.688 Y100.344 E3.69022
G1 X138.509 Y101.111 E3.76528
G1 X139.269 Y101.962 E3.8415
G1 X139.938 Y102.865 E3.91658
G1 X140.531 Y103.839 E3.99276
G1 X141.025 Y104.849 E4.06787
G1 X141.432 Y105.915 E4.1441
G1 X141.735 Y106.997 E4.21916
G1 X141.942 Y108.119 E4.29538
G1 X142.044 Y109.239 E4.37051
G1 X142.044 Y110.379 E4.44667
G1 X141.942 Y111.499 E4.5218
G1 X141.735 Y112.62 E4.59795
G1 X141.432 Y113.703 E4.67308
G1 X141.025 Y114.769 E4.74931
G1 X140.531 Y115.778 E4.82436
G1 X139.938 Y116.752 E4.90054
G1 X139.279 Y117.642 E4.97452
G1 X138.167 Y118.831 E5.08328
G1 X136.89 Y119.905 E5.19475
G1 X128.993 Y125.205 E5.83011
G1 X126.949 Y126.098 E5.97912
G1 X125.5 Y126.268 E6.07658
G1 X89.892 Y126.247 E8.45539
G1 X88.843 Y126.118 E8.526
G1 X87.663 Y125.822 E8.60727
G1 X86.812 Y125.502 E8.66801
G1 X85.868 Y125.027 E8.73861
G1 X85.104 Y124.534 E8.79935
G1 X84.163 Y123.762 E8.88066
G1 X83.435 Y122.997 E8.95121
G1 X82.71 Y122.02 E9.03249
G1 X82.189 Y121.101 E9.10306
G1 X81.724 Y119.977 E9.18432
G1 X81.442 Y118.959 E9.25489
G1 X81.253 Y117.608 E9.34602
G1 X81.232 Y103 E10.32191
G1 X81.294 Y101.939 E10.39291
G1 X81.442 Y101.041 E10.45371
G1 X81.724 Y100.023 E10.52428
G1 X82.189 Y98.899 E10.60554
G1 X82.631 Y98.104 E10.66631
G1 X83.149 Y97.357 E10.72704
G1 X83.827 Y96.569 E10.79649
G1 X84.683 Y95.791 E10.87377
G1 E8.87377 F2400
G92 E0
G1 X84.683 Y95.791 F7800
G92 E0
G1 X129.768 Y103.648
G1 E2 F2400
;TYPE:Support material
G1 F1800
G1 X130.352 Y103.674 E2.03905
G1 X131.422 Y103.896 E2.11205
G1 X132.463 Y104.32 E2.18714
G1 X133.411 Y104.926 E2.26231
G1 X134.232 Y105.693 E2.33737
G1 X134.902 Y106.596 E2.41249
G1 X135.396 Y107.606 E2.4876
G1 X135.7 Y108.689 E2.56275
G1 X135.802 Y109.809 E2.63788
G1 X135.7 Y110.929 E2.71301
G1 X135.396 Y112.012 E2.78816
G1 X134.902 Y113.021 E2.86321
G1 X134.242 Y113.911 E2.93723
G1 X133.834 Y114.302 E2.97498
G1 X133.398 Y114.7 E3.01442
G1 X132.463 Y115.298 E3.08857
G1 X131.422 Y115.722 E3.16366
G1 X130.322 Y115.95 E3.23871
G1 X129.198 Y115.975 E3.31382
G1 X128.089 Y115.797 E3.38886
G1 X127.03 Y115.42 E3.46396
G1 X126.025 Y114.831 E3.54178
G1 X126.025 Y104.787 E4.21277
G1 X127.03 Y104.198 E4.29059
G1 X128.089 Y103.821 E4.36569
G1 X129.169 Y103.647 E4.43877
G1 X129.688 Y103.648 E4.47344
G1 X129.688 Y103.648 F7800
G1 X134.996 Y112.282
G1 F1800
G1 X134.996 Y107.963 E4.76197
G1 X134.4 Y106.73 E4.85346
G1 X134.4 Y112.888 E5.26485
G1 X133.805 Y113.662 E5.33007
G1 X133.805 Y105.954 E5.84501
G1 X133.21 Y105.398 E5.89941
G1 X133.21 Y114.219 E6.4887
G1 X132.615 Y114.629 E6.53697
G1 X132.615 Y104.989 E7.18097
G1 X132.02 Y104.66 E7.22639
G1 X132.02 Y114.958 E7.91435
G1 X131.425 Y115.2 E7.95726
G1 X131.425 Y104.418 E8.67756
G1 X130.83 Y104.266 E8.71859
G1 X130.83 Y115.352 E9.45919
G1 X130.234 Y115.47 E9.49978
G1 X130.234 Y104.151 E10.25595
G1 X129.639 Y104.13 E10.29572
G1 X129.639 Y115.483 E11.05416
G1 X129.044 Y115.462 E11.09393
G1 X129.044 Y104.156 E11.84923
G1 X128.449 Y104.251 E11.88948
G1 X128.449 Y115.366 E12.63202
G1 X127.854 Y115.202 E12.67325
G1 X127.854 Y104.416 E13.39381
G1 X127.259 Y104.628 E13.43601
G1 X127.259 Y114.99 E14.12825
G1 X126.664 Y114.652 E14.17397
G1 X126.664 Y104.687 E14.83969
G1 E12.83969 F2400
G92 E0
G1 X126.664 Y104.687 F7800
G1 X92.257 Y114.302
G1 E2 F2400
;TYPE:Perimeter
;WIDTH:0.6
G1 F1800
G1 X92.217 Y114.284 E2.00293
G1 X91.749 Y114.014 E2.03902
G1 X91.199 Y113.576 E2.08599
G1 X90.556 Y112.851 E2.15073
G1 X90.069 Y112.012 E2.21554
;WIDTH:0.634869
G1 X89.897 Y111.559 E2.25002
;WIDTH:0.669738
G1 X89.725 Y111.105 E2.28668
;WIDTH:0.714484
G1 X89.683 Y111.025 E2.29401
;WIDTH:0.759231
G1 X89.64 Y110.945 E2.30188
G1 X89.578 Y110.139 E2.37194
;WIDTH:0.750316
G1 X89.631 Y109.159 E2.45591
G1 X89.67 Y109.074 E2.46391
;WIDTH:0.705823
G1 X89.71 Y108.988 E2.4715
;WIDTH:0.66133
G1 X89.75 Y108.903 E2.47849
;WIDTH:0.616838
G1 X89.966 Y108.233 E2.527
;WIDTH:0.6
G1 X90.406 Y107.369 E2.59177
G1 X90.868 Y106.758 E2.64294
G1 X91.553 Y106.128 E2.70511
G1 X92.316 Y105.656 E2.76505
G1 X92.621 Y105.511 E2.78761
G1 X93.288 Y105.287 E2.83461
G1 X94.245 Y105.14 E2.89929
G1 X95.213 Y105.186 E2.96403
G1 X96.153 Y105.423 E3.02879
G1 X97.027 Y105.841 E3.09351
G1 X97.801 Y106.424 E3.15824
G1 X98.444 Y107.149 E3.22298
G1 X98.931 Y107.988 E3.28779
G1 X99.242 Y108.905 E3.35248
G1 X99.365 Y109.867 E3.41727
G1 X99.295 Y110.833 E3.48197
G1 X99.034 Y111.767 E3.54676
G1 X98.594 Y112.63 E3.61147
G1 X97.992 Y113.39 E3.67624
G1 X97.418 Y113.897 E3.7274
G1 X96.622 Y114.38 E3.7896
G1 X95.712 Y114.713 E3.85434
G1 X94.755 Y114.86 E3.91902
G1 X93.787 Y114.814 E3.98376
G1 X92.847 Y114.577 E4.04852
G1 X92.311 Y114.328 E4.088
G1 X92.311 Y114.328 F7800
G1 X92.513 Y113.832
G1 F1800
G1 X92.461 Y113.807 E4.09185
G1 X92.083 Y113.595 E4.1208
G1 X91.533 Y113.157 E4.16777
G1 X90.966 Y112.506 E4.22544
G1 X90.54 Y111.756 E4.28306
G1 X90.27 Y110.937 E4.34067
G1 X90.168 Y110.08 E4.39833
G1 X90.238 Y109.22 E4.45597
G1 X90.477 Y108.391 E4.51361
G1 X90.876 Y107.626 E4.57125
G1 X91.286 Y107.092 E4.61623
G1 X91.907 Y106.529 E4.67223
G1 X92.584 Y106.12 E4.72507
G1 X93.458 Y105.795 E4.78736
G1 X94.312 Y105.672 E4.845
G1 X95.173 Y105.72 E4.90261
G1 X96.008 Y105.939 E4.96028
G1 X96.783 Y106.318 E5.01791
G1 X97.467 Y106.843 E5.07551
G1 X98.034 Y107.494 E5.13318
G1 X98.46 Y108.244 E5.1908
G1 X98.73 Y109.063 E5.24841
G1 X98.832 Y109.92 E5.30607
G1 X98.762 Y110.78 E5.36371
G1 X98.523 Y111.609 E5.42135
G1 X98.124 Y112.374 E5.47899
G1 X97.581 Y113.045 E5.53666
G1 X97.074 Y113.487 E5.58159
G1 X96.354 Y113.916 E5.63758
G1 X95.542 Y114.205 E5.69516
G1 X94.688 Y114.328 E5.7528
G1 X93.827 Y114.28 E5.81041
G1 X92.992 Y114.061 E5.86808
G1 X92.567 Y113.858 E5.89954
G1 X92.567 Y113.858 F7800
G1 X92.769 Y113.361
;TYPE:External perimeter
G1 F1800
G1 X92.461 Y113.205 E5.9226
G1 X91.867 Y112.738 E5.97308
G1 X91.376 Y112.162 E6.02364
G1 X91.01 Y111.5 E6.07417
G1 X90.782 Y110.779 E6.12469
G1 X90.701 Y110.027 E6.17522
G1 X90.771 Y109.273 E6.22581
G1 X90.989 Y108.549 E6.27632
G1 X91.347 Y107.882 E6.32689
G1 X91.705 Y107.427 E6.36557
G1 X92.261 Y106.931 E6.41535
G1 X92.851 Y106.584 E6.46108
G1 X93.629 Y106.302 E6.51636
G1 X94.379 Y106.203 E6.5669
G1 X95.133 Y106.254 E6.61739
G1 X95.863 Y106.454 E6.66796
G1 X96.539 Y106.795 E6.71854
G1 X97.133 Y107.262 E6.76902
G1 X97.624 Y107.838 E6.81958
G1 X97.99 Y108.5 E6.87011
G1 X98.218 Y109.221 E6.92063
G1 X98.299 Y109.973 E6.97116
G1 X98.229 Y110.727 E7.02175
G1 X98.011 Y111.451 E7.07226
G1 X97.654 Y112.118 E7.1228
G1 X97.171 Y112.701 E7.17338
G1 X96.73 Y113.076 E7.21205
G1 X96.087 Y113.452 E7.26181
G1 X95.371 Y113.698 E7.31239
G1 X94.621 Y113.797 E7.36293
G1 X93.867 Y113.746 E7.41342
G1 X93.137 Y113.546 E7.46399
G1 X92.823 Y113.388 E7.48747
G1 X92.47 Y113.199 F7800
G1 E5.48747 F2400
G92 E0
G1 X124.128 Y118.629 F7800
G1 E2 F2400
;TYPE:Perimeter
G1 F1800
G1 X90.611 Y118.625 E4.23912
G1 X90.098 Y118.57 E4.27359
G1 X89.601 Y118.346 E4.31001
G1 X89.276 Y118.065 E4.33871
G1 X89.065 Y117.722 E4.36561
G1 X88.925 Y117.357 E4.39173
G1 X88.871 Y116.95 E4.41916
G1 X88.871 Y111.932 E4.75439
;WIDTH:0.637579
G1 X88.89 Y111.667 E4.77338
;WIDTH:0.675158
G1 X88.909 Y111.403 E4.79354
;WIDTH:0.712737
G1 X88.928 Y111.139 E4.81494
;WIDTH:0.750316
G1 X88.946 Y110.875 E4.83758
G1 X88.929 Y109.829 E4.92708
G1 X88.946 Y109.125 E4.98733
G1 X88.924 Y109.007 E4.9976
;WIDTH:0.705823
G1 X88.902 Y108.89 E5.00712
;WIDTH:0.66133
G1 X88.88 Y108.772 E5.01606
;WIDTH:0.616838
G1 X88.871 Y108.068 E5.06457
;WIDTH:0.6
G1 X88.871 Y103.668 E5.35851
G1 X88.908 Y102.696 E5.42349
G1 X89.047 Y102.277 E5.45298
G1 X89.203 Y102.028 E5.47261
G1 X89.601 Y101.654 E5.5091
G1 X89.955 Y101.476 E5.53557
G1 X90.534 Y101.371 E5.57488
G1 X124.121 Y101.371 E7.81867
G1 X124.124 Y109.996 E8.39487
G1 X124.128 Y118.569 E8.96759
G1 X124.128 Y118.569 F7800
G1 X124.664 Y119.164
G1 F1800
G1 X90.404 Y119.161 E11.25634
G1 X89.791 Y119.041 E11.29807
G1 X89.301 Y118.795 E11.3347
G1 X88.991 Y118.527 E11.36208
G1 X88.714 Y118.217 E11.38985
G1 X88.463 Y117.718 E11.42717
G1 X88.406 Y117.487 E11.44306
G1 X88.336 Y116.969 E11.47798
G1 X88.336 Y103.156 E12.40076
G1 X88.381 Y102.584 E12.43909
G1 X88.555 Y102.059 E12.47604
G1 X88.886 Y101.564 E12.51582
G1 X89.301 Y101.206 E12.55243
G1 X89.773 Y100.968 E12.58774
G1 X90.521 Y100.836 E12.63848
G1 X124.656 Y100.836 E14.91888
G1 X124.66 Y109.996 E15.53082
G1 X124.664 Y119.104 E16.13928
G1 X124.664 Y119.104 F7800
G1 X125.2 Y119.7
;TYPE:External perimeter
G1 F1800
G1 X91.168 Y119.696 E18.4128
G1 X90.139 Y119.668 E18.48157
G1 X89.597 Y119.543 E18.51873
G1 X89.001 Y119.243 E18.56331
G1 X88.496 Y118.807 E18.60788
G1 X88.26 Y118.505 E18.63348
G1 X87.958 Y117.906 E18.67829
G1 X87.83 Y117.393 E18.71361
G1 X87.8 Y116.989 E18.74067
G1 X87.8 Y103.014 E19.67427
G1 X87.854 Y102.472 E19.71066
G1 X87.993 Y102.052 E19.74021
G1 X88.173 Y101.646 E19.76988
G1 X88.496 Y101.193 E19.80705
G1 X89.001 Y100.757 E19.85162
G1 X89.591 Y100.46 E19.89575
G1 X89.998 Y100.368 E19.92363
G1 X90.507 Y100.3 E19.95794
G1 X125.191 Y100.3 E22.27502
G1 X125.196 Y109.995 E22.9227
G1 X125.2 Y119.64 E23.56704
G1 X124.804 Y119.699 F7800
G1 E21.56704 F2400
G92 E0
G1 X122.87 Y101.532 F7800
G1 E2 F2400
;TYPE:Solid infill
;WIDTH:0.603482
G1 F1800
G1 X123.719 Y102.381 E2.08073
G1 X123.72 Y103.144 E2.13203
G1 X122.349 Y101.773 E2.2624
G1 X121.586 Y101.773 E2.3137
G1 X123.72 Y103.907 E2.51662
G1 X123.72 Y104.67 E2.56792
G1 X120.824 Y101.773 E2.84335
G1 X120.061 Y101.773 E2.89465
G1 X123.721 Y105.432 E3.24264
G1 X123.721 Y106.195 E3.29394
G1 X119.299 Y101.773 E3.71443
G1 X118.537 Y101.773 E3.76567
G1 X123.721 Y106.958 E4.25867
G1 X123.722 Y107.721 E4.30997
G1 X117.774 Y101.773 E4.87557
G1 X117.012 Y101.773 E4.92681
G1 X123.722 Y108.483 E5.56487
G1 X123.722 Y109.246 E5.61617
G1 X116.249 Y101.773 E6.32679
G1 X115.487 Y101.773 E6.37803
G1 X123.723 Y110.009 E7.1612
G1 X123.723 Y110.771 E7.21244
G1 X114.725 Y101.773 E8.06807
G1 X113.962 Y101.773 E8.11937
G1 X123.723 Y111.534 E9.04756
G1 X123.724 Y112.297 E9.09886
G1 X113.2 Y101.773 E10.0996
G1 X112.437 Y101.773 E10.1509
G1 X123.724 Y113.06 E11.22419
G1 X123.724 Y113.822 E11.27543
G1 X111.675 Y101.773 E12.42118
G1 X110.913 Y101.773 E12.47242
G1 X123.725 Y114.585 E13.69073
G1 X123.725 Y115.348 E13.74203
G1 X110.15 Y101.773 E15.03289
G1 X109.388 Y101.773 E15.08413
G1 X123.725 Y116.111 E16.4475
G1 X123.726 Y116.873 E16.49874
G1 X108.625 Y101.773 E17.93466
G1 X107.863 Y101.773 E17.9859
G1 X123.726 Y117.636 E19.49433
G1 X123.726 Y118.227 E19.53407
G1 X123.554 Y118.227 E19.54564
G1 X107.101 Y101.773 E21.11022
G1 X106.338 Y101.773 E21.16152
G1 X122.792 Y118.227 E22.72615
G1 X122.029 Y118.227 E22.77745
G1 X105.576 Y101.773 E24.34203
G1 X104.813 Y101.773 E24.39333
G1 X121.267 Y118.227 E25.95796
G1 X120.504 Y118.227 E26.00926
G1 X104.051 Y101.773 E27.57384
G1 X103.288 Y101.773 E27.62514
G1 X119.742 Y118.226 E29.18972
G1 X118.98 Y118.226 E29.24096
G1 X102.526 Y101.773 E30.80554
G1 X101.764 Y101.773 E30.85678
G1 X118.217 Y118.226 E32.42132
G1 X117.455 Y118.226 E32.47256
G1 X101.001 Y101.773 E34.03714
G1 X100.239 Y101.773 E34.08838
G1 X116.692 Y118.226 E35.65292
G1 X115.93 Y118.226 E35.70416
G1 X99.476 Y101.773 E37.26874
G1 X98.714 Y101.773 E37.31998
G1 X115.167 Y118.226 E38.88452
G1 X114.405 Y118.226 E38.93576
G1 X97.952 Y101.773 E40.5003
G1 X97.189 Y101.773 E40.5516
G1 X113.642 Y118.226 E42.11614
G1 X112.88 Y118.226 E42.16738
G1 X96.427 Y101.773 E43.73192
G1 X95.664 Y101.773 E43.78322
G1 X112.117 Y118.226 E45.34776
G1 X111.355 Y118.226 E45.399
G1 X94.902 Y101.773 E46.96354
G1 X94.14 Y101.773 E47.01478
G1 X110.592 Y118.226 E48.57927
G1 X109.83 Y118.225 E48.63051
G1 X99.135 Y107.531 E49.64746
G1 X98.944 Y107.172 E49.6748
G1 X98.756 Y106.896 E49.69725
G1 X98.296 Y106.347 E49.74541
G1 X98.057 Y106.115 E49.76781
G1 X97.497 Y105.668 E49.81599
G1 X97.216 Y105.487 E49.83846
G1 X96.959 Y105.355 E49.85789
G1 X93.378 Y101.774 E50.19841
G1 X92.617 Y101.775 E50.24958
G1 X95.728 Y104.886 E50.54541
G1 X95.25 Y104.786 E50.57825
G1 X94.837 Y104.757 E50.60609
G1 X91.856 Y101.776 E50.88956
G1 X91.095 Y101.778 E50.94073
G1 X94.082 Y104.765 E51.22477
G1 X93.4 Y104.845 E51.27094
G1 X90.353 Y101.798 E51.56068
G1 X90.091 Y101.857 E51.57874
G1 X89.803 Y102.01 E51.60067
G1 X92.814 Y105.022 E51.88704
G1 X92.486 Y105.132 E51.9103
G1 X92.263 Y105.233 E51.92676
G1 X89.436 Y102.406 E52.19558
G1 X89.304 Y102.78 E52.22225
G1 X89.28 Y103.013 E52.238
G1 X91.773 Y105.506 E52.47506
G1 X91.562 Y105.628 E52.49145
G1 X91.312 Y105.807 E52.51212
G1 X89.273 Y103.768 E52.70601
G1 X89.273 Y104.53 E52.75725
G1 X90.905 Y106.163 E52.91249
G1 X90.759 Y106.292 E52.92559
G1 X90.525 Y106.544 E52.94871
G1 X89.273 Y105.293 E53.06772
G1 X89.273 Y106.055 E53.11896
G1 X90.189 Y106.971 E53.20606
G1 X89.905 Y107.449 E53.24345
G1 X89.273 Y106.818 E53.3035
G1 X89.273 Y107.58 E53.35474
G1 X89.648 Y107.955 E53.3904
G1 X89.447 Y108.517 E53.43053
G1 X89.033 Y108.102 E53.46995
G1 E51.46995 F2400
G92 E0
G1 X89.033 Y108.102 F7800
G1 X89.102 Y111.221
G1 E2 F2400
G1 F1800
G1 X89.898 Y112.017 E2.07569
G1 E.07569 F2400
G92 E0
G1 X89.898 Y112.017 F7800
G1 X99.247 Y108.406
G1 E2 F2400
G1 F1800
G1 X109.067 Y118.225 E2.93375
G1 X108.305 Y118.225 E2.98499
G1 X99.74 Y109.66 E3.79945
G1 X99.774 Y109.999 E3.82236
G1 X99.736 Y110.418 E3.85065
G1 X107.542 Y118.225 E4.59298
G1 X106.78 Y118.225 E4.64422
G1 X99.65 Y111.095 E5.32222
G1 X99.476 Y111.684 E5.36352
G1 X106.017 Y118.225 E5.98551
G1 X105.255 Y118.225 E6.03675
G1 X99.261 Y112.232 E6.60668
G1 X98.997 Y112.729 E6.64452
G1 X104.492 Y118.225 E7.16709
G1 X103.73 Y118.225 E7.21833
G1 X98.689 Y113.184 E7.69768
G1 X98.341 Y113.598 E7.73405
G1 X102.967 Y118.225 E8.17399
G1 X102.205 Y118.225 E8.22523
G1 X97.953 Y113.973 E8.62956
G1 X97.527 Y114.31 E8.66608
G1 X101.442 Y118.225 E9.03836
G1 X100.68 Y118.224 E9.0896
G1 X97.051 Y114.596 E9.43464
G1 X96.817 Y114.731 E9.4528
G1 X96.546 Y114.853 E9.47278
G1 X99.917 Y118.224 E9.79333
G1 X99.155 Y118.224 E9.84457
G1 X95.978 Y115.048 E10.14663
G1 X95.588 Y115.158 E10.17388
G1 X95.353 Y115.185 E10.18979
G1 X98.392 Y118.224 E10.47877
G1 X97.63 Y118.224 E10.53001
G1 X94.669 Y115.263 E10.81158
G1 X94.591 Y115.272 E10.81686
G1 X93.865 Y115.222 E10.86579
G1 X96.868 Y118.224 E11.1513
G1 X96.105 Y118.224 E11.2026
G1 X92.481 Y114.6 E11.54721
G1 E9.54721 F2400
G92 E0
G1 X92.481 Y114.6 F7800
G1 X95.584 Y118.465
G1 E2 F2400
G1 F1800
G1 X89.273 Y112.154 E2.60012
G1 X89.273 Y112.917 E2.65142
G1 X94.58 Y118.224 E3.15607
G1 X93.818 Y118.224 E3.20731
G1 X89.273 Y113.679 E3.6395
G1 X89.273 Y114.442 E3.6908
G1 X93.055 Y118.224 E4.05043
G1 X92.293 Y118.224 E4.10167
G1 X89.273 Y115.204 E4.38885
G1 X89.273 Y115.966 E4.44009
G1 X91.53 Y118.224 E4.65476
G1 X90.768 Y118.223 E4.706
G1 X89.273 Y116.729 E4.84811
G1 X89.289 Y117.158 E4.87698
G1 X89.347 Y117.389 E4.89299
G1 X89.51 Y117.713 E4.91738
G1 X90.218 Y118.436 E4.98542
;LAYER_CHANGE
;Z:0.6
;HEIGHT:0.3
G1 Z.6 F7800
G1 E2.98542 F2400
G92 E0
G1 X90.218 Y118.436 Z.6 F7800
G1 X127.979 Y108.047
G1 E2 F2400
;TYPE:Support material
;WIDTH:0.4
G1 F3600
G1 X128.567 Y107.633 E2.0301
