; generated by PrusaSlicer 2.8.1+linux-x64-GTK3 on 2024-10-08 at 06:29:48 UTC

; 

; external perimeters extrusion width = 0.45mm
; perimeters extrusion width = 0.45mm
; infill extrusion width = 0.45mm
; solid infill extrusion width = 0.45mm
; top infill extrusion width = 0.40mm
; support material extrusion width = 0.40mm
; first layer extrusion width = 0.60mm

M190 S60 ; set bed temperature and wait for it to be reached
M104 S200 ; set temperature
;TYPE:Custom
G28 ; home all axes
G1 Z5 F5000 ; lift nozzle
M109 S200 ; set temperature and wait for it to be reached
G21 ; set units to millimeters
G90 ; use absolute coordinates
M82 ; use absolute distances for extrusion
G92 E0
; Filament gcode
M107
;LAYER_CHANGE
;Z:0.3
;HEIGHT:0.3
G1 E-2 F2400
G1 Z.3 F7800
G1 X71.388 Y75.354
G1 E0 F2400
;TYPE:Skirt/Brim
;WIDTH:0.6
G1 F1800
G1 X71.883 Y74.885 E.04555
G1 X72.577 Y74.309 E.1058
G1 X73.389 Y73.803 E.16972
G1 X74.136 Y73.465 E.22449
G1 X74.984 Y73.202 E.2838
G1 X76.546 Y73.015 E.3889
G1 X91.286 Y73.026 E1.37361
G1 X153.462 Y77.407 E5.5376
G1 X155.336 Y77.75 E5.66487
G1 X156.379 Y78.091 E5.73818
G1 X157.675 Y78.686 E5.83345
G1 X159.481 Y79.88 E5.97808
G1 X165.588 Y85.128 E6.51601
G1 X166.689 Y86.186 E6.61802
G1 X167.59 Y87.292 E6.71332
G1 X168.2 Y88.244 E6.78885
G1 X168.828 Y89.526 E6.88422
G1 X169.206 Y90.591 E6.95972
G1 X169.528 Y91.982 E7.0551
G1 X169.655 Y93.102 E7.1304
G1 X169.694 Y93.94 E7.18644
G1 X169.162 Y119.664 E8.90531
G1 X168.692 Y128.087 E9.46889
G1 X168.563 Y129.202 E9.54387
G1 X168.252 Y130.558 E9.63681
G1 X167.84 Y131.714 E9.7188
G1 X167.225 Y132.953 E9.81121
G1 X166.62 Y133.897 E9.88611
G1 X165.717 Y135.002 E9.98144
G1 X164.495 Y136.155 E10.09368
G1 X160.137 Y139.608 E10.46513
G1 X159.17 Y140.194 E10.54067
G1 X157.873 Y140.788 E10.63597
G1 X156.798 Y141.14 E10.71154
G1 X155.506 Y141.416 E10.7998
G1 X149.549 Y142.022 E11.19981
G1 X91.303 Y146.973 E15.10499
G1 X76.103 Y146.97 E16.12043
G1 X74.59 Y146.691 E16.22321
G1 X73.592 Y146.3 E16.29482
G1 X72.82 Y145.86 E16.35418
G1 X72.112 Y145.323 E16.41354
G1 X62.383 Y136.115 E17.30844
G1 X57.347 Y131.083 E17.78404
G1 X56.495 Y130.04 E17.87401
G1 X56.12 Y129.402 E17.92345
G1 X55.709 Y128.431 E17.99389
G1 X55.487 Y127.589 E18.05206
G1 X55.358 Y126.281 E18.13987
G1 X55.358 Y93.719 E20.31519
G1 X55.452 Y92.61 E20.38954
G1 X55.709 Y91.569 E20.46117
G1 X56.003 Y90.836 E20.51393
G1 X56.485 Y89.975 E20.57985
G1 X57.347 Y88.917 E20.67102
G1 X62.383 Y83.885 E21.14662
G1 X71.344 Y75.395 E21.97128
G1 E19.97128 F2400
G92 E0
G1 X71.344 Y75.395 F7800
G92 E0
G1 X148.059 Y83.448
G1 E2 F2400
;TYPE:Support material
G1 F1800
G1 X148.685 Y83.519 E2.04209
G1 X149.728 Y83.86 E2.1154
G1 X150.159 Y84.12 E2.14903
G1 X151.109 Y83.754 E2.21704
G1 X152.189 Y83.602 E2.2899
G1 X153.386 Y83.706 E2.37017
G1 X154.429 Y84.048 E2.4435
G1 X155.396 Y84.633 E2.519
G1 X156.205 Y85.422 E2.59449
G1 X156.81 Y86.366 E2.66939
G1 X157.195 Y87.446 E2.74599
G1 X157.261 Y88.022 E2.78472
G1 X158.228 Y88.441 E2.85512
G1 X158.843 Y88.88 E2.9056
G1 X159.491 Y88.953 E2.94916
G1 X160.535 Y89.296 E3.02257
G1 X161.502 Y89.882 E3.09811
G1 X162.312 Y90.672 E3.1737
G1 X162.922 Y91.624 E3.24923
G1 X163.3 Y92.689 E3.32473
G1 X163.427 Y93.81 E3.4001
G1 X163.297 Y94.94 E3.47609
G1 X162.917 Y96.001 E3.55138
G1 X162.331 Y96.913 E3.6238
G1 X162.805 Y98.119 E3.71037
G1 X162.936 Y99.249 E3.78637
G1 X162.81 Y100.37 E3.86173
G1 X162.432 Y101.435 E3.93723
G1 X161.824 Y102.388 E4.01275
G1 X161.015 Y103.179 E4.08834
G1 X160.393 Y103.556 E4.13693
G1 X160.525 Y104.707 E4.21433
G1 X160.395 Y105.83 E4.28985
G1 X160.016 Y106.895 E4.36537
G1 X159.415 Y107.831 E4.43968
G1 X158.576 Y108.647 E4.51787
G1 X157.627 Y109.22 E4.59193
G1 X156.553 Y109.571 E4.66741
G1 X156.078 Y109.613 E4.69927
G1 X156.593 Y110.416 E4.763
G1 X157.22 Y110.487 E4.80515
G1 X158.263 Y110.828 E4.87846
G1 X159.23 Y111.414 E4.954
G1 X160.04 Y112.202 E5.02949
G1 X160.646 Y113.146 E5.10443
G1 X161.031 Y114.227 E5.18109
G1 X161.159 Y115.343 E5.25613
G1 X161.107 Y115.797 E5.28666
G1 X161.527 Y116.161 E5.32379
G1 X161.961 Y116.739 E5.37208
G1 X162.739 Y118.564 E5.50462
G1 X162.897 Y119.474 E5.56632
G1 X162.874 Y120.227 E5.61665
G1 X162.624 Y121.299 E5.69019
G1 X162.148 Y122.319 E5.76539
G1 X161.433 Y123.232 E5.84286
G1 X160.818 Y123.715 E5.8951
G1 X161.347 Y124.231 E5.94447
G1 X161.952 Y125.175 E6.01937
G1 X162.337 Y126.255 E6.09597
G1 X162.465 Y127.371 E6.17101
G1 X162.337 Y128.487 E6.24605
G1 X161.951 Y129.568 E6.32273
G1 X161.345 Y130.511 E6.39761
G1 X160.552 Y131.283 E6.47155
G1 X159.541 Y131.893 E6.55043
G1 X158.397 Y132.267 E6.63084
G1 X157.702 Y133.457 E6.7229
G1 X156.892 Y134.246 E6.79844
G1 X155.925 Y134.831 E6.87394
G1 X154.85 Y135.182 E6.94949
G1 X153.724 Y135.282 E7.02501
G1 X152.648 Y135.13 E7.09761
G1 X151.939 Y134.882 E7.14779
G1 X151.201 Y135.328 E7.2054
G1 X150.126 Y135.679 E7.28095
G1 X149 Y135.778 E7.35646
G1 X147.882 Y135.62 E7.43189
G1 X146.828 Y135.213 E7.50737
G1 X145.938 Y134.609 E7.57923
G1 X145.042 Y133.631 E7.66784
G1 X144.299 Y133.874 E7.72006
G1 X143.173 Y133.973 E7.79557
G1 X142.054 Y133.815 E7.87107
G1 X141 Y133.409 E7.94653
G1 X140.234 Y132.889 E8.00838
G1 X139.126 Y133.561 E8.09495
G1 X138.079 Y133.904 E8.16855
G1 X136.952 Y134.003 E8.24413
G1 X135.832 Y133.845 E8.31969
G1 X134.777 Y133.438 E8.39523
G1 X133.886 Y132.832 E8.46722
G1 X133.568 Y132.515 E8.49722
G1 X132.454 Y132.613 E8.57193
G1 X131.546 Y132.484 E8.6332
G1 X131.3 Y132.867 E8.66361
G1 X130.463 Y133.678 E8.74147
G1 X129.519 Y134.248 E8.81514
G1 X128.448 Y134.596 E8.89037
G1 X127.327 Y134.693 E8.96554
G1 X126.213 Y134.533 E9.04072
G1 X125.164 Y134.126 E9.11589
G1 X124.282 Y133.524 E9.18723
G1 X123.443 Y132.61 E9.27011
G1 X123.179 Y132.146 E9.30577
G1 X123.627 Y131.749 E9.34576
G1 X123.785 Y131.21 E9.38328
G1 X123.785 Y113.179 E10.58785
G1 X123.658 Y112.693 E10.62141
G1 X123.424 Y112.4 E10.64646
G1 X122.972 Y112.171 E10.68031
G1 X122.539 Y112.146 E10.70928
G1 X122.856 Y111.103 E10.78211
G1 X123.38 Y110.182 E10.8529
G1 X123.705 Y109.83 E10.88491
G1 X123.256 Y108.766 E10.96206
G1 X123.082 Y107.795 E11.02796
G1 X123.424 Y107.6 E11.05426
G1 X123.627 Y107.359 E11.07531
G1 X123.785 Y106.821 E11.11277
G1 X123.785 Y88.79 E12.31734
G1 X123.627 Y88.251 E12.35486
G1 X123.424 Y88.011 E12.37586
G1 X123.087 Y87.818 E12.4018
G1 X123.411 Y87.245 E12.44578
G1 X124.174 Y86.416 E12.52105
G1 X125.105 Y85.781 E12.59634
G1 X126.156 Y85.373 E12.67166
G1 X127.229 Y85.22 E12.74407
G1 X127.788 Y85.252 E12.78148
G1 X128.425 Y85.323 E12.8243
G1 X129.464 Y85.662 E12.89731
G1 X130.428 Y86.245 E12.97257
G1 X131.234 Y87.031 E13.04778
G1 X131.433 Y87.341 E13.07239
G1 X132.688 Y87.163 E13.15707
G1 X133.889 Y87.267 E13.2376
G1 X134.296 Y86.827 E13.27764
G1 X135.23 Y86.193 E13.35305
G1 X136.284 Y85.786 E13.42853
G1 X137.364 Y85.633 E13.5014
G1 X138.561 Y85.737 E13.58167
G1 X139.603 Y86.077 E13.65489
G1 X140.512 Y86.627 E13.72587
G1 X141.435 Y86.002 E13.80034
G1 X142.49 Y85.595 E13.87588
G1 X143.659 Y85.431 E13.95474
G1 X144.419 Y84.609 E14.02953
G1 X145.354 Y83.974 E14.10504
G1 X146.408 Y83.567 E14.18052
G1 X147.488 Y83.415 E14.25338
G1 X147.979 Y83.443 E14.28623
G1 E12.28623 F2400
G92 E0
G1 X147.979 Y83.443 F7800
G1 X133.314 Y119.723
G1 E2 F2400
G1 F1800
G1 X133.703 Y119.596 E2.02734
G1 X134.066 Y119.988 E2.06303
G1 X135.298 Y120.825 E2.16253
G1 X134.193 Y121.577 E2.25182
G1 X133.732 Y122.038 E2.29537
G1 X133.206 Y122.746 E2.35429
G1 X132.335 Y122.684 E2.41262
G1 X131.955 Y121.619 E2.48816
G1 X131.598 Y121.064 E2.53225
G1 X131.934 Y120.77 E2.56208
G1 X132.396 Y119.804 E2.63361
G1 X133.234 Y119.73 E2.68981
G1 X133.234 Y119.73 F7800
G1 X139.319 Y120.77
G1 F1800
G1 X140.266 Y120.198 E2.76372
G1 X141.599 Y121.102 E2.87132
G1 X140.703 Y121.709 E2.94362
G1 X140.427 Y121.44 E2.96937
G1 X139.388 Y120.812 E3.05047
G1 E1.05047 F2400
G92 E0
G1 X139.388 Y120.812 F7800
G1 X132.621 Y97.097
G1 E2 F2400
G1 F1800
G1 X133.482 Y97.021 E2.05774
G1 X134.224 Y97.824 E2.13078
G1 X135.245 Y98.521 E2.21337
G1 X136.255 Y98.911 E2.2857
G1 X137.262 Y99.053 E2.35364
G1 X136.304 Y99.767 E2.43346
G1 X135.738 Y100.333 E2.48693
G1 X134.806 Y99.897 E2.55567
G1 X133.774 Y99.655 E2.62648
G1 X132.417 Y99.685 E2.71716
G1 X132.194 Y99.061 E2.76143
G1 X132.355 Y98.608 E2.79355
G1 X132.466 Y97.339 E2.87865
G1 X132.578 Y97.164 E2.89253
G1 X132.578 Y97.164 F7800
G1 X140.525 Y98.044
G1 F1800
G1 X140.751 Y97.831 E2.91328
G1 X141.339 Y98.23 E2.96075
G1 X142.35 Y98.62 E3.03314
G1 X143.634 Y98.8 E3.11976
G1 X142.97 Y99.97 E3.20963
G1 X142.58 Y99.59 E3.24601
G1 X141.612 Y99.005 E3.32157
G1 X140.331 Y98.637 E3.41061
G1 X140.239 Y98.217 E3.43933
G1 X140.456 Y98.086 E3.45626
G1 E1.45626 F2400
G92 E0
G1 X140.456 Y98.086 F7800
G1 X162.372 Y121.269
G1 E2 F2400
G1 F1800
G1 X162.372 Y119.265 E2.13388
G1 X162.273 Y118.698 E2.17233
G1 X161.776 Y117.48 E2.26021
G1 X161.776 Y121.976 E2.56057
G1 X161.181 Y122.772 E2.62696
G1 X161.181 Y116.504 E3.0457
G1 X160.599 Y115.995 E3.09735
G1 X160.673 Y115.343 E3.14119
G1 X160.586 Y114.581 E3.19243
G1 X160.586 Y123.285 E3.7739
G1 X160.088 Y123.676 E3.8162
G1 X160.586 Y124.162 E3.86269
G1 X160.586 Y130.577 E4.29125
G1 X159.991 Y131.066 E4.3427
G1 X159.991 Y113.019 E5.54834
G1 X159.664 Y112.509 E5.58881
G1 X159.396 Y112.248 E5.6138
G1 X159.396 Y131.42 E6.89459
G1 X158.801 Y131.628 E6.9367
G1 X158.801 Y111.717 E8.26686
G1 X158.206 Y111.357 E8.31332
G1 X158.206 Y131.822 E9.68049
G1 X158.023 Y131.882 E9.69336
G1 X157.877 Y132.291 E9.72237
G1 X157.611 Y132.706 E9.7553
G1 X157.611 Y111.122 E11.19723
G1 X157.015 Y110.949 E11.23869
G1 X157.015 Y133.453 E12.74208
G1 X156.42 Y133.968 E12.79465
G1 X156.42 Y110.882 E14.33692
G1 X156.311 Y110.87 E14.34425
G1 X155.825 Y110.112 E14.4044
G1 X155.825 Y134.328 E16.02216
G1 X155.23 Y134.551 E16.06461
G1 X155.23 Y85.145 E19.3652
G1 X154.635 Y84.736 E19.41343
G1 X154.635 Y134.717 E22.75243
G1 X154.04 Y134.77 E22.79234
G1 X154.04 Y84.428 E26.15546
G1 X153.445 Y84.233 E26.19729
G1 X153.445 Y134.755 E29.57243
G1 X152.85 Y134.671 E29.61257
G1 X152.85 Y84.131 E32.98892
G1 X152.254 Y84.089 E33.02883
G1 X152.254 Y134.481 E36.39529
G1 X151.884 Y134.352 E36.42147
G1 X151.659 Y134.488 E36.43903
G1 X151.659 Y84.163 E39.80101
G1 X151.231 Y84.224 E39.82989
G1 X151.064 Y84.288 E39.84184
G1 X151.064 Y134.848 E43.21952
G1 X150.469 Y135.06 E43.26172
G1 X150.469 Y84.517 E46.63827
G1 X150.112 Y84.655 E46.66384
G1 X149.874 Y84.511 E46.68242
G1 X149.874 Y135.218 E50.06992
G1 X149.279 Y135.27 E50.10982
G1 X149.279 Y84.22 E53.52024
G1 X148.684 Y84.025 E53.56207
G1 X148.684 Y135.247 E56.98398
G1 X148.088 Y135.162 E57.0242
G1 X148.088 Y83.937 E60.44631
G1 X147.493 Y83.901 E60.48613
G1 X147.493 Y134.953 E63.89668
G1 X146.898 Y134.678 E63.94047
G1 X146.898 Y83.985 E67.32704
G1 X146.303 Y84.125 E67.36787
G1 X146.303 Y134.274 E70.71809
G1 X145.708 Y133.674 E70.77454
G1 X145.708 Y84.354 E74.06938
G1 X145.579 Y84.404 E74.07862
G1 X145.113 Y84.721 E74.11627
G1 X145.113 Y133.1 E77.34825
G1 X144.518 Y133.295 E77.39008
G1 X144.518 Y85.212 E80.60228
G1 X143.923 Y85.856 E80.66085
G1 X143.923 Y98.348 E81.49538
G1 X143.327 Y98.281 E81.53545
G1 X143.327 Y85.964 E82.35829
G1 X142.732 Y86.048 E82.39843
G1 X142.732 Y98.198 E83.21012
G1 X142.137 Y98.021 E83.25159
G1 X142.137 Y86.248 E84.03809
G1 X141.542 Y86.511 E84.08155
G1 X141.542 Y97.785 E84.83471
G1 X140.947 Y97.381 E84.88276
G1 X140.947 Y86.915 E85.58195
G1 X140.527 Y87.199 E85.61582
G1 X140.352 Y87.093 E85.62949
G1 X140.352 Y97.867 E86.34925
G1 X140.352 Y97.867 F7800
G1 X162.372 Y100.885
G1 F1800
G1 X162.372 Y97.625 E86.56704
G1 X162.372 Y97.625 F7800
G1 X162.372 Y96.405
G1 F1800
G1 X162.372 Y91.659 E86.8841
G1 X161.776 Y90.823 E86.95269
G1 X161.776 Y101.567 E87.67045
G1 X161.447 Y102.082 E87.71128
G1 X161.181 Y102.342 E87.73613
G1 X161.181 Y90.251 E88.54387
G1 X160.586 Y89.89 E88.59036
G1 X160.586 Y103.157 E89.47667
G1 E87.47667 F2400
G92 E0
G1 X160.586 Y103.157 F7800
G1 X161.776 Y129.342
G1 E2 F2400
G1 F1800
G1 X161.776 Y126.112 E2.21578
G1 X161.518 Y125.39 E2.267
G1 X161.181 Y124.865 E2.30868
G1 X161.181 Y130.32 E2.6731
G1 E.6731 F2400
G92 E0
G1 X161.181 Y130.32 F7800
G1 X159.991 Y106.247
G1 E2 F2400
G1 F1800
G1 X159.991 Y89.624 E3.11051
G1 X159.396 Y89.429 E3.15234
G1 X159.396 Y106.968 E4.32404
G1 X158.801 Y107.763 E4.39038
G1 X158.801 Y89.361 E5.61973
G1 X158.665 Y89.345 E5.62888
G1 X158.206 Y89.017 E5.66657
G1 X158.206 Y108.307 E6.95525
G1 X157.611 Y108.667 E7.00171
G1 X157.611 Y88.698 E8.33575
G1 X157.015 Y88.44 E8.37914
G1 X157.015 Y108.913 E9.74685
G1 X156.42 Y109.099 E9.7885
G1 X156.42 Y86.704 E11.28461
G1 X155.825 Y85.725 E11.36114
G1 X155.825 Y109.393 E12.94229
G1 X155.825 Y109.393 F7800
G1 X143.923 Y133.665
G1 F1800
G1 X143.923 Y99.269 E15.24013
G1 X143.327 Y100.317 E15.32067
G1 X143.327 Y133.475 E17.5358
G1 X142.732 Y133.424 E17.57569
G1 X142.732 Y100.412 E19.78107
G1 X142.137 Y99.886 E19.83412
G1 X142.137 Y133.33 E22.06836
G1 X141.542 Y133.101 E22.11095
G1 X141.542 Y121.723 E22.87106
G1 X140.947 Y122.127 E22.91911
G1 X140.947 Y132.79 E23.63146
G1 X140.352 Y132.386 E23.67951
G1 X140.352 Y122.04 E24.37068
G1 X139.757 Y121.598 E24.4202
G1 X139.757 Y132.62 E25.15653
G1 X139.161 Y132.984 E25.20318
G1 X139.161 Y120.957 E26.00665
G1 E24.00665 F2400
G92 E0
G1 X139.161 Y120.957 F7800
G1 X141.542 Y120.772
G1 E2 F2400
G1 F1800
G1 X141.542 Y99.526 E3.41935
G1 X140.947 Y99.294 E3.46201
G1 X140.947 Y120.077 E4.85043
G1 X140.352 Y119.673 E4.89848
G1 X140.352 Y98.882 E6.28743
G1 X140.352 Y98.882 F7800
G1 X139.757 Y120.224
G1 F1800
G1 X139.757 Y86.733 E8.52481
G1 X139.161 Y86.44 E8.56918
G1 X139.161 Y120.584 E10.85018
G1 X139.161 Y120.584 F7800
G1 X138.566 Y133.49
G1 F1800
G1 X138.566 Y86.246 E14.00633
G1 X138.458 Y86.21 E14.01394
G1 X137.971 Y86.156 E14.04667
G1 X137.971 Y133.429 E17.20476
G1 X137.376 Y133.482 E17.24467
G1 X137.376 Y99.569 E19.51024
G1 X136.781 Y100.013 E19.55984
G1 X136.781 Y133.492 E21.79642
G1 X136.186 Y133.408 E21.83656
G1 X136.186 Y100.567 E24.03052
G1 X135.84 Y100.913 E24.06321
G1 X135.591 Y100.797 E24.08156
G1 X135.591 Y120.441 E25.39389
G1 X134.996 Y120.037 E25.44194
G1 X134.996 Y100.518 E26.74591
G1 X134.4 Y100.297 E26.78838
G1 X134.4 Y119.633 E28.08013
G1 X133.805 Y119.055 E28.13555
G1 X133.805 Y100.158 E29.39797
G1 X133.21 Y100.122 E29.43779
G1 X133.21 Y119.248 E30.71551
G1 X132.615 Y119.301 E30.75542
G1 X132.615 Y100.141 E32.03541
G1 X132.099 Y100.227 E32.07036
G1 X132.02 Y100.006 E32.08604
G1 X132.02 Y119.472 E33.38647
G1 X131.541 Y120.473 E33.4606
G1 X131.425 Y120.575 E33.47092
G1 X131.425 Y87.829 E35.65853
G1 X132.02 Y87.745 E35.69867
G1 X132.02 Y97.141 E36.32637
G1 X132.343 Y96.637 E36.36636
G1 X132.615 Y96.613 E36.3846
G1 X132.615 Y87.66 E36.98271
G1 X133.21 Y87.676 E37.02247
G1 X133.21 Y96.561 E37.61604
G1 X133.676 Y96.52 E37.64729
G1 X133.805 Y96.66 E37.66001
G1 X133.805 Y87.743 E38.25571
G1 X134.077 Y87.773 E38.27399
G1 X134.4 Y87.424 E38.30576
G1 X134.4 Y97.305 E38.96586
G1 X134.996 Y97.795 E39.0174
G1 X134.996 Y86.935 E39.74291
G1 X135.591 Y86.57 E39.78954
G1 X135.591 Y98.138 E40.56235
G1 X136.186 Y98.368 E40.60497
G1 X136.186 Y86.34 E41.40851
G1 X136.781 Y86.202 E41.44931
G1 X136.781 Y98.498 E42.27075
G1 X137.376 Y98.582 E42.31089
G1 X137.376 Y85.875 E43.15979
G1 X137.376 Y85.875 F7800
G1 X135.591 Y133.493
G1 F1800
G1 X135.591 Y121.21 E43.98036
G1 X134.996 Y121.614 E44.02841
G1 X134.996 Y133.003 E44.78926
G1 X134.4 Y132.599 E44.83736
G1 X134.4 Y122.051 E45.54202
G1 X133.805 Y122.701 E45.60089
G1 X133.805 Y132.07 E46.22679
G1 X133.75 Y132.015 E46.23199
G1 X133.21 Y132.062 E46.2682
G1 X133.21 Y123.232 E46.85809
G1 X132.615 Y123.183 E46.89797
G1 X132.615 Y132.114 E47.49461
G1 X132.466 Y132.127 E47.5046
G1 X132.02 Y132.064 E47.53469
G1 X132.02 Y123.148 E48.13033
G1 X131.425 Y121.686 E48.23578
G1 X131.425 Y131.98 E48.92347
G1 X131.308 Y131.964 E48.93136
G1 X130.83 Y132.655 E48.98749
G1 X130.83 Y87.31 E52.01678
G1 X130.234 Y86.73 E52.07234
G1 X130.234 Y133.232 E55.17893
G1 X129.639 Y133.612 E55.22609
G1 X129.639 Y86.331 E58.38472
G1 X129.044 Y86.032 E58.42921
G1 X129.044 Y133.895 E61.62672
G1 X128.449 Y134.089 E61.66853
