; generated by PrusaSlicer 2.4.0 on 2024-12-31 at 17:05:58 UTC

; 

; external perimeters extrusion width = 0.45mm
; perimeters extrusion width = 0.45mm
; infill extrusion width = 0.45mm
; solid infill extrusion width = 0.45mm
; top infill extrusion width = 0.40mm
; first layer extrusion width = 0.70mm

; external perimeters extrusion width = 0.45mm
; perimeters extrusion width = 0.45mm
; infill extrusion width = 0.45mm
; solid infill extrusion width = 0.45mm
; top infill extrusion width = 0.40mm
; first layer extrusion width = 0.70mm

; external perimeters extrusion width = 0.45mm
; perimeters extrusion width = 0.45mm
; infill extrusion width = 0.45mm
; solid infill extrusion width = 0.45mm
; top infill extrusion width = 0.40mm
; first layer extrusion width = 0.70mm

; external perimeters extrusion width = 0.45mm
; perimeters extrusion width = 0.45mm
; infill extrusion width = 0.45mm
; solid infill extrusion width = 0.45mm
; top infill extrusion width = 0.40mm
; first layer extrusion width = 0.70mm

; external perimeters extrusion width = 0.45mm
; perimeters extrusion width = 0.45mm
; infill extrusion width = 0.45mm
; solid infill extrusion width = 0.45mm
; top infill extrusion width = 0.40mm
; first layer extrusion width = 0.70mm

; external perimeters extrusion width = 0.45mm
; perimeters extrusion width = 0.45mm
; infill extrusion width = 0.45mm
; solid infill extrusion width = 0.45mm
; top infill extrusion width = 0.40mm
; first layer extrusion width = 0.70mm

M107
M104 S200 ; set temperature
;TYPE:Custom
G28 ; home all axes
G1 Z5 F5000 ; lift nozzle
M109 S200 ; set temperature and wait for it to be reached
G21 ; set units to millimeters
G90 ; use absolute coordinates
M82 ; use absolute distances for extrusion
G92 E0
; Filament gcode
M107
;LAYER_CHANGE
;Z:0.35
;HEIGHT:0.35
G1 Z.35 F7800
G1 E-2 F2400
G92 E0
G1 X46.786 Y18.868 F7800
G1 E2 F2400
;TYPE:Skirt/Brim
;WIDTH:0.7
G1 F1800
G1 X47.357 Y17.557 E2.13001
G1 X48.226 Y16.052 E2.28803
G1 X49.493 Y14.415 E2.47626
G1 X50.779 Y13.155 E2.63998
G1 X52.148 Y12.114 E2.79635
G1 X53.724 Y11.2 E2.96195
G1 X55.325 Y10.525 E3.11998
G1 X57.04 Y10.043 E3.28196
G1 X58.758 Y9.784 E3.43998
G1 X59.978 Y9.729 E3.55103
G1 X140.165 Y9.73 E10.8424
G1 X141.428 Y9.801 E10.9574
G1 X142.637 Y9.977 E11.06846
G1 X144.005 Y10.309 E11.19649
G1 X145.334 Y10.775 E11.32452
G1 X146.609 Y11.371 E11.45255
G1 X147.505 Y11.888 E11.54662
G1 X148.659 Y12.695 E11.67464
G1 X149.727 Y13.613 E11.80267
G1 X150.48 Y14.384 E11.9007
G1 X151.37 Y15.475 E12.02873
G1 X152.148 Y16.649 E12.15676
G1 X152.805 Y17.894 E12.28479
G1 X153.335 Y19.199 E12.41283
G1 X153.732 Y20.549 E12.54085
G1 X153.993 Y21.933 E12.66888
G1 X154.096 Y22.962 E12.76295
G1 X154.123 Y170.187 E26.15002
G1 X153.998 Y171.88 E26.30442
G1 X153.741 Y173.264 E26.43234
G1 X153.335 Y174.654 E26.5641
G1 X152.643 Y176.296 E26.72608
G1 X151.774 Y177.801 E26.88409
G1 X150.506 Y179.439 E27.07242
G1 X149.221 Y180.698 E27.23605
G1 X147.852 Y181.739 E27.39241
G1 X146.296 Y182.643 E27.55604
G1 X144.675 Y183.328 E27.71604
G1 X142.96 Y183.81 E27.87802
G1 X140.887 Y184.096 E28.06832
G1 X59.835 Y184.123 E35.43836
G1 X58.429 Y184.036 E35.5664
G1 X56.675 Y183.727 E35.72838
G1 X55.015 Y183.215 E35.8864
G1 X53.724 Y182.653 E36.01443
G1 X52.181 Y181.762 E36.17641
G1 X50.515 Y180.465 E36.36836
G1 X49.302 Y179.221 E36.52638
G1 X48.226 Y177.801 E36.68837
G1 X47.203 Y175.975 E36.87866
G1 X46.56 Y174.341 E37.03833
G1 X46.07 Y172.33 E37.22655
G1 X45.887 Y170.539 E37.39027
G1 X45.877 Y23.666 E50.74537
G1 X45.966 Y22.261 E50.87341
G1 X46.268 Y20.549 E51.03143
G1 X46.768 Y18.925 E51.18597
G1 E49.18597 F2400
G92 E0
G1 X62.983 Y169.796 F7800
G1 E2 F2400
;TYPE:External perimeter
;WIDTH:0.243405
G1 F1800
G1 X62.861 Y169.929 E2.00442
;WIDTH:0.243406
G1 X62.839 Y169.973 E2.00562
;WIDTH:0.23718
G1 X62.835 Y169.98 E2.00582
;WIDTH:0.236539
G1 X62.833 Y170.034 E2.00708
;WIDTH:0.228392
G1 X62.845 Y170.059 E2.00769
;WIDTH:0.229926
G1 X62.856 Y170.076 E2.00816
;WIDTH:0.229925
G1 X62.966 Y170.2 E2.01188
G1 X62.969 Y170.575 F7800
;WIDTH:0.262559
G1 F1800
G1 X62.812 Y170.666 E2.01683
;WIDTH:0.265025
G1 X62.804 Y170.673 E2.01713
;WIDTH:0.280299
G1 X62.779 Y170.7 E2.01823
;WIDTH:0.294414
G1 X62.766 Y170.739 E2.01954
;WIDTH:0.295859
G1 X62.766 Y170.75 E2.01989
;WIDTH:0.300893
G1 X62.766 Y170.777 E2.02079
;WIDTH:0.300893
G1 X62.777 Y170.816 E2.02212
;WIDTH:0.29017
G1 X62.863 Y170.989 E2.02817
G1 X62.252 Y171.964 F7800
;WIDTH:0.236526
G1 F1800
G1 X62.072 Y171.97 E2.0324
;WIDTH:0.236527
G1 X62.04 Y171.979 E2.03319
;WIDTH:0.232087
G1 X62.023 Y171.984 E2.03359
;WIDTH:0.233451
G1 X61.981 Y172.03 E2.03503
;WIDTH:0.234133
G1 X61.978 Y172.039 E2.03525
;WIDTH:0.237761
G1 X61.97 Y172.066 E2.0359
;WIDTH:0.23776
G1 X61.956 Y172.238 E2.04
G1 X61.693 Y172.506 F7800
;WIDTH:0.262518
G1 F1800
G1 X61.518 Y172.459 E2.04495
;WIDTH:0.264979
G1 X61.507 Y172.459 E2.04524
;WIDTH:0.280268
G1 X61.47 Y172.46 E2.04634
;WIDTH:0.2944
G1 X61.433 Y172.478 E2.04765
;WIDTH:0.295843
G1 X61.426 Y172.486 E2.048
;WIDTH:0.300883
G1 X61.407 Y172.506 E2.04891
;WIDTH:0.300882
G1 X61.386 Y172.54 E2.05024
;WIDTH:0.290155
G1 X61.325 Y172.724 E2.05629
G1 X60.204 Y172.981 F7800
;WIDTH:0.236538
G1 F1800
G1 X60.072 Y172.858 E2.06052
;WIDTH:0.236539
G1 X60.043 Y172.841 E2.0613
;WIDTH:0.232144
G1 X60.028 Y172.834 E2.0617
;WIDTH:0.23301
G1 X59.966 Y172.836 E2.06312
;WIDTH:0.233433
G1 X59.957 Y172.841 E2.06336
;WIDTH:0.237221
G1 X59.926 Y172.859 E2.0642
;WIDTH:0.237222
G1 X59.8 Y172.968 E2.06814
G1 X59.425 Y172.969 F7800
;WIDTH:0.262538
G1 F1800
G1 X59.334 Y172.812 E2.07309
;WIDTH:0.265004
G1 X59.327 Y172.804 E2.07338
;WIDTH:0.28028
G1 X59.3 Y172.779 E2.07448
;WIDTH:0.294401
G1 X59.261 Y172.766 E2.07579
;WIDTH:0.295846
G1 X59.25 Y172.766 E2.07614
;WIDTH:0.300883
G1 X59.223 Y172.766 E2.07705
;WIDTH:0.300883
G1 X59.184 Y172.777 E2.07838
;WIDTH:0.290159
G1 X59.011 Y172.863 E2.08443
G1 X58.016 Y172.023 F7800
;WIDTH:0.230228
G1 F1800
G1 X57.972 Y171.977 E2.08586
G1 X57.494 Y171.693 F7800
;WIDTH:0.262549
G1 F1800
G1 X57.541 Y171.518 E2.09081
;WIDTH:0.265022
G1 X57.541 Y171.507 E2.09111
;WIDTH:0.280281
G1 X57.54 Y171.47 E2.0922
;WIDTH:0.29439
G1 X57.522 Y171.433 E2.09352
;WIDTH:0.29584
G1 X57.514 Y171.426 E2.09387
;WIDTH:0.300871
G1 X57.494 Y171.407 E2.09477
;WIDTH:0.300871
G1 X57.46 Y171.386 E2.0961
;WIDTH:0.290146
G1 X57.276 Y171.325 E2.10215
G1 X57.169 Y170.02 F7800
;WIDTH:0.228616
G1 F1800
G1 X57.168 Y169.966 E2.10337
G1 X57.031 Y169.425 F7800
;WIDTH:0.26257
G1 F1800
G1 X57.188 Y169.334 E2.10832
;WIDTH:0.265037
G1 X57.196 Y169.327 E2.10862
;WIDTH:0.280302
G1 X57.221 Y169.3 E2.10972
;WIDTH:0.294409
G1 X57.234 Y169.261 E2.11103
;WIDTH:0.295857
G1 X57.234 Y169.25 E2.11138
;WIDTH:0.300889
G1 X57.234 Y169.223 E2.11228
;WIDTH:0.30089
G1 X57.223 Y169.184 E2.11361
;WIDTH:0.290168
G1 X57.137 Y169.011 E2.11967
G1 X57.977 Y168.016 F7800
;WIDTH:0.230228
G1 F1800
G1 X58.023 Y167.972 E2.1211
G1 X58.307 Y167.494 F7800
;WIDTH:0.26252
G1 F1800
G1 X58.482 Y167.541 E2.12605
;WIDTH:0.264984
G1 X58.493 Y167.541 E2.12634
;WIDTH:0.280264
G1 X58.53 Y167.54 E2.12744
;WIDTH:0.294396
G1 X58.567 Y167.522 E2.12876
;WIDTH:0.295841
G1 X58.574 Y167.514 E2.1291
;WIDTH:0.300878
G1 X58.593 Y167.494 E2.13001
;WIDTH:0.300879
G1 X58.614 Y167.46 E2.13134
;WIDTH:0.290151
G1 X58.675 Y167.276 E2.13739
G1 X59.796 Y167.019 F7800
;WIDTH:0.23654
G1 F1800
G1 X59.928 Y167.142 E2.14162
;WIDTH:0.236538
G1 X59.972 Y167.167 E2.14282
;WIDTH:0.229828
G1 X60.071 Y167.195 E2.14513
G1 X60.575 Y167.025 F7800
;WIDTH:0.279781
G1 F1800
G1 X60.674 Y167.184 E2.15071
;WIDTH:0.288081
G1 X60.694 Y167.205 E2.15161
;WIDTH:0.293385
G1 X60.704 Y167.216 E2.15208
;WIDTH:0.299236
G1 X60.739 Y167.232 E2.15334
;WIDTH:0.300259
G1 X60.774 Y167.234 E2.15447
;WIDTH:0.300884
G1 X60.777 Y167.234 E2.15458
;WIDTH:0.300886
G1 X60.816 Y167.223 E2.15591
;WIDTH:0.290163
G1 X60.989 Y167.137 E2.16196
G1 X61.965 Y167.747 F7800
;WIDTH:0.243428
G1 F1800
G1 X61.974 Y167.927 E2.16638
;WIDTH:0.243429
G1 X61.988 Y167.973 E2.16757
;WIDTH:0.237147
G1 X61.991 Y167.982 E2.16779
;WIDTH:0.236485
G1 X62.028 Y168.021 E2.16906
;WIDTH:0.228613
G1 X62.053 Y168.03 E2.16965
;WIDTH:0.230246
G1 X62.066 Y168.033 E2.16995
;WIDTH:0.230247
G1 X62.236 Y168.045 E2.17381
G1 X62.506 Y168.307 F7800
;WIDTH:0.262551
G1 F1800
G1 X62.459 Y168.482 E2.17876
;WIDTH:0.265033
G1 X62.459 Y168.493 E2.17906
;WIDTH:0.280277
G1 X62.46 Y168.53 E2.18015
;WIDTH:0.294376
G1 X62.478 Y168.567 E2.18147
;WIDTH:0.295829
G1 X62.486 Y168.575 E2.18182
;WIDTH:0.30086
G1 X62.506 Y168.593 E2.18272
;WIDTH:0.300859
G1 X62.541 Y168.614 E2.18405
;WIDTH:0.29013
G1 X62.724 Y168.675 E2.1901
G1 E.1901 F2400
G92 E0
G1 X137.276 Y171.325 F7800
G1 E2 F2400
;WIDTH:0.29017
G1 F1800
G1 X137.46 Y171.386 E2.00605
;WIDTH:0.300893
G1 X137.494 Y171.407 E2.00738
;WIDTH:0.300895
G1 X137.514 Y171.426 E2.00829
;WIDTH:0.29586
G1 X137.522 Y171.433 E2.00863
;WIDTH:0.294415
G1 X137.54 Y171.47 E2.00995
;WIDTH:0.280293
G1 X137.541 Y171.507 E2.01105
;WIDTH:0.265026
G1 X137.541 Y171.518 E2.01134
;WIDTH:0.262563
G1 X137.494 Y171.693 E2.01629
G1 X137.972 Y171.978 F7800
;WIDTH:0.230322
G1 F1800
G1 X138.016 Y172.023 E2.01771
G1 X139.011 Y172.863 F7800
;WIDTH:0.290139
G1 F1800
G1 X139.184 Y172.777 E2.02376
;WIDTH:0.30087
G1 X139.223 Y172.766 E2.02509
;WIDTH:0.300869
G1 X139.25 Y172.766 E2.026
;WIDTH:0.295834
G1 X139.261 Y172.766 E2.02635
;WIDTH:0.294386
G1 X139.3 Y172.779 E2.02766
;WIDTH:0.280267
G1 X139.327 Y172.804 E2.02876
;WIDTH:0.265005
G1 X139.334 Y172.812 E2.02906
;WIDTH:0.262538
G1 X139.425 Y172.969 E2.03401
G1 X139.8 Y172.968 F7800
;WIDTH:0.237211
G1 F1800
G1 X139.926 Y172.859 E2.03794
;WIDTH:0.23721
G1 X139.957 Y172.841 E2.03878
;WIDTH:0.233424
G1 X139.967 Y172.835 E2.03905
;WIDTH:0.233033
G1 X140.02 Y172.832 E2.04027
;WIDTH:0.230907
G1 X140.043 Y172.842 E2.04084
;WIDTH:0.236177
G1 X140.073 Y172.859 E2.04165
;WIDTH:0.236176
G1 X140.204 Y172.981 E2.04584
G1 X141.325 Y172.724 F7800
;WIDTH:0.290128
G1 F1800
G1 X141.386 Y172.54 E2.05189
;WIDTH:0.300853
G1 X141.407 Y172.506 E2.05322
;WIDTH:0.300851
G1 X141.426 Y172.486 E2.05413
;WIDTH:0.295822
G1 X141.433 Y172.478 E2.05447
;WIDTH:0.294374
G1 X141.47 Y172.46 E2.05579
;WIDTH:0.280258
G1 X141.507 Y172.459 E2.05689
;WIDTH:0.265014
G1 X141.518 Y172.459 E2.05718
;WIDTH:0.262536
G1 X141.693 Y172.506 E2.06213
G1 X141.957 Y172.24 F7800
;WIDTH:0.237224
G1 F1800
G1 X141.969 Y172.074 E2.06607
;WIDTH:0.237225
G1 X141.978 Y172.04 E2.06691
;WIDTH:0.23344
G1 X141.981 Y172.03 E2.06715
;WIDTH:0.233016
G1 X142.023 Y171.984 E2.06857
;WIDTH:0.232141
G1 X142.04 Y171.979 E2.06897
;WIDTH:0.236537
G1 X142.072 Y171.97 E2.06975
;WIDTH:0.236538
G1 X142.252 Y171.964 E2.07398
G1 X142.863 Y170.989 F7800
;WIDTH:0.29015
G1 F1800
G1 X142.777 Y170.816 E2.08003
;WIDTH:0.300873
G1 X142.766 Y170.777 E2.08136
;WIDTH:0.300874
G1 X142.766 Y170.75 E2.08227
;WIDTH:0.295837
G1 X142.766 Y170.739 E2.08261
;WIDTH:0.294391
G1 X142.779 Y170.7 E2.08393
;WIDTH:0.280273
G1 X142.804 Y170.673 E2.08503
;WIDTH:0.265005
G1 X142.812 Y170.666 E2.08532
;WIDTH:0.262537
G1 X142.969 Y170.575 E2.09027
G1 X142.832 Y170.034 F7800
;WIDTH:0.228546
G1 F1800
G1 X142.831 Y169.98 E2.09149
G1 X142.724 Y168.675 F7800
;WIDTH:0.290163
G1 F1800
G1 X142.54 Y168.614 E2.09754
;WIDTH:0.300887
G1 X142.506 Y168.593 E2.09887
;WIDTH:0.300886
G1 X142.486 Y168.574 E2.09977
;WIDTH:0.295856
G1 X142.478 Y168.567 E2.10012
;WIDTH:0.294408
G1 X142.46 Y168.53 E2.10143
;WIDTH:0.280288
G1 X142.459 Y168.493 E2.10253
;WIDTH:0.265035
G1 X142.459 Y168.482 E2.10283
;WIDTH:0.262564
G1 X142.506 Y168.307 E2.10778
G1 X142.236 Y168.045 F7800
;WIDTH:0.230257
G1 F1800
G1 X142.066 Y168.033 E2.11164
;WIDTH:0.230255
G1 X142.053 Y168.03 E2.11194
;WIDTH:0.228441
G1 X142.029 Y168.022 E2.11251
;WIDTH:0.238742
G1 X141.987 Y167.975 E2.114
;WIDTH:0.238853
G1 X141.987 Y167.974 E2.11403
;WIDTH:0.243793
G1 X141.974 Y167.928 E2.1152
;WIDTH:0.243793
G1 X141.965 Y167.747 E2.11965
G1 X140.989 Y167.137 F7800
;WIDTH:0.290152
G1 F1800
G1 X140.816 Y167.223 E2.12571
;WIDTH:0.300884
G1 X140.777 Y167.234 E2.12704
;WIDTH:0.300884
G1 X140.774 Y167.234 E2.12715
;WIDTH:0.300261
G1 X140.739 Y167.232 E2.12827
;WIDTH:0.299228
G1 X140.704 Y167.216 E2.12953
;WIDTH:0.293373
G1 X140.694 Y167.205 E2.13001
;WIDTH:0.288062
G1 X140.674 Y167.184 E2.1309
;WIDTH:0.27977
G1 X140.575 Y167.025 E2.13649
G1 X140.071 Y167.195 F7800
;WIDTH:0.22982
G1 F1800
G1 X139.972 Y167.167 E2.1388
;WIDTH:0.236529
G1 X139.928 Y167.142 E2.13999
;WIDTH:0.236531
G1 X139.796 Y167.019 E2.14422
G1 X138.675 Y167.276 F7800
;WIDTH:0.290131
G1 F1800
G1 X138.614 Y167.46 E2.15028
;WIDTH:0.300854
G1 X138.593 Y167.494 E2.15161
;WIDTH:0.300855
G1 X138.574 Y167.514 E2.15251
;WIDTH:0.295825
G1 X138.567 Y167.522 E2.15286
;WIDTH:0.294377
G1 X138.53 Y167.54 E2.15417
;WIDTH:0.280264
G1 X138.493 Y167.541 E2.15527
;WIDTH:0.265018
G1 X138.482 Y167.541 E2.15557
;WIDTH:0.262543
G1 X138.307 Y167.494 E2.16052
G1 X138.022 Y167.972 F7800
;WIDTH:0.230304
G1 F1800
G1 X137.977 Y168.016 E2.16194
G1 X137.137 Y169.011 F7800
;WIDTH:0.290134
G1 F1800
G1 X137.223 Y169.184 E2.16799
;WIDTH:0.300858
G1 X137.234 Y169.223 E2.16932
;WIDTH:0.300857
G1 X137.234 Y169.25 E2.17022
;WIDTH:0.295819
G1 X137.234 Y169.261 E2.17057
;WIDTH:0.294371
G1 X137.221 Y169.3 E2.17188
;WIDTH:0.280259
G1 X137.196 Y169.327 E2.17298
;WIDTH:0.264999
G1 X137.188 Y169.334 E2.17328
;WIDTH:0.262525
G1 X137.031 Y169.425 E2.17823
G1 X137.168 Y169.966 F7800
;WIDTH:0.228546
G1 F1800
G1 X137.169 Y170.02 E2.17944
G1 E.17944 F2400
G92 E0
G1 X93.588 Y172.195 F7800
G1 E2 F2400
;WIDTH:0.7
G1 F1800
G1 X93.954 Y172.149 E2.03353
G1 X94.322 Y172.176 E2.06706
G1 X94.677 Y172.276 E2.10059
G1 X95.005 Y172.444 E2.13412
G1 X95.293 Y172.674 E2.16765
G1 X95.53 Y172.957 E2.20118
G1 X95.706 Y173.281 E2.23471
G1 X95.814 Y173.629 E2.26786
G1 X95.849 Y173.916 E2.29413
G1 X95.831 Y174.276 E2.32694
G1 X95.74 Y174.633 E2.36046
G1 X95.58 Y174.966 E2.39399
G1 X95.357 Y175.26 E2.42751
G1 X95.081 Y175.504 E2.46105
G1 X94.762 Y175.688 E2.49458
G1 X94.412 Y175.805 E2.52811
G1 X94.046 Y175.851 E2.56164
G1 X93.678 Y175.824 E2.59517
G1 X93.323 Y175.724 E2.6287
G1 X92.995 Y175.556 E2.66223
G1 X92.707 Y175.326 E2.69576
G1 X92.47 Y175.043 E2.72929
G1 X92.294 Y174.719 E2.76282
G1 X92.186 Y174.371 E2.79597
G1 X92.151 Y174.084 E2.82223
G1 X92.169 Y173.724 E2.85505
G1 X92.26 Y173.367 E2.88856
G1 X92.42 Y173.034 E2.92209
G1 X92.643 Y172.74 E2.95562
G1 X92.919 Y172.496 E2.98915
G1 X93.238 Y172.312 E3.02268
G1 X93.531 Y172.214 E3.05076
G1 X93.697 Y171.842 F7800
G1 E1.05076 F2400
G92 E0
G1 X85.588 Y164.195 F7800
G1 E2 F2400
G1 F1800
G1 X85.954 Y164.149 E2.03353
G1 X86.322 Y164.176 E2.06706
G1 X86.677 Y164.276 E2.10059
G1 X87.005 Y164.444 E2.13412
G1 X87.293 Y164.674 E2.16765
G1 X87.53 Y164.957 E2.20118
G1 X87.706 Y165.281 E2.23471
G1 X87.814 Y165.629 E2.26786
G1 X87.849 Y165.916 E2.29413
G1 X87.831 Y166.276 E2.32694
G1 X87.74 Y166.633 E2.36045
G1 X87.58 Y166.966 E2.39398
G1 X87.357 Y167.26 E2.42751
G1 X87.081 Y167.504 E2.46104
G1 X86.762 Y167.688 E2.49457
G1 X86.412 Y167.805 E2.52811
G1 X86.046 Y167.851 E2.56164
G1 X85.678 Y167.824 E2.59517
G1 X85.323 Y167.724 E2.62869
G1 X84.995 Y167.556 E2.66223
G1 X84.707 Y167.326 E2.69576
G1 X84.47 Y167.043 E2.72928
G1 X84.294 Y166.719 E2.76282
G1 X84.186 Y166.371 E2.79597
G1 X84.151 Y166.084 E2.82223
G1 X84.169 Y165.724 E2.85504
G1 X84.26 Y165.367 E2.88856
G1 X84.42 Y165.034 E2.92209
G1 X84.643 Y164.74 E2.95562
G1 X84.919 Y164.496 E2.98915
G1 X85.238 Y164.312 E3.02268
G1 X85.531 Y164.214 E3.05076
G1 X85.697 Y163.842 F7800
G1 E1.05076 F2400
G92 E0
G1 X60.05 Y165.302 F7800
G1 E2 F2400
;TYPE:Perimeter
G1 F1800
G1 X60.291 Y165.236 E2.02272
G1 X61.15 Y165.387 E2.10206
G1 X61.233 Y165.453 E2.11167
G1 X61.38 Y165.435 E2.12512
G1 X62.186 Y165.769 E2.20448
G1 X62.337 Y165.932 E2.22467
G1 X62.844 Y166.161 E2.27528
G1 X63.467 Y166.804 E2.35668
G1 X63.713 Y166.994 E2.3849
G1 X64.118 Y167.681 E2.45742
G1 X64.203 Y167.748 E2.46727
G1 X64.546 Y168.576 E2.54879
G1 X64.533 Y168.786 E2.56788
G1 X64.726 Y169.297 E2.61758
G1 X64.711 Y170.192 E2.69897
G1 X64.751 Y170.5 E2.72719
G1 X64.552 Y171.272 E2.79972
