; generated by PrusaSlicer 2.8.1+linux-x64-GTK3 on 2024-11-04 at 10:23:25 UTC

; 

; external perimeters extrusion width = 0.45mm
; perimeters extrusion width = 0.45mm
; infill extrusion width = 0.45mm
; solid infill extrusion width = 0.45mm
; top infill extrusion width = 0.40mm
; support material extrusion width = 0.40mm
; first layer extrusion width = 0.60mm

M190 S60 ; set bed temperature and wait for it to be reached
M104 S200 ; set temperature
;TYPE:Custom
G28 ; home all axes
G1 Z5 F5000 ; lift nozzle
M109 S200 ; set temperature and wait for it to be reached
G21 ; set units to millimeters
G90 ; use absolute coordinates
M82 ; use absolute distances for extrusion
G92 E0
; Filament gcode
M107
;LAYER_CHANGE
;Z:0.3
;HEIGHT:0.3
G1 E-2 F2400
G1 Z.3 F7800
G1 X57.503 Y24.964
G1 E0 F2400
;TYPE:Skirt/Brim
;WIDTH:0.6
G1 F1800
G1 X58.139 Y23.748 E.09168
G1 X58.914 Y22.574 E.18566
G1 X59.782 Y21.511 E.27734
G1 X60.751 Y20.539 E.36903
G1 X61.813 Y19.669 E.46074
G1 X62.955 Y18.909 E.55238
G1 X64.137 Y18.281 E.6418
G1 X65.145 Y17.854 E.71493
G1 X66.434 Y17.44 E.80537
G1 X67.775 Y17.151 E.89701
G1 X69.981 Y16.969 E1.04488
G1 X150.156 Y16.971 E6.401
G1 X151.526 Y17.055 E6.4927
G1 X152.848 Y17.268 E6.58216
G1 X154.04 Y17.575 E6.66439
G1 X155.186 Y17.984 E6.74568
G1 X156.43 Y18.564 E6.83737
G1 X157.597 Y19.256 E6.92801
G1 X158.436 Y19.858 E6.997
G1 X159.478 Y20.752 E7.08872
G1 X160.31 Y21.613 E7.16871
G1 X161.086 Y22.574 E7.25123
G1 X161.843 Y23.718 E7.34287
G1 X162.475 Y24.915 E7.4333
G1 X162.994 Y26.19 E7.52526
G1 X163.294 Y27.159 E7.59303
G1 X163.584 Y28.5 E7.68469
G1 X163.736 Y29.829 E7.77405
G1 X163.765 Y30.909 E7.84623
G1 X163.68 Y32.278 E7.93786
G1 X163.458 Y33.633 E8.02959
G1 X163.209 Y34.615 E8.09727
G1 X162.757 Y35.911 E8.18896
G1 X162.179 Y37.156 E8.28066
G1 X161.497 Y38.308 E8.3701
G1 X160.86 Y39.197 E8.44316
G1 X159.249 Y40.934 E8.60143
G1 X158.187 Y41.804 E8.69314
G1 X157.073 Y42.547 E8.7826
G1 X156.13 Y43.063 E8.85441
G1 X154.872 Y43.612 E8.94611
G1 X153.548 Y44.038 E9.03903
G1 X152.225 Y44.322 E9.12943
G1 X150 Y44.504 E9.27857
G1 X70 Y44.504 E14.623
G1 X68.474 Y44.418 E14.72511
G1 X66.452 Y44.038 E14.86256
G1 X65.439 Y43.726 E14.93337
G1 X64.182 Y43.213 E15.02407
G1 X62.144 Y42.041 E15.18113
G1 X60.522 Y40.721 E15.32084
G1 X59.14 Y39.197 E15.45828
G1 X58.521 Y38.336 E15.52912
G1 X57.83 Y37.172 E15.61955
G1 X57.001 Y35.269 E15.75822
G1 X56.416 Y32.973 E15.91651
G1 X56.261 Y31.609 E16.00822
G1 X56.242 Y30.237 E16.09989
G1 X56.356 Y28.904 E16.18927
G1 X56.607 Y27.554 E16.281
G1 X56.99 Y26.236 E16.37269
G1 X57.48 Y25.019 E16.46033
G1 E14.46033 F2400
G92 E0
G1 X57.48 Y25.019 F7800
G92 E0
G1 X106.313 Y34.526
G1 E2 F2400
;TYPE:Perimeter
;WIDTH:0.6
G1 F1800
G1 X106.332 Y34.816 E2.01942
G1 X106.27 Y35.277 E2.05049
G1 X106.118 Y35.716 E2.08153
G1 X105.882 Y36.116 E2.11256
G1 X105.571 Y36.462 E2.14364
G1 X105.198 Y36.739 E2.17468
G1 X104.926 Y36.878 E2.19509
G1 X104.701 Y36.933 E2.21056
;WIDTH:0.568399
G1 X104.476 Y36.988 E2.22512
;WIDTH:0.536799
G1 X103.734 Y37.003 E2.26885
;WIDTH:0.545649
G1 X103.479 Y36.966 E2.28432
;WIDTH:0.583168
G1 X103.225 Y36.928 E2.30094
;WIDTH:0.6
G1 X102.802 Y36.739 E2.33189
G1 X102.315 Y36.35 E2.37353
G1 X102.028 Y35.984 E2.4046
G1 X101.82 Y35.568 E2.43567
G1 X101.699 Y35.12 E2.46667
G1 X101.668 Y34.656 E2.49774
G1 X101.73 Y34.196 E2.52875
G1 X101.882 Y33.757 E2.55979
G1 X102.145 Y33.325 E2.59358
G1 X102.429 Y33.011 E2.62186
G1 X102.856 Y32.709 E2.6568
G1 X103.347 Y32.502 E2.6924
G1 X103.862 Y32.407 E2.72739
G1 X104.484 Y32.454 E2.76906
G1 X104.926 Y32.595 E2.80005
G1 X105.332 Y32.821 E2.83109
G1 X105.685 Y33.123 E2.86212
G1 X105.972 Y33.489 E2.89319
G1 X106.18 Y33.904 E2.9242
G1 X106.301 Y34.353 E2.95527
G1 X106.309 Y34.466 E2.96284
G1 X106.309 Y34.466 F7800
G1 X105.782 Y34.565
;TYPE:External perimeter
G1 F1800
G1 X105.799 Y34.763 E2.97612
G1 X105.758 Y35.119 E3.00006
G1 X105.647 Y35.46 E3.02402
G1 X105.471 Y35.772 E3.04795
G1 X105.237 Y36.043 E3.07187
G1 X104.954 Y36.262 E3.09578
G1 X104.682 Y36.401 E3.11619
G1 X104.267 Y36.513 E3.14491
G1 X103.734 Y36.513 E3.18052
G1 X103.318 Y36.401 E3.2093
G1 X103.002 Y36.233 E3.23321
G1 X102.725 Y36.006 E3.25714
G1 X102.499 Y35.728 E3.28107
G1 X102.332 Y35.411 E3.30501
G1 X102.232 Y35.067 E3.32894
G1 X102.201 Y34.71 E3.35288
G1 X102.289 Y34.203 E3.38726
G1 X102.499 Y33.745 E3.42092
G1 X102.763 Y33.43 E3.44838
G1 X103.064 Y33.203 E3.47357
G1 X103.555 Y32.996 E3.50917
G1 X103.982 Y32.938 E3.53796
G1 X104.339 Y32.97 E3.56191
G1 X104.682 Y33.072 E3.58582
G1 X104.998 Y33.24 E3.60973
G1 X105.275 Y33.467 E3.63366
G1 X105.501 Y33.745 E3.65759
G1 X105.668 Y34.062 E3.68153
G1 X105.768 Y34.406 E3.70546
G1 X105.777 Y34.506 E3.71217
G1 X105.776 Y34.906 F7800
G1 E1.71217 F2400
G92 E0
G1 X96.303 Y24.472 F7800
G1 E2 F2400
;TYPE:Perimeter
;WIDTH:0.508767
G1 F1800
G1 X96.323 Y24.472 E2.00111
;WIDTH:0.554024
G1 X96.55 Y24.504 E2.01511
;WIDTH:0.6
G1 X96.777 Y24.537 E2.03043
G1 X97.332 Y24.821 E2.07208
G1 X97.685 Y25.123 E2.10311
G1 X97.998 Y25.542 E2.13805
G1 X98.217 Y26.028 E2.17366
G1 X98.325 Y26.54 E2.20862
G1 X98.294 Y27.163 E2.25029
G1 X98.164 Y27.609 E2.28133
G1 X97.948 Y28.021 E2.31241
G1 X97.655 Y28.381 E2.34342
G1 X97.296 Y28.676 E2.37446
G1 X96.886 Y28.895 E2.40551
G1 X96.441 Y29.028 E2.43654
G1 X95.978 Y29.07 E2.4676
G1 X95.516 Y29.019 E2.49865
G1 X95.074 Y28.878 E2.52964
G1 X94.668 Y28.652 E2.56068
G1 X94.315 Y28.35 E2.59171
G1 X94.028 Y27.984 E2.62278
G1 X93.82 Y27.569 E2.65379
G1 X93.699 Y27.12 E2.68486
G1 X93.668 Y26.656 E2.71593
G1 X93.73 Y26.196 E2.74694
G1 X93.882 Y25.757 E2.77798
G1 X94.118 Y25.357 E2.80901
G1 X94.429 Y25.011 E2.84009
G1 X94.802 Y24.734 E2.87113
G1 X95.281 Y24.523 E2.9061
G1 X95.547 Y24.492 E2.92399
;WIDTH:0.554383
G1 X95.812 Y24.462 E2.94029
;WIDTH:0.508767
G1 X96.243 Y24.47 E2.96418
G1 X96.243 Y24.47 F7800
G1 X96.23 Y24.958
;TYPE:External perimeter
;WIDTH:0.6
G1 F1800
G1 X96.286 Y24.96 E2.96792
G1 X96.682 Y25.072 E2.99541
G1 X96.998 Y25.24 E3.01932
G1 X97.275 Y25.467 E3.04325
G1 X97.51 Y25.763 E3.0685
G1 X97.729 Y26.248 E3.10405
G1 X97.798 Y26.673 E3.13281
G1 X97.743 Y27.154 E3.16515
G1 X97.627 Y27.489 E3.18883
G1 X97.435 Y27.811 E3.21388
G1 X97.072 Y28.181 E3.24851
G1 X96.716 Y28.387 E3.27599
G1 X96.374 Y28.496 E3.29997
G1 X96.018 Y28.535 E3.32389
G1 X95.661 Y28.503 E3.34784
G1 X95.318 Y28.401 E3.37175
G1 X95.002 Y28.233 E3.39566
G1 X94.725 Y28.006 E3.41959
G1 X94.499 Y27.728 E3.44352
G1 X94.332 Y27.411 E3.46746
G1 X94.232 Y27.067 E3.49139
G1 X94.201 Y26.71 E3.51533
G1 X94.242 Y26.354 E3.53927
G1 X94.353 Y26.013 E3.56323
G1 X94.529 Y25.701 E3.58716
G1 X94.763 Y25.43 E3.61108
G1 X95.046 Y25.211 E3.63499
G1 X95.387 Y25.048 E3.66024
G1 X95.909 Y24.942 E3.69582
G1 X96.17 Y24.955 E3.71328
G1 X96.561 Y25.041 F7800
G1 E1.71328 F2400
G92 E0
G1 X68.866 Y35.05 F7800
G1 E2 F2400
;TYPE:Perimeter
G1 F1800
G1 X68.822 Y35.034 E2.00313
G1 X68.428 Y34.969 E2.02981
G1 X68.06 Y34.809 E2.05662
G1 X67.343 Y34.371 E2.11275
G1 X67.082 Y34.163 E2.13505
G1 X66.719 Y33.785 E2.17006
G1 X66.465 Y33.555 E2.19295
G1 X66.214 Y33.11 E2.22708
G1 X66.177 Y32.986 E2.23572
G1 X66.02 Y32.816 E2.25118
G1 X65.841 Y32.498 E2.27556
G1 X65.713 Y31.91 E2.31576
G1 X65.61 Y31.68 E2.3326
G1 X65.513 Y31.083 E2.37301
G1 X65.524 Y30.103 E2.43848
G1 X65.666 Y29.696 E2.46728
G1 X65.795 Y29.087 E2.50887
G1 X66.069 Y28.623 E2.54487
G1 X66.303 Y28.168 E2.57905
G1 X66.62 Y27.77 E2.61304
G1 X66.909 Y27.521 E2.63852
G1 X67.144 Y27.235 E2.66325
G1 X67.399 Y27.051 E2.68426
G1 X67.794 Y26.865 E2.71343
G1 X68.147 Y26.618 E2.74221
G1 X69.15 Y26.319 E2.81213
G1 X69.613 Y26.247 E2.84343
G1 X70.599 Y26.259 E2.9093
G1 X71.104 Y26.411 E2.94453
G1 X71.672 Y26.54 E2.98344
G1 X72.102 Y26.773 E3.01611
G1 X72.274 Y26.897 E3.03028
G1 X72.63 Y27.082 E3.05708
G1 X73.047 Y27.444 E3.09397
G1 X73.208 Y27.641 E3.11097
G1 X73.577 Y27.971 E3.14404
G1 X73.8 Y28.407 E3.17676
G1 X74.148 Y28.947 E3.21968
G1 X74.449 Y30.045 E3.29574
G1 X74.482 Y30.55 E3.32955
G1 X74.44 Y30.766 E3.34425
G1 X74.495 Y31.065 E3.36456
G1 X74.473 Y31.386 E3.38605
G1 X74.334 Y31.776 E3.41371
G1 X74.196 Y32.409 E3.45699
G1 X73.95 Y32.855 E3.49102
G1 X73.848 Y32.985 E3.50206
G1 X73.635 Y33.393 E3.53281
G1 X73.289 Y33.784 E3.56769
G1 X73.096 Y33.944 E3.58444
G1 X72.767 Y34.313 E3.61747
G1 X72.329 Y34.537 E3.65034
G1 X72.117 Y34.687 E3.66769
G1 X71.53 Y34.963 E3.71102
G1 X70.747 Y35.177 E3.76525
G1 X70.309 Y35.224 E3.79468
G1 X69.911 Y35.196 E3.82133
G1 X69.535 Y35.231 E3.84656
G1 X69.032 Y35.107 E3.88117
G1 X68.923 Y35.069 E3.88888
G1 X68.923 Y35.069 F7800
G1 X68.702 Y34.46
G1 F1800
G1 X68.533 Y34.438 E3.90027
G1 X68.216 Y34.268 E3.9243
G1 X68.072 Y34.101 E3.93903
G1 X67.756 Y34.004 E3.96111
G1 X67.446 Y33.77 E3.98706
G1 X67.27 Y33.533 E4.00678
G1 X67.245 Y33.46 E4.01193
G1 X66.983 Y33.314 E4.03197
G1 X66.82 Y33.139 E4.04795
G1 X66.648 Y32.685 E4.08038
G1 X66.447 Y32.493 E4.09895
G1 X66.299 Y32.163 E4.12311
G1 X66.246 Y31.858 E4.14379
G1 X66.268 Y31.741 E4.15174
G1 X66.149 Y31.587 E4.16474
G1 X66.055 Y31.151 E4.19454
G1 X66.066 Y30.878 E4.21279
G1 X66.126 Y30.714 E4.22446
G1 X66.043 Y30.415 E4.24519
G1 X66.051 Y30.196 E4.25983
G1 X66.231 Y29.779 E4.29017
G1 X66.293 Y29.283 E4.32356
G1 X66.552 Y28.875 E4.35584
G1 X66.651 Y28.808 E4.36383
G1 X66.688 Y28.582 E4.37913
G1 X66.974 Y28.174 E4.41242
G1 X67.201 Y28.008 E4.43121
G1 X67.277 Y27.981 E4.4366
G1 X67.399 Y27.751 E4.45399
G1 X67.66 Y27.519 E4.47732
G1 X68.095 Y27.329 E4.50903
G1 X68.259 Y27.171 E4.52424
G1 X68.554 Y27.04 E4.5458
G1 X68.879 Y26.979 E4.56789
G1 X68.998 Y27.004 E4.57601
G1 X69.155 Y26.883 E4.58925
G1 X69.64 Y26.782 E4.62235
G1 X69.861 Y26.802 E4.63717
G1 X70.016 Y26.857 E4.64816
G1 X70.367 Y26.774 E4.67226
G1 X70.809 Y26.863 E4.70238
G1 X71.063 Y26.98 E4.72106
G1 X71.244 Y26.979 E4.73315
G1 X71.578 Y27.081 E4.75648
G1 X71.817 Y27.235 E4.77547
G1 X71.927 Y27.373 E4.78726
G1 X72.161 Y27.427 E4.8033
G1 X72.475 Y27.632 E4.82835
G1 X72.684 Y27.856 E4.84882
G1 X72.755 Y28.013 E4.86033
G1 X73.009 Y28.153 E4.87971
G1 X73.246 Y28.453 E4.90525
G1 X73.389 Y28.817 E4.93138
G1 X73.561 Y28.991 E4.94772
G1 X73.701 Y29.31 E4.97099
G1 X73.756 Y29.671 E4.99539
G1 X73.743 Y29.729 E4.99936
G1 X73.877 Y29.949 E5.01657
G1 X73.951 Y30.456 E5.0508
G1 X73.874 Y30.759 E5.07169
G1 X73.96 Y31.094 E5.0948
G1 X73.9 Y31.445 E5.11859
G1 X73.754 Y31.776 E5.14276
G1 X73.749 Y32.042 E5.16053
G1 X73.565 Y32.476 E5.19202
G1 X73.364 Y32.664 E5.21041
G1 X73.294 Y32.93 E5.22879
G1 X73.083 Y33.233 E5.25346
G1 X72.799 Y33.465 E5.27796
G1 X72.723 Y33.492 E5.28335
G1 X72.585 Y33.743 E5.30249
G1 X72.44 Y33.889 E5.31624
G1 X72.177 Y34.023 E5.33596
G1 X71.92 Y34.125 E5.35443
G1 X71.779 Y34.272 E5.36804
G1 X71.427 Y34.437 E5.39401
G1 X71.128 Y34.49 E5.4143
G1 X71.004 Y34.467 E5.42273
G1 X70.846 Y34.59 E5.43611
G1 X70.415 Y34.681 E5.46554
G1 X70.142 Y34.671 E5.48379
G1 X69.977 Y34.61 E5.49554
G1 X69.698 Y34.691 E5.51495
G1 X69.46 Y34.685 E5.53085
G1 X69.042 Y34.505 E5.56125
G1 X68.762 Y34.468 E5.58012
G1 X68.762 Y34.468 F7800
G1 X68.381 Y33.527
;TYPE:External perimeter
G1 F1800
G1 X68.15 Y33.576 E5.5959
G1 X67.995 Y33.521 E5.60689
G1 X67.752 Y33.299 E5.62888
G1 X67.709 Y33.133 E5.64034
G1 X67.718 Y33.018 E5.64805
G1 X67.547 Y33.009 E5.65949
G1 X67.28 Y32.86 E5.67992
G1 X67.164 Y32.543 E5.70247
G1 X67.205 Y32.353 E5.71546
G1 X67.013 Y32.291 E5.72894
G1 X66.838 Y32.106 E5.74595
G1 X66.78 Y31.822 E5.76531
G1 X66.806 Y31.689 E5.77436
G1 X66.898 Y31.576 E5.78409
G1 X66.647 Y31.387 E5.80508
G1 X66.584 Y31.052 E5.82785
G1 X66.628 Y30.899 E5.83849
G1 X66.774 Y30.736 E5.85311
G1 X66.658 Y30.608 E5.86465
G1 X66.577 Y30.303 E5.88573
G1 X66.746 Y29.974 E5.91044
G1 X66.88 Y29.903 E5.92057
G1 X66.789 Y29.724 E5.93398
G1 X66.792 Y29.479 E5.95035
G1 X66.956 Y29.227 E5.97044
G1 X67.068 Y29.151 E5.97948
G1 X67.212 Y29.137 E5.98915
G1 X67.169 Y28.826 E6.01012
G1 X67.368 Y28.537 E6.03356
G1 X67.5 Y28.467 E6.04354
G1 X67.718 Y28.454 E6.05813
G1 X67.728 Y28.282 E6.06964
G1 X67.889 Y28.007 E6.09093
G1 X68.238 Y27.897 E6.11538
G1 X68.383 Y27.941 E6.1255
G1 X68.446 Y27.75 E6.13894
G1 X68.629 Y27.575 E6.15586
G1 X68.908 Y27.514 E6.17494
G1 X69.119 Y27.599 E6.19014
G1 X69.161 Y27.635 E6.19384
G1 X69.351 Y27.383 E6.21492
G1 X69.72 Y27.32 E6.23993
G1 X69.919 Y27.417 E6.25472
G1 X69.999 Y27.516 E6.26322
G1 X70.182 Y27.371 E6.27882
G1 X70.367 Y27.31 E6.29183
G1 X70.645 Y27.384 E6.31105
G1 X70.815 Y27.562 E6.32749
G1 X70.831 Y27.619 E6.33145
G1 X71.013 Y27.526 E6.3451
G1 X71.262 Y27.53 E6.36174
G1 X71.453 Y27.627 E6.37605
G1 X71.59 Y27.842 E6.39308
G1 X71.619 Y27.945 E6.40023
G1 X71.849 Y27.897 E6.41593
G1 X71.999 Y27.948 E6.42651
G1 X72.244 Y28.167 E6.44846
G1 X72.29 Y28.332 E6.4599
G1 X72.282 Y28.455 E6.46813
G1 X72.47 Y28.472 E6.48074
G1 X72.728 Y28.624 E6.50074
G1 X72.84 Y28.975 E6.52535
G1 X72.795 Y29.12 E6.53549
G1 X72.987 Y29.182 E6.54897
G1 X73.159 Y29.361 E6.56555
G1 X73.22 Y29.67 E6.58659
G1 X73.131 Y29.869 E6.60115
G1 X73.102 Y29.896 E6.6038
G1 X73.359 Y30.097 E6.6256
G1 X73.412 Y30.476 E6.65117
G1 X73.315 Y30.662 E6.66518
G1 X73.226 Y30.737 E6.67296
G1 X73.342 Y30.864 E6.68445
G1 X73.425 Y31.153 E6.70454
G1 X73.282 Y31.465 E6.72747
G1 X73.12 Y31.57 E6.74037
G1 X73.211 Y31.749 E6.75378
G1 X73.206 Y31.999 E6.77048
G1 X73.105 Y32.193 E6.78509
G1 X72.895 Y32.327 E6.80173
G1 X72.791 Y32.356 E6.80894
G1 X72.84 Y32.586 E6.82465
G1 X72.784 Y32.742 E6.83572
G1 X72.563 Y32.985 E6.85766
G1 X72.396 Y33.028 E6.86918
G1 X72.282 Y33.019 E6.87682
G1 X72.272 Y33.191 E6.88833
G1 X72.113 Y33.465 E6.90949
G1 X71.762 Y33.576 E6.93408
G1 X71.617 Y33.532 E6.9442
G1 X71.554 Y33.723 E6.95764
G1 X71.441 Y33.857 E6.96935
G1 X71.088 Y33.956 E6.99384
G1 X70.952 Y33.931 E7.00308
G1 X70.84 Y33.839 E7.01276
G1 X70.648 Y34.09 E7.03387
G1 X70.269 Y34.15 E7.0595
G1 X70.074 Y34.051 E7.07411
G1 X70 Y33.963 E7.08179
G1 X69.871 Y34.079 E7.09338
G1 X69.586 Y34.161 E7.11319
G1 X69.272 Y34.019 E7.13621
G1 X69.167 Y33.856 E7.14916
G1 X68.987 Y33.947 E7.16263
G1 X68.738 Y33.943 E7.17927
G1 X68.541 Y33.84 E7.19412
G1 X68.41 Y33.631 E7.2106
G1 X68.397 Y33.585 E7.21379
G1 X68.002 Y33.522 F7800
G1 E5.21379 F2400
G92 E0
G1 X154.317 Y31.854 F7800
G1 E2 F2400
;TYPE:Perimeter
G1 F1800
G1 X154.298 Y31.915 E2.00427
G1 X154.215 Y32.361 E2.03458
G1 X153.697 Y33.305 E2.10651
G1 X153.38 Y33.703 E2.1405
G1 X153.091 Y33.952 E2.16598
G1 X152.856 Y34.238 E2.19071
G1 X152.601 Y34.422 E2.21172
G1 X152.206 Y34.608 E2.24089
G1 X151.853 Y34.855 E2.26967
G1 X150.715 Y35.182 E2.34877
G1 X150.376 Y35.222 E2.37157
G1 X149.368 Y35.213 E2.43891
G1 X148.887 Y35.031 E2.47327
G1 X148.732 Y35.03 E2.48363
G1 X148.216 Y34.886 E2.51942
G1 X147.818 Y34.631 E2.551
G1 X147.343 Y34.371 E2.58718
G1 X146.953 Y34.026 E2.62197
G1 X146.794 Y33.833 E2.63868
G1 X146.424 Y33.504 E2.67176
G1 X146.2 Y33.066 E2.70463
G1 X145.86 Y32.543 E2.7463
G1 X145.551 Y31.428 E2.8236
G1 X145.518 Y30.923 E2.85741
G1 X145.56 Y30.707 E2.87211
G1 X145.505 Y30.409 E2.89235
G1 X145.527 Y30.087 E2.91391
G1 X145.706 Y29.624 E2.94707
G1 X145.724 Y29.334 E2.96648
G1 X145.794 Y29.089 E2.9835
G1 X146.365 Y28.08 E3.06095
G1 X146.711 Y27.689 E3.09583
G1 X146.904 Y27.53 E3.11254
G1 X147.233 Y27.16 E3.14562
G1 X148.438 Y26.517 E3.23686
G1 X149.515 Y26.26 E3.31083
G1 X149.982 Y26.281 E3.34206
G1 X150.531 Y26.249 E3.3788
G1 X151.033 Y26.377 E3.41341
G1 X151.202 Y26.439 E3.42544
G1 X151.618 Y26.519 E3.45374
G1 X152.54 Y27.022 E3.5239
G1 X152.913 Y27.3 E3.55498
G1 X153.622 Y28.033 E3.62311
G1 X153.8 Y28.407 E3.65078
G1 X154.104 Y28.853 E3.68684
G1 X154.449 Y30.045 E3.76974
G1 X154.483 Y30.537 E3.80269
G1 X154.459 Y30.824 E3.82193
G1 X154.486 Y31.303 E3.85398
G1 X154.334 Y31.796 E3.88844
G1 X154.334 Y31.796 F7800
G1 X153.72 Y32.12
G1 F1800
G1 X153.683 Y32.244 E3.89708
G1 X153.447 Y32.598 E3.9255
G1 X153.349 Y32.665 E3.93343
G1 X153.314 Y32.887 E3.94844
G1 X153.026 Y33.299 E3.98202
G1 X152.799 Y33.465 E4.00081
G1 X152.723 Y33.492 E4.0062
G1 X152.609 Y33.711 E4.02269
G1 X152.34 Y33.954 E4.04691
G1 X151.905 Y34.144 E4.07862
G1 X151.743 Y34.3 E4.09364
G1 X151.427 Y34.437 E4.11665
G1 X151.121 Y34.491 E4.13741
G1 X151.004 Y34.468 E4.14538
