; generated by PrusaSlicer 2.8.1+linux-x64-GTK3 on 2024-11-04 at 10:23:48 UTC

; 

; external perimeters extrusion width = 0.45mm
; perimeters extrusion width = 0.45mm
; infill extrusion width = 0.45mm
; solid infill extrusion width = 0.45mm
; top infill extrusion width = 0.40mm
; support material extrusion width = 0.40mm
; first layer extrusion width = 0.60mm

M190 S60 ; set bed temperature and wait for it to be reached
M104 S200 ; set temperature
;TYPE:Custom
G28 ; home all axes
G1 Z5 F5000 ; lift nozzle
M109 S200 ; set temperature and wait for it to be reached
G21 ; set units to millimeters
G90 ; use absolute coordinates
M82 ; use absolute distances for extrusion
G92 E0
; Filament gcode
M107
;LAYER_CHANGE
;Z:0.3
;HEIGHT:0.3
G1 E-2 F2400
G1 Z.3 F7800
G1 X83.895 Y39.05
G1 E0 F2400
;TYPE:Skirt/Brim
;WIDTH:0.6
G1 F1800
G1 X84.826 Y37.102 E.14424
G1 X86.057 Y35.328 E.28849
G1 X86.726 Y34.573 E.35588
G1 X88.339 Y33.137 E.50015
G1 X89.287 Y32.482 E.57713
G1 X91.202 Y31.484 E.72139
G1 X101.674 Y27.074 E1.48048
G1 X102.668 Y26.726 E1.55084
G1 X120.925 Y23.079 E2.7946
G1 X122.531 Y22.867 E2.90282
G1 X124.69 Y22.873 E3.04705
G1 X126.821 Y23.225 E3.19134
G1 X128.867 Y23.914 E3.33557
G1 X130.776 Y24.923 E3.47982
G1 X132.499 Y26.224 E3.62405
G1 X133.99 Y27.786 E3.76831
G1 X134.596 Y28.592 E3.83568
G1 X135.681 Y30.459 E3.97994
G1 X136.452 Y32.476 E4.1242
G1 X136.89 Y34.59 E4.26843
G1 X136.982 Y36.748 E4.41273
G1 X136.728 Y38.892 E4.55696
G1 X136.133 Y40.968 E4.70123
G1 X135.681 Y42.028 E4.77821
G1 X134.596 Y43.895 E4.92247
G1 X133.226 Y45.564 E5.06672
G1 X131.606 Y46.991 E5.21094
G1 X130.776 Y47.564 E5.27832
G1 X129.174 Y48.447 E5.40052
G1 X118.425 Y53.189 E6.18538
G1 X117.326 Y53.582 E6.26335
G1 X98.429 Y57.113 E7.54762
G1 X97.543 Y57.212 E7.60718
G1 X96.392 Y57.259 E7.68414
G1 X94.24 Y57.079 E7.82841
G1 X92.145 Y56.557 E7.97265
G1 X91.202 Y56.199 E8.04003
G1 X89.287 Y55.201 E8.18429
G1 X88.339 Y54.546 E8.26127
G1 X86.726 Y53.11 E8.40554
G1 X85.365 Y51.434 E8.54977
G1 X84.29 Y49.561 E8.69404
G1 X83.895 Y48.633 E8.76142
G1 X83.289 Y46.561 E8.90564
G1 X83.023 Y44.418 E9.0499
G1 X83.104 Y42.26 E9.19417
G1 X83.53 Y40.143 E9.33843
G1 X83.876 Y39.107 E9.4114
G1 E7.4114 F2400
G92 E0
G92 E0
G1 X123.824 Y29.111 F7800
G1 E2 F2400
;TYPE:Support material
G1 F1800
G1 X124.438 Y29.135 E2.04105
G1 X125.567 Y29.366 E2.11804
G1 X126.644 Y29.775 E2.195
G1 X127.642 Y30.351 E2.27198
G1 X128.535 Y31.079 E2.34895
G1 X129.299 Y31.942 E2.42595
G1 X129.915 Y32.916 E2.50294
G1 X130.366 Y33.976 E2.5799
G1 X130.642 Y35.095 E2.6569
G1 X130.735 Y36.243 E2.73384
G1 X130.642 Y37.392 E2.81085
G1 X130.366 Y38.511 E2.88785
G1 X129.915 Y39.571 E2.96481
G1 X129.299 Y40.545 E3.0418
G1 X128.535 Y41.407 E3.11875
G1 X127.642 Y42.136 E3.19576
G1 X126.644 Y42.712 E3.27274
G1 X125.567 Y43.121 E3.3497
G1 X124.438 Y43.351 E3.42667
G1 X123.286 Y43.398 E3.50369
G1 X122.142 Y43.259 E3.58068
G1 X121.036 Y42.938 E3.65762
G1 X119.995 Y42.444 E3.7346
G1 X119.046 Y41.79 E3.8116
G1 X118.025 Y40.738 E3.90954
G1 X118.009 Y34.94 E4.29688
G1 X117.728 Y33.923 E4.36737
G1 X117.164 Y33.1 E4.43402
G1 X117.523 Y32.416 E4.48563
G1 X118.215 Y31.495 E4.56259
G1 X119.046 Y30.697 E4.63956
G1 X119.995 Y30.042 E4.71659
G1 X121.036 Y29.548 E4.79357
G1 X122.142 Y29.228 E4.87049
G1 X123.286 Y29.089 E4.94748
G1 X123.744 Y29.107 E4.9781
G1 X123.744 Y29.107 F7800
G1 X130.234 Y38.039
G1 F1800
G1 X130.165 Y35.172 E5.16969
G1 X129.908 Y34.129 E5.24145
G1 X129.639 Y33.499 E5.28721
G1 X129.639 Y38.987 E5.65384
G1 X129.044 Y40.046 E5.73499
G1 X129.044 Y32.441 E6.24305
G1 X128.449 Y31.71 E6.30602
G1 X128.449 Y40.777 E6.91174
G1 X127.854 Y41.341 E6.96651
G1 X127.854 Y31.146 E7.64759
G1 X127.259 Y30.686 E7.69783
G1 X127.259 Y41.801 E8.44037
G1 X126.664 Y42.144 E8.48625
G1 X126.664 Y30.342 E9.27469
G1 X126.069 Y30.072 E9.31834
G1 X126.069 Y42.415 E10.14292
G1 X125.473 Y42.641 E10.1855
G1 X125.473 Y29.846 E11.04028
G1 X124.878 Y29.717 E11.08095
G1 X124.878 Y42.769 E11.95289
G1 X124.283 Y42.875 E11.99327
G1 X124.283 Y29.612 E12.87931
G1 X123.688 Y29.588 E12.91909
G1 X123.688 Y42.899 E13.80834
G1 X123.093 Y42.889 E13.84809
G1 X123.093 Y29.598 E14.736
G1 X122.498 Y29.67 E14.77604
G1 X122.498 Y42.816 E15.65426
G1 X121.903 Y42.688 E15.69492
G1 X121.903 Y29.799 E16.55597
G1 X121.308 Y29.972 E16.59737
G1 X121.308 Y42.515 E17.43531
G1 X120.712 Y42.251 E17.47886
G1 X120.712 Y30.235 E18.28159
G1 X120.117 Y30.544 E18.32638
G1 X120.117 Y41.943 E19.08789
G1 X119.522 Y41.532 E19.1362
G1 X119.522 Y30.954 E19.84287
G1 X118.927 Y31.48 E19.89592
G1 X118.927 Y41.007 E20.53238
G1 X118.507 Y40.577 E20.57254
G1 X118.507 Y35.234 E20.92948
G1 X118.332 Y34.145 E21.00316
G1 X118.332 Y31.741 E21.16376
G1 E19.16376 F2400
G92 E0
G1 X118.332 Y31.741 F7800
G1 X96.677 Y36.709
G1 E2 F2400
G1 F1800
G1 X97.291 Y36.734 E2.04105
G1 X98.42 Y36.964 E2.11802
G1 X99.497 Y37.373 E2.19498
G1 X100.495 Y37.949 E2.27196
G1 X101.388 Y38.678 E2.34897
G1 X101.975 Y39.341 E2.40813
G1 X101.991 Y45.366 E2.81063
G1 X102.215 Y46.255 E2.87188
G1 X102.778 Y47.144 E2.94218
G1 X102.152 Y48.143 E3.02094
G1 X101.388 Y49.006 E3.09794
G1 X100.495 Y49.734 E3.17491
G1 X99.497 Y50.31 E3.25189
G1 X98.42 Y50.719 E3.32885
G1 X97.291 Y50.95 E3.40584
G1 X96.139 Y50.996 E3.48286
G1 X94.995 Y50.857 E3.55985
G1 X93.889 Y50.536 E3.63679
G1 X92.847 Y50.042 E3.71383
G1 X91.899 Y49.388 E3.79077
G1 X91.068 Y48.59 E3.86774
G1 X90.376 Y47.668 E3.94475
G1 X89.84 Y46.648 E4.02173
G1 X89.475 Y45.555 E4.09871
G1 X89.377 Y44.949 E4.13972
G1 X89.291 Y44.418 E4.17566
G1 X89.291 Y43.265 E4.25269
G1 X89.475 Y42.128 E4.32964
G1 X89.84 Y41.035 E4.40662
G1 X90.376 Y40.015 E4.4836
G1 X91.068 Y39.093 E4.56061
G1 X91.899 Y38.295 E4.63758
G1 X92.847 Y37.641 E4.71452
G1 X93.889 Y37.147 E4.79156
G1 X94.995 Y36.826 E4.8685
G1 X96.139 Y36.687 E4.94549
G1 X96.597 Y36.706 E4.97611
G1 X96.597 Y36.706 F7800
G1 X101.668 Y48.325
G1 F1800
G1 X101.668 Y46.161 E5.12068
G1 X101.493 Y45.071 E5.19443
G1 X101.493 Y39.523 E5.56507
G1 X101.073 Y39.049 E5.60738
G1 X101.073 Y48.634 E6.24771
G1 X100.478 Y49.126 E6.29929
G1 X100.478 Y38.557 E7.00536
G1 X99.883 Y38.152 E7.05344
G1 X99.883 Y49.531 E7.81362
G1 X99.288 Y49.874 E7.8595
G1 X99.288 Y37.809 E8.66551
G1 X98.692 Y37.583 E8.70809
G1 X98.692 Y50.1 E9.54429
G1 X98.097 Y50.293 E9.58608
G1 X98.097 Y37.39 E10.44807
G1 X97.502 Y37.269 E10.48863
G1 X97.502 Y50.414 E11.36679
G1 X96.907 Y50.483 E11.40681
G1 X96.907 Y37.201 E12.29412
G1 X96.312 Y37.177 E12.3339
G1 X96.312 Y50.507 E13.22442
G1 X95.717 Y50.459 E13.2643
G1 X95.717 Y37.224 E14.14847
G1 X95.122 Y37.296 E14.18851
G1 X95.122 Y50.387 E15.06306
G1 X94.527 Y50.219 E15.10436
G1 X94.527 Y37.464 E15.95646
G1 X93.931 Y37.66 E15.99837
G1 X93.931 Y50.023 E16.82429
G1 X93.336 Y49.741 E16.86828
G1 X93.336 Y37.942 E17.65652
G1 X92.741 Y38.3 E17.70291
G1 X92.741 Y49.383 E18.44331
G1 X92.146 Y48.957 E18.4922
G1 X92.146 Y38.726 E19.17569
G1 X91.551 Y39.298 E19.23083
G1 X91.551 Y48.385 E19.83789
G1 X90.956 Y47.638 E19.90169
G1 X90.956 Y40.045 E20.40894
G1 X90.361 Y41.081 E20.48875
G1 X90.361 Y47.121 E20.89225
G1 E18.89225 F2400
G92 E0
G1 X90.361 Y47.121 F7800
G1 X114.977 Y34.038
G1 E2 F2400
;TYPE:Perimeter
;WIDTH:0.627452
G1 F1800
G1 X115.138 Y34.114 E2.0125
;WIDTH:0.658275
G1 X115.35 Y34.215 E2.02989
;WIDTH:0.67436
G1 X115.714 Y34.516 E2.06582
G1 X116.007 Y34.92 E2.10379
;WIDTH:0.647556
G1 X116.093 Y35.144 E2.12124
;WIDTH:0.610419
G1 X116.18 Y35.367 E2.13754
;WIDTH:0.573283
G1 X116.219 Y35.57 E2.15066
;WIDTH:0.543686
G1 X116.259 Y35.773 E2.16303
;WIDTH:0.51409
G1 X116.276 Y36.28 E2.19148
;WIDTH:0.550152
G1 X116.207 Y36.812 E2.22398
;WIDTH:0.6
G1 X116.031 Y37.301 E2.2587
G1 X115.655 Y37.798 E2.30033
G1 X115.296 Y38.093 E2.33137
G1 X114.886 Y38.311 E2.36239
G1 X114.441 Y38.444 E2.39342
G1 X113.978 Y38.486 E2.42448
G1 X113.516 Y38.435 E2.45553
G1 X113.197 Y38.345 E2.47767
G1 X112.722 Y38.108 E2.51313
G1 X112.315 Y37.766 E2.54864
G1 X112.028 Y37.4 E2.57971
G1 X111.82 Y36.985 E2.61072
G1 X111.699 Y36.537 E2.64172
G1 X111.676 Y36.018 E2.67643
G1 X111.769 Y35.49 E2.71225
G1 X111.969 Y35.005 E2.7473
G1 X112.345 Y34.508 E2.78893
G1 X112.704 Y34.213 E2.81997
G1 X113.114 Y33.995 E2.85099
G1 X113.339 Y33.949 E2.86633
;WIDTH:0.558677
G1 X113.564 Y33.903 E2.88049
;WIDTH:0.517355
G1 X114.018 Y33.872 E2.9062
;WIDTH:0.525022
G1 X114.474 Y33.907 E2.93248
;WIDTH:0.560825
G1 X114.7 Y33.96 E2.94685
;WIDTH:0.596629
G1 X114.923 Y34.012 E2.96205
G1 X114.923 Y34.012 F7800
G1 X114.743 Y34.524
;TYPE:External perimeter
;WIDTH:0.6
G1 F1800
G1 X115.093 Y34.732 E2.98925
G1 X115.401 Y35.033 E3.01802
G1 X115.668 Y35.479 E3.05275
G1 X115.768 Y35.822 E3.07662
G1 X115.796 Y36.196 E3.10168
G1 X115.704 Y36.723 E3.13742
G1 X115.521 Y37.114 E3.16626
G1 X115.3 Y37.396 E3.1902
G1 X115.028 Y37.629 E3.21413
G1 X114.716 Y37.804 E3.23803
G1 X114.374 Y37.913 E3.26201
G1 X114.018 Y37.952 E3.28593
G1 X113.507 Y37.876 E3.32044
G1 X113.359 Y37.835 E3.3307
G1 X113.002 Y37.649 E3.35759
G1 X112.634 Y37.313 E3.39088
G1 X112.353 Y36.876 E3.42559
G1 X112.232 Y36.483 E3.45306
G1 X112.204 Y36.11 E3.47805
G1 X112.296 Y35.583 E3.51379
G1 X112.479 Y35.192 E3.54263
G1 X112.699 Y34.91 E3.56652
G1 X112.972 Y34.677 E3.5905
G1 X113.284 Y34.502 E3.6144
G1 X113.626 Y34.393 E3.63838
G1 X113.982 Y34.354 E3.6623
G1 X114.339 Y34.386 E3.68625
G1 X114.682 Y34.488 E3.71016
G1 X114.691 Y34.494 E3.71088
G1 X115.035 Y34.698 F7800
G1 E1.71088 F2400
G92 E0
G1 X103.983 Y45.359 F7800
G1 E2 F2400
;TYPE:Perimeter
;WIDTH:0.647556
G1 F1800
G1 X103.912 Y45.184 E2.01374
;WIDTH:0.612979
G1 X103.831 Y44.982 E2.02863
;WIDTH:0.578403
G1 X103.786 Y44.757 E2.04334
;WIDTH:0.545497
G1 X103.742 Y44.533 E2.05704
;WIDTH:0.512591
G1 X103.725 Y44.026 E2.0854
;WIDTH:0.548749
G1 X103.794 Y43.495 E2.11775
;WIDTH:0.585879
G1 X103.843 Y43.283 E2.1319
;WIDTH:0.6
G1 X104.052 Y42.869 E2.16288
G1 X104.236 Y42.625 E2.1833
G1 X104.704 Y42.213 E2.22495
G1 X105.114 Y41.995 E2.25597
G1 X105.559 Y41.862 E2.287
G1 X106.022 Y41.82 E2.31806
G1 X106.484 Y41.87 E2.3491
G1 X106.926 Y42.012 E2.38011
G1 X107.332 Y42.238 E2.41115
G1 X107.708 Y42.566 E2.44448
G1 X107.972 Y42.905 E2.47318
G1 X108.18 Y43.321 E2.50425
G1 X108.301 Y43.769 E2.53525
G1 X108.324 Y44.288 E2.56996
G1 X108.231 Y44.815 E2.60571
G1 X108.031 Y45.3 E2.64076
G1 X107.655 Y45.798 E2.68245
G1 X107.296 Y46.093 E2.71349
G1 X106.886 Y46.311 E2.74451
G1 X106.661 Y46.357 E2.75985
;WIDTH:0.558987
G1 X106.436 Y46.403 E2.77402
;WIDTH:0.517975
G1 X105.982 Y46.434 E2.79976
;WIDTH:0.52519
G1 X105.526 Y46.399 E2.82605
;WIDTH:0.561029
G1 X105.3 Y46.346 E2.84043
;WIDTH:0.596868
G1 X105.074 Y46.293 E2.85585
;WIDTH:0.627577
G1 X104.862 Y46.192 E2.87235
;WIDTH:0.658285
G1 X104.65 Y46.091 E2.88975
;WIDTH:0.678339
G1 X104.285 Y45.791 E2.92593
G1 X104.012 Y45.411 E2.96176
G1 X104.012 Y45.411 F7800
G1 X104.48 Y45.074
;TYPE:External perimeter
;WIDTH:0.6
G1 F1800
G1 X104.338 Y44.844 E2.97982
G1 X104.232 Y44.483 E3.00495
G1 X104.204 Y44.11 E3.02994
G1 X104.296 Y43.583 E3.06568
G1 X104.479 Y43.192 E3.09452
G1 X104.663 Y42.949 E3.11488
G1 X104.972 Y42.677 E3.14238
G1 X105.284 Y42.502 E3.16628
G1 X105.626 Y42.393 E3.19026
G1 X105.982 Y42.354 E3.21418
G1 X106.493 Y42.43 E3.24869
G1 X106.954 Y42.627 E3.28218
G1 X107.297 Y42.91 E3.31189
G1 X107.572 Y43.291 E3.34328
G1 X107.758 Y43.77 E3.37761
G1 X107.796 Y44.196 E3.40618
G1 X107.704 Y44.723 E3.44192
G1 X107.521 Y45.114 E3.47076
G1 X107.3 Y45.396 E3.4947
G1 X107.028 Y45.629 E3.51863
G1 X106.716 Y45.803 E3.5425
G1 X106.374 Y45.913 E3.5665
G1 X106.018 Y45.952 E3.59042
G1 X105.661 Y45.92 E3.61437
G1 X105.318 Y45.818 E3.63828
G1 X104.918 Y45.583 E3.66927
G1 X104.608 Y45.283 E3.69809
G1 X104.511 Y45.125 E3.71048
G1 X104.327 Y44.77 F7800
G1 E1.71048 F2400
G92 E0
G1 X103.968 Y34.816 F7800
G1 E2 F2400
;TYPE:Perimeter
G1 F1800
G1 X104.036 Y34.651 E2.01192
G1 X104.318 Y34.322 E2.04087
G1 X104.605 Y34.158 E2.06295
G1 X104.983 Y34.036 E2.08949
G1 X112.078 Y34.03 E2.56347
G1 X111.809 Y34.302 E2.58903
G1 X111.486 Y34.773 E2.62718
G1 X111.241 Y35.398 E2.67203
G1 X111.149 Y35.925 E2.70777
G1 X111.135 Y36.29 E2.73217
G1 X111.218 Y36.851 E2.77006
G1 X111.412 Y37.389 E2.80827
G1 X111.708 Y37.877 E2.8464
G1 X112.095 Y38.297 E2.88455
G1 X112.558 Y38.632 E2.92273
G1 X113.078 Y38.868 E2.96088
G1 X113.634 Y38.997 E2.99901
G1 X114.205 Y39.013 E3.03717
G1 X114.767 Y38.916 E3.07527
G1 X115.3 Y38.709 E3.11347
G1 X115.781 Y38.401 E3.15163
G1 X116.128 Y38.071 E3.18362
G1 X116.126 Y44.983 E3.64538
G1 X116.109 Y45.229 E3.66185
G1 X115.997 Y45.563 E3.68538
G1 X115.764 Y45.917 E3.71369
G1 X115.383 Y46.174 E3.74439
G1 X114.96 Y46.279 E3.77351
G1 X107.919 Y46.279 E4.24389
G1 X108.191 Y46.004 E4.26973
G1 X108.514 Y45.533 E4.30788
G1 X108.759 Y44.908 E4.35273
G1 X108.851 Y44.381 E4.38847
G1 X108.865 Y44.015 E4.41294
G1 X108.782 Y43.455 E4.45076
G1 X108.588 Y42.917 E4.48897
G1 X108.292 Y42.429 E4.5271
G1 X107.905 Y42.009 E4.56525
G1 X107.442 Y41.674 E4.60343
G1 X106.923 Y41.437 E4.64155
G1 X106.366 Y41.309 E4.67973
G1 X105.795 Y41.292 E4.71789
G1 X105.233 Y41.39 E4.756
G1 X104.7 Y41.596 E4.79417
G1 X104.219 Y41.905 E4.83236
G1 X103.874 Y42.232 E4.86412
G1 X103.875 Y35.316 E5.32615
G1 X103.915 Y34.947 E5.35095
G1 X103.946 Y34.872 E5.35637
G1 X103.946 Y34.872 F7800
G1 X103.458 Y34.647
G1 F1800
G1 X103.519 Y34.485 E5.36793
G1 X103.769 Y34.122 E5.39738
G1 X104.108 Y33.801 E5.42857
G1 X104.608 Y33.565 E5.46551
G1 X104.93 Y33.501 E5.48744
G1 X112.816 Y33.494 E6.01427
G1 X113.151 Y33.473 E6.03669
;WIDTH:0.560518
G1 X113.486 Y33.453 E6.05746
;WIDTH:0.521037
G1 X114.034 Y33.44 E6.08868
;WIDTH:0.525022
G1 X114.536 Y33.454 E6.11753
;WIDTH:0.560825
G1 X114.814 Y33.484 E6.13484
;WIDTH:0.596629
G1 X115.092 Y33.514 E6.1534
;WIDTH:0.622469
G1 X115.333 Y33.592 E6.17103
;WIDTH:0.64831
G1 X115.574 Y33.669 E6.18946
;WIDTH:0.677108
G1 X115.968 Y33.912 E6.22484
G1 X116.306 Y34.269 E6.26241
;WIDTH:0.675701
G1 X116.51 Y34.623 E6.29356
;WIDTH:0.648031
G1 X116.63 Y34.973 E6.32049
;WIDTH:0.612444
G1 X116.678 Y35.292 E6.34254
;WIDTH:0.573283
G1 X116.692 Y35.521 E6.3571
;WIDTH:0.543686
G1 X116.707 Y35.751 E6.37088
;WIDTH:0.51409
G1 X116.712 Y36.318 E6.40268
;WIDTH:0.550152
G1 X116.689 Y36.854 E6.43519
;WIDTH:0.6
G1 X116.664 Y37.445 E6.47471
G1 X116.661 Y44.983 E6.97829
G1 X116.601 Y45.495 E7.01273
G1 X116.357 Y46.039 E7.05256
G1 X116.011 Y46.407 E7.0863
G1 X115.583 Y46.674 E7.12
G1 X114.987 Y46.814 E7.1609
G1 X106.968 Y46.814 E7.69661
G1 X106.716 Y46.835 E7.7135
;WIDTH:0.558987
G1 X106.464 Y46.855 E7.72909
;WIDTH:0.517975
G1 X105.661 Y46.86 E7.77452
;WIDTH:0.537619
G1 X105.41 Y46.845 E7.78936
;WIDTH:0.5673
G1 X105.159 Y46.83 E7.80513
;WIDTH:0.603753
G1 X104.895 Y46.776 E7.82326
;WIDTH:0.640207
G1 X104.63 Y46.722 E7.84268
;WIDTH:0.67205
G1 X104.249 Y46.545 E7.87452
;WIDTH:0.679683
G1 X103.855 Y46.235 E7.91299
G1 X103.565 Y45.822 E7.95172
;WIDTH:0.656215
G1 X103.37 Y45.333 E7.99058
;WIDTH:0.612434
G1 X103.328 Y45.057 E8.00966
;WIDTH:0.578403
G1 X103.312 Y44.806 E8.02578
;WIDTH:0.545497
G1 X103.295 Y44.555 E8.04088
;WIDTH:0.512591
G1 X103.29 Y43.988 E8.07258
;WIDTH:0.548749
G1 X103.313 Y43.453 E8.10493
;WIDTH:0.574374
G1 X103.326 Y43.157 E8.12378
;WIDTH:0.6
G1 X103.339 Y35.316 E8.6476
G1 X103.392 Y34.824 E8.68066
G1 X103.437 Y34.704 E8.68922
G1 X103.437 Y34.704 F7800
G1 X102.948 Y34.479
;TYPE:External perimeter
G1 F1800
G1 X103.126 Y34.074 E8.71877
G1 X103.476 Y33.627 E8.7567
G1 X103.819 Y33.345 E8.78636
G1 X104.439 Y33.052 E8.83217
G1 X104.877 Y32.965 E8.862
G1 X114.931 Y32.956 E9.53366
G1 X115.464 Y33.036 E9.56967
G1 X115.996 Y33.244 E9.60783
G1 X116.362 Y33.489 E9.63725
G1 X116.74 Y33.894 E9.67426
G1 X117.01 Y34.372 E9.71094
G1 X117.155 Y34.841 E9.74373
G1 X117.2 Y35.293 E9.77408
G1 X117.197 Y44.983 E10.42142
G1 X117.18 Y45.3 E10.44263
G1 X117.067 Y45.821 E10.47824
G1 X116.809 Y46.333 E10.51654
G1 X116.525 Y46.678 E10.54639
G1 X116.177 Y46.964 E10.57648
G1 X115.783 Y47.175 E10.60634
G1 X115.013 Y47.35 E10.65909
G1 X104.997 Y47.35 E11.32821
G1 X104.433 Y47.252 E11.36645
G1 X103.919 Y47.024 E11.40401
G1 X103.472 Y46.676 E11.44185
G1 X103.147 Y46.245 E11.47791
G1 X102.912 Y45.732 E11.51561
G1 X102.803 Y45.166 E11.55412
