; generated by PrusaSlicer 2.8.1+linux-x64-GTK3 on 2024-11-04 at 10:24:17 UTC

; 

; external perimeters extrusion width = 0.45mm
; perimeters extrusion width = 0.45mm
; infill extrusion width = 0.45mm
; solid infill extrusion width = 0.45mm
; top infill extrusion width = 0.40mm
; support material extrusion width = 0.40mm
; first layer extrusion width = 0.60mm

M190 S60 ; set bed temperature and wait for it to be reached
M104 S200 ; set temperature
;TYPE:Custom
G28 ; home all axes
G1 Z5 F5000 ; lift nozzle
M109 S200 ; set temperature and wait for it to be reached
G21 ; set units to millimeters
G90 ; use absolute coordinates
M82 ; use absolute distances for extrusion
G92 E0
; Filament gcode
M107
;LAYER_CHANGE
;Z:0.3
;HEIGHT:0.3
G1 E-2 F2400
G1 Z.3 F7800
G1 X67.175 Y38.656
G1 E0 F2400
;TYPE:Skirt/Brim
;WIDTH:0.6
G1 F1800
G1 X67.81 Y37.709 E.07617
G1 X68.519 Y36.836 E.1513
G1 X69.315 Y36.019 E.2275
G1 X70.17 Y35.289 E.30261
G1 X70.961 Y34.713 E.36798
G1 X78.867 Y29.859 E.98775
G1 X80.926 Y29.052 E1.13549
G1 X110.277 Y23.224 E3.13458
G1 X111.387 Y23.105 E3.20916
G1 X112.519 Y23.085 E3.2848
G1 X113.848 Y23.204 E3.37394
G1 X115.758 Y23.638 E3.50479
G1 X142.465 Y32.731 E5.38954
G1 X143.726 Y33.279 E5.48139
G1 X144.926 Y33.95 E5.57324
G1 X146.053 Y34.738 E5.66511
G1 X147.096 Y35.633 E5.75692
G1 X148.045 Y36.629 E5.84883
G1 X148.89 Y37.713 E5.94065
G1 X149.623 Y38.877 E6.03255
G1 X150.237 Y40.107 E6.12439
G1 X150.625 Y41.097 E6.19543
G1 X151.012 Y42.416 E6.28726
G1 X151.266 Y43.768 E6.37916
G1 X151.385 Y45.137 E6.47096
G1 X151.366 Y46.512 E6.56283
G1 X151.21 Y47.879 E6.65475
G1 X150.92 Y49.223 E6.7466
G1 X150.497 Y50.531 E6.83844
G1 X149.945 Y51.791 E6.93034
G1 X149.271 Y52.989 E7.02217
G1 X148.481 Y54.115 E7.11406
G1 X147.583 Y55.156 E7.2059
G1 X146.346 Y56.303 E7.3186
G1 X145.019 Y57.265 E7.4281
G1 X143.726 Y57.996 E7.52733
G1 X142.171 Y58.651 E7.64005
G1 X115.352 Y67.627 E9.52939
G1 X113.475 Y68.051 E9.65794
G1 X112.147 Y68.17 E9.74701
G1 X111.014 Y68.151 E9.82271
G1 X88.171 Y65.848 E11.35648
G1 X86.291 Y65.471 E11.48457
G1 X84.747 Y64.903 E11.59448
G1 X79.077 Y61.669 E12.03055
G1 X77.04 Y60.267 E12.19575
G1 X69.315 Y54.182 E12.8527
G1 X68.519 Y53.366 E12.92885
G1 X67.81 Y52.493 E13.00398
G1 X67.175 Y51.545 E13.08021
G1 X66.298 Y49.809 E13.21014
G1 X65.923 Y48.751 E13.28513
G1 X65.53 Y47.062 E13.40098
G1 X65.377 Y45.38 E13.51381
G1 X65.404 Y44.243 E13.58979
G1 X65.63 Y42.59 E13.70125
G1 X66.084 Y40.964 E13.81403
G1 X66.664 Y39.593 E13.91348
G1 X67.146 Y38.709 E13.98074
G1 E11.98074 F2400
G92 E0
G1 X67.146 Y38.709 F7800
G92 E0
G1 X116.603 Y54.368
G1 E2 F2400
;TYPE:Support material
G1 F1800
G1 X116.967 Y55.438 E2.0755
G1 X117.097 Y56.561 E2.15102
G1 X116.987 Y57.685 E2.22647
G1 X116.641 Y58.761 E2.30198
G1 X116.077 Y59.739 E2.3774
G1 X115.327 Y60.566 E2.45198
G1 X114.376 Y61.244 E2.53
G1 X113.363 Y61.683 E2.60376
G1 X112.254 Y61.904 E2.6793
G1 X111.121 Y61.884 E2.755
G1 X110.017 Y61.625 E2.83076
G1 X108.991 Y61.136 E2.90669
G1 X108.125 Y60.466 E2.97984
G1 X107.353 Y59.537 E3.06053
G1 X107.035 Y58.981 E3.10332
G1 X106.831 Y58.526 E3.13663
G1 X106.536 Y57.428 E3.21258
G1 X106.482 Y56.293 E3.28849
G1 X106.554 Y55.644 E3.33211
G1 X106.84 Y54.632 E3.40237
G1 X107.337 Y53.689 E3.47358
G1 X116.195 Y53.689 E4.06534
G1 X116.561 Y54.299 E4.11286
G1 X116.561 Y54.299 F7800
G1 X116.546 Y58.268
G1 F1800
G1 X116.494 Y55.545 E4.2948
G1 X116.163 Y54.572 E4.36346
G1 X115.951 Y54.219 E4.39097
G1 X115.951 Y58.992 E4.70983
G1 X115.685 Y59.453 E4.74539
G1 X115.356 Y59.816 E4.77812
G1 X115.356 Y54.171 E5.15524
G1 X114.761 Y54.171 E5.19499
G1 X114.761 Y60.383 E5.60999
G1 X114.166 Y60.804 E5.65868
G1 X114.166 Y54.171 E6.1018
G1 X113.571 Y54.171 E6.14155
G1 X113.571 Y61.068 E6.60231
G1 X112.976 Y61.269 E6.64427
G1 X112.976 Y54.171 E7.11845
G1 X112.381 Y54.171 E7.1582
G1 X112.381 Y61.387 E7.64027
G1 X111.785 Y61.413 E7.68012
G1 X111.785 Y54.171 E8.16392
G1 X111.19 Y54.171 E8.20367
G1 X111.19 Y61.403 E8.68681
G1 X110.595 Y61.265 E8.72761
G1 X110.595 Y54.171 E9.20153
G1 X110 Y54.171 E9.24128
G1 X110 Y61.083 E9.70304
G1 X109.405 Y60.799 E9.74709
G1 X109.405 Y54.171 E10.18988
G1 X108.81 Y54.171 E10.22963
G1 X108.81 Y60.386 E10.64483
G1 X108.215 Y59.842 E10.69869
G1 X108.215 Y54.171 E11.07754
G1 X107.619 Y54.187 E11.11737
G1 X107.619 Y59.032 E11.44104
G1 X107.282 Y58.354 E11.49162
G1 X107.024 Y57.408 E11.55713
G1 X107.024 Y54.866 E11.72695
G1 E9.72695 F2400
G92 E0
G1 X107.024 Y54.866 F7800
G1 X103.432 Y54.328
G1 E2 F2400
G1 F1800
G1 X103.611 Y55.469 E2.07716
G1 X103.5 Y56.599 E2.15301
G1 X103.108 Y57.668 E2.22908
G1 X102.438 Y58.629 E2.30734
G1 X101.583 Y59.364 E2.38266
G1 X100.55 Y59.868 E2.45945
G1 X99.453 Y60.088 E2.53419
G1 X98.261 Y60.025 E2.61393
G1 X97.149 Y59.649 E2.69235
G1 X96.221 Y59.043 E2.76639
G1 X95.389 Y58.126 E2.84911
G1 X94.878 Y57.085 E2.92658
G1 X94.664 Y56.164 E2.98975
G1 X94.651 Y55.201 E3.05409
G1 X94.927 Y53.983 E3.13752
G1 X95.078 Y53.689 E3.1596
G1 X103.155 Y53.689 E3.69919
G1 X103.4 Y54.254 E3.74033
G1 X103.4 Y54.254 F7800
G1 X102.858 Y57.605
G1 F1800
G1 X102.858 Y54.217 E3.96667
G1 X102.263 Y54.171 E4.00654
G1 X102.263 Y58.044 E4.26528
G1 X101.668 Y58.655 E4.32225
G1 X101.668 Y54.171 E4.62181
G1 X101.073 Y54.171 E4.66156
G1 X101.073 Y59.076 E4.98924
G1 X100.478 Y59.366 E5.03346
G1 X100.478 Y54.171 E5.38051
G1 X99.883 Y54.171 E5.42026
G1 X99.883 Y59.51 E5.77693
G1 X99.288 Y59.597 E5.8171
G1 X99.288 Y54.171 E6.17959
G1 X98.692 Y54.171 E6.21941
G1 X98.692 Y59.565 E6.57976
G1 X98.097 Y59.461 E6.62011
G1 X98.097 Y54.171 E6.97351
G1 X97.502 Y54.171 E7.01326
G1 X97.502 Y59.26 E7.35323
G1 X97.361 Y59.212 E7.36318
G1 X96.907 Y58.915 E7.39942
G1 X96.907 Y54.171 E7.71634
G1 X96.312 Y54.171 E7.75609
G1 X96.312 Y58.426 E8.04035
G1 X95.717 Y57.699 E8.10311
G1 X95.717 Y53.93 E8.3549
G1 E6.3549 F2400
G92 E0
G1 X95.717 Y53.93 F7800
G1 X91.747 Y44.112
G1 E2 F2400
G1 F1800
G1 X87.254 Y44.112 E2.30016
G1 X87.254 Y40.162 E2.56404
G1 X91.747 Y40.162 E2.8642
G1 X91.747 Y44.032 E3.12274
G1 X91.747 Y44.032 F7800
G1 X90.956 Y43.871
G1 F1800
G1 X90.956 Y40.645 E3.33825
G1 X90.361 Y40.645 E3.378
G1 X90.361 Y43.63 E3.57741
G1 X89.766 Y43.63 E3.61716
G1 X89.766 Y40.645 E3.81657
G1 X89.17 Y40.645 E3.85639
G1 X89.17 Y43.63 E4.0558
G1 X88.575 Y43.63 E4.09555
G1 X88.575 Y40.645 E4.29496
G1 X87.98 Y40.645 E4.33471
G1 X87.98 Y43.871 E4.55022
G1 E2.55022 F2400
G92 E0
G1 X87.98 Y43.871 F7800
G1 X84.705 Y35.271
G1 E2 F2400
G1 F1800
G1 X85.831 Y36.138 E2.09494
G1 X86.469 Y37.372 E2.18774
G1 X86.488 Y37.586 E2.20209
G1 X85.823 Y37.636 E2.24664
G1 X85.222 Y37.831 E2.28885
G1 X84.872 Y38.103 E2.31846
G1 X84.672 Y38.502 E2.34828
G1 X84.66 Y52.65 E3.29344
G1 X84.737 Y52.972 E3.31556
G1 X85.158 Y53.409 E3.3561
G1 X85.844 Y53.643 E3.40452
G1 X93.038 Y53.689 E3.88513
G1 X93.234 Y54.123 E3.91694
G1 X93.415 Y55.275 E3.99484
G1 X93.274 Y56.439 E4.07317
G1 X92.809 Y57.544 E4.15326
G1 X92.08 Y58.457 E4.23131
G1 X91.127 Y59.136 E4.30948
G1 X89.938 Y59.544 E4.39346
G1 X88.806 Y59.612 E4.46922
G1 X87.664 Y59.356 E4.54741
G1 X86.515 Y58.699 E4.63583
G1 X85.736 Y57.919 E4.70947
G1 X85.183 Y56.909 E4.7864
G1 X84.929 Y55.952 E4.85255
G1 X83.82 Y56.387 E4.93213
G1 X82.214 Y56.243 E5.03985
G1 X80.889 Y55.32 E5.14773
G1 X80.162 Y53.938 E5.25205
G1 X80.173 Y52.34 E5.35881
G1 X80.229 Y52.235 E5.36676
G1 X80.038 Y51.877 E5.39387
G1 X80.038 Y50.839 E5.46321
G1 X79.609 Y51.014 E5.49416
G1 X78.507 Y51.242 E5.56934
G1 X77.383 Y51.267 E5.64445
G1 X76.273 Y51.087 E5.71957
G1 X75.214 Y50.71 E5.79467
G1 X74.241 Y50.147 E5.86977
G1 X73.386 Y49.416 E5.94492
G1 X72.677 Y48.543 E6.02005
G1 X72.166 Y47.606 E6.09135
G1 X71.797 Y46.492 E6.16975
G1 X71.645 Y45.38 E6.24473
G1 X71.645 Y44.821 E6.28207
G1 X71.797 Y43.709 E6.35705
G1 X72.166 Y42.595 E6.43545
G1 X72.677 Y41.658 E6.50675
G1 X73.386 Y40.785 E6.58188
G1 X74.241 Y40.055 E6.65699
G1 X75.214 Y39.491 E6.73212
G1 X76.273 Y39.114 E6.80722
G1 X77.354 Y38.939 E6.88038
G1 X78.538 Y38.965 E6.9595
G1 X79.609 Y39.187 E7.03257
G1 X80.28 Y39.46 E7.08096
G1 X80.012 Y38.061 E7.17612
G1 X80.456 Y36.676 E7.27328
G1 X81.157 Y35.812 E7.34761
G1 X82.147 Y35.2 E7.42536
G1 X83.395 Y34.964 E7.51021
G1 X84.627 Y35.253 E7.59475
G1 E5.59475 F2400
G92 E0
G1 X84.627 Y35.253 F7800
G1 X92.741 Y57.092
G1 E2 F2400
G1 F1800
G1 X92.726 Y54.171 E2.19514
G1 X92.146 Y54.171 E2.23389
G1 X92.146 Y57.602 E2.4631
G1 X91.551 Y58.242 E2.52148
G1 X91.551 Y54.171 E2.79344
G1 X90.956 Y54.171 E2.83319
G1 X90.956 Y58.666 E3.13348
G1 X90.361 Y58.903 E3.17627
G1 X90.361 Y54.171 E3.49239
G1 X89.766 Y54.171 E3.53214
G1 X89.766 Y59.071 E3.85949
G1 X89.17 Y59.107 E3.89938
G1 X89.17 Y54.171 E4.22913
G1 X88.575 Y54.171 E4.26888
G1 X88.575 Y59.066 E4.59589
G1 X87.98 Y58.933 E4.63662
G1 X87.98 Y54.171 E4.95475
G1 X87.385 Y54.171 E4.9945
G1 X87.385 Y58.664 E5.29466
G1 X86.79 Y58.292 E5.34154
G1 X86.79 Y54.171 E5.61685
G1 X86.195 Y54.164 E5.6566
G1 X86.195 Y57.696 E5.89256
G1 X85.6 Y56.601 E5.97581
G1 X85.6 Y54.083 E6.14403
G1 X85.004 Y53.874 E6.18622
G1 X85.004 Y55.404 E6.28843
G1 X84.409 Y55.638 E6.33114
G1 X84.409 Y35.697 E7.66331
G1 X83.814 Y35.557 E7.70414
G1 X83.814 Y55.871 E9.06123
G1 X83.219 Y55.849 E9.10101
G1 X83.219 Y35.488 E10.46124
G1 X82.624 Y35.601 E10.5017
G1 X82.624 Y55.796 E11.85084
G1 X82.385 Y55.774 E11.86687
G1 X82.029 Y55.526 E11.89585
G1 X82.029 Y35.84 E13.21098
G1 X81.434 Y36.236 E13.25873
G1 X81.434 Y55.112 E14.51975
G1 X81.261 Y54.992 E14.53382
G1 X80.839 Y54.188 E14.59448
G1 X80.839 Y36.586 E15.77039
G1 X80.839 Y36.586 F7800
G1 X85.6 Y37.44
G1 F1800
G1 X85.6 Y36.74 E15.81715
G1 X85.452 Y36.454 E15.83866
G1 X85.004 Y36.11 E15.87639
G1 X85.004 Y37.678 E15.98114
G1 X85.004 Y37.678 F7800
G1 X80.243 Y50.496
G1 F1800
G1 X80.243 Y39.966 E16.6846
G1 X79.648 Y39.724 E16.72751
G1 X79.648 Y50.477 E17.44587
G1 X79.053 Y50.637 E17.48703
G1 X79.053 Y39.564 E18.22677
G1 X78.458 Y39.444 E18.26732
G1 X78.458 Y50.76 E19.02329
G1 X77.863 Y50.774 E19.06305
G1 X77.863 Y39.421 E19.82149
G1 X77.268 Y39.441 E19.86126
G1 X77.268 Y50.76 E20.61743
G1 X76.673 Y50.664 E20.65769
G1 X76.673 Y39.538 E21.40097
G1 X76.077 Y39.695 E21.44214
G1 X76.077 Y50.506 E22.16437
G1 X75.482 Y50.294 E22.20657
G1 X75.482 Y39.908 E22.90041
G1 X74.887 Y40.237 E22.94583
G1 X74.887 Y49.964 E23.59565
G1 X74.292 Y49.557 E23.64381
G1 X74.292 Y40.645 E24.23918
G1 X73.697 Y41.166 E24.29201
G1 X73.697 Y49.035 E24.8177
G1 X73.102 Y48.301 E24.88082
G1 X73.102 Y41.9 E25.30844
G1 X72.507 Y43.059 E25.39547
G1 X72.507 Y47.728 E25.70738
G1 E23.70738 F2400
G92 E0
G1 X72.507 Y47.728 F7800
G1 X101.747 Y44.112
G1 E2 F2400
G1 F1800
G1 X97.254 Y44.112 E2.30016
G1 X97.254 Y40.162 E2.56404
G1 X101.747 Y40.162 E2.8642
G1 X101.747 Y44.032 E3.12274
G1 X101.747 Y44.032 F7800
G1 X101.073 Y43.871
G1 F1800
G1 X101.073 Y40.645 E3.33825
G1 X100.478 Y40.645 E3.378
G1 X100.478 Y43.63 E3.57741
G1 X99.883 Y43.63 E3.61716
G1 X99.883 Y40.645 E3.81657
G1 X99.288 Y40.645 E3.85632
G1 X99.288 Y43.63 E4.05573
G1 X98.692 Y43.63 E4.09555
G1 X98.692 Y40.645 E4.29496
G1 X98.097 Y40.645 E4.33471
G1 X98.097 Y43.871 E4.55022
G1 E2.55022 F2400
G92 E0
G1 X98.097 Y43.871 F7800
G1 X113.739 Y29.572
G1 E2 F2400
G1 F1800
G1 X114.777 Y30.021 E2.07555
G1 X115.68 Y30.667 E2.14972
G1 X116.459 Y31.524 E2.22709
G1 X117.019 Y32.492 E2.3018
G1 X117.365 Y33.567 E2.37724
G1 X117.476 Y34.692 E2.45276
G1 X117.347 Y35.815 E2.52828
G1 X116.983 Y36.885 E2.60378
G1 X116.563 Y37.586 E2.65837
G1 X107.726 Y37.586 E3.24873
G1 X107.218 Y36.622 E3.32153
G1 X106.933 Y35.609 E3.39183
G1 X106.855 Y34.429 E3.47083
G1 X107.021 Y33.321 E3.54568
G1 X107.21 Y32.728 E3.58726
G1 X107.769 Y31.653 E3.66821
G1 X108.423 Y30.872 E3.73626
G1 X108.82 Y30.53 E3.77127
G1 X109.403 Y30.104 E3.81951
G1 X110.394 Y29.632 E3.89284
G1 X111.498 Y29.372 E3.96861
G1 X112.63 Y29.352 E4.04425
G1 X113.661 Y29.556 E4.11446
G1 X113.661 Y29.556 F7800
G1 X116.546 Y37.145
G1 F1800
G1 X116.546 Y32.638 E4.41555
G1 X115.951 Y31.679 E4.49095
G1 X115.951 Y37.104 E4.85337
G1 X115.356 Y37.104 E4.89312
G1 X115.356 Y31.028 E5.29903
G1 X114.761 Y30.602 E5.34792
G1 X114.761 Y37.104 E5.78229
G1 X114.166 Y37.104 E5.82204
G1 X114.166 Y30.282 E6.27779
G1 X113.571 Y30.03 E6.32096
G1 X113.571 Y37.104 E6.79354
G1 X112.976 Y37.104 E6.83329
G1 X112.976 Y29.912 E7.31375
G1 X112.587 Y29.835 E7.34024
G1 X112.381 Y29.839 E7.354
G1 X112.381 Y37.104 E7.83934
G1 X111.785 Y37.104 E7.87916
G1 X111.785 Y29.849 E8.36383
G1 X111.19 Y29.94 E8.40404
G1 X111.19 Y37.104 E8.88263
G1 X110.595 Y37.104 E8.92238
G1 X110.595 Y30.08 E9.39162
G1 X110 Y30.354 E9.43538
G1 X110 Y37.104 E9.88632
G1 X109.405 Y37.104 E9.92607
G1 X109.405 Y30.7 E10.35389
G1 X108.81 Y31.175 E10.40475
G1 X108.81 Y37.104 E10.80084
G1 X108.215 Y37.104 E10.84059
G1 X108.215 Y31.872 E11.19012
G1 X107.619 Y33.031 E11.27719
G1 X107.619 Y36.866 E11.53339
G1 E9.53339 F2400
G92 E0
G1 X107.619 Y36.866 F7800
G1 X96.511 Y44.852
G1 E2 F2400
;TYPE:External perimeter
;WIDTH:0.6
G1 F1800
G1 X96.441 Y44.746 E2.00849
G1 X96.429 Y44.67 E2.01363
G1 X96.429 Y39.605 E2.352
G1 X96.483 Y39.445 E2.36328
G1 X96.697 Y39.337 E2.37929
G1 X102.304 Y39.337 E2.75387
G1 X102.518 Y39.445 E2.76988
G1 X102.572 Y39.605 E2.78116
G1 X102.572 Y44.67 E3.11953
G1 X102.515 Y44.835 E3.13119
G1 X102.35 Y44.933 E3.14401
G1 X102.304 Y44.937 E3.14709
G1 X96.697 Y44.937 E3.52167
G1 X96.556 Y44.886 E3.53169
G1 X96.439 Y44.504 F7800
G1 E1.53169 F2400
G92 E0
G1 X92.486 Y44.858 F7800
G1 E2 F2400
G1 F1800
G1 X92.35 Y44.934 E2.01041
G1 X92.304 Y44.937 E2.01349
G1 X86.697 Y44.937 E2.38807
G1 X86.537 Y44.884 E2.39933
G1 X86.429 Y44.67 E2.41534
G1 X86.429 Y39.605 E2.75371
G1 X86.506 Y39.417 E2.76728
G1 X86.697 Y39.337 E2.78111
G1 X92.304 Y39.337 E3.15569
G1 X92.518 Y39.445 E3.1717
G1 X92.572 Y39.605 E3.18298
G1 X92.572 Y44.67 E3.52135
G1 X92.518 Y44.811 E3.53144
G1 X92.135 Y44.928 F7800
G1 E1.53144 F2400
G92 E0
G1 X134.409 Y42.51 F7800
G1 E2 F2400
;TYPE:Perimeter
G1 F1800
G1 X134.505 Y42.43 E2.00835
G1 X134.834 Y42.061 E2.04138
G1 X135.272 Y41.837 E2.07425
G1 X135.484 Y41.686 E2.09164
G1 X136.071 Y41.411 E2.13494
G1 X136.854 Y41.197 E2.18917
G1 X137.292 Y41.15 E2.2186
G1 X138.2 Y41.16 E2.27926
G1 X138.804 Y41.34 E2.32136
G1 X139.218 Y41.42 E2.34953
G1 X140.124 Y41.913 E2.41844
G1 X140.601 Y42.29 E2.45906
G1 X140.819 Y42.548 E2.48162
G1 X141.163 Y42.853 E2.51233
G1 X141.473 Y43.432 E2.55621
G1 X141.734 Y43.815 E2.58717
G1 X141.888 Y44.309 E2.62174
G1 X141.906 Y44.497 E2.63436
G1 X142.041 Y44.889 E2.66206
G1 X142.086 Y45.396 E2.69606
G1 X142.061 Y45.728 E2.7183
G1 X142.087 Y46.202 E2.75001
G1 X141.899 Y46.815 E2.79284
G1 X141.809 Y47.279 E2.82442
G1 X141.644 Y47.626 E2.85009
G1 X141.235 Y48.294 E2.90242
G1 X140.991 Y48.594 E2.92825
G1 X140.691 Y48.855 E2.95481
G1 X140.411 Y49.179 E2.98342
G1 X139.807 Y49.509 E3.0294
G1 X139.393 Y49.784 E3.0626
G1 X138.887 Y49.911 E3.09745
G1 X138.388 Y50.07 E3.13244
G1 X137.987 Y50.127 E3.1595
G1 X136.968 Y50.114 E3.22758
G1 X136.488 Y49.932 E3.26187
G1 X136.331 Y49.931 E3.27236
G1 X135.721 Y49.726 E3.31535
G1 X134.778 Y49.145 E3.38934
G1 X134.464 Y48.803 E3.42036
G1 X134.024 Y48.404 E3.46004
G1 X133.801 Y47.966 E3.49287
G1 X133.46 Y47.444 E3.53452
G1 X133.323 Y46.928 E3.57019
G1 X133.311 Y46.803 E3.57858
G1 X133.218 Y46.603 E3.59331
G1 X133.125 Y46.122 E3.62604
G1 X133.135 Y45.704 E3.65397
G1 X133.161 Y45.608 E3.66061
G1 X133.106 Y45.309 E3.68092
G1 X133.128 Y44.988 E3.70241
G1 X133.267 Y44.597 E3.73013
G1 X133.395 Y43.99 E3.77157
G1 X133.966 Y42.981 E3.84902
G1 X134.311 Y42.591 E3.88381
G1 X134.363 Y42.548 E3.88832
G1 X134.363 Y42.548 F7800
G1 X134.954 Y42.742
G1 F1800
G1 X135.016 Y42.63 E3.89687
G1 X135.161 Y42.485 E3.91057
G1 X135.424 Y42.351 E3.93029
G1 X135.681 Y42.249 E3.94876
G1 X135.822 Y42.102 E3.96237
G1 X136.174 Y41.937 E3.98834
G1 X136.472 Y41.884 E4.00856
G1 X136.597 Y41.907 E4.01705
G1 X136.755 Y41.784 E4.03043
G1 X137.186 Y41.693 E4.05986
G1 X137.465 Y41.705 E4.07852
G1 X137.619 Y41.757 E4.08938
G1 X137.904 Y41.678 E4.10914
G1 X138.298 Y41.724 E4.13564
G1 X138.664 Y41.881 E4.16225
G1 X138.912 Y41.89 E4.17883
G1 X139.209 Y42.012 E4.20028
G1 X139.462 Y42.189 E4.22091
G1 X139.529 Y42.289 E4.22895
