; generated by PrusaSlicer 2.8.1+linux-x64-GTK3 on 2024-11-04 at 10:25:03 UTC

; 

; external perimeters extrusion width = 0.45mm
; perimeters extrusion width = 0.45mm
; infill extrusion width = 0.45mm
; solid infill extrusion width = 0.45mm
; top infill extrusion width = 0.40mm
; support material extrusion width = 0.40mm
; first layer extrusion width = 0.60mm

M190 S60 ; set bed temperature and wait for it to be reached
M104 S200 ; set temperature
;TYPE:Custom
G28 ; home all axes
G1 Z5 F5000 ; lift nozzle
M109 S200 ; set temperature and wait for it to be reached
G21 ; set units to millimeters
G90 ; use absolute coordinates
M82 ; use absolute distances for extrusion
G92 E0
; Filament gcode
M107
;LAYER_CHANGE
;Z:0.3
;HEIGHT:0.3
G1 E-2 F2400
G1 Z.3 F7800
G1 X66.137 Y33.803
G1 E0 F2400
;TYPE:Skirt/Brim
;WIDTH:0.6
G1 F1800
G1 X66.65 Y32.865 E.07142
G1 X67.284 Y31.919 E.1475
G1 X76.298 Y20.821 E1.10265
G1 X77.115 Y19.99 E1.1805
G1 X82.767 Y15.275 E1.67222
G1 X83.711 Y14.646 E1.748
G1 X85.009 Y13.984 E1.84534
G1 X86.095 Y13.582 E1.9227
G1 X87.425 Y13.249 E2.01429
G1 X109.19 Y10.277 E3.4818
G1 X110.597 Y10.221 E3.57587
G1 X112.525 Y10.388 E3.70515
G1 X114.554 Y10.901 E3.84496
G1 X142.741 Y21.804 E5.86397
G1 X144.822 Y22.853 E6.01966
G1 X145.692 Y23.434 E6.08955
G1 X146.748 Y24.281 E6.17999
G1 X147.716 Y25.227 E6.27041
G1 X148.586 Y26.264 E6.36084
G1 X149.35 Y27.381 E6.45125
G1 X150.002 Y28.568 E6.54172
G1 X150.534 Y29.812 E6.63211
G1 X150.941 Y31.103 E6.72254
G1 X151.22 Y32.428 E6.813
G1 X151.368 Y33.773 E6.9034
G1 X151.383 Y35.127 E6.99386
G1 X151.265 Y36.475 E7.08426
G1 X151.016 Y37.805 E7.17465
G1 X150.637 Y39.105 E7.26511
G1 X150.133 Y40.361 E7.35552
G1 X149.509 Y41.562 E7.44594
G1 X148.769 Y42.696 E7.5364
G1 X147.922 Y43.752 E7.62684
G1 X146.976 Y44.72 E7.71726
G1 X145.692 Y45.773 E7.82819
G1 X144.463 Y46.566 E7.9259
G1 X143.02 Y47.287 E8.03366
G1 X117.233 Y58.056 E9.90056
G1 X115.072 Y58.635 E10.05002
G1 X113.936 Y58.78 E10.12653
G1 X112.808 Y58.819 E10.20193
G1 X111.663 Y58.754 E10.27855
G1 X110.252 Y58.536 E10.37393
G1 X74.524 Y51.45 E12.80724
G1 X72.58 Y50.829 E12.94358
G1 X71.545 Y50.35 E13.01977
G1 X70.573 Y49.787 E13.09481
G1 X69.643 Y49.129 E13.17092
G1 X68.788 Y48.4 E13.24598
G1 X67.992 Y47.584 E13.32213
G1 X67.284 Y46.712 E13.39717
G1 X66.649 Y45.766 E13.47329
G1 X66.138 Y44.83 E13.54453
G1 X65.556 Y43.457 E13.64415
G1 X65.102 Y41.832 E13.75687
G1 X64.875 Y40.182 E13.86814
G1 X64.874 Y38.462 E13.98305
G1 X65.101 Y36.806 E14.09471
G1 X65.552 Y35.185 E14.20711
G1 X66.114 Y33.858 E14.30338
G1 E12.30338 F2400
G92 E0
G1 X66.114 Y33.858 F7800
G92 E0
G1 X118.177 Y43.093
G1 E2 F2400
;TYPE:Support material
G1 F1800
G1 X118.686 Y44.1 E2.07538
G1 X119.004 Y45.182 E2.15072
G1 X119.12 Y46.302 E2.22594
G1 X119.032 Y47.424 E2.30113
G1 X118.742 Y48.511 E2.37629
G1 X118.261 Y49.526 E2.45133
G1 X117.609 Y50.431 E2.52585
G1 X117.104 Y50.921 E2.57286
G1 X116.776 Y51.226 E2.60278
G1 X115.854 Y51.834 E2.67656
G1 X114.818 Y52.272 E2.7517
G1 X113.718 Y52.516 E2.82697
G1 X112.59 Y52.555 E2.90237
G1 X111.471 Y52.388 E2.97795
G1 X110.399 Y52.018 E3.05371
G1 X109.41 Y51.457 E3.12967
G1 X108.538 Y50.721 E3.2059
G1 X107.814 Y49.835 E3.28234
G1 X107.288 Y48.871 E3.3557
G1 X106.916 Y47.72 E3.43651
G1 X106.814 Y47.132 E3.47638
G1 X106.778 Y45.975 E3.55371
G1 X106.922 Y44.988 E3.62035
G1 X107.115 Y44.344 E3.66526
G1 X107.589 Y43.308 E3.74137
G1 X108.029 Y42.655 E3.79397
G1 X117.842 Y42.655 E4.44953
G1 X118.128 Y43.03 E4.48104
G1 X118.128 Y43.03 F7800
G1 X118.332 Y48.814
G1 F1800
G1 X118.332 Y44.605 E4.76222
G1 X117.737 Y43.312 E4.85731
G1 X117.737 Y49.429 E5.26596
G1 X117.142 Y50.213 E5.33171
G1 X117.142 Y43.137 E5.80443
G1 X116.546 Y43.137 E5.84425
G1 X116.546 Y50.782 E6.35498
G1 X115.951 Y51.193 E6.40329
G1 X115.951 Y43.137 E6.94147
G1 X115.356 Y43.137 E6.98122
G1 X115.356 Y51.521 E7.54132
G1 X114.761 Y51.773 E7.58449
G1 X114.761 Y43.137 E8.16142
G1 X114.166 Y43.137 E8.20117
G1 X114.166 Y51.923 E8.78812
G1 X113.571 Y52.038 E8.8286
G1 X113.571 Y43.137 E9.42323
G1 X112.976 Y43.137 E9.46298
G1 X112.976 Y52.059 E10.05902
G1 X112.381 Y52.036 E10.0988
G1 X112.381 Y43.137 E10.6933
G1 X111.785 Y43.137 E10.73312
G1 X111.785 Y51.947 E11.32168
G1 X111.19 Y51.781 E11.36295
G1 X111.19 Y43.137 E11.94042
G1 X110.595 Y43.137 E11.98017
G1 X110.595 Y51.575 E12.54387
G1 X110 Y51.238 E12.58955
G1 X110 Y43.137 E13.13074
G1 X109.405 Y43.137 E13.17049
G1 X109.405 Y50.822 E13.68389
G1 X108.81 Y50.293 E13.73708
G1 X108.81 Y43.137 E14.21514
G1 X108.265 Y43.137 E14.25155
G1 X108.215 Y43.206 E14.25724
G1 X108.215 Y49.564 E14.68199
G1 X107.619 Y48.374 E14.7709
G1 X107.619 Y43.775 E15.07814
G1 E13.07814 F2400
G92 E0
G1 X107.619 Y43.775 F7800
G1 X101.746 Y40.079
G1 E2 F2400
G1 F1800
G1 X97.253 Y40.079 E2.30016
G1 X97.253 Y36.129 E2.56404
G1 X101.746 Y36.129 E2.8642
G1 X101.746 Y39.998 E3.12267
G1 X101.746 Y39.998 F7800
G1 X101.073 Y39.837
G1 F1800
G1 X101.073 Y36.611 E3.33818
G1 X100.478 Y36.611 E3.37793
G1 X100.478 Y39.596 E3.57734
G1 X99.883 Y39.596 E3.61709
G1 X99.883 Y36.611 E3.8165
G1 X99.288 Y36.611 E3.85625
G1 X99.288 Y39.596 E4.05566
G1 X98.692 Y39.596 E4.09548
G1 X98.692 Y36.611 E4.29489
G1 X98.097 Y36.611 E4.33464
G1 X98.097 Y39.837 E4.55015
G1 E2.55015 F2400
G92 E0
G1 X98.097 Y39.837 F7800
G1 X91.746 Y40.079
G1 E2 F2400
G1 F1800
G1 X87.253 Y40.079 E2.30016
G1 X87.253 Y36.129 E2.56404
G1 X91.746 Y36.129 E2.8642
G1 X91.746 Y39.998 E3.12267
G1 X91.746 Y39.998 F7800
G1 X90.956 Y39.837
G1 F1800
G1 X90.956 Y36.611 E3.33818
G1 X90.361 Y36.611 E3.37793
G1 X90.361 Y39.596 E3.57734
G1 X89.766 Y39.596 E3.61709
G1 X89.766 Y36.611 E3.8165
G1 X89.17 Y36.611 E3.85632
G1 X89.17 Y39.596 E4.05573
G1 X88.575 Y39.596 E4.09548
G1 X88.575 Y36.611 E4.29489
G1 X87.98 Y36.611 E4.33464
G1 X87.98 Y39.837 E4.55015
G1 E2.55015 F2400
G92 E0
G1 X87.98 Y39.837 F7800
G1 X110.578 Y16.489
G1 E2 F2400
G1 F1800
G1 X111.219 Y16.518 E2.04287
G1 X112.293 Y16.747 E2.11623
G1 X113.331 Y17.176 E2.19126
G1 X114.274 Y17.786 E2.26629
G1 X115.091 Y18.556 E2.34129
G1 X115.755 Y19.461 E2.41628
G1 X116.245 Y20.472 E2.49133
G1 X116.544 Y21.556 E2.56645
G1 X116.641 Y22.676 E2.64155
G1 X116.534 Y23.795 E2.71665
G1 X116.226 Y24.876 E2.79174
G1 X115.727 Y25.884 E2.86688
G1 X115.228 Y26.552 E2.92258
G1 X105.7 Y26.552 E3.5591
G1 X105.34 Y26.111 E3.59713
G1 X104.686 Y24.789 E3.69566
G1 X104.212 Y24.834 E3.72747
G1 X104.132 Y25.423 E3.76718
G1 X103.679 Y26.552 E3.84845
G1 X95.156 Y26.552 E4.41783
G1 X94.943 Y26.182 E4.44635
G1 X94.638 Y25.204 E4.51479
G1 X94.21 Y25.191 E4.5434
G1 X93.669 Y26.552 E4.64124
G1 X86.394 Y26.552 E5.12725
G1 X85.491 Y26.684 E5.18822
G1 X84.893 Y27.044 E5.23485
G1 X84.716 Y27.315 E5.25647
G1 X84.66 Y27.567 E5.27372
G1 X84.659 Y41.616 E6.21227
G1 X84.809 Y42.06 E6.24358
G1 X85.181 Y42.39 E6.2768
G1 X85.822 Y42.605 E6.32197
G1 X86.489 Y42.655 E6.36665
G1 X86.252 Y43.632 E6.43381
G1 X85.222 Y44.803 E6.538
G1 X83.818 Y45.353 E6.63873
G1 X82.213 Y45.209 E6.74638
G1 X80.91 Y44.301 E6.85248
G1 X80.119 Y44.806 E6.91517
G1 X79.077 Y45.229 E6.9903
G1 X77.976 Y45.457 E7.06541
G1 X76.853 Y45.482 E7.14045
G1 X75.743 Y45.302 E7.21557
G1 X74.685 Y44.925 E7.2906
G1 X73.712 Y44.362 E7.3657
G1 X72.858 Y43.633 E7.44071
G1 X72.15 Y42.761 E7.51575
G1 X71.638 Y41.824 E7.58708
G1 X71.269 Y40.711 E7.66541
G1 X71.116 Y39.6 E7.74033
G1 X71.116 Y39.037 E7.77794
G1 X71.268 Y37.924 E7.85298
G1 X71.421 Y37.386 E7.89035
G1 X71.637 Y36.808 E7.93157
G1 X72.15 Y35.87 E8.00299
G1 X72.859 Y34.997 E8.07812
G1 X73.715 Y34.267 E8.15328
G1 X74.689 Y33.704 E8.22844
G1 X75.748 Y33.328 E8.30351
G1 X76.829 Y33.154 E8.37666
G1 X78.012 Y33.181 E8.45571
G1 X79.084 Y33.403 E8.52884
G1 X80.038 Y33.792 E8.59767
G1 X80.038 Y32.914 E8.65633
G1 X80.455 Y32.131 E8.71559
G1 X80.038 Y31.349 E8.7748
G1 X80.038 Y29.748 E8.88176
G1 X80.531 Y28.823 E8.95178
G1 X80.26 Y28.334 E8.98913
G1 X80.009 Y27.042 E9.07706
G1 X80.451 Y25.647 E9.17482
G1 X81.156 Y24.781 E9.24942
G1 X82.134 Y24.175 E9.32628
G1 X83.35 Y23.936 E9.40907
G1 X84.526 Y24.192 E9.48947
G1 X84.704 Y22.94 E9.57395
G1 X85.028 Y22.066 E9.63622
G1 X85.494 Y21.296 E9.69635
G1 X86.243 Y20.491 E9.76981
G1 X87.187 Y19.862 E9.84559
G1 X88.273 Y19.459 E9.92297
G1 X89.463 Y19.338 E10.00288
G1 X90.485 Y19.456 E10.07161
G1 X91.529 Y19.825 E10.14558
G1 X92.468 Y20.424 E10.21999
G1 X93.244 Y21.218 E10.29416
G1 X93.817 Y22.16 E10.36782
G1 X94.188 Y23.281 E10.4467
G1 X94.648 Y23.256 E10.47748
G1 X95.039 Y22.064 E10.56129
G1 X95.504 Y21.297 E10.62121
G1 X96.252 Y20.492 E10.69462
G1 X97.196 Y19.863 E10.7704
G1 X98.282 Y19.461 E10.84776
G1 X99.475 Y19.339 E10.92787
G1 X100.493 Y19.457 E10.99633
G1 X101.537 Y19.825 E11.07028
G1 X102.476 Y20.424 E11.14469
G1 X103.253 Y21.218 E11.21891
G1 X103.891 Y22.266 E11.30088
G1 X104.314 Y22.168 E11.32989
G1 X104.448 Y21.258 E11.39134
G1 X104.823 Y20.129 E11.47082
G1 X105.344 Y19.184 E11.54291
G1 X106.06 Y18.311 E11.61834
G1 X106.921 Y17.584 E11.69362
G1 X107.899 Y17.026 E11.76884
G1 X108.961 Y16.654 E11.84401
G1 X110.038 Y16.487 E11.91682
G1 X110.497 Y16.488 E11.94748
G1 X110.497 Y16.488 F7800
G1 X115.951 Y24.888
G1 F1800
G1 X115.951 Y21.221 E12.19246
G1 X115.792 Y20.643 E12.23251
G1 X115.356 Y19.743 E12.29932
G1 X115.356 Y25.547 E12.68706
G1 X114.986 Y26.07 E12.72986
G1 X114.761 Y26.07 E12.74489
G1 X114.761 Y18.921 E13.22248
G1 X114.166 Y18.346 E13.27776
G1 X114.166 Y26.07 E13.79377
G1 X113.571 Y26.07 E13.83352
G1 X113.571 Y17.905 E14.37899
G1 X112.976 Y17.551 E14.42524
G1 X112.976 Y26.07 E14.99436
G1 X112.381 Y26.07 E15.03411
G1 X112.381 Y17.305 E15.61966
G1 X111.785 Y17.132 E15.66112
G1 X111.785 Y26.07 E16.25823
G1 X111.19 Y26.07 E16.29798
G1 X111.157 Y16.998 E16.90404
G1 X110.595 Y16.972 E16.94162
G1 X110.595 Y26.07 E17.54942
G1 X110 Y26.07 E17.58917
G1 X110 Y16.981 E18.19636
G1 X109.405 Y17.073 E18.23658
G1 X109.405 Y26.07 E18.83763
G1 X108.81 Y26.07 E18.87738
G1 X108.81 Y17.218 E19.46874
G1 X108.215 Y17.426 E19.51085
G1 X108.215 Y26.07 E20.08832
G1 X107.619 Y26.07 E20.12814
G1 X107.619 Y17.74 E20.68463
G1 X107.024 Y18.127 E20.73205
G1 X107.024 Y26.07 E21.26269
G1 X106.429 Y26.07 E21.30244
G1 X106.429 Y18.63 E21.79947
G1 X105.834 Y19.347 E21.86171
G1 X105.834 Y25.954 E22.30309
G1 X105.239 Y24.922 E22.38267
G1 X105.239 Y20.393 E22.68523
G1 X104.919 Y21.366 E22.75366
G1 X104.764 Y22.558 E22.83396
G1 X104.644 Y22.586 E22.84219
G1 X104.644 Y24.309 E22.9573
G1 X104.049 Y24.365 E22.99722
G1 X104.049 Y22.725 E23.10678
G1 X103.661 Y22.815 E23.13339
G1 X103.454 Y22.475 E23.15998
G1 X103.454 Y25.854 E23.38572
G1 X103.372 Y26.07 E23.40115
G1 X102.858 Y26.07 E23.43549
G1 X102.858 Y21.504 E23.74052
G1 X102.263 Y20.896 E23.79735
G1 X102.263 Y26.07 E24.143
G1 X101.668 Y26.07 E24.18275
G1 X101.668 Y20.48 E24.55619
G1 X101.073 Y20.172 E24.60095
G1 X101.073 Y26.07 E24.99497
G1 X100.478 Y26.07 E25.03472
G1 X100.478 Y19.963 E25.4427
G1 X99.883 Y19.872 E25.48291
G1 X99.883 Y26.07 E25.89697
G1 X99.288 Y26.07 E25.93672
G1 X99.288 Y19.843 E26.35272
G1 X98.692 Y19.903 E26.39274
G1 X98.692 Y26.07 E26.80473
G1 X98.097 Y26.07 E26.84448
G1 X98.097 Y20.043 E27.24712
G1 X97.502 Y20.264 E27.28952
G1 X97.502 Y26.07 E27.67739
G1 X96.907 Y26.07 E27.71714
G1 X96.907 Y20.635 E28.08023
G1 X96.312 Y21.136 E28.13219
G1 X96.312 Y26.07 E28.46181
G1 X95.717 Y26.07 E28.50156
G1 X95.717 Y21.876 E28.78174
G1 X95.475 Y22.275 E28.81291
G1 X95.122 Y23.344 E28.88812
G1 X95.122 Y25.136 E29.00784
G1 X94.996 Y24.732 E29.03611
G1 X94.527 Y24.718 E29.06746
G1 X94.527 Y23.745 E29.13246
G1 X93.931 Y23.777 E29.17233
G1 X93.931 Y24.7 E29.23399
G1 X93.336 Y26.07 E29.33377
G1 X93.336 Y22.297 E29.58583
G1 X92.741 Y21.393 E29.65813
G1 X92.741 Y26.07 E29.97058
G1 X92.146 Y26.07 E30.01033
G1 X92.146 Y20.79 E30.36306
G1 X91.551 Y20.41 E30.41022
G1 X91.551 Y26.07 E30.78834
G1 X90.956 Y26.07 E30.82809
G1 X90.956 Y20.133 E31.22471
G1 X90.361 Y19.927 E31.26677
G1 X90.361 Y26.07 E31.67716
G1 X89.766 Y26.07 E31.71691
G1 X89.766 Y19.858 E32.13191
G1 X89.46 Y19.823 E32.15249
G1 X89.17 Y19.852 E32.17196
G1 X89.17 Y26.07 E32.58736
G1 X88.575 Y26.07 E32.62711
G1 X88.575 Y19.913 E33.03843
G1 X88.383 Y19.933 E33.05133
G1 X87.98 Y20.082 E33.08003
G1 X87.98 Y26.07 E33.48006
G1 X87.385 Y26.07 E33.51981
G1 X87.385 Y20.309 E33.90468
G1 X86.79 Y20.706 E33.95246
G1 X86.79 Y26.07 E34.3108
G1 X86.195 Y26.077 E34.35055
G1 X86.195 Y21.25 E34.67302
G1 X85.881 Y21.588 E34.70384
G1 X85.6 Y22.053 E34.74014
G1 X85.6 Y26.157 E35.01431
G1 X85.004 Y26.366 E35.0565
G1 X85.004 Y24.252 E35.19773
G1 X84.955 Y24.778 E35.23302
G1 X84.409 Y24.66 E35.27034
G1 X84.409 Y44.603 E36.60264
G1 X83.814 Y44.836 E36.64533
G1 X83.814 Y24.53 E38.00188
G1 X83.219 Y24.453 E38.04196
G1 X83.219 Y44.815 E39.40225
G1 X82.624 Y44.762 E39.44216
G1 X82.624 Y24.57 E40.79109
G1 X82.314 Y24.631 E40.8122
G1 X82.029 Y24.808 E40.83461
G1 X82.029 Y44.493 E42.14967
G1 X81.434 Y44.079 E42.19809
G1 X81.434 Y25.204 E43.45904
G1 X80.839 Y26.019 E43.52645
G1 X80.839 Y43.775 E44.71265
G1 X80.243 Y44.155 E44.75987
G1 X80.243 Y34.397 E45.41176
G1 X79.648 Y34.154 E45.4547
G1 X79.648 Y44.477 E46.14433
G1 X79.053 Y44.719 E46.18724
G1 X79.053 Y33.912 E46.90921
G1 X78.458 Y33.766 E46.95014
G1 X78.458 Y44.865 E47.69161
G1 X77.863 Y44.977 E47.73206
G1 X77.863 Y33.657 E48.4883
G1 X77.268 Y33.636 E48.52807
G1 X77.268 Y44.99 E49.28658
G1 X76.673 Y44.964 E49.32637
G1 X76.673 Y33.667 E50.08107
G1 X76.077 Y33.763 E50.1214
G1 X76.077 Y44.868 E50.86327
G1 X75.482 Y44.697 E50.90463
G1 X75.482 Y33.934 E51.62366
G1 X74.887 Y34.146 E51.66586
G1 X74.887 Y44.485 E52.35656
G1 X74.292 Y44.141 E52.40247
G1 X74.292 Y34.49 E53.04721
G1 X73.697 Y34.916 E53.0961
G1 X73.697 Y43.715 E53.68392
G1 X73.102 Y43.168 E53.73791
G1 X73.102 Y35.463 E54.25265
G1 X72.507 Y36.222 E54.31708
G1 X72.507 Y42.409 E54.73041
G1 X71.912 Y41.182 E54.82151
G1 X71.912 Y36.809 E55.11365
G1 X71.912 Y36.809 F7800
G1 X85.6 Y44.009
G1 F1800
G1 X85.6 Y43.05 E55.17772
G1 X85.004 Y42.841 E55.21991
G1 X85.004 Y44.629 E55.33936
G1 E53.33936 F2400
G92 E0
G1 X85.004 Y44.629 F7800
G1 X112.306 Y32.017
G1 E2 F2400
;TYPE:Perimeter
;WIDTH:0.6
G1 F1800
G1 X112.543 Y32.126 E2.01743
G1 X113.005 Y32.461 E2.05555
G1 X113.392 Y32.881 E2.0937
G1 X113.688 Y33.369 E2.13183
G1 X113.881 Y33.906 E2.16995
G1 X113.964 Y34.47 E2.20803
G1 X113.934 Y35.04 E2.24616
G1 X113.791 Y35.593 E2.28432
G1 X113.542 Y36.106 E2.32241
G1 X113.196 Y36.56 E2.36054
G1 X112.767 Y36.937 E2.39869
G1 X112.272 Y37.221 E2.43681
G1 X111.731 Y37.401 E2.4749
G1 X111.368 Y37.451 E2.49938
G1 X110.832 Y37.451 E2.53519
G1 X110.177 Y37.319 E2.57983
G1 X109.658 Y37.083 E2.61792
G1 X109.195 Y36.747 E2.65614
G1 X108.808 Y36.327 E2.69429
G1 X108.512 Y35.84 E2.73236
G1 X108.318 Y35.301 E2.77063
G1 X108.235 Y34.739 E2.80858
G1 X108.248 Y34.374 E2.83298
G1 X108.341 Y33.846 E2.8688
G1 X108.498 Y33.404 E2.90014
G1 X108.725 Y32.995 E2.93139
G1 X109.091 Y32.556 E2.96957
G1 X109.537 Y32.199 E3.00773
G1 X110.042 Y31.938 E3.04571
G1 X110.526 Y31.791 E3.0795
G1 X111.063 Y31.733 E3.11558
G1 X111.468 Y31.76 E3.1427
G1 X112.024 Y31.889 E3.18083
G1 X112.251 Y31.992 E3.19748
G1 X112.251 Y31.992 F7800
G1 X112.077 Y32.491
G1 F1800
G1 X112.433 Y32.689 E3.22469
G1 X112.786 Y32.991 E3.25572
G1 X113.072 Y33.357 E3.28675
G1 X113.279 Y33.772 E3.31773
G1 X113.401 Y34.22 E3.34875
G1 X113.431 Y34.683 E3.37975
G1 X113.369 Y35.144 E3.41082
G1 X113.217 Y35.582 E3.44179
G1 X112.982 Y35.982 E3.47278
G1 X112.671 Y36.328 E3.50386
G1 X112.299 Y36.605 E3.53484
G1 X111.879 Y36.803 E3.56586
G1 X111.368 Y36.916 E3.60082
G1 X110.832 Y36.916 E3.63663
G1 X110.322 Y36.803 E3.67153
G1 X109.768 Y36.519 E3.71312
G1 X109.414 Y36.217 E3.74421
G1 X109.128 Y35.851 E3.77524
G1 X108.92 Y35.436 E3.80625
G1 X108.791 Y34.921 E3.84172
G1 X108.776 Y34.467 E3.87207
G1 X108.869 Y33.939 E3.90789
G1 X109.069 Y33.455 E3.94288
G1 X109.446 Y32.958 E3.98455
G1 X109.804 Y32.663 E4.01554
G1 X110.213 Y32.445 E4.0465
G1 X110.658 Y32.313 E4.07751
G1 X111.124 Y32.271 E4.10877
G1 X111.428 Y32.294 E4.12914
G1 X112.025 Y32.462 E4.17057
G1 X112.025 Y32.462 F7800
G1 X111.845 Y32.972
;TYPE:External perimeter
G1 F1800
G1 X112.099 Y33.108 E4.18982
G1 X112.375 Y33.335 E4.21369
