; generated by PrusaSlicer 2.8.1+linux-x64-GTK3 on 2024-11-04 at 10:21:58 UTC

; 

; external perimeters extrusion width = 0.45mm
; perimeters extrusion width = 0.45mm
; infill extrusion width = 0.45mm
; solid infill extrusion width = 0.45mm
; top infill extrusion width = 0.40mm
; support material extrusion width = 0.40mm
; first layer extrusion width = 0.60mm

M190 S60 ; set bed temperature and wait for it to be reached
M104 S200 ; set temperature
;TYPE:Custom
G28 ; home all axes
G1 Z5 F5000 ; lift nozzle
M109 S200 ; set temperature and wait for it to be reached
G21 ; set units to millimeters
G90 ; use absolute coordinates
M82 ; use absolute distances for extrusion
G92 E0
; Filament gcode
M107
;LAYER_CHANGE
;Z:0.3
;HEIGHT:0.3
G1 E-2 F2400
G1 Z.3 F7800
G1 X49.172 Y17.861
G1 E0 F2400
;TYPE:Skirt/Brim
;WIDTH:0.6
G1 F1800
G1 X49.836 Y16.491 E.10171
G1 X50.571 Y15.392 E.19004
G1 X51.471 Y14.362 E.28142
G1 X53.369 Y12.496 E.45923
G1 X54.751 Y11.471 E.57418
G1 X56.1 Y10.766 E.67587
G1 X57.538 Y10.268 E.77753
G1 X59.033 Y9.985 E.87918
G1 X60.553 Y9.925 E.9808
G1 X62.368 Y10.149 E1.10297
G1 X64.173 Y10.712 E1.22928
G1 X169.971 Y54.863 E8.88791
G1 X171.299 Y55.619 E8.99
G1 X172.227 Y56.31 E9.06729
G1 X173.418 Y57.472 E9.17845
G1 X174.123 Y58.371 E9.25477
G1 X174.941 Y59.747 E9.36171
G1 X175.44 Y60.927 E9.4473
G1 X175.861 Y62.496 E9.55583
G1 X176.066 Y64.349 E9.68038
G1 X176.68 Y99.268 E12.01352
G1 X176.475 Y101.343 E12.15282
G1 X176.054 Y102.911 E12.26128
G1 X175.554 Y104.093 E12.34702
G1 X174.735 Y105.468 E12.45394
G1 X174.031 Y106.367 E12.53022
G1 X172.839 Y107.528 E12.64138
G1 X171.933 Y108.202 E12.71682
G1 X170.592 Y108.963 E12.81983
G1 X169.151 Y109.521 E12.92306
G1 X167.72 Y109.847 E13.02111
G1 X166.613 Y109.966 E13.09549
G1 X165.133 Y109.949 E13.19437
G1 X160.967 Y109.402 E13.47507
G1 X159.288 Y109.103 E13.589
G1 X123.789 Y99.882 E16.03923
G1 X122.212 Y99.269 E16.15226
G1 X120.957 Y98.43 E16.25311
G1 X51.471 Y28.991 E22.81573
G1 X50.198 Y27.441 E22.94972
G1 X49.512 Y26.257 E23.04113
G1 X48.934 Y24.825 E23.14429
G1 X48.578 Y23.346 E23.24592
G1 X48.449 Y22.03 E23.33426
G1 X48.478 Y20.816 E23.41538
G1 X48.716 Y19.313 E23.51704
G1 X49.154 Y17.918 E23.61472
G1 E21.61472 F2400
G92 E0
G92 E0
G1 X167.039 Y92.311 F7800
G1 E2 F2400
;TYPE:Support material
G1 F1800
G1 X167.544 Y92.455 E2.03508
G1 X168.319 Y92.849 E2.09316
G1 X169.111 Y93.578 E2.16507
G1 X169.767 Y94.755 E2.25509
G1 X169.966 Y95.942 E2.33549
G1 X169.774 Y97.096 E2.41364
G1 X170.261 Y98.242 E2.49683
G1 X170.414 Y99.378 E2.57341
G1 X170.262 Y100.515 E2.65004
G1 X169.803 Y101.6 E2.72874
G1 X169.099 Y102.499 E2.80502
G1 X168.192 Y103.173 E2.88051
G1 X167.051 Y103.615 E2.96225
G1 X165.945 Y103.734 E3.03656
G1 X164.848 Y103.557 E3.11079
G1 X163.564 Y102.918 E3.2066
G1 X163.068 Y103.094 E3.24176
G1 X161.961 Y103.213 E3.31614
G1 X160.863 Y103.037 E3.39043
G1 X159.71 Y102.506 E3.47523
G1 X158.875 Y101.814 E3.54768
G1 X158.247 Y100.919 E3.62072
G1 X157.83 Y99.746 E3.70389
G1 X157.748 Y98.594 E3.78104
G1 X157.844 Y97.87 E3.82983
G1 X158.259 Y96.721 E3.91144
G1 X158.133 Y95.6 E3.9868
G1 X158.404 Y94.377 E4.07048
G1 X166.432 Y94.377 E4.60679
G1 X166.739 Y94.07 E4.63579
G1 X166.739 Y92.264 E4.75644
G1 X166.959 Y92.298 E4.77131
G1 X166.959 Y92.298 F7800
G1 X169.513 Y101.58
G1 F1800
G1 X169.513 Y97.704 E5.03025
G1 X169.275 Y97.157 E5.0701
G1 X169.477 Y95.943 E5.15232
G1 X169.304 Y94.908 E5.22242
G1 X168.918 Y94.18 E5.27747
G1 X168.918 Y101.948 E5.79641
G1 X168.323 Y102.475 E5.84951
G1 X168.323 Y93.508 E6.44855
G1 X168.041 Y93.249 E6.47413
G1 X167.728 Y93.089 E6.49761
G1 X167.728 Y102.844 E7.1493
G1 X167.133 Y103.074 E7.19192
G1 X167.133 Y94.358 E7.7742
G1 X166.632 Y94.859 E7.82153
G1 X166.538 Y94.859 E7.82781
G1 X166.538 Y103.185 E8.38403
G1 X165.942 Y103.245 E8.42405
G1 X165.942 Y94.859 E8.98428
G1 X165.347 Y94.859 E9.02403
G1 X165.347 Y103.149 E9.57785
G1 X164.752 Y102.996 E9.61889
G1 X164.752 Y94.859 E10.16249
G1 X164.157 Y94.859 E10.20224
G1 X164.157 Y102.723 E10.7276
G1 X163.66 Y102.372 E10.76825
G1 X163.562 Y102.407 E10.7752
G1 X163.562 Y94.859 E11.27945
G1 X162.967 Y94.859 E11.3192
G1 X162.967 Y102.619 E11.83761
G1 X162.372 Y102.684 E11.8776
G1 X162.372 Y94.859 E12.40035
G1 X161.776 Y94.859 E12.44017
G1 X161.776 Y102.695 E12.96366
G1 X161.181 Y102.6 E13.00391
G1 X161.181 Y94.859 E13.52105
G1 X160.586 Y94.859 E13.5608
G1 X160.586 Y102.4 E14.06458
G1 X159.991 Y102.109 E14.10883
G1 X159.991 Y94.859 E14.59317
G1 X159.396 Y94.859 E14.63292
G1 X159.396 Y101.619 E15.08452
G1 X158.801 Y100.869 E15.14848
G1 X158.801 Y94.618 E15.56608
G1 E13.56608 F2400
G92 E0
G1 X158.801 Y94.618 F7800
G1 X152.688 Y82.962
G1 E2 F2400
G1 F1800
G1 X153.664 Y83.609 E2.07823
G1 X154.416 Y84.494 E2.15581
G1 X154.903 Y85.585 E2.23563
G1 X155.065 Y86.727 E2.31269
G1 X154.904 Y87.868 E2.38967
G1 X154.417 Y88.959 E2.46949
G1 X153.667 Y89.845 E2.54704
G1 X152.735 Y90.464 E2.62178
G1 X152.239 Y90.64 E2.65694
G1 X152.239 Y89.23 E2.75114
G1 X151.932 Y88.923 E2.78014
G1 X146.918 Y88.923 E3.1151
G1 X145.621 Y86.676 E3.28842
G1 X146.918 Y84.43 E3.46169
G1 X151.932 Y84.43 E3.79665
G1 X152.239 Y84.123 E3.82565
G1 X152.239 Y82.821 E3.91263
G1 X152.612 Y82.938 E3.93875
G1 X152.612 Y82.938 F7800
G1 X154.04 Y89.032
G1 F1800
G1 X154.04 Y84.831 E4.2194
G1 X153.445 Y84.095 E4.28263
G1 X153.445 Y89.361 E4.63443
G1 X152.85 Y89.809 E4.68419
G1 X152.85 Y83.647 E5.09584
G1 X152.722 Y83.562 E5.1061
G1 X152.722 Y84.322 E5.15687
G1 X152.254 Y84.789 E5.20104
G1 X152.254 Y88.563 E5.45316
G1 X152.132 Y88.441 E5.46469
G1 X151.659 Y88.441 E5.49629
G1 X151.659 Y84.912 E5.73205
G1 X151.064 Y84.912 E5.7718
G1 X151.064 Y88.441 E6.00756
G1 X150.469 Y88.441 E6.04731
G1 X150.469 Y84.912 E6.28307
G1 X149.874 Y84.912 E6.32282
G1 X149.874 Y88.441 E6.55858
G1 X149.279 Y88.441 E6.59833
G1 X149.279 Y84.912 E6.83409
G1 X148.684 Y84.912 E6.87384
G1 X148.684 Y88.441 E7.1096
G1 X148.088 Y88.441 E7.14942
G1 X148.088 Y84.912 E7.38518
G1 X147.493 Y84.912 E7.42493
G1 X147.493 Y88.441 E7.66069
G1 X147.196 Y88.441 E7.68053
G1 X146.898 Y87.925 E7.72034
G1 X146.898 Y85.428 E7.88715
G1 X146.303 Y86.459 E7.96667
G1 X146.303 Y87.376 E8.02793
G1 E6.02793 F2400
G92 E0
G1 X146.303 Y87.376 F7800
G1 X152.677 Y73.839
G1 E2 F2400
G1 F1800
G1 X153.428 Y74.725 E2.07759
G1 X153.703 Y75.328 E2.12187
G1 X153.915 Y75.815 E2.15735
G1 X154.077 Y76.957 E2.23441
G1 X153.915 Y78.099 E2.31147
G1 X153.703 Y78.586 E2.34695
G1 X153.428 Y79.19 E2.39129
G1 X152.676 Y80.075 E2.46887
G1 X152.239 Y80.365 E2.50391
G1 X152.239 Y79.23 E2.57973
G1 X151.932 Y78.923 E2.60873
G1 X146.918 Y78.923 E2.94369
G1 X145.621 Y76.676 E3.11701
G1 X146.918 Y74.43 E3.29028
G1 X151.932 Y74.43 E3.62524
G1 X152.239 Y74.123 E3.65424
G1 X152.239 Y73.549 E3.69259
G1 X152.61 Y73.795 E3.72233
G1 X152.61 Y73.795 F7800
G1 X153.445 Y78.572
G1 F1800
G1 X153.445 Y75.942 E3.89803
G1 X153.017 Y74.986 E3.968
G1 X152.85 Y74.788 E3.9853
G1 X152.85 Y79.126 E4.2751
G1 X152.722 Y79.277 E4.28832
G1 X152.722 Y79.031 E4.30475
G1 X152.254 Y78.563 E4.34897
G1 X152.254 Y74.789 E4.60109
G1 X152.132 Y74.912 E4.61266
G1 X151.659 Y74.912 E4.64426
G1 X151.659 Y78.441 E4.88002
G1 X151.064 Y78.441 E4.91977
G1 X151.064 Y74.912 E5.15553
G1 X150.469 Y74.912 E5.19528
G1 X150.469 Y78.441 E5.43104
G1 X149.874 Y78.441 E5.47079
G1 X149.874 Y74.912 E5.70655
G1 X149.279 Y74.912 E5.7463
G1 X149.279 Y78.441 E5.98206
G1 X148.684 Y78.441 E6.02181
G1 X148.684 Y74.912 E6.25757
G1 X148.088 Y74.912 E6.29739
G1 X148.088 Y78.441 E6.53315
G1 X147.493 Y78.441 E6.5729
G1 X147.493 Y74.912 E6.80866
G1 X147.196 Y74.912 E6.8285
G1 X146.898 Y75.428 E6.86831
G1 X146.898 Y77.925 E7.03512
G1 X146.303 Y76.894 E7.11464
G1 X146.303 Y75.977 E7.1759
G1 E5.1759 F2400
G92 E0
G1 X146.303 Y75.977 F7800
G1 X162.505 Y59.417
G1 E2 F2400
G1 F1800
G1 X163.177 Y59.505 E2.04528
G1 X164.223 Y59.913 E2.12029
G1 X164.629 Y60.215 E2.15409
G1 X165.278 Y60.111 E2.198
G1 X166.511 Y60.238 E2.28081
G1 X167.557 Y60.648 E2.35586
G1 X168.485 Y61.338 E2.43311
G1 X169.189 Y62.237 E2.50939
G1 X169.648 Y63.322 E2.58809
G1 X169.799 Y64.46 E2.66478
G1 X169.646 Y65.596 E2.74136
G1 X169.2 Y66.647 E2.81763
G1 X169.303 Y67.875 E2.89996
G1 X169.014 Y69.069 E2.98203
G1 X168.353 Y70.114 E3.06464
G1 X167.495 Y70.805 E3.13824
G1 X166.739 Y71.167 E3.19424
G1 X166.739 Y69.283 E3.3201
G1 X166.432 Y68.975 E3.34915
G1 X158.265 Y68.975 E3.89475
G1 X158.222 Y68.896 E3.90076
G1 X158.011 Y67.974 E3.96395
G1 X158.055 Y66.797 E4.04263
G1 X158.394 Y65.935 E4.10451
G1 X158.012 Y65.118 E4.16476
G1 X157.87 Y64.611 E4.19993
G1 X157.788 Y63.461 E4.27695
G1 X157.883 Y62.74 E4.32553
G1 X158.249 Y61.72 E4.39793
G1 X158.866 Y60.839 E4.46978
G1 X159.85 Y60.012 E4.55565
G1 X160.854 Y59.555 E4.62934
G1 X161.944 Y59.379 E4.7031
G1 X162.425 Y59.411 E4.7353
G1 X162.425 Y59.411 F7800
G1 X168.918 Y68.442
G1 F1800
G1 X168.918 Y62.824 E5.11061
G1 X168.772 Y62.486 E5.13521
G1 X168.323 Y61.913 E5.18384
G1 X168.323 Y69.26 E5.67466
G1 X167.988 Y69.789 E5.71649
G1 X167.728 Y69.999 E5.73882
G1 X167.728 Y61.376 E6.31488
G1 X167.133 Y60.999 E6.36194
G1 X167.133 Y68.994 E6.89605
G1 X166.632 Y68.493 E6.94338
G1 X166.538 Y68.493 E6.94966
G1 X166.538 Y60.766 E7.46587
G1 X165.942 Y60.649 E7.50645
G1 X165.942 Y68.493 E8.03047
G1 X165.347 Y68.493 E8.07022
G1 X165.3 Y60.596 E8.59779
G1 X164.752 Y60.684 E8.63487
G1 X164.752 Y68.493 E9.15655
G1 X164.157 Y68.493 E9.1963
G1 X164.157 Y60.465 E9.73261
G1 X163.562 Y60.173 E9.77689
G1 X163.562 Y68.493 E10.33271
G1 X162.967 Y68.493 E10.37246
G1 X162.967 Y59.964 E10.94224
G1 X162.372 Y59.891 E10.98229
G1 X162.372 Y68.493 E11.55695
G1 X161.776 Y68.493 E11.59677
G1 X161.776 Y59.894 E12.17123
G1 X161.181 Y59.991 E12.2115
G1 X161.181 Y68.493 E12.77948
G1 X160.586 Y68.493 E12.81923
G1 X160.586 Y60.207 E13.37278
G1 X159.991 Y60.511 E13.41742
G1 X159.991 Y68.493 E13.95066
G1 X159.396 Y68.493 E13.99041
G1 X159.396 Y61.003 E14.49078
G1 X158.801 Y61.772 E14.55574
G1 X158.801 Y68.734 E15.02084
G1 E13.02084 F2400
G92 E0
G1 X158.801 Y68.734 F7800
G1 X109.377 Y66.712
G1 E2 F2400
;TYPE:Perimeter
;WIDTH:0.765565
G1 F1800
G1 X109.455 Y66.799 E2.01022
G1 X109.513 Y66.935 E2.02315
;WIDTH:0.724173
G1 X109.571 Y67.07 E2.03524
;WIDTH:0.682782
G1 X109.63 Y67.205 E2.0466
;WIDTH:0.641391
G1 X109.688 Y67.341 E2.05724
;WIDTH:0.6
G1 X109.881 Y67.878 E2.09536
G1 X109.964 Y68.443 E2.13351
G1 X109.934 Y69.013 E2.17164
G1 X109.791 Y69.566 E2.2098
G1 X109.542 Y70.08 E2.24795
G1 X109.325 Y70.374 E2.27236
G1 X108.953 Y70.755 E2.30793
G1 X108.4 Y71.133 E2.35268
G1 X107.867 Y71.34 E2.39088
G1 X107.304 Y71.437 E2.42905
G1 X106.734 Y71.421 E2.46714
G1 X106.177 Y71.292 E2.50534
;WIDTH:0.633117
G1 X105.91 Y71.188 E2.52567
;WIDTH:0.666234
G1 X105.642 Y71.085 E2.54722
;WIDTH:0.702889
G1 X105.578 Y71.067 E2.55251
;WIDTH:0.739543
G1 X105.513 Y71.05 E2.55817
;WIDTH:0.776199
G1 X105.449 Y71.032 E2.56407
G1 X105.032 Y70.672 E2.61298
;WIDTH:0.762407
G1 X104.746 Y70.352 E2.65035
G1 X104.687 Y70.217 E2.66318
;WIDTH:0.721805
G1 X104.629 Y70.082 E2.67523
;WIDTH:0.681203
G1 X104.57 Y69.947 E2.68656
;WIDTH:0.640601
G1 X104.512 Y69.812 E2.69712
;WIDTH:0.6
G1 X104.318 Y69.275 E2.73526
G1 X104.235 Y68.712 E2.77328
G1 X104.265 Y68.14 E2.81155
G1 X104.408 Y67.586 E2.84977
G1 X104.658 Y67.073 E2.88789
G1 X104.875 Y66.779 E2.9123
G1 X105.247 Y66.397 E2.94792
G1 X105.536 Y66.173 E2.97235
G1 X105.8 Y66.02 E2.99273
G1 X106.332 Y65.813 E3.03087
G1 X106.895 Y65.716 E3.06904
G1 X107.466 Y65.732 E3.1072
G1 X108.022 Y65.861 E3.14533
;WIDTH:0.633566
G1 X108.29 Y65.964 E3.16571
;WIDTH:0.667134
G1 X108.557 Y66.068 E3.18725
;WIDTH:0.70456
G1 X108.622 Y66.085 E3.19261
;WIDTH:0.741986
G1 X108.687 Y66.102 E3.19829
;WIDTH:0.779413
G1 X108.752 Y66.119 E3.20428
G1 X109.169 Y66.48 E3.25347
;WIDTH:0.765565
G1 X109.337 Y66.667 E3.27545
G1 X109.337 Y66.667 F7800
G1 X108.892 Y67.099
;WIDTH:0.6
G1 F1800
G1 X109.071 Y67.329 E3.29492
G1 X109.279 Y67.744 E3.32593
G1 X109.401 Y68.193 E3.35701
G1 X109.432 Y68.656 E3.38801
G1 X109.369 Y69.117 E3.41909
G1 X109.217 Y69.556 E3.45013
G1 X108.941 Y70 E3.48506
G1 X108.57 Y70.381 E3.52059
G1 X108.132 Y70.669 E3.55561
G1 X107.541 Y70.867 E3.59725
G1 X107.078 Y70.909 E3.62831
G1 X106.616 Y70.859 E3.65935
G1 X106.173 Y70.718 E3.69041
G1 X105.767 Y70.492 E3.72145
G1 X105.414 Y70.19 E3.75248
G1 X105.128 Y69.824 E3.78351
G1 X104.92 Y69.408 E3.81458
G1 X104.798 Y68.96 E3.8456
G1 X104.768 Y68.498 E3.87653
G1 X104.859 Y67.943 E3.9141
G1 X105.025 Y67.518 E3.94458
G1 X105.258 Y67.153 E3.97351
G1 X105.63 Y66.771 E4.00913
G1 X106.068 Y66.484 E4.04411
G1 X106.627 Y66.29 E4.08364
G1 X107.122 Y66.243 E4.11686
G1 X107.583 Y66.294 E4.14785
G1 X108.026 Y66.435 E4.17891
G1 X108.432 Y66.661 E4.20995
G1 X108.785 Y66.963 E4.24098
G1 X108.855 Y67.052 E4.24854
G1 X108.855 Y67.052 F7800
G1 X108.476 Y67.431
;TYPE:External perimeter
G1 F1800
G1 X108.601 Y67.585 E4.26179
G1 X108.768 Y67.902 E4.28573
G1 X108.868 Y68.246 E4.30966
G1 X108.899 Y68.603 E4.3336
G1 X108.858 Y68.959 E4.35754
G1 X108.747 Y69.3 E4.3815
G1 X108.558 Y69.626 E4.40667
G1 X108.186 Y70.007 E4.44224
G1 X107.815 Y70.227 E4.47105
G1 X107.474 Y70.336 E4.49497
G1 X107.118 Y70.375 E4.51889
G1 X106.761 Y70.343 E4.54284
G1 X106.418 Y70.241 E4.56675
G1 X106.101 Y70.073 E4.59072
G1 X105.825 Y69.845 E4.61464
G1 X105.598 Y69.568 E4.63857
G1 X105.432 Y69.251 E4.66248
G1 X105.331 Y68.907 E4.68643
G1 X105.301 Y68.551 E4.7103
G1 X105.371 Y68.101 E4.74072
G1 X105.496 Y67.774 E4.76411
G1 X105.642 Y67.527 E4.78328
G1 X106.014 Y67.145 E4.8189
G1 X106.336 Y66.948 E4.84412
G1 X106.725 Y66.817 E4.87154
G1 X107.082 Y66.777 E4.89554
G1 X107.438 Y66.809 E4.91942
G1 X107.782 Y66.912 E4.94341
G1 X108.098 Y67.08 E4.96732
G1 X108.375 Y67.307 E4.99125
G1 X108.438 Y67.385 E4.99795
G1 X108.662 Y67.716 F7800
G1 E2.99795 F2400
G92 E0
G1 X104.808 Y64.806 F7800
G1 E2 F2400
;TYPE:Perimeter
G1 F1800
G1 X104.725 Y64.985 E2.01318
G1 X104.436 Y65.433 E2.0488
G1 X104.197 Y65.71 E2.07324
G1 X103.752 Y66.068 E2.11139
G1 X103.244 Y66.33 E2.14957
G1 X102.75 Y66.479 E2.18404
G1 X102.126 Y66.531 E2.22587
G1 X101.559 Y66.462 E2.26403
G1 X101.017 Y66.282 E2.30218
;WIDTH:0.644131
G1 X100.897 Y66.242 E2.31133
;WIDTH:0.688263
G1 X100.777 Y66.201 E2.3212
;WIDTH:0.732394
G1 X100.657 Y66.16 E2.33177
;WIDTH:0.776525
G1 X100.536 Y66.12 E2.34309
G1 X100.119 Y65.76 E2.39202
;WIDTH:0.76273
G1 X99.833 Y65.44 E2.4294
G1 X99.775 Y65.305 E2.4422
;WIDTH:0.722047
G1 X99.716 Y65.17 E2.45429
;WIDTH:0.681365
G1 X99.658 Y65.035 E2.4656
;WIDTH:0.640682
G1 X99.6 Y64.9 E2.47616
;WIDTH:0.6
G1 X99.406 Y64.362 E2.51437
G1 X99.323 Y63.799 E2.55239
G1 X99.353 Y63.228 E2.59059
G1 X99.496 Y62.674 E2.62881
G1 X99.745 Y62.161 E2.6669
G1 X99.962 Y61.866 E2.69137
G1 X100.334 Y61.485 E2.72694
G1 X100.624 Y61.26 E2.75146
G1 X101.131 Y60.998 E2.78959
G1 X101.62 Y60.85 E2.82372
G1 X102.249 Y60.797 E2.86589
G1 X102.816 Y60.866 E2.90405
G1 X103.358 Y61.046 E2.9422
;WIDTH:0.644854
G1 X103.478 Y61.086 E2.95136
;WIDTH:0.689708
G1 X103.599 Y61.127 E2.96132
;WIDTH:0.734562
G1 X103.719 Y61.167 E2.97189
;WIDTH:0.779417
G1 X103.839 Y61.207 E2.98317
G1 X104.257 Y61.568 E3.03243
;WIDTH:0.765566
G1 X104.543 Y61.887 E3.0699
G1 X104.601 Y62.022 E3.08275
;WIDTH:0.724174
G1 X104.659 Y62.158 E3.09492
;WIDTH:0.682783
G1 X104.717 Y62.293 E3.10625
;WIDTH:0.641391
G1 X104.776 Y62.429 E3.11692
;WIDTH:0.6
G1 X104.969 Y62.966 E3.15504
G1 X105.052 Y63.531 E3.19319
G1 X105.022 Y64.101 E3.23132
G1 X104.879 Y64.654 E3.26948
G1 X104.834 Y64.751 E3.27662
G1 X104.834 Y64.751 F7800
G1 X104.317 Y64.584
G1 F1800
G1 X104.275 Y64.695 E3.28455
G1 X103.986 Y65.142 E3.32011
G1 X103.614 Y65.511 E3.35511
G1 X103.19 Y65.773 E3.38841
G1 X102.661 Y65.95 E3.42568
G1 X102.166 Y65.997 E3.4589
G1 X101.704 Y65.947 E3.48994
G1 X101.261 Y65.805 E3.52102
G1 X100.855 Y65.579 E3.55206
G1 X100.502 Y65.277 E3.58309
G1 X100.216 Y64.912 E3.61407
G1 X100.07 Y64.644 E3.63446
G1 X99.886 Y64.048 E3.67613
G1 X99.856 Y63.586 E3.70706
G1 X99.946 Y63.031 E3.74462
G1 X100.113 Y62.606 E3.77513
G1 X100.346 Y62.24 E3.80411
G1 X100.718 Y61.859 E3.83968
G1 X101.156 Y61.572 E3.87466
G1 X101.646 Y61.392 E3.90953
G1 X102.209 Y61.331 E3.94736
