; generated by PrusaSlicer 2.8.1+linux-x64-GTK3 on 2024-11-04 at 10:22:38 UTC

; 

; external perimeters extrusion width = 0.45mm
; perimeters extrusion width = 0.45mm
; infill extrusion width = 0.45mm
; solid infill extrusion width = 0.45mm
; top infill extrusion width = 0.40mm
; support material extrusion width = 0.40mm
; first layer extrusion width = 0.60mm

M190 S60 ; set bed temperature and wait for it to be reached
M104 S200 ; set temperature
;TYPE:Custom
G28 ; home all axes
G1 Z5 F5000 ; lift nozzle
M109 S200 ; set temperature and wait for it to be reached
G21 ; set units to millimeters
G90 ; use absolute coordinates
M82 ; use absolute distances for extrusion
G92 E0
; Filament gcode
M107
;LAYER_CHANGE
;Z:0.3
;HEIGHT:0.3
G1 E-2 F2400
G1 Z.3 F7800
G1 X57.45 Y20.268
G1 E0 F2400
;TYPE:Skirt/Brim
;WIDTH:0.6
G1 F1800
G1 X57.948 Y19.04 E.08853
G1 X58.567 Y17.868 E.17708
G1 X59.299 Y16.763 E.26563
G1 X60.137 Y15.737 E.35413
G1 X61.074 Y14.799 E.4427
G1 X62.099 Y13.959 E.53123
G1 X63.202 Y13.226 E.6197
G1 X64.373 Y12.606 E.70822
G1 X65.601 Y12.105 E.79682
G1 X66.569 Y11.807 E.86448
G1 X67.864 Y11.529 E.95296
G1 X70 Y11.355 E1.09613
G1 X150.156 Y11.357 E6.45098
G1 X151.479 Y11.439 E6.53953
G1 X152.481 Y11.59 E6.60722
G1 X154.693 Y12.212 E6.76072
G1 X155.908 Y12.741 E6.84925
G1 X156.798 Y13.226 E6.91696
G1 X157.901 Y13.959 E7.00543
G1 X158.926 Y14.799 E7.09396
G1 X160.49 Y16.484 E7.24754
G1 X161.251 Y17.569 E7.33608
G1 X161.9 Y18.724 E7.42459
G1 X162.43 Y19.938 E7.51308
G1 X162.753 Y20.899 E7.58081
G1 X163.063 Y22.187 E7.66931
G1 X163.243 Y23.5 E7.75785
G1 X163.292 Y24.824 E7.84636
G1 X163.219 Y26.044 E7.92801
G1 X163.063 Y27.111 E8.00005
G1 X162.753 Y28.4 E8.08862
G1 X162.316 Y29.651 E8.17715
G1 X161.757 Y30.852 E8.26565
G1 X161.251 Y31.73 E8.33335
G1 X160.49 Y32.815 E8.42189
G1 X159.625 Y33.818 E8.51037
G1 X158.664 Y34.731 E8.59892
G1 X156.798 Y36.073 E8.75247
G1 X155.627 Y36.693 E8.84099
G1 X154.399 Y37.193 E8.92957
G1 X153.431 Y37.492 E8.99725
G1 X152.136 Y37.77 E9.08573
G1 X150 Y37.943 E9.22889
G1 X70 Y37.943 E14.57332
G1 X68.521 Y37.86 E14.67228
G1 X66.569 Y37.492 E14.80498
G1 X65.307 Y37.086 E14.89354
G1 X64.374 Y36.693 E14.96117
G1 X62.641 Y35.72 E15.09394
G1 X60.845 Y34.287 E15.24743
G1 X59.51 Y32.815 E15.38019
G1 X58.919 Y31.992 E15.44788
G1 X58.243 Y30.852 E15.53642
G1 X57.35 Y28.735 E15.68991
G1 X56.883 Y26.803 E15.8227
G1 X56.733 Y25.487 E15.91119
G1 X56.716 Y24.162 E15.99971
G1 X56.83 Y22.841 E16.08829
G1 X57.076 Y21.539 E16.17681
G1 X57.433 Y20.325 E16.26135
G1 E14.26135 F2400
G92 E0
G1 X57.433 Y20.325 F7800
G92 E0
G1 X103.177 Y30.239
G1 E2 F2400
;TYPE:External perimeter
;WIDTH:0.6
G1 F1800
G1 X103.002 Y30.146 E2.01324
G1 X102.725 Y29.918 E2.03721
G1 X102.499 Y29.64 E2.06114
G1 X102.332 Y29.323 E2.08508
G1 X102.232 Y28.979 E2.10901
G1 X102.201 Y28.622 E2.13295
G1 X102.287 Y28.122 E2.16684
G1 X102.499 Y27.658 E2.20092
G1 X102.763 Y27.343 E2.22838
G1 X102.874 Y27.254 E2.23788
G1 X103.179 Y27.067 E2.26178
G1 X103.626 Y26.89 E2.2939
G1 X103.982 Y26.85 E2.31783
G1 X104.339 Y26.882 E2.34178
G1 X104.682 Y26.984 E2.36569
G1 X104.998 Y27.153 E2.38963
G1 X105.275 Y27.38 E2.41356
G1 X105.501 Y27.658 E2.43749
G1 X105.668 Y27.975 E2.46143
G1 X105.768 Y28.319 E2.48536
G1 X105.799 Y28.676 E2.5093
G1 X105.758 Y29.032 E2.53324
G1 X105.647 Y29.372 E2.55713
G1 X105.458 Y29.699 E2.58236
G1 X105.086 Y30.08 E2.61793
G1 X104.716 Y30.3 E2.64669
G1 X104.374 Y30.409 E2.67067
G1 X104.018 Y30.448 E2.69459
G1 X103.661 Y30.416 E2.71854
G1 X103.318 Y30.314 E2.74245
G1 X103.23 Y30.267 E2.74911
G1 X102.894 Y30.049 F7800
G1 E.74911 F2400
G92 E0
G1 X95.696 Y18.882 F7800
G1 E2 F2400
G1 F1800
G1 X95.982 Y18.85 E2.01923
G1 X96.339 Y18.882 E2.04318
G1 X96.682 Y18.984 E2.06709
G1 X96.998 Y19.153 E2.09103
G1 X97.275 Y19.38 E2.11496
G1 X97.51 Y19.675 E2.14016
G1 X97.729 Y20.161 E2.17577
G1 X97.798 Y20.586 E2.20453
G1 X97.775 Y20.944 E2.2285
G1 X97.627 Y21.401 E2.26059
G1 X97.435 Y21.724 E2.28569
G1 X97.067 Y22.098 E2.32074
G1 X96.716 Y22.3 E2.34779
G1 X96.374 Y22.409 E2.37177
G1 X96.018 Y22.448 E2.39569
G1 X95.661 Y22.416 E2.41964
G1 X95.318 Y22.314 E2.44355
G1 X95.002 Y22.146 E2.46746
G1 X94.725 Y21.918 E2.49143
G1 X94.499 Y21.64 E2.51536
G1 X94.332 Y21.323 E2.5393
G1 X94.23 Y20.96 E2.56449
G1 X94.217 Y20.427 E2.60011
G1 X94.319 Y20.009 E2.62885
G1 X94.479 Y19.688 E2.65281
G1 X94.7 Y19.406 E2.67675
G1 X94.972 Y19.173 E2.70068
G1 X95.284 Y18.999 E2.72455
G1 X95.626 Y18.89 E2.74853
G1 X95.636 Y18.888 E2.74921
G1 X96.035 Y18.864 F7800
G1 E.74921 F2400
G92 E0
G1 X65.562 Y28.145 F7800
G1 E2 F2400
;TYPE:Perimeter
G1 F1800
G1 X65.096 Y27.461 E2.05529
G1 X64.854 Y26.989 E2.09073
G1 X64.554 Y26.164 E2.14938
G1 X64.433 Y25.631 E2.18589
G1 X64.362 Y25.072 E2.22353
G1 X64.348 Y24.508 E2.26122
G1 X64.391 Y23.946 E2.29887
G1 X64.488 Y23.391 E2.33651
G1 X64.641 Y22.849 E2.37413
G1 X64.847 Y22.324 E2.41181
G1 X65.104 Y21.823 E2.44943
G1 X65.41 Y21.349 E2.48712
G1 X65.761 Y20.908 E2.52477
G1 X66.155 Y20.505 E2.56242
G1 X66.586 Y20.143 E2.60002
G1 X67.039 Y19.834 E2.63665
G1 X67.82 Y19.434 E2.69527
G1 X68.334 Y19.247 E2.73181
G1 X68.88 Y19.108 E2.76945
G1 X69.437 Y19.024 E2.80708
G1 X70.034 Y18.994 E2.84701
G1 X93.66 Y18.996 E4.42535
G1 X93.486 Y19.269 E4.44698
G1 X93.262 Y19.795 E4.48517
G1 X93.146 Y20.454 E4.52987
G1 X93.16 Y20.987 E4.56549
G1 X93.219 Y21.348 E4.58993
G1 X93.444 Y21.944 E4.63249
G1 X93.708 Y22.373 E4.66614
G1 X94.095 Y22.793 E4.70429
G1 X94.558 Y23.128 E4.74247
G1 X95.077 Y23.365 E4.78059
G1 X95.634 Y23.494 E4.81879
G1 X96.205 Y23.51 E4.85695
G1 X96.767 Y23.412 E4.89506
G1 X97.3 Y23.206 E4.93323
G1 X97.781 Y22.897 E4.97142
G1 X98.191 Y22.5 E5.00955
G1 X98.514 Y22.029 E5.0477
G1 X98.738 Y21.504 E5.08583
G1 X98.853 Y20.944 E5.12402
G1 X98.855 Y20.373 E5.16217
G1 X98.705 Y19.72 E5.20693
G1 X98.486 Y19.235 E5.24248
G1 X98.336 Y18.996 E5.26133
G1 X150.168 Y19 E8.72399
G1 X150.835 Y19.078 E8.76885
G1 X151.442 Y19.19 E8.81009
G1 X151.95 Y19.35 E8.84567
G1 X152.46 Y19.567 E8.8827
G1 X152.951 Y19.835 E8.92007
G1 X153.419 Y20.156 E8.95798
G1 X153.858 Y20.526 E8.99633
G1 X154.29 Y20.977 E9.03805
G1 X154.686 Y21.491 E9.0814
G1 X155.011 Y22.075 E9.12605
G1 X155.275 Y22.634 E9.16735
G1 X155.441 Y23.14 E9.20293
G1 X155.562 Y23.68 E9.2399
G1 X155.631 Y24.234 E9.2772
G1 X155.645 Y24.783 E9.31389
G1 X155.638 Y25.072 E9.3332
G1 X155.567 Y25.631 E9.37084
G1 X155.442 Y26.18 E9.40845
G1 X155.268 Y26.699 E9.44502
G1 X154.887 Y27.49 E9.50367
G1 X154.59 Y27.949 E9.54019
G1 X154.249 Y28.377 E9.57675
G1 X153.621 Y28.99 E9.63538
G1 X153.185 Y29.32 E9.67191
G1 X152.704 Y29.614 E9.70957
G1 X152.196 Y29.859 E9.74725
G1 X151.666 Y30.051 E9.78491
G1 X151.12 Y30.19 E9.82255
G1 X150.563 Y30.274 E9.86018
G1 X149.966 Y30.304 E9.90011
G1 X106.334 Y30.299 E12.81496
G1 X106.442 Y30.152 E12.82715
G1 X106.692 Y29.639 E12.86527
G1 X106.834 Y29.086 E12.90341
G1 X106.865 Y28.516 E12.94155
G1 X106.782 Y27.951 E12.9797
G1 X106.554 Y27.351 E13.02258
G1 X106.292 Y26.925 E13.05599
G1 X105.905 Y26.505 E13.09414
G1 X105.442 Y26.17 E13.13232
G1 X104.923 Y25.934 E13.17041
G1 X104.366 Y25.805 E13.20861
G1 X103.795 Y25.789 E13.24677
G1 X103.236 Y25.885 E13.28466
G1 X102.763 Y26.08 E13.31884
G1 X102.333 Y26.315 E13.35158
G1 X101.904 Y26.691 E13.38969
G1 X101.558 Y27.146 E13.42788
G1 X101.308 Y27.659 E13.466
G1 X101.166 Y28.212 E13.50414
G1 X101.135 Y28.782 E13.54228
G1 X101.218 Y29.347 E13.58043
G1 X101.412 Y29.885 E13.61864
G1 X101.658 Y30.299 E13.65081
G1 X69.718 Y30.296 E15.78457
G1 X69.157 Y30.239 E15.82224
G1 X68.605 Y30.128 E15.85985
G1 X68.082 Y29.966 E15.89643
G1 X67.282 Y29.605 E15.95506
G1 X66.815 Y29.32 E15.99161
G1 X66.366 Y28.98 E16.02924
G1 X65.953 Y28.597 E16.06687
G1 X65.597 Y28.193 E16.10284
G1 X65.597 Y28.193 F7800
G1 X65.15 Y28.49
G1 F1800
G1 X64.635 Y27.735 E16.16389
G1 X64.363 Y27.204 E16.20375
G1 X64.039 Y26.316 E16.2669
G1 X63.904 Y25.724 E16.30746
G1 X63.828 Y25.112 E16.34866
G1 X63.812 Y24.495 E16.38989
G1 X63.858 Y23.88 E16.43109
G1 X63.966 Y23.272 E16.47234
G1 X64.133 Y22.678 E16.51356
G1 X64.358 Y22.103 E16.55481
G1 X64.64 Y21.554 E16.59604
G1 X64.974 Y21.036 E16.63722
G1 X65.359 Y20.554 E16.67843
G1 X65.79 Y20.112 E16.71967
G1 X66.263 Y19.715 E16.76092
G1 X66.765 Y19.373 E16.8015
G1 X67.605 Y18.942 E16.86457
G1 X68.176 Y18.735 E16.90515
G1 X68.774 Y18.582 E16.94639
G1 X69.384 Y18.49 E16.9876
G1 X70.021 Y18.458 E17.03021
G1 X94.637 Y18.46 E18.67469
G1 X95.026 Y18.443 E18.7007
;WIDTH:0.565405
G1 X95.414 Y18.426 E18.72497
G1 X95.264 Y18.458 E18.73455
;WIDTH:0.6
G1 X95.114 Y18.491 E18.74481
G1 X94.704 Y18.709 E18.77583
G1 X94.345 Y19.005 E18.80691
G1 X94.052 Y19.365 E18.83792
G1 X93.781 Y19.927 E18.8796
G1 X93.682 Y20.441 E18.91457
G1 X93.695 Y20.973 E18.95012
G1 X93.82 Y21.481 E18.98507
G1 X94.028 Y21.897 E19.01614
G1 X94.315 Y22.263 E19.04721
G1 X94.668 Y22.565 E19.07824
G1 X95.074 Y22.791 E19.10928
G1 X95.516 Y22.932 E19.14027
G1 X95.978 Y22.982 E19.17131
G1 X96.441 Y22.94 E19.20237
G1 X96.886 Y22.808 E19.23338
G1 X97.296 Y22.589 E19.26443
G1 X97.655 Y22.294 E19.29547
G1 X97.948 Y21.933 E19.32653
G1 X98.164 Y21.522 E19.35755
G1 X98.294 Y21.076 E19.38859
G1 X98.325 Y20.453 E19.43026
G1 X98.217 Y19.94 E19.46528
G1 X97.998 Y19.455 E19.50083
G1 X97.685 Y19.036 E19.53577
G1 X97.332 Y18.734 E19.5668
G1 X96.806 Y18.461 E19.60639
G1 X150.199 Y18.465 E23.17333
G1 X151.24 Y18.586 E23.24334
G1 X151.824 Y18.735 E23.2836
G1 X152.404 Y18.946 E23.32483
G1 X152.96 Y19.213 E23.36603
G1 X153.487 Y19.535 E23.40729
G1 X153.979 Y19.908 E23.44854
G1 X154.431 Y20.327 E23.48971
G1 X154.84 Y20.791 E23.53103
G1 X155.139 Y21.202 E23.56498
G1 X155.479 Y21.814 E23.61175
G1 X155.773 Y22.438 E23.65783
G1 X155.956 Y22.995 E23.697
G1 X156.09 Y23.587 E23.73755
G1 X156.165 Y24.194 E23.77841
G1 X156.18 Y24.796 E23.81864
G1 X156.172 Y25.112 E23.83976
G1 X156.096 Y25.724 E23.88096
G1 X155.958 Y26.326 E23.92222
G1 X155.765 Y26.901 E23.96274
G1 X155.355 Y27.752 E24.02585
G1 X155.026 Y28.262 E24.06639
G1 X154.647 Y28.737 E24.10699
G1 X153.971 Y29.397 E24.17011
G1 X153.487 Y29.763 E24.21065
G1 X152.96 Y30.085 E24.25191
G1 X152.404 Y30.353 E24.29314
G1 X151.824 Y30.564 E24.33437
G1 X151.226 Y30.716 E24.37559
G1 X150.616 Y30.808 E24.4168
G1 X149.979 Y30.84 E24.45941
G1 X104.804 Y30.835 E27.47734
G1 X105.032 Y30.742 E27.49379
G1 X105.47 Y30.454 E27.52881
G1 X105.842 Y30.073 E27.56438
G1 X106.118 Y29.629 E27.59931
G1 X106.27 Y29.19 E27.63035
G1 X106.332 Y28.729 E27.66142
G1 X106.301 Y28.266 E27.69242
G1 X106.18 Y27.817 E27.72349
G1 X105.972 Y27.402 E27.7545
G1 X105.685 Y27.036 E27.78557
G1 X105.332 Y26.734 E27.8166
G1 X104.926 Y26.508 E27.84764
G1 X104.484 Y26.367 E27.87863
G1 X103.862 Y26.32 E27.9203
G1 X103.347 Y26.415 E27.95529
G1 X102.856 Y26.622 E27.99089
G1 X102.429 Y26.924 E28.02583
G1 X102.145 Y27.238 E28.05411
G1 X101.882 Y27.67 E28.0879
G1 X101.73 Y28.109 E28.11894
G1 X101.668 Y28.569 E28.14995
G1 X101.699 Y29.033 E28.18102
G1 X101.82 Y29.481 E28.21202
G1 X102.028 Y29.897 E28.24309
G1 X102.315 Y30.263 E28.27416
G1 X102.668 Y30.565 E28.30519
G1 X103.186 Y30.835 E28.34421
G1 X69.692 Y30.831 E30.58179
G1 X69.077 Y30.77 E30.62308
G1 X68.473 Y30.647 E30.66426
G1 X67.892 Y30.468 E30.70487
G1 X67.031 Y30.08 E30.76796
G1 X66.513 Y29.763 E30.80853
G1 X66.021 Y29.391 E30.84974
G1 X65.569 Y28.971 E30.89096
G1 X65.187 Y28.538 E30.92953
G1 E28.92953 F2400
G92 E0
G1 X65.187 Y28.538 F7800
G1 X95.529 Y18.412
G1 E2 F2400
;WIDTH:0.502721
G1 F1800
G1 X96.322 Y18.4 E2.04336
G1 E.04336 F2400
G92 E0
G1 X96.322 Y18.4 F7800
G1 X104.471 Y30.885
G1 E2 F2400
;WIDTH:0.499695
G1 F1800
G1 X103.679 Y30.897 E2.04301
G1 E.04301 F2400
G92 E0
G1 X103.679 Y30.897 F7800
G1 X64.738 Y28.836
G1 E2 F2400
;TYPE:External perimeter
;WIDTH:0.6
G1 F1800
G1 X64.174 Y28.009 E2.06687
G1 X63.871 Y27.418 E2.11124
G1 X63.525 Y26.468 E2.17878
G1 X63.376 Y25.817 E2.22339
G1 X63.293 Y25.152 E2.26816
G1 X63.276 Y24.481 E2.313
G1 X63.326 Y23.813 E2.35775
G1 X63.443 Y23.153 E2.40253
G1 X63.624 Y22.507 E2.44735
G1 X63.869 Y21.883 E2.49213
G1 X64.175 Y21.286 E2.53695
G1 X64.539 Y20.723 E2.58174
G1 X64.957 Y20.199 E2.62652
G1 X65.425 Y19.719 E2.67131
G1 X65.939 Y19.288 E2.71612
G1 X66.49 Y18.912 E2.76068
G1 X67.391 Y18.45 E2.82832
G1 X68.017 Y18.222 E2.87283
G1 X68.667 Y18.057 E2.91763
G1 X69.33 Y17.957 E2.96242
G1 X70.007 Y17.923 E3.0077
G1 X150.23 Y17.929 E8.36703
G1 X151.337 Y18.058 E8.44148
G1 X151.983 Y18.222 E8.48601
G1 X152.613 Y18.451 E8.53079
G1 X153.217 Y18.742 E8.57558
G1 X153.789 Y19.092 E8.62038
G1 X154.323 Y19.497 E8.66515
G1 X154.815 Y19.953 E8.70996
G1 X155.259 Y20.456 E8.75478
G1 X155.591 Y20.914 E8.79257
G1 X156.132 Y21.887 E8.86694
G1 X156.272 Y22.242 E8.89243
G1 X156.472 Y22.849 E8.93513
G1 X156.617 Y23.494 E8.97929
G1 X156.699 Y24.154 E9.02372
G1 X156.716 Y24.81 E9.06756
G1 X156.707 Y25.152 E9.09042
G1 X156.624 Y25.817 E9.13519
G1 X156.475 Y26.471 E9.18
G1 X156.262 Y27.104 E9.22462
G1 X155.823 Y28.015 E9.29218
G1 X155.461 Y28.575 E9.33673
G1 X155.045 Y29.097 E9.38132
G1 X154.321 Y29.804 E9.44892
G1 X153.789 Y30.206 E9.49347
G1 X153.217 Y30.556 E9.53827
G1 X152.613 Y30.847 E9.58306
G1 X151.983 Y31.076 E9.62784
G1 X151.333 Y31.242 E9.67266
G1 X150.67 Y31.342 E9.71745
G1 X149.993 Y31.375 E9.76273
G1 X69.665 Y31.367 E15.12907
G1 X68.998 Y31.3 E15.17385
G1 X68.34 Y31.167 E15.2187
G1 X67.702 Y30.97 E15.26331
G1 X66.78 Y30.554 E15.33088
G1 X66.211 Y30.206 E15.37544
G1 X65.677 Y29.802 E15.42017
G1 X65.185 Y29.345 E15.46503
G1 X64.776 Y28.882 E15.5063
G1 X64.547 Y28.555 F7800
G1 E13.5063 F2400
G92 E0
G1 X152.579 Y19.802 F7800
G1 E2 F2400
;TYPE:Solid infill
;WIDTH:0.600938
G1 F1800
G1 X153.761 Y20.985 E2.11191
G1 X154.108 Y21.378 E2.147
G1 X154.347 Y21.707 E2.17421
G1 X154.797 Y22.517 E2.23622
G1 X154.967 Y22.95 E2.26735
G1 X151.706 Y19.689 E2.57598
G1 X151.548 Y19.631 E2.58724
G1 X151.069 Y19.509 E2.62032
G1 X150.728 Y19.47 E2.64329
G1 X155.201 Y23.942 E3.06658
G1 X155.25 Y24.518 E3.10527
G1 X155.244 Y24.744 E3.1204
G1 X149.902 Y19.402 E3.62598
G1 X149.143 Y19.402 E3.67677
G1 X155.186 Y25.445 E4.24869
G1 X155.055 Y26.072 E4.29156
G1 X148.384 Y19.402 E4.92287
G1 X147.625 Y19.402 E4.97366
G1 X154.855 Y26.631 E5.65788
G1 X154.608 Y27.143 E5.69592
G1 X146.866 Y19.402 E6.42859
G1 X146.107 Y19.402 E6.47938
G1 X154.325 Y27.619 E7.2571
G1 X153.996 Y28.049 E7.29333
G1 X145.349 Y19.402 E8.1117
G1 X144.59 Y19.402 E8.16249
G1 X153.619 Y28.431 E9.01702
G1 X153.358 Y28.685 E9.04139
G1 X153.219 Y28.79 E9.05305
G1 X143.831 Y19.401 E9.9416
G1 X143.072 Y19.401 E9.99239
G1 X152.772 Y29.102 E10.91047
G1 X152.511 Y29.261 E10.93092
G1 X152.283 Y29.371 E10.94786
G1 X142.313 Y19.401 E11.89145
G1 X141.554 Y19.401 E11.94224
G1 X151.747 Y29.594 E12.90693
G1 X151.548 Y29.667 E12.92112
G1 X151.16 Y29.766 E12.94792
G1 X140.795 Y19.401 E13.92889
G1 X140.036 Y19.401 E13.97968
G1 X150.51 Y29.875 E14.97097
G1 X149.779 Y29.902 E15.01992
G1 X139.278 Y19.401 E16.01376
G1 X138.519 Y19.401 E16.06455
G1 X149.02 Y29.902 E17.05839
G1 X148.261 Y29.902 E17.10918
G1 X137.76 Y19.401 E18.10302
G1 X137.001 Y19.401 E18.15381
G1 X147.502 Y29.902 E19.14765
G1 X146.743 Y29.902 E19.19844
G1 X136.242 Y19.401 E20.19228
G1 X135.483 Y19.401 E20.24307
G1 X145.985 Y29.902 E21.23696
G1 X145.226 Y29.902 E21.28775
G1 X134.724 Y19.401 E22.28164
G1 X133.966 Y19.401 E22.33237
G1 X144.467 Y29.902 E23.32621
G1 X143.708 Y29.902 E23.377
G1 X133.207 Y19.401 E24.37084
G1 X132.448 Y19.401 E24.42163
G1 X142.949 Y29.902 E25.41547
G1 X142.19 Y29.902 E25.46626
G1 X131.689 Y19.401 E26.4601
G1 X130.93 Y19.4 E26.51089
G1 X141.431 Y29.902 E27.50478
G1 X140.672 Y29.902 E27.55557
G1 X130.171 Y19.4 E28.54946
G1 X129.412 Y19.4 E28.60025
G1 X139.913 Y29.901 E29.59409
G1 X139.155 Y29.901 E29.64482
G1 X128.654 Y19.4 E30.63866
G1 X127.895 Y19.4 E30.68945
G1 X138.396 Y29.901 E31.68329
G1 X137.637 Y29.901 E31.73408
G1 X127.136 Y19.4 E32.72792
G1 X126.377 Y19.4 E32.77871
G1 X136.878 Y29.901 E33.77255
G1 X136.119 Y29.901 E33.82334
G1 X125.618 Y19.4 E34.81718
G1 X124.859 Y19.4 E34.86797
G1 X135.36 Y29.901 E35.86181
G1 X134.601 Y29.901 E35.9126
G1 X124.1 Y19.4 E36.90644
G1 X123.341 Y19.4 E36.95723
