; generated by PrusaSlicer 2.8.1+linux-x64-GTK3 on 2024-10-30 at 14:00:18 UTC

; 

; external perimeters extrusion width = 0.45mm
; perimeters extrusion width = 0.45mm
; infill extrusion width = 0.45mm
; solid infill extrusion width = 0.45mm
; top infill extrusion width = 0.40mm
; support material extrusion width = 0.40mm
; first layer extrusion width = 0.60mm

M190 S60 ; set bed temperature and wait for it to be reached
M104 S200 ; set temperature
;TYPE:Custom
G28 ; home all axes
G1 Z5 F5000 ; lift nozzle
M109 S200 ; set temperature and wait for it to be reached
G21 ; set units to millimeters
G90 ; use absolute coordinates
M82 ; use absolute distances for extrusion
G92 E0
; Filament gcode
M107
;LAYER_CHANGE
;Z:0.3
;HEIGHT:0.3
G1 E-2 F2400
G1 Z.3 F7800
G1 X66.575 Y33.631
G1 E0 F2400
;TYPE:Skirt/Brim
;WIDTH:0.6
G1 F1800
G1 X67.175 Y32.443 E.08891
G1 X67.81 Y31.496 E.16508
G1 X68.519 Y30.622 E.24026
G1 X69.315 Y29.806 E.31641
G1 X70.17 Y29.076 E.39152
G1 X83.09 Y20.255 E1.43663
G1 X84.719 Y19.342 E1.56138
G1 X86.149 Y18.786 E1.66388
G1 X87.234 Y18.511 E1.73866
G1 X88.388 Y18.331 E1.81669
G1 X110.884 Y16.946 E3.32239
G1 X112.294 Y16.916 E3.41661
G1 X113.622 Y17.035 E3.50568
G1 X115.505 Y17.461 E3.63465
G1 X142.465 Y26.517 E5.53462
G1 X143.726 Y27.066 E5.6265
G1 X144.926 Y27.737 E5.71835
G1 X146.053 Y28.525 E5.81022
G1 X147.096 Y29.42 E5.90203
G1 X148.045 Y30.416 E5.99394
G1 X148.89 Y31.5 E6.08576
G1 X149.623 Y32.664 E6.17766
G1 X150.237 Y33.894 E6.2695
G1 X150.724 Y35.18 E6.36137
G1 X151.082 Y36.508 E6.45325
G1 X151.305 Y37.865 E6.54512
G1 X151.385 Y38.924 E6.61607
G1 X151.366 Y40.299 E6.70794
G1 X151.21 Y41.666 E6.79986
G1 X150.92 Y43.01 E6.89171
G1 X150.497 Y44.318 E6.98355
G1 X149.945 Y45.578 E7.07545
G1 X149.271 Y46.776 E7.16728
G1 X148.481 Y47.902 E7.25917
G1 X147.583 Y48.943 E7.35101
G1 X146.346 Y50.09 E7.46371
G1 X145.148 Y50.968 E7.56294
G1 X143.726 Y51.783 E7.67243
G1 X142.171 Y52.438 E7.78515
G1 X115.392 Y61.41 E9.67187
G1 X113.507 Y61.835 E9.80096
G1 X112.179 Y61.953 E9.89003
G1 X111.046 Y61.933 E9.96573
G1 X109.961 Y61.818 E10.03862
G1 X81.016 Y56.182 E12.00862
G1 X78.631 Y55.173 E12.18162
G1 X77.04 Y54.054 E12.31156
G1 X70.391 Y48.88 E12.87439
G1 X69.315 Y47.969 E12.96858
G1 X68.519 Y47.153 E13.04473
G1 X67.81 Y46.28 E13.11986
G1 X67.175 Y45.332 E13.19609
G1 X66.298 Y43.595 E13.32608
G1 X65.769 Y41.994 E13.43872
G1 X65.456 Y40.308 E13.55328
G1 X65.377 Y38.608 E13.66697
G1 X65.53 Y36.927 E13.77973
G1 X65.923 Y35.238 E13.89558
G1 X66.298 Y34.18 E13.97057
G1 X66.548 Y33.684 E14.00768
G1 E12.00768 F2400
G92 E0
G1 X66.548 Y33.684 F7800
G92 E0
G1 X116.646 Y48.153
G1 E2 F2400
;TYPE:Support material
G1 F1800
G1 X117.009 Y49.224 E2.07555
G1 X117.138 Y50.347 E2.15107
G1 X117.027 Y51.471 E2.22652
G1 X116.681 Y52.547 E2.30203
G1 X116.116 Y53.524 E2.37743
G1 X115.366 Y54.35 E2.45196
G1 X114.414 Y55.028 E2.53004
G1 X113.401 Y55.467 E2.6038
G1 X112.291 Y55.686 E2.67938
G1 X111.158 Y55.666 E2.75508
G1 X110.054 Y55.406 E2.83085
G1 X109.029 Y54.917 E2.90672
G1 X108.165 Y54.247 E2.97976
G1 X107.393 Y53.319 E3.0604
G1 X107.079 Y52.768 E3.10277
G1 X106.872 Y52.309 E3.13641
G1 X106.577 Y51.212 E3.2123
G1 X106.523 Y50.077 E3.28821
G1 X106.595 Y49.43 E3.3317
G1 X106.88 Y48.417 E3.402
G1 X107.376 Y47.476 E3.47306
G1 X116.239 Y47.476 E4.06516
G1 X116.604 Y48.085 E4.11259
G1 X116.604 Y48.085 F7800
G1 X116.546 Y52.177
G1 F1800
G1 X116.536 Y49.33 E4.30279
G1 X116.206 Y48.357 E4.37143
G1 X115.951 Y47.958 E4.40306
G1 X115.951 Y52.845 E4.72954
G1 X115.724 Y53.238 E4.75986
G1 X115.356 Y53.644 E4.79647
G1 X115.356 Y47.958 E5.17633
G1 X114.761 Y47.958 E5.21608
G1 X114.761 Y54.195 E5.63275
G1 X114.166 Y54.61 E5.68121
G1 X114.166 Y47.958 E6.1256
G1 X113.571 Y47.958 E6.16535
G1 X113.571 Y54.868 E6.62698
G1 X112.976 Y55.059 E6.66873
G1 X112.976 Y47.958 E7.14312
G1 X112.381 Y47.958 E7.18287
G1 X112.381 Y55.177 E7.66514
G1 X111.785 Y55.195 E7.70497
G1 X111.785 Y47.958 E8.18844
G1 X111.19 Y47.958 E8.22819
G1 X111.19 Y55.178 E8.71053
G1 X110.595 Y55.038 E8.75136
G1 X110.595 Y47.958 E9.22434
G1 X110 Y47.958 E9.26409
G1 X110 Y54.846 E9.72425
G1 X109.405 Y54.562 E9.7683
G1 X109.405 Y47.958 E10.20948
G1 X108.81 Y47.958 E10.24923
G1 X108.81 Y54.137 E10.66202
G1 X108.215 Y53.579 E10.71651
G1 X108.215 Y47.958 E11.09202
G1 X107.667 Y47.958 E11.12863
G1 X107.619 Y48.048 E11.13544
G1 X107.619 Y52.743 E11.44909
G1 X107.323 Y52.136 E11.49421
G1 X107.055 Y51.138 E11.56324
G1 X107.024 Y48.794 E11.71985
G1 E9.71985 F2400
G92 E0
G1 X107.024 Y48.794 F7800
G1 X101.747 Y44.899
G1 E2 F2400
G1 F1800
G1 X97.254 Y44.899 E2.30016
G1 X97.254 Y40.949 E2.56404
G1 X101.747 Y40.949 E2.8642
G1 X101.747 Y44.819 E3.12274
G1 X101.747 Y44.819 F7800
G1 X101.073 Y44.658
G1 F1800
G1 X101.073 Y41.432 E3.33825
G1 X100.478 Y41.432 E3.378
G1 X100.478 Y44.417 E3.57741
G1 X99.883 Y44.417 E3.61716
G1 X99.883 Y41.432 E3.81657
G1 X99.288 Y41.432 E3.85632
G1 X99.288 Y44.417 E4.05573
G1 X98.692 Y44.417 E4.09555
G1 X98.692 Y41.432 E4.29496
G1 X98.097 Y41.432 E4.33471
G1 X98.097 Y44.658 E4.55022
G1 E2.55022 F2400
G92 E0
G1 X98.097 Y44.658 F7800
G1 X91.747 Y44.899
G1 E2 F2400
G1 F1800
G1 X87.254 Y44.899 E2.30016
G1 X87.254 Y40.949 E2.56404
G1 X91.747 Y40.949 E2.8642
G1 X91.747 Y44.819 E3.12274
G1 X91.747 Y44.819 F7800
G1 X90.956 Y44.658
G1 F1800
G1 X90.956 Y41.432 E3.33825
G1 X90.361 Y41.432 E3.378
G1 X90.361 Y44.417 E3.57741
G1 X89.766 Y44.417 E3.61716
G1 X89.766 Y41.432 E3.81657
G1 X89.17 Y41.432 E3.85639
G1 X89.17 Y44.417 E4.0558
G1 X88.575 Y44.417 E4.09555
G1 X88.575 Y41.432 E4.29496
G1 X87.98 Y41.432 E4.33471
G1 X87.98 Y44.658 E4.55022
G1 E2.55022 F2400
G92 E0
G1 X87.98 Y44.658 F7800
G1 X91.119 Y24.897
G1 E2 F2400
G1 F1800
G1 X92.079 Y25.42 E2.07303
G1 X92.925 Y26.195 E2.14968
G1 X93.553 Y27.147 E2.22587
G1 X93.94 Y28.241 E2.30339
G1 X94.048 Y29.38 E2.37982
G1 X93.877 Y30.516 E2.45657
G1 X93.521 Y31.373 E2.51857
G1 X86.132 Y31.383 E3.0122
G1 X85.236 Y31.611 E3.07397
G1 X84.787 Y32.002 E3.11374
G1 X84.66 Y32.412 E3.14241
G1 X84.664 Y46.487 E4.0827
G1 X84.81 Y46.881 E4.11077
G1 X85.182 Y47.211 E4.14399
G1 X85.823 Y47.426 E4.18916
G1 X86.49 Y47.476 E4.23384
G1 X86.253 Y48.453 E4.301
G1 X85.223 Y49.623 E4.40514
G1 X83.82 Y50.173 E4.50581
G1 X82.214 Y50.03 E4.61352
G1 X80.889 Y49.107 E4.7214
G1 X80.162 Y47.725 E4.82572
G1 X80.173 Y46.127 E4.93248
G1 X80.227 Y46.025 E4.94019
G1 X80.038 Y45.67 E4.96706
G1 X80.038 Y44.626 E5.0368
G1 X79.609 Y44.801 E5.06775
G1 X78.507 Y45.029 E5.14293
G1 X77.383 Y45.054 E5.21804
G1 X76.273 Y44.874 E5.29316
G1 X75.214 Y44.497 E5.36826
G1 X74.241 Y43.933 E5.44339
G1 X73.386 Y43.203 E5.5185
G1 X72.677 Y42.33 E5.59363
G1 X72.166 Y41.393 E5.66493
G1 X71.797 Y40.279 E5.74333
G1 X71.697 Y39.729 E5.78068
G1 X71.645 Y38.608 E5.85565
G1 X71.797 Y37.496 E5.93063
G1 X71.952 Y36.953 E5.96835
G1 X72.166 Y36.382 E6.00909
G1 X72.677 Y35.445 E6.08039
G1 X73.386 Y34.572 E6.15552
G1 X74.241 Y33.842 E6.23063
G1 X75.214 Y33.278 E6.30576
G1 X76.273 Y32.901 E6.38086
G1 X77.354 Y32.726 E6.45402
G1 X78.538 Y32.752 E6.53314
G1 X79.609 Y32.974 E6.60621
G1 X80.279 Y33.247 E6.65454
G1 X80.01 Y31.862 E6.74879
G1 X80.452 Y30.468 E6.84649
G1 X81.157 Y29.602 E6.92109
G1 X82.136 Y28.996 E6.99801
G1 X83.351 Y28.757 E7.08073
G1 X84.702 Y29.051 E7.1731
G1 X84.871 Y27.966 E7.24646
G1 X85.218 Y27.072 E7.31053
G1 X85.763 Y26.245 E7.3767
G1 X86.612 Y25.441 E7.45481
G1 X87.688 Y24.862 E7.53644
G1 X88.773 Y24.587 E7.61122
G1 X89.955 Y24.583 E7.69018
G1 X91.041 Y24.876 E7.76532
G1 X91.041 Y24.876 F7800
G1 X93.336 Y31.132
G1 F1800
G1 X93.336 Y27.975 E7.97622
G1 X93.119 Y27.365 E8.01947
G1 X92.741 Y26.792 E8.06533
G1 X92.741 Y30.891 E8.33917
G1 X92.146 Y30.891 E8.37892
G1 X92.146 Y26.135 E8.69665
G1 X91.551 Y25.681 E8.74665
G1 X91.551 Y30.891 E9.09471
G1 X90.956 Y30.891 E9.13446
G1 X90.956 Y25.357 E9.50416
G1 X90.361 Y25.192 E9.54541
G1 X90.361 Y30.891 E9.92613
G1 X89.766 Y30.891 E9.96588
G1 X89.766 Y25.066 E10.35502
G1 X89.17 Y25.068 E10.39484
G1 X89.17 Y30.891 E10.78385
G1 X88.575 Y30.891 E10.8236
G1 X88.575 Y25.134 E11.2082
G1 X87.98 Y25.285 E11.24921
G1 X87.98 Y30.891 E11.62372
G1 X87.385 Y30.891 E11.66347
G1 X87.385 Y25.572 E12.01881
G1 X86.79 Y25.936 E12.06541
G1 X86.79 Y30.891 E12.39643
G1 X86.195 Y30.898 E12.43618
G1 X86.195 Y26.5 E12.72999
G1 X85.6 Y27.422 E12.8033
G1 X85.6 Y30.979 E13.04093
G1 X85.004 Y31.187 E13.0831
G1 X85.004 Y29.61 E13.18845
G1 X84.409 Y29.48 E13.22914
G1 X84.409 Y49.425 E14.56157
G1 X83.814 Y49.658 E14.60426
G1 X83.814 Y29.351 E15.96088
G1 X83.219 Y29.274 E16.00096
G1 X83.219 Y49.636 E17.36125
G1 X82.624 Y49.583 E17.40116
G1 X82.624 Y29.391 E18.75009
G1 X82.315 Y29.452 E18.77113
G1 X82.029 Y29.629 E18.7936
G1 X82.029 Y49.313 E20.1086
G1 X81.434 Y48.899 E20.15702
G1 X81.434 Y30.026 E21.41784
G1 X80.839 Y30.843 E21.48536
G1 X80.839 Y47.975 E22.62987
G1 X80.645 Y47.608 E22.6576
G1 X80.654 Y46.249 E22.74839
G1 X80.774 Y46.026 E22.76531
G1 X80.52 Y45.549 E22.80141
G1 X80.52 Y43.91 E22.9109
G1 X80.243 Y44.022 E22.93086
G1 X80.243 Y33.753 E23.61688
G1 X79.648 Y33.511 E23.65979
G1 X79.648 Y44.264 E24.37815
G1 X79.053 Y44.424 E24.41931
G1 X79.053 Y33.351 E25.15905
G1 X78.458 Y33.231 E25.1996
G1 X78.458 Y44.547 E25.95557
G1 X77.863 Y44.561 E25.99533
G1 X77.863 Y33.208 E26.75377
G1 X77.268 Y33.228 E26.79354
G1 X77.268 Y44.547 E27.54971
G1 X76.673 Y44.451 E27.58997
G1 X76.673 Y33.325 E28.33325
G1 X76.077 Y33.482 E28.37442
G1 X76.077 Y44.293 E29.09665
G1 X75.482 Y44.081 E29.13885
G1 X75.482 Y33.694 E29.83276
G1 X74.887 Y34.024 E29.87821
G1 X74.887 Y43.751 E30.52803
G1 X74.292 Y43.343 E30.57623
G1 X74.292 Y34.432 E31.17153
G1 X73.697 Y34.953 E31.22436
G1 X73.697 Y42.822 E31.75005
G1 X73.102 Y42.088 E31.81317
G1 X73.102 Y35.687 E32.24079
G1 X72.507 Y36.846 E32.32782
G1 X72.507 Y41.515 E32.63973
G1 E30.63973 F2400
G92 E0
G1 X72.507 Y41.515 F7800
G1 X85.6 Y48.831
G1 E2 F2400
G1 F1800
G1 X85.6 Y47.87 E2.0642
G1 X85.004 Y47.661 E2.10639
G1 X85.004 Y49.45 E2.2259
G1 E.2259 F2400
G92 E0
G1 X85.004 Y49.45 F7800
G1 X101.105 Y24.898
G1 E2 F2400
G1 F1800
G1 X102.064 Y25.42 E2.07294
G1 X102.91 Y26.196 E2.14963
G1 X103.539 Y27.148 E2.22586
G1 X103.925 Y28.241 E2.3033
G1 X104.034 Y29.38 E2.37974
G1 X103.863 Y30.516 E2.45649
G1 X103.506 Y31.373 E2.51851
G1 X95.189 Y31.373 E3.07413
G1 X94.774 Y30.256 E3.15374
G1 X94.672 Y29.214 E3.22368
G1 X94.745 Y28.469 E3.27369
G1 X94.857 Y27.966 E3.30812
G1 X95.204 Y27.072 E3.37219
G1 X95.749 Y26.245 E3.43836
G1 X96.598 Y25.44 E3.51652
G1 X97.674 Y24.862 E3.59812
G1 X98.759 Y24.587 E3.6729
G1 X99.94 Y24.584 E3.7518
G1 X101.027 Y24.877 E3.82701
G1 X101.027 Y24.877 F7800
G1 X103.454 Y30.872
G1 F1800
G1 X103.451 Y28.345 E3.99583
G1 X103.104 Y27.365 E4.06528
G1 X102.858 Y26.992 E4.09513
G1 X102.858 Y30.891 E4.3556
G1 X102.263 Y30.891 E4.39535
G1 X102.263 Y26.257 E4.70493
G1 X101.668 Y25.753 E4.75702
G1 X101.668 Y30.891 E5.10027
G1 X101.073 Y30.891 E5.14002
G1 X101.073 Y25.429 E5.50491
G1 X100.478 Y25.228 E5.54687
G1 X100.478 Y30.891 E5.92519
G1 X99.883 Y30.891 E5.96494
G1 X99.883 Y25.068 E6.35395
G1 X99.288 Y25.068 E6.3937
G1 X99.288 Y30.891 E6.78271
G1 X98.692 Y30.891 E6.82253
G1 X98.692 Y25.101 E7.20933
G1 X98.097 Y25.252 E7.25034
G1 X98.097 Y30.891 E7.62706
G1 X97.502 Y30.891 E7.66681
G1 X97.502 Y25.501 E8.02689
G1 X96.907 Y25.821 E8.07202
G1 X96.907 Y30.891 E8.41072
G1 X96.312 Y30.891 E8.45047
G1 X96.312 Y26.375 E8.75216
G1 X95.717 Y27.17 E8.8185
G1 X95.717 Y31.132 E9.08318
G1 E7.08318 F2400
G92 E0
G1 X95.717 Y31.132 F7800
G1 X113.511 Y23.403
G1 E2 F2400
G1 F1800
G1 X114.548 Y23.852 E2.07549
G1 X115.451 Y24.499 E2.1497
G1 X116.23 Y25.356 E2.22707
G1 X116.789 Y26.324 E2.30175
G1 X117.135 Y27.4 E2.37726
G1 X117.245 Y28.524 E2.45271
G1 X117.115 Y29.647 E2.52823
G1 X116.751 Y30.718 E2.6038
G1 X116.357 Y31.373 E2.65486
G1 X107.473 Y31.373 E3.24836
G1 X106.988 Y30.454 E3.31778
G1 X106.702 Y29.442 E3.38804
G1 X106.624 Y28.262 E3.46704
G1 X106.789 Y27.154 E3.54188
G1 X106.979 Y26.559 E3.58361
G1 X107.539 Y25.482 E3.6647
G1 X108.193 Y24.702 E3.7327
G1 X108.587 Y24.362 E3.76747
G1 X109.173 Y23.934 E3.81595
G1 X110.165 Y23.461 E3.88937
G1 X111.269 Y23.202 E3.96513
G1 X112.401 Y23.182 E4.04077
G1 X113.432 Y23.387 E4.11099
G1 X113.432 Y23.387 F7800
G1 X116.546 Y30.571
G1 F1800
G1 X116.546 Y27.146 E4.3398
G1 X116.346 Y26.521 E4.38364
G1 X115.951 Y25.838 E4.43635
G1 X115.951 Y30.891 E4.77392
G1 X115.356 Y30.891 E4.81367
G1 X115.356 Y25.105 E5.20021
G1 X114.761 Y24.598 E5.25243
G1 X114.761 Y30.891 E5.67284
G1 X114.166 Y30.891 E5.71259
G1 X114.166 Y24.212 E6.15878
G1 X113.571 Y23.954 E6.20211
G1 X113.571 Y30.891 E6.66554
G1 X112.976 Y30.891 E6.70529
G1 X112.976 Y23.788 E7.17981
G1 X112.381 Y23.67 E7.22033
G1 X112.381 Y30.891 E7.70273
G1 X111.785 Y30.891 E7.74255
G1 X111.785 Y23.675 E8.22462
G1 X111.329 Y23.683 E8.25509
G1 X111.19 Y23.716 E8.26463
G1 X111.19 Y30.891 E8.74396
G1 X110.595 Y30.891 E8.78371
G1 X110.595 Y23.855 E9.25375
G1 X110 Y24.074 E9.29611
G1 X110 Y30.891 E9.75152
G1 X109.405 Y30.891 E9.79127
G1 X109.405 Y24.361 E10.22751
G1 X108.81 Y24.806 E10.27715
G1 X108.81 Y30.891 E10.68366
G1 X108.215 Y30.891 E10.72341
G1 X108.215 Y25.426 E11.0885
G1 X107.619 Y26.313 E11.15989
G1 X107.619 Y31.132 E11.48183
G1 E9.48183 F2400
G92 E0
G1 X107.619 Y31.132 F7800
G1 X102.478 Y45.637
G1 E2 F2400
;TYPE:External perimeter
;WIDTH:0.6
G1 F1800
G1 X102.304 Y45.724 E2.013
G1 X96.697 Y45.724 E2.38758
G1 X96.483 Y45.617 E2.40356
G1 X96.429 Y45.457 E2.41484
G1 X96.429 Y40.392 E2.75321
G1 X96.498 Y40.213 E2.76603
G1 X96.526 Y40.187 E2.76858
G1 X96.697 Y40.124 E2.78075
G1 X102.304 Y40.124 E3.15533
G1 X102.486 Y40.195 E3.16838
G1 X102.572 Y40.392 E3.18274
G1 X102.572 Y45.457 E3.52111
G1 X102.523 Y45.603 E3.5314
G1 X102.139 Y45.713 F7800
G1 E1.5314 F2400
G92 E0
G1 X92.491 Y40.21 F7800
G1 E2 F2400
G1 F1800
G1 X92.561 Y40.315 E2.00843
G1 X92.572 Y40.392 E2.01363
G1 X92.572 Y45.457 E2.352
G1 X92.518 Y45.617 E2.36328
G1 X92.304 Y45.724 E2.37926
G1 X86.697 Y45.724 E2.75384
G1 X86.604 Y45.708 E2.76014
G1 X86.5 Y45.638 E2.76851
G1 X86.429 Y45.457 E2.7815
G1 X86.429 Y40.392 E3.11987
G1 X86.537 Y40.178 E3.13588
G1 X86.697 Y40.124 E3.14716
G1 X92.304 Y40.124 E3.52174
G1 X92.445 Y40.176 E3.53178
G1 X92.563 Y40.558 F7800
G1 E1.53178 F2400
G92 E0
G1 X137.679 Y43.892 F7800
G1 E2 F2400
;TYPE:Perimeter
G1 F1800
G1 X137.51 Y43.884 E2.0113
G1 X137.2 Y43.921 E2.03216
G1 X136.968 Y43.901 E2.04772
G1 X136.488 Y43.719 E2.08201
G1 X136.331 Y43.718 E2.0925
G1 X135.721 Y43.513 E2.13549
G1 X134.778 Y42.932 E2.20948
G1 X134.464 Y42.589 E2.24055
G1 X134.025 Y42.192 E2.28009
G1 X133.801 Y41.755 E2.3129
G1 X133.46 Y41.231 E2.35467
G1 X133.323 Y40.714 E2.3904
G1 X133.152 Y40.116 E2.43195
G1 X133.119 Y39.612 E2.46569
G1 X133.161 Y39.395 E2.48046
G1 X133.106 Y39.095 E2.50084
G1 X133.128 Y38.775 E2.52227
G1 X133.267 Y38.384 E2.54999
G1 X133.395 Y37.777 E2.59143
G1 X133.966 Y36.768 E2.66888
G1 X134.311 Y36.378 E2.70367
G1 X134.505 Y36.217 E2.72051
G1 X134.834 Y35.848 E2.75354
G1 X136.039 Y35.205 E2.84478
G1 X137.116 Y34.948 E2.91875
G1 X137.581 Y34.969 E2.94985
G1 X138.067 Y34.93 E2.98242
G1 X138.439 Y34.995 E3.00765
G1 X138.804 Y35.127 E3.03358
G1 X139.218 Y35.207 E3.06175
G1 X140.169 Y35.728 E3.13419
G1 X140.601 Y36.077 E3.17129
G1 X140.82 Y36.336 E3.19395
G1 X141.021 Y36.488 E3.21079
G1 X141.308 Y36.863 E3.24234
G1 X141.473 Y37.218 E3.26849
G1 X141.734 Y37.602 E3.29951
G1 X141.888 Y38.096 E3.33408
G1 X141.906 Y38.284 E3.3467
G1 X142.041 Y38.676 E3.3744
G1 X142.087 Y39.048 E3.39944
G1 X142.077 Y40.058 E3.46692
G1 X141.934 Y40.465 E3.49574
G1 X141.797 Y41.097 E3.53894
G1 X141.635 Y41.427 E3.5635
G1 X141.451 Y41.663 E3.58349
G1 X141.235 Y42.081 E3.61492
G1 X140.991 Y42.381 E3.64075
G1 X140.69 Y42.642 E3.66737
G1 X140.41 Y42.966 E3.69598
G1 X139.807 Y43.296 E3.7419
G1 X139.393 Y43.571 E3.7751
G1 X138.887 Y43.698 E3.80995
G1 X138.382 Y43.858 E3.84534
G1 X138.01 Y43.908 E3.87042
G1 X137.739 Y43.895 E3.88855
G1 X137.739 Y43.895 F7800
G1 X137.405 Y43.338
G1 F1800
G1 X137.2 Y43.385 E3.9026
G1 X136.845 Y43.302 E3.92696
G1 X136.562 Y43.178 E3.9476
G1 X136.375 Y43.184 E3.9601
G1 X136.009 Y43.061 E3.98589
