; generated by PrusaSlicer 2.8.1+linux-x64-GTK3 on 2024-11-05 at 10:35:36 UTC

; 

; external perimeters extrusion width = 0.45mm
; perimeters extrusion width = 0.45mm
; infill extrusion width = 0.45mm
; solid infill extrusion width = 0.45mm
; top infill extrusion width = 0.40mm
; support material extrusion width = 0.40mm
; first layer extrusion width = 0.60mm

M190 S60 ; set bed temperature and wait for it to be reached
M104 S200 ; set temperature
;TYPE:Custom
G28 ; home all axes
G1 Z5 F5000 ; lift nozzle
M109 S200 ; set temperature and wait for it to be reached
G21 ; set units to millimeters
G90 ; use absolute coordinates
M82 ; use absolute distances for extrusion
G92 E0
; Filament gcode
M107
;LAYER_CHANGE
;Z:0.3
;HEIGHT:0.3
G1 E-2 F2400
G1 Z.3 F7800
G1 X78.133 Y45.048
G1 E0 F2400
;TYPE:Skirt/Brim
;WIDTH:0.6
G1 F1800
G1 X91.11 Y22.54 E1.73567
G1 X91.715 Y21.698 E1.80493
G1 X92.242 Y21.131 E1.85664
G1 X92.787 Y20.653 E1.90507
G1 X93.643 Y20.07 E1.97426
G1 X94.332 Y19.716 E2.02601
G1 X95.306 Y19.362 E2.09524
G1 X96.061 Y19.189 E2.14699
G1 X97.092 Y19.086 E2.21621
G1 X122.858 Y19.085 E3.93752
G1 X123.627 Y19.142 E3.98903
G1 X124.646 Y19.348 E4.05848
G1 X125.38 Y19.595 E4.11022
G1 X126.354 Y20.068 E4.18256
G1 X127.213 Y20.653 E4.25199
G1 X127.794 Y21.166 E4.30377
G1 X128.48 Y21.943 E4.37301
G1 X128.996 Y22.717 E4.43515
G1 X141.698 Y44.717 E6.13225
G1 X142.091 Y45.505 E6.19108
G1 X142.532 Y46.935 E6.29105
G1 X142.637 Y47.652 E6.33946
G1 X142.663 Y48.688 E6.40869
G1 X142.452 Y50.12 E6.50539
G1 X141.94 Y51.527 E6.60542
G1 X128.89 Y74.162 E8.35088
G1 X128.285 Y75.003 E8.42009
G1 X127.529 Y75.783 E8.49266
G1 X126.924 Y76.266 E8.54438
G1 X126.039 Y76.807 E8.61367
G1 X125.334 Y77.125 E8.66534
G1 X124.343 Y77.431 E8.73463
G1 X122.702 Y77.619 E8.84497
G1 X97.096 Y77.616 E10.55559
G1 X95.678 Y77.435 E10.65109
G1 X94.96 Y77.232 E10.70094
G1 X94.028 Y76.841 E10.76846
G1 X93.334 Y76.442 E10.82194
G1 X92.474 Y75.786 E10.8942
G1 X91.747 Y75.041 E10.96374
G1 X91.11 Y74.162 E11.03626
G1 X78.06 Y51.527 E12.78172
G1 X77.548 Y50.12 E12.88175
G1 X77.407 Y49.409 E12.93017
G1 X77.329 Y48.376 E12.99938
G1 X77.478 Y46.886 E13.09942
G1 X77.759 Y45.889 E13.16862
G1 X78.06 Y45.175 E13.22038
G1 X78.103 Y45.1 E13.22616
G1 E11.22616 F2400
G92 E0
G92 E0
G1 X112.073 Y66.32 F7800
G1 E2 F2400
;TYPE:Perimeter
;WIDTH:0.6
G1 F1800
G1 X112.009 Y66.397 E2.00669
G1 X111.564 Y66.755 E2.04484
G1 X111.057 Y67.017 E2.08297
G1 X110.572 Y67.164 E2.11683
G1 X110.038 Y67.222 E2.15271
G1 X109.371 Y67.149 E2.19754
G1 X108.829 Y66.969 E2.23569
G1 X108.334 Y66.685 E2.27381
G1 X107.904 Y66.309 E2.31197
G1 X107.558 Y65.854 E2.35016
G1 X107.308 Y65.341 E2.38828
G1 X107.166 Y64.788 E2.42642
G1 X107.131 Y64.265 E2.46144
G1 X107.192 Y63.752 E2.49595
G1 X107.342 Y63.264 E2.53006
G1 X107.583 Y62.803 E2.56481
G1 X107.904 Y62.393 E2.5996
G1 X108.334 Y62.017 E2.63776
G1 X108.824 Y61.735 E2.67553
G1 X109.169 Y61.614 E2.69995
G1 X109.694 Y61.507 E2.73574
G1 X109.965 Y61.48 E2.75393
G1 X110.502 Y61.524 E2.78992
G1 X111.007 Y61.662 E2.82489
G1 X111.521 Y61.916 E2.86319
G1 X111.974 Y62.266 E2.90143
G1 X112.348 Y62.699 E2.93965
G1 X112.622 Y63.183 E2.97681
G1 X112.806 Y63.744 E3.01625
G1 X112.869 Y64.262 E3.05111
G1 X112.851 Y64.577 E3.07219
G1 X112.759 Y65.105 E3.10799
G1 X112.646 Y65.456 E3.13262
G1 X112.375 Y65.958 E3.17073
G1 X112.112 Y66.274 E3.1982
G1 X112.112 Y66.274 F7800
G1 X111.691 Y65.947
G1 F1800
G1 X111.655 Y65.996 E3.20226
G1 X111.296 Y66.291 E3.2333
G1 X110.886 Y66.509 E3.26432
G1 X110.441 Y66.642 E3.29535
G1 X109.978 Y66.684 E3.32641
G1 X109.516 Y66.633 E3.35746
G1 X109.074 Y66.492 E3.38845
G1 X108.668 Y66.266 E3.41949
G1 X108.315 Y65.964 E3.45052
G1 X108.028 Y65.598 E3.48159
G1 X107.82 Y65.183 E3.5126
G1 X107.699 Y64.735 E3.5436
G1 X107.668 Y64.271 E3.57467
G1 X107.73 Y63.81 E3.60574
G1 X107.882 Y63.371 E3.63678
G1 X108.118 Y62.971 E3.66781
G1 X108.429 Y62.626 E3.69884
G1 X108.801 Y62.349 E3.72982
G1 X109.276 Y62.139 E3.76452
G1 X109.801 Y62.032 E3.80031
G1 X109.964 Y62.016 E3.81125
G1 X110.463 Y62.063 E3.84473
G1 X110.926 Y62.21 E3.87718
G1 X111.332 Y62.436 E3.90822
G1 X111.685 Y62.737 E3.93921
G1 X111.972 Y63.103 E3.97028
G1 X112.18 Y63.519 E4.00135
G1 X112.301 Y63.966 E4.03229
G1 X112.324 Y64.485 E4.067
G1 X112.231 Y65.013 E4.10282
G1 X112.031 Y65.499 E4.13793
G1 X111.728 Y65.899 E4.17145
G1 X111.728 Y65.899 F7800
G1 X111.313 Y65.579
;TYPE:External perimeter
G1 F1800
G1 X111.3 Y65.594 E4.17278
G1 X111.028 Y65.827 E4.19671
G1 X110.716 Y66.002 E4.22061
G1 X110.374 Y66.111 E4.24459
G1 X110.018 Y66.15 E4.26851
G1 X109.661 Y66.118 E4.29246
G1 X109.318 Y66.016 E4.31637
G1 X109.002 Y65.847 E4.34031
G1 X108.725 Y65.62 E4.36424
G1 X108.499 Y65.342 E4.38817
G1 X108.332 Y65.025 E4.41211
G1 X108.232 Y64.681 E4.43604
G1 X108.201 Y64.324 E4.45998
G1 X108.242 Y63.968 E4.48392
G1 X108.353 Y63.628 E4.50781
G1 X108.529 Y63.316 E4.53174
G1 X108.763 Y63.045 E4.55566
G1 X109.046 Y62.825 E4.57961
G1 X109.383 Y62.664 E4.60456
G1 X109.962 Y62.551 E4.64397
G1 X110.339 Y62.584 E4.66925
G1 X110.682 Y62.686 E4.69316
G1 X110.998 Y62.854 E4.71707
G1 X111.275 Y63.082 E4.74104
G1 X111.501 Y63.36 E4.76497
G1 X111.668 Y63.677 E4.78891
G1 X111.768 Y64.02 E4.81278
G1 X111.796 Y64.393 E4.83777
G1 X111.704 Y64.921 E4.87357
G1 X111.521 Y65.312 E4.90241
G1 X111.349 Y65.531 E4.92101
G1 X111.052 Y65.799 F7800
G1 E2.92101 F2400
G92 E0
G1 X123.051 Y59.09 F7800
G1 E2 F2400
;TYPE:Perimeter
G1 F1800
G1 X122.686 Y58.969 E2.02569
G1 X122.208 Y58.699 E2.06237
G1 X121.815 Y58.37 E2.09661
G1 X121.456 Y57.926 E2.13475
G1 X121.192 Y57.419 E2.17294
G1 X121.033 Y56.869 E2.21119
G1 X120.986 Y56.298 E2.24946
G1 X121.054 Y55.728 E2.28781
G1 X121.217 Y55.221 E2.32339
G1 X121.608 Y54.582 E2.37344
G1 X121.847 Y54.305 E2.39788
G1 X122.209 Y53.999 E2.42955
G1 X122.71 Y53.719 E2.46789
G1 X123.256 Y53.543 E2.50621
G1 X123.826 Y53.48 E2.54452
G1 X124.397 Y53.531 E2.58282
G1 X124.945 Y53.694 E2.62101
G1 X125.446 Y53.96 E2.6589
G1 X125.989 Y54.444 E2.70749
G1 X126.221 Y54.727 E2.73194
G1 X126.495 Y55.228 E2.77009
G1 X126.665 Y55.773 E2.80823
G1 X126.724 Y56.341 E2.84638
G1 X126.669 Y56.91 E2.88457
G1 X126.503 Y57.456 E2.92269
G1 X126.231 Y57.958 E2.96083
G1 X125.866 Y58.397 E2.99897
G1 X125.42 Y58.755 E3.03718
G1 X124.913 Y59.017 E3.07531
G1 X124.364 Y59.173 E3.11344
G1 X123.795 Y59.218 E3.15157
G1 X123.228 Y59.149 E3.18973
G1 X123.108 Y59.109 E3.19818
G1 X123.108 Y59.109 F7800
G1 X123.208 Y58.581
G1 F1800
G1 X122.93 Y58.492 E3.21768
G1 X122.524 Y58.266 E3.24872
G1 X122.171 Y57.964 E3.27975
G1 X121.885 Y57.598 E3.31078
G1 X121.677 Y57.183 E3.34179
G1 X121.555 Y56.735 E3.37281
G1 X121.525 Y56.271 E3.40387
G1 X121.587 Y55.81 E3.43494
G1 X121.761 Y55.333 E3.46886
G1 X122.058 Y54.873 E3.50544
G1 X122.51 Y54.442 E3.54716
G1 X122.97 Y54.193 E3.5821
G1 X123.416 Y54.06 E3.61319
G1 X123.878 Y54.018 E3.64418
G1 X124.34 Y54.068 E3.67522
G1 X124.783 Y54.21 E3.7063
G1 X125.234 Y54.474 E3.74121
G1 X125.624 Y54.837 E3.7768
G1 X125.923 Y55.267 E3.81179
G1 X126.136 Y55.853 E3.85344
G1 X126.189 Y56.315 E3.88451
G1 X126.15 Y56.778 E3.91555
G1 X126.02 Y57.224 E3.94659
G1 X125.804 Y57.635 E3.97761
G1 X125.511 Y57.996 E4.00867
G1 X125.153 Y58.291 E4.03966
G1 X124.743 Y58.509 E4.07068
G1 X124.297 Y58.642 E4.10177
G1 X123.835 Y58.684 E4.13276
G1 X123.373 Y58.633 E4.16381
G1 X123.265 Y58.599 E4.17137
G1 X123.265 Y58.599 F7800
G1 X123.365 Y58.072
;TYPE:External perimeter
G1 F1800
G1 X123.174 Y58.016 E4.18467
G1 X122.858 Y57.847 E4.20861
G1 X122.581 Y57.62 E4.23254
G1 X122.355 Y57.342 E4.25647
G1 X122.188 Y57.025 E4.28041
G1 X122.088 Y56.681 E4.30434
G1 X122.058 Y56.324 E4.32827
G1 X122.099 Y55.968 E4.35221
G1 X122.219 Y55.611 E4.37737
G1 X122.508 Y55.163 E4.41299
G1 X122.811 Y54.885 E4.44046
G1 X123.141 Y54.7 E4.46573
G1 X123.482 Y54.591 E4.48965
G1 X123.838 Y54.552 E4.51357
G1 X124.195 Y54.584 E4.53752
G1 X124.647 Y54.742 E4.56951
G1 X124.87 Y54.867 E4.58659
G1 X125.26 Y55.229 E4.62214
G1 X125.489 Y55.594 E4.65093
G1 X125.606 Y55.933 E4.67489
G1 X125.654 Y56.288 E4.69882
G1 X125.631 Y56.645 E4.72272
G1 X125.538 Y56.991 E4.74666
G1 X125.377 Y57.312 E4.77065
G1 X125.157 Y57.594 E4.79454
G1 X124.885 Y57.827 E4.81847
G1 X124.572 Y58.001 E4.84239
G1 X124.231 Y58.111 E4.86633
G1 X123.875 Y58.15 E4.89025
G1 X123.518 Y58.118 E4.9142
G1 X123.422 Y58.089 E4.9209
G1 X123.05 Y57.942 F7800
G1 E2.9209 F2400
G92 E0
G1 X121.33 Y41.688 F7800
G1 E2 F2400
;TYPE:Perimeter
G1 F1800
G1 X121.203 Y41.449 E2.01808
G1 X121.075 Y41.049 E2.04614
G1 X120.992 Y40.484 E2.08429
G1 X121.022 Y39.914 E2.12242
G1 X121.163 Y39.366 E2.16022
G1 X121.317 Y39.035 E2.18461
G1 X121.607 Y38.584 E2.22043
G1 X121.847 Y38.305 E2.24502
G1 X122.242 Y37.978 E2.27928
G1 X122.8 Y37.685 E2.32138
G1 X123.349 Y37.528 E2.35953
G1 X123.918 Y37.484 E2.39766
G1 X124.485 Y37.553 E2.43582
G1 X125.027 Y37.733 E2.47397
G1 X125.598 Y38.082 E2.51868
G1 X125.989 Y38.444 E2.55428
G1 X126.221 Y38.727 E2.57873
G1 X126.495 Y39.228 E2.61688
G1 X126.665 Y39.773 E2.65502
G1 X126.724 Y40.341 E2.69317
G1 X126.669 Y40.91 E2.73136
G1 X126.503 Y41.456 E2.76948
G1 X126.231 Y41.958 E2.80762
G1 X125.866 Y42.397 E2.84576
G1 X125.42 Y42.755 E2.88397
G1 X124.913 Y43.017 E2.9221
G1 X124.364 Y43.173 E2.96023
G1 X123.795 Y43.218 E2.99836
G1 X123.228 Y43.149 E3.03652
G1 X122.686 Y42.969 E3.07467
G1 X122.19 Y42.685 E3.11285
G1 X121.788 Y42.341 E3.1482
G1 X121.451 Y41.918 E3.18433
G1 X121.358 Y41.741 E3.19769
G1 X121.358 Y41.741 F7800
G1 X121.807 Y41.444
G1 F1800
G1 X121.677 Y41.183 E3.21717
G1 X121.587 Y40.891 E3.23758
G1 X121.521 Y40.366 E3.27293
G1 X121.578 Y39.841 E3.30821
G1 X121.767 Y39.325 E3.34492
G1 X122.058 Y38.874 E3.38078
G1 X122.43 Y38.504 E3.41583
G1 X122.892 Y38.223 E3.45195
G1 X123.416 Y38.06 E3.48861
G1 X123.878 Y38.018 E3.5196
G1 X124.34 Y38.068 E3.55064
G1 X124.783 Y38.21 E3.58172
G1 X125.234 Y38.474 E3.61663
G1 X125.624 Y38.837 E3.65222
G1 X125.923 Y39.267 E3.68721
G1 X126.136 Y39.853 E3.72886
G1 X126.189 Y40.315 E3.75993
G1 X126.15 Y40.778 E3.79097
G1 X126.02 Y41.224 E3.82201
G1 X125.804 Y41.635 E3.85303
G1 X125.511 Y41.996 E3.88409
G1 X125.153 Y42.291 E3.91508
G1 X124.743 Y42.509 E3.9461
G1 X124.297 Y42.642 E3.97719
G1 X123.835 Y42.684 E4.00818
G1 X123.373 Y42.633 E4.03923
G1 X122.93 Y42.492 E4.07029
G1 X122.524 Y42.266 E4.10133
G1 X122.171 Y41.964 E4.13236
G1 X121.885 Y41.598 E4.16339
G1 X121.834 Y41.497 E4.17095
G1 X121.834 Y41.497 F7800
G1 X122.281 Y41.201
;TYPE:External perimeter
G1 F1800
G1 X122.188 Y41.025 E4.18425
G1 X122.099 Y40.733 E4.20464
G1 X122.058 Y40.324 E4.2321
G1 X122.098 Y39.969 E4.25597
G1 X122.218 Y39.615 E4.28094
G1 X122.51 Y39.16 E4.31706
G1 X122.828 Y38.875 E4.34559
G1 X123.141 Y38.7 E4.36955
G1 X123.482 Y38.591 E4.39347
G1 X123.838 Y38.552 E4.41739
G1 X124.195 Y38.584 E4.44134
G1 X124.538 Y38.686 E4.46525
G1 X124.87 Y38.867 E4.49051
G1 X125.26 Y39.229 E4.52606
G1 X125.489 Y39.594 E4.55485
G1 X125.606 Y39.933 E4.57881
G1 X125.654 Y40.288 E4.60274
G1 X125.631 Y40.645 E4.62664
G1 X125.538 Y40.991 E4.65058
G1 X125.377 Y41.312 E4.67457
G1 X125.157 Y41.594 E4.69846
G1 X124.885 Y41.827 E4.72239
G1 X124.572 Y42.002 E4.74635
G1 X124.231 Y42.111 E4.77027
G1 X123.875 Y42.15 E4.79419
G1 X123.518 Y42.118 E4.81814
G1 X123.174 Y42.016 E4.84211
G1 X122.858 Y41.847 E4.86605
G1 X122.581 Y41.62 E4.88998
G1 X122.355 Y41.342 E4.91391
G1 X122.309 Y41.254 E4.92054
G1 X122.152 Y40.886 F7800
G1 E2.92054 F2400
G92 E0
G1 X107.746 Y30.601 F7800
G1 E2 F2400
;TYPE:Perimeter
G1 F1800
G1 X107.904 Y30.393 E2.01745
G1 X108.334 Y30.017 E2.05561
G1 X108.824 Y29.735 E2.09338
G1 X109.169 Y29.614 E2.1178
G1 X109.694 Y29.507 E2.15359
G1 X110.062 Y29.484 E2.17822
G1 X110.629 Y29.553 E2.21638
G1 X111.171 Y29.733 E2.25453
G1 X111.666 Y30.017 E2.29265
G1 X112.096 Y30.393 E2.33081
G1 X112.441 Y30.846 E2.36885
G1 X112.665 Y31.285 E2.40177
G1 X112.835 Y31.974 E2.44918
G1 X112.868 Y32.341 E2.4738
G1 X112.818 Y32.888 E2.51049
G1 X112.646 Y33.456 E2.55014
G1 X112.395 Y33.931 E2.58603
G1 X112.083 Y34.327 E2.61971
G1 X111.699 Y34.665 E2.65389
G1 X111.251 Y34.934 E2.6888
G1 X110.767 Y35.114 E2.7233
G1 X110.205 Y35.211 E2.7614
G1 X109.634 Y35.195 E2.79956
G1 X109.077 Y35.066 E2.83776
G1 X108.558 Y34.83 E2.87585
G1 X108.026 Y34.436 E2.92008
G1 X107.652 Y34.003 E2.9583
G1 X107.37 Y33.503 E2.99665
G1 X107.194 Y32.958 E3.03491
G1 X107.131 Y32.437 E3.06997
G1 X107.166 Y31.914 E3.10499
G1 X107.308 Y31.361 E3.14313
G1 X107.558 Y30.847 E3.18131
G1 X107.709 Y30.649 E3.19795
G1 X107.709 Y30.649 F7800
G1 X108.157 Y30.929
G1 F1800
G1 X108.429 Y30.626 E3.22515
G1 X108.801 Y30.349 E3.25613
G1 X109.276 Y30.139 E3.29083
G1 X109.801 Y30.032 E3.32662
G1 X110.326 Y30.041 E3.3617
G1 X110.926 Y30.21 E3.40334
G1 X111.332 Y30.436 E3.43438
G1 X111.685 Y30.738 E3.46541
G1 X111.971 Y31.103 E3.49639
G1 X112.193 Y31.572 E3.53105
G1 X112.313 Y32.094 E3.56683
G1 X112.318 Y32.619 E3.6019
G1 X112.195 Y33.148 E3.63818
G1 X111.96 Y33.619 E3.67334
G1 X111.655 Y33.996 E3.70574
G1 X111.296 Y34.291 E3.73678
G1 X110.886 Y34.509 E3.7678
G1 X110.441 Y34.642 E3.79883
G1 X109.978 Y34.684 E3.82989
G1 X109.516 Y34.633 E3.86094
G1 X109.074 Y34.492 E3.89193
G1 X108.668 Y34.266 E3.92297
G1 X108.388 Y34.041 E3.94697
G1 X108.053 Y33.641 E3.98183
G1 X107.824 Y33.195 E4.01532
G1 X107.699 Y32.735 E4.04716
G1 X107.668 Y32.271 E4.07823
G1 X107.73 Y31.81 E4.1093
G1 X107.882 Y31.371 E4.14034
G1 X108.117 Y30.974 E4.17116
G1 X108.117 Y30.974 F7800
G1 X108.575 Y31.262
;TYPE:External perimeter
G1 F1800
G1 X108.763 Y31.045 E4.19034
G1 X109.046 Y30.825 E4.21429
G1 X109.383 Y30.664 E4.23924
G1 X109.908 Y30.557 E4.27503
G1 X110.339 Y30.584 E4.30388
G1 X110.682 Y30.686 E4.32779
G1 X110.998 Y30.854 E4.3517
G1 X111.275 Y31.082 E4.37567
G1 X111.501 Y31.359 E4.39955
G1 X111.671 Y31.692 E4.42453
G1 X111.791 Y32.215 E4.46038
G1 X111.775 Y32.645 E4.48913
G1 X111.639 Y33.079 E4.51951
G1 X111.521 Y33.312 E4.53696
G1 X111.3 Y33.594 E4.5609
G1 X111.028 Y33.827 E4.58483
G1 X110.716 Y34.002 E4.60873
G1 X110.374 Y34.111 E4.63271
G1 X110.018 Y34.15 E4.65663
G1 X109.661 Y34.118 E4.68058
G1 X109.318 Y34.016 E4.70449
G1 X109.002 Y33.847 E4.72843
G1 X108.749 Y33.645 E4.75006
G1 X108.499 Y33.342 E4.7763
G1 X108.332 Y33.025 E4.80024
G1 X108.232 Y32.681 E4.82417
G1 X108.201 Y32.324 E4.84811
G1 X108.242 Y31.968 E4.87205
G1 X108.353 Y31.628 E4.89594
G1 X108.529 Y31.316 E4.91987
G1 X108.536 Y31.308 E4.92058
G1 X108.812 Y31.018 F7800
G1 E2.92058 F2400
G92 E0
G1 X98.734 Y39.141 F7800
G1 E2 F2400
;TYPE:Perimeter
G1 F1800
G1 X98.808 Y39.283 E2.0107
G1 X98.967 Y39.833 E2.04895
G1 X99.014 Y40.401 E2.08703
G1 X98.903 Y41.105 E2.13464
G1 X98.79 Y41.456 E2.15927
G1 X98.555 Y41.908 E2.1933
G1 X98.234 Y42.319 E2.22814
G1 X97.828 Y42.677 E2.2643
G1 X97.372 Y42.946 E2.29967
G1 X96.89 Y43.121 E2.33393
G1 X96.348 Y43.211 E2.37063
G1 X95.777 Y43.195 E2.40879
G1 X95.226 Y43.068 E2.44656
G1 X94.891 Y42.922 E2.47097
G1 X94.433 Y42.644 E2.50676
G1 X94.148 Y42.411 E2.53135
G1 X93.78 Y41.974 E2.56952
G1 X93.505 Y41.474 E2.60764
G1 X93.335 Y40.929 E2.64578
G1 X93.276 Y40.361 E2.68393
G1 X93.331 Y39.792 E2.72212
G1 X93.497 Y39.246 E2.76024
G1 X93.769 Y38.743 E2.79844
G1 X94.134 Y38.305 E2.83653
G1 X94.58 Y37.947 E2.87474
G1 X95.087 Y37.685 E2.91287
G1 X95.636 Y37.528 E2.95102
G1 X96.205 Y37.484 E2.98915
G1 X96.772 Y37.553 E3.02731
G1 X97.314 Y37.733 E3.06546
G1 X97.791 Y38.002 E3.10204
G1 X98.185 Y38.332 E3.13637
G1 X98.544 Y38.776 E3.17451
G1 X98.707 Y39.088 E3.19803
G1 X98.707 Y39.088 F7800
G1 X98.245 Y39.362
G1 F1800
G1 X98.323 Y39.519 E3.20974
G1 X98.445 Y39.966 E3.24069
G1 X98.467 Y40.485 E3.27539
G1 X98.375 Y41.013 E3.31119
G1 X98.175 Y41.499 E3.3463
G1 X97.87 Y41.924 E3.38125
G1 X97.478 Y42.268 E3.41609
G1 X97.03 Y42.509 E3.45007
G1 X96.584 Y42.642 E3.48116
G1 X96.122 Y42.684 E3.51215
G1 X95.661 Y42.634 E3.54313
G1 X95.17 Y42.465 E3.57782
G1 X94.712 Y42.186 E3.61365
G1 X94.333 Y41.823 E3.64871
G1 X94.008 Y41.291 E3.69036
G1 X93.864 Y40.849 E3.72142
G1 X93.811 Y40.387 E3.75249
G1 X93.85 Y39.924 E3.78353
G1 X93.98 Y39.478 E3.81457
G1 X94.196 Y39.067 E3.84559
G1 X94.489 Y38.706 E3.87665
G1 X94.847 Y38.411 E3.90764
