; generated by PrusaSlicer 2.8.1+linux-x64-GTK3 on 2024-10-06 at 10:35:56 UTC

; 

; external perimeters extrusion width = 0.45mm
; perimeters extrusion width = 0.45mm
; infill extrusion width = 0.45mm
; solid infill extrusion width = 0.45mm
; top infill extrusion width = 0.40mm
; first layer extrusion width = 0.60mm

M190 S60 ; set bed temperature and wait for it to be reached
M104 S200 ; set temperature
;TYPE:Custom
G28 ; home all axes
G1 Z5 F5000 ; lift nozzle
M109 S200 ; set temperature and wait for it to be reached
G21 ; set units to millimeters
G90 ; use absolute coordinates
M82 ; use absolute distances for extrusion
G92 E0
; Filament gcode
M107
;LAYER_CHANGE
;Z:0.3
;HEIGHT:0.3
G1 E-2 F2400
G1 Z.3 F7800
G1 X96.652 Y97.271
G1 E0 F2400
;TYPE:Skirt/Brim
;WIDTH:0.6
G1 F1800
G1 X98.391 Y95.875 E.14898
G1 X101.383 Y95.115 E.35521
G1 X118.617 Y95.115 E1.50653
G1 X120.812 Y95.512 E1.65555
G1 X122.729 Y96.652 E1.80455
G1 X124.125 Y98.391 E1.95353
G1 X124.885 Y101.383 E2.15976
G1 X124.885 Y118.617 E3.31108
G1 X124.488 Y120.812 E3.4601
G1 X123.348 Y122.729 E3.6091
G1 X121.609 Y124.125 E3.75808
G1 X118.617 Y124.885 E3.96431
G1 X101.383 Y124.885 E5.11563
G1 X99.188 Y124.488 E5.26465
G1 X97.271 Y123.348 E5.41365
G1 X95.875 Y121.609 E5.56263
G1 X95.115 Y118.617 E5.76886
G1 X95.115 Y101.383 E6.92018
G1 X95.512 Y99.188 E7.0692
G1 X96.621 Y97.323 E7.21416
G1 E5.21416 F2400
G92 E0
G1 X96.621 Y97.323 F7800
G92 E0
G1 X102.754 Y102.754
G1 E2 F2400
;TYPE:Perimeter
;WIDTH:0.6
G1 F1800
G1 X117.246 Y102.754 E2.96814
G1 X117.246 Y110 E3.45221
G1 X117.246 Y117.246 E3.93628
G1 X102.754 Y117.246 E4.90442
G1 X102.754 Y102.814 E5.86855
G1 X102.754 Y102.814 F7800
G1 X102.218 Y102.218
G1 F1800
G1 X117.782 Y102.218 E6.90831
G1 X117.782 Y110 E7.42819
G1 X117.782 Y117.782 E7.94807
G1 X102.218 Y117.782 E8.98783
G1 X102.218 Y102.278 E10.02358
G1 X102.218 Y102.278 F7800
G1 X101.683 Y101.683
;TYPE:External perimeter
G1 F1800
G1 X118.317 Y101.683 E11.13482
G1 X118.317 Y110 E11.69044
G1 X118.317 Y118.317 E12.24606
G1 X101.683 Y118.317 E13.3573
G1 X101.683 Y101.743 E14.46453
G1 X102.078 Y101.683 F7800
G1 E12.46453 F2400
G92 E0
G1 X115.986 Y102.915 F7800
G1 E2 F2400
;TYPE:Solid infill
;WIDTH:0.608068
G1 F1800
G1 X116.844 Y103.773 E2.08228
G1 X116.844 Y104.542 E2.13443
G1 X115.458 Y103.156 E2.26735
G1 X114.689 Y103.156 E2.3195
G1 X116.844 Y105.311 E2.52616
G1 X116.844 Y106.08 E2.57831
G1 X113.92 Y103.156 E2.85872
G1 X113.151 Y103.156 E2.91087
G1 X116.844 Y106.849 E3.26503
G1 X116.844 Y107.618 E3.31718
G1 X112.382 Y103.156 E3.74509
G1 X111.613 Y103.156 E3.79724
G1 X116.844 Y108.387 E4.29889
G1 X116.844 Y109.156 E4.35104
G1 X110.844 Y103.156 E4.92644
G1 X110.076 Y103.156 E4.97852
G1 X116.844 Y109.924 E5.62757
G1 X116.844 Y110.693 E5.67972
G1 X109.307 Y103.156 E6.40252
G1 X108.538 Y103.156 E6.45467
G1 X116.844 Y111.462 E7.25122
G1 X116.844 Y112.231 E7.30337
G1 X107.769 Y103.156 E8.17366
G1 X107 Y103.156 E8.22581
G1 X116.844 Y113 E9.16985
G1 X116.844 Y113.769 E9.222
G1 X106.231 Y103.156 E10.23979
G1 X105.462 Y103.156 E10.29194
G1 X116.844 Y114.538 E11.38348
G1 X116.844 Y115.307 E11.43563
G1 X104.693 Y103.156 E12.60091
G1 X103.924 Y103.156 E12.65306
G1 X116.844 Y116.076 E13.89209
G1 X116.844 Y116.844 E13.94417
G1 X103.156 Y103.156 E15.25685
G1 X103.156 Y103.925 E15.309
G1 X116.076 Y116.844 E16.54798
G1 X115.307 Y116.844 E16.60013
G1 X103.156 Y104.693 E17.76541
G1 X103.156 Y105.462 E17.81756
G1 X114.538 Y116.844 E18.9091
G1 X113.769 Y116.844 E18.96125
G1 X103.156 Y106.231 E19.97904
G1 X103.156 Y107 E20.03119
G1 X113 Y116.844 E20.97523
G1 X112.231 Y116.844 E21.02738
G1 X103.156 Y107.769 E21.89767
G1 X103.156 Y108.538 E21.94982
G1 X111.462 Y116.844 E22.74637
G1 X110.693 Y116.844 E22.79852
G1 X103.156 Y109.307 E23.52132
G1 X103.156 Y110.076 E23.57347
G1 X109.924 Y116.844 E24.22252
G1 X109.155 Y116.844 E24.27467
G1 X103.156 Y110.845 E24.84997
G1 X103.156 Y111.613 E24.90205
G1 X108.387 Y116.844 E25.4037
G1 X107.618 Y116.844 E25.45585
G1 X103.156 Y112.382 E25.88376
G1 X103.156 Y113.151 E25.93591
G1 X106.849 Y116.844 E26.29007
G1 X106.08 Y116.844 E26.34222
G1 X103.156 Y113.92 E26.62263
G1 X103.156 Y114.689 E26.67478
G1 X105.311 Y116.844 E26.88144
G1 X104.542 Y116.844 E26.93359
G1 X103.156 Y115.458 E27.06651
G1 X103.156 Y116.227 E27.11866
G1 X104.014 Y117.085 E27.20094
;LAYER_CHANGE
;Z:0.6
;HEIGHT:0.3
G1 Z.6 F7800
G1 E25.20094 F2400
G92 E0
G1 X104.014 Y117.085 Z.6 F7800
G1 X102.379 Y102.379
G1 E2 F2400
;TYPE:Perimeter
;WIDTH:0.45
G1 F3600
G1 X117.621 Y102.379 E2.73309
G1 X117.621 Y110 E3.09963
G1 X117.621 Y117.621 E3.46617
G1 X102.379 Y117.621 E4.19926
G1 X102.379 Y102.439 E4.92946
G1 X102.379 Y102.439 F7800
G1 X101.993 Y101.993
G1 F3600
G1 X118.007 Y101.993 E5.69968
G1 X118.007 Y110 E6.08479
G1 X118.007 Y118.007 E6.4699
G1 X101.993 Y118.007 E7.24012
G1 X101.993 Y102.053 E8.00745
G1 X101.993 Y102.053 F7800
G1 X101.608 Y101.608
;TYPE:External perimeter
G1 F1800
G1 X118.392 Y101.608 E8.8147
G1 X118.392 Y110 E9.21833
G1 X118.392 Y118.392 E9.62196
G1 X101.608 Y118.392 E10.42921
G1 X101.608 Y101.668 E11.23358
G1 X102.003 Y101.608 F7800
G1 X102.773 Y102.699
;TYPE:Solid infill
;WIDTH:0.543559
G1 F1200
G1 X102.73 Y102.657 E11.23717
G1 X102.672 Y102.672 E11.24075
G1 X102.657 Y102.73 E11.24433
G1 X102.699 Y102.773 E11.24792
G1 X102.757 Y102.757 E11.25152
;WIDTH:0.45
G1 X102.668 Y103.373 E11.28146
G1 X103.373 Y102.668 E11.32941
G1 X103.918 Y102.668 E11.35562
G1 X102.668 Y103.918 E11.44064
G1 X102.668 Y104.464 E11.4669
G1 X104.464 Y102.668 E11.58906
G1 X105.009 Y102.668 E11.61527
G1 X102.668 Y105.009 E11.7745
G1 X102.668 Y105.555 E11.80076
G1 X105.555 Y102.668 E11.99713
G1 X106.1 Y102.668 E12.02334
G1 X102.668 Y106.1 E12.25678
G1 X102.668 Y106.645 E12.28299
G1 X106.645 Y102.668 E12.5535
G1 X107.191 Y102.668 E12.57976
G1 X102.668 Y107.191 E12.88741
G1 X102.668 Y107.736 E12.91362
G1 X107.736 Y102.668 E13.25834
G1 X108.281 Y102.668 E13.28455
G1 X102.668 Y108.281 E13.66634
G1 X102.668 Y108.827 E13.6926
G1 X108.827 Y102.668 E14.11153
G1 X109.372 Y102.668 E14.13774
G1 X102.668 Y109.372 E14.59374
G1 X102.668 Y109.917 E14.61995
G1 X109.917 Y102.668 E15.11302
G1 X110.463 Y102.668 E15.13928
G1 X102.668 Y110.463 E15.66949
G1 X102.668 Y111.008 E15.6957
G1 X111.008 Y102.668 E16.26298
G1 X111.553 Y102.668 E16.28919
G1 X102.668 Y111.553 E16.89354
G1 X102.668 Y112.099 E16.9198
G1 X112.099 Y102.668 E17.56128
G1 X112.644 Y102.668 E17.58749
G1 X102.668 Y112.644 E18.26605
G1 X102.668 Y113.189 E18.29226
G1 X113.189 Y102.668 E19.00789
G1 X113.735 Y102.668 E19.03415
G1 X102.668 Y113.735 E19.78691
G1 X102.668 Y114.28 E19.81312
G1 X114.28 Y102.668 E20.60295
G1 X114.825 Y102.668 E20.62916
G1 X102.668 Y114.825 E21.45606
G1 X102.668 Y115.371 E21.48232
G1 X115.371 Y102.668 E22.34636
G1 X115.916 Y102.668 E22.37257
G1 X102.668 Y115.916 E23.27368
G1 X102.668 Y116.461 E23.29989
G1 X116.461 Y102.668 E24.23807
G1 X117.007 Y102.668 E24.26433
G1 X102.668 Y117.007 E25.23965
G1 X102.625 Y117.405 E25.2589
;WIDTH:0.404381
G1 X102.554 Y117.386 E25.26202
G1 X102.573 Y117.457 E25.26514
G1 X102.614 Y117.446 E25.26694
;WIDTH:0.45
G1 X102.888 Y117.332 E25.28121
G1 X117.332 Y102.888 E26.26367
G1 X117.446 Y102.614 E26.27794
;WIDTH:0.404381
G1 X117.405 Y102.625 E26.27974
G1 X117.386 Y102.554 E26.28286
G1 X117.457 Y102.573 E26.28598
G1 X117.457 Y102.573 F7800
G1 X117.332 Y103.434
;WIDTH:0.45
G1 F1200
G1 X103.434 Y117.332 E27.2313
G1 X103.979 Y117.332 E27.25751
G1 X117.332 Y103.979 E28.16576
G1 X117.332 Y104.524 E28.19197
G1 X104.524 Y117.332 E29.06315
G1 X105.07 Y117.332 E29.08941
G1 X117.332 Y105.07 E29.92346
G1 X117.332 Y105.615 E29.94967
G1 X105.615 Y117.332 E30.74665
G1 X106.16 Y117.332 E30.77286
G1 X117.332 Y106.16 E31.53277
G1 X117.332 Y106.706 E31.55903
G1 X106.706 Y117.332 E32.2818
G1 X107.251 Y117.332 E32.30801
G1 X117.332 Y107.251 E32.99371
G1 X117.332 Y107.796 E33.01992
G1 X107.796 Y117.332 E33.66855
G1 X108.342 Y117.332 E33.69481
G1 X117.332 Y108.342 E34.3063
G1 X117.332 Y108.887 E34.33251
G1 X108.887 Y117.332 E34.90693
G1 X109.432 Y117.332 E34.93314
G1 X117.332 Y109.432 E35.47049
G1 X117.332 Y109.978 E35.49675
G1 X109.978 Y117.332 E35.99696
G1 X110.523 Y117.332 E36.02317
G1 X117.332 Y110.523 E36.48631
G1 X117.332 Y111.069 E36.51257
G1 X111.069 Y117.332 E36.93857
G1 X111.614 Y117.332 E36.96478
G1 X117.332 Y111.614 E37.35371
G1 X117.332 Y112.159 E37.37992
G1 X112.159 Y117.332 E37.73178
G1 X112.705 Y117.332 E37.75804
G1 X117.332 Y112.705 E38.07276
G1 X117.332 Y113.25 E38.09897
G1 X113.25 Y117.332 E38.37662
G1 X113.795 Y117.332 E38.40283
G1 X117.332 Y113.795 E38.64341
G1 X117.332 Y114.341 E38.66967
G1 X114.341 Y117.332 E38.87311
G1 X114.886 Y117.332 E38.89932
G1 X117.332 Y114.886 E39.06569
G1 X117.538 Y115.272 E39.08673
;WIDTH:0.404381
G1 X117.466 Y115.253 E39.08989
G1 X117.486 Y115.324 E39.09302
G1 X117.527 Y115.313 E39.09482
;WIDTH:0.45
G1 X117.332 Y115.431 E39.10578
G1 X115.431 Y117.332 E39.23508
G1 X115.313 Y117.527 E39.24604
;WIDTH:0.404381
G1 X115.272 Y117.538 E39.24784
G1 X115.253 Y117.466 E39.251
G1 X115.324 Y117.486 E39.25413
G1 E37.25413 F2400
G92 E0
G1 X115.324 Y117.486 F7800
G1 X117.196 Y116.113
G1 E2 F2400
;WIDTH:0.45
G1 F1200
G1 X115.977 Y117.332 E2.08291
G1 X117.332 Y117.332 E2.14808
G1 X117.332 Y115.977 E2.21325
G1 X117.332 Y115.977 F7800
G1 X116.984 Y116.922
;WIDTH:0.472651
G1 F1200
G1 X116.948 Y116.886 E2.21584
G1 X116.899 Y116.899 E2.21842
G1 X116.886 Y116.948 E2.221
G1 X116.922 Y116.984 E2.22359
G1 X116.971 Y116.971 E2.22617
;LAYER_CHANGE
;Z:0.9
;HEIGHT:0.3
G1 Z.9 F7800
G1 E.22617 F2400
G92 E0
G1 Z.9 F7800
G1 X102.379 Y102.379
G1 E2 F2400
;TYPE:Perimeter
;WIDTH:0.45
G1 F3600
G1 X117.621 Y102.379 E2.73309
G1 X117.621 Y110 E3.09963
G1 X117.621 Y117.621 E3.46617
G1 X102.379 Y117.621 E4.19926
G1 X102.379 Y102.439 E4.92946
G1 X102.379 Y102.439 F7800
G1 X101.993 Y101.993
G1 F3600
G1 X118.007 Y101.993 E5.69968
G1 X118.007 Y110 E6.08479
G1 X118.007 Y118.007 E6.4699
G1 X101.993 Y118.007 E7.24012
G1 X101.993 Y102.053 E8.00745
G1 X101.993 Y102.053 F7800
G1 X101.608 Y101.608
;TYPE:External perimeter
G1 F1800
G1 X118.392 Y101.608 E8.8147
G1 X118.392 Y110 E9.21833
G1 X118.392 Y118.392 E9.62196
G1 X101.608 Y118.392 E10.42921
G1 X101.608 Y101.668 E11.23358
G1 X102.003 Y101.608 F7800
G1 E9.23358 F2400
G92 E0
G1 X102.699 Y117.227 F7800
G1 E2 F2400
;TYPE:Solid infill
;WIDTH:0.543559
G1 F1200
G1 X102.657 Y117.27 E2.00359
G1 X102.672 Y117.328 E2.00717
G1 X102.73 Y117.343 E2.01075
G1 X102.773 Y117.301 E2.01434
G1 X102.757 Y117.243 E2.01794
;WIDTH:0.45
G1 X103.373 Y117.332 E2.04788
G1 X102.668 Y116.627 E2.09583
G1 X102.668 Y116.082 E2.12204
G1 X103.918 Y117.332 E2.20706
G1 X104.464 Y117.332 E2.23332
G1 X102.668 Y115.536 E2.35548
G1 X102.668 Y114.991 E2.38169
G1 X105.009 Y117.332 E2.54092
G1 X105.555 Y117.332 E2.56718
G1 X102.668 Y114.445 E2.76355
G1 X102.668 Y113.9 E2.78976
G1 X106.1 Y117.332 E3.0232
G1 X106.645 Y117.332 E3.04941
G1 X102.668 Y113.355 E3.31992
G1 X102.668 Y112.809 E3.34618
G1 X107.191 Y117.332 E3.65383
G1 X107.736 Y117.332 E3.68004
G1 X102.668 Y112.264 E4.02476
G1 X102.668 Y111.719 E4.05097
G1 X108.281 Y117.332 E4.43276
G1 X108.827 Y117.332 E4.45902
G1 X102.668 Y111.173 E4.87795
G1 X102.668 Y110.628 E4.90416
G1 X109.372 Y117.332 E5.36016
G1 X109.917 Y117.332 E5.38637
G1 X102.668 Y110.083 E5.87944
G1 X102.668 Y109.537 E5.9057
G1 X110.463 Y117.332 E6.43591
G1 X111.008 Y117.332 E6.46212
G1 X102.668 Y108.992 E7.0294
G1 X102.668 Y108.447 E7.05561
G1 X111.553 Y117.332 E7.65996
G1 X112.099 Y117.332 E7.68622
G1 X102.668 Y107.901 E8.3277
G1 X102.668 Y107.356 E8.35391
G1 X112.644 Y117.332 E9.03247
G1 X113.189 Y117.332 E9.05868
G1 X102.668 Y106.811 E9.77431
G1 X102.668 Y106.265 E9.80057
G1 X113.735 Y117.332 E10.55333
G1 X114.28 Y117.332 E10.57954
G1 X102.668 Y105.72 E11.36937
G1 X102.668 Y105.175 E11.39558
G1 X114.825 Y117.332 E12.22248
G1 X115.371 Y117.332 E12.24874
G1 X102.668 Y104.629 E13.11278
G1 X102.668 Y104.084 E13.13899
G1 X115.916 Y117.332 E14.0401
G1 X116.461 Y117.332 E14.06631
G1 X102.668 Y103.539 E15.00449
G1 X102.668 Y102.993 E15.03075
G1 X117.007 Y117.332 E16.00607
G1 X117.405 Y117.375 E16.02532
;WIDTH:0.404381
G1 X117.386 Y117.446 E16.02844
G1 X117.457 Y117.427 E16.03156
G1 X117.446 Y117.386 E16.03336
;WIDTH:0.45
G1 X117.332 Y117.112 E16.04763
G1 X102.888 Y102.668 E17.03009
G1 X102.614 Y102.554 E17.04436
;WIDTH:0.404381
G1 X102.625 Y102.595 E17.04616
G1 X102.554 Y102.614 E17.04928
G1 X102.573 Y102.543 E17.0524
G1 X102.573 Y102.543 F7800
G1 X103.434 Y102.668
;WIDTH:0.45
G1 F1200
G1 X117.332 Y116.566 E17.99772
G1 X117.332 Y116.021 E18.02393
G1 X103.979 Y102.668 E18.93218
G1 X104.524 Y102.668 E18.95839
G1 X117.332 Y115.476 E19.82957
G1 X117.332 Y114.93 E19.85583
G1 X105.07 Y102.668 E20.68988
G1 X105.615 Y102.668 E20.71609
G1 X117.332 Y114.385 E21.51307
G1 X117.332 Y113.84 E21.53928
G1 X106.16 Y102.668 E22.29919
G1 X106.706 Y102.668 E22.32545
G1 X117.332 Y113.294 E23.04822
G1 X117.332 Y112.749 E23.07443
G1 X107.251 Y102.668 E23.76013
G1 X107.796 Y102.668 E23.78634
G1 X117.332 Y112.204 E24.43497
G1 X117.332 Y111.658 E24.46123
G1 X108.342 Y102.668 E25.07272
G1 X108.887 Y102.668 E25.09893
G1 X117.332 Y111.113 E25.67335
G1 X117.332 Y110.568 E25.69956
G1 X109.432 Y102.668 E26.23691
G1 X109.978 Y102.668 E26.26317
G1 X117.332 Y110.022 E26.76338
G1 X117.332 Y109.477 E26.78959
G1 X110.523 Y102.668 E27.25273
G1 X111.069 Y102.668 E27.27899
G1 X117.332 Y108.931 E27.70499
G1 X117.332 Y108.386 E27.7312
G1 X111.614 Y102.668 E28.12013
G1 X112.159 Y102.668 E28.14634
G1 X117.332 Y107.841 E28.4982
G1 X117.332 Y107.295 E28.52446
G1 X112.705 Y102.668 E28.83918
G1 X113.25 Y102.668 E28.86539
G1 X117.332 Y106.75 E29.14304
G1 X117.332 Y106.205 E29.16925
G1 X113.795 Y102.668 E29.40983
G1 X114.341 Y102.668 E29.43609
G1 X117.332 Y105.659 E29.63953
G1 X117.332 Y105.114 E29.66574
G1 X114.886 Y102.668 E29.83211
G1 X115.272 Y102.462 E29.85315
;WIDTH:0.404381
G1 X115.253 Y102.534 E29.85631
G1 X115.324 Y102.514 E29.85944
G1 X115.313 Y102.473 E29.86124
;WIDTH:0.45
G1 X115.431 Y102.668 E29.8722
G1 X117.332 Y104.569 E30.0015
G1 X117.527 Y104.687 E30.01246
;WIDTH:0.404381
G1 X117.538 Y104.728 E30.01426
G1 X117.466 Y104.747 E30.01742
G1 X117.486 Y104.676 E30.02055
G1 E28.02055 F2400
G92 E0
G1 X117.486 Y104.676 F7800
G1 X116.113 Y102.804
G1 E2 F2400
;WIDTH:0.45
G1 F1200
G1 X117.332 Y104.023 E2.08291
G1 X117.332 Y102.668 E2.14808
G1 X115.977 Y102.668 E2.21325
G1 X115.977 Y102.668 F7800
G1 X116.922 Y103.016
;WIDTH:0.472653
G1 F1200
G1 X116.886 Y103.052 E2.21584
G1 X116.899 Y103.101 E2.21842
G1 X116.948 Y103.114 E2.221
G1 X116.984 Y103.078 E2.22359
G1 X116.971 Y103.029 E2.22617
M106 S239.7
;LAYER_CHANGE
;Z:1.2
;HEIGHT:0.3
G1 Z1.2 F7800
G1 E.22617 F2400
G92 E0
G1 Z1.2 F7800
G1 X102.379 Y102.379
G1 E2 F2400
;TYPE:Perimeter
;WIDTH:0.45
G1 F3600
G1 X117.621 Y102.379 E2.73309
G1 X117.621 Y110 E3.09963
G1 X117.621 Y117.621 E3.46617
G1 X102.379 Y117.621 E4.19926
G1 X102.379 Y102.439 E4.92946
G1 X102.379 Y102.439 F7800
G1 X101.993 Y101.993
G1 F3600
G1 X118.007 Y101.993 E5.69968
G1 X118.007 Y110 E6.08479
G1 X118.007 Y118.007 E6.4699
G1 X101.993 Y118.007 E7.24012
G1 X101.993 Y102.053 E8.00745
G1 X101.993 Y102.053 F7800
G1 X101.608 Y101.608
;TYPE:External perimeter
G1 F1800
G1 X118.392 Y101.608 E8.8147
G1 X118.392 Y110 E9.21833
G1 X118.392 Y118.392 E9.62196
G1 X101.608 Y118.392 E10.42921
G1 X101.608 Y101.668 E11.23358
G1 X102.003 Y101.608 F7800
G1 E9.23358 F2400
G92 E0
G1 X117.139 Y102.668 F7800
G1 E2 F2400
;TYPE:Solid infill
;WIDTH:0.483093
G1 F1200
G1 X117.219 Y102.685 E2.00427
;WIDTH:0.516175
G1 X117.299 Y102.701 E2.00887
G1 X117.315 Y102.781 E2.01347
;WIDTH:0.483093
G1 X117.332 Y102.861 E2.01774
;WIDTH:0.450011
G1 X117.332 Y117.139 E2.70448
;WIDTH:0.483093
G1 X117.315 Y117.219 E2.70875
;WIDTH:0.516175
G1 X117.299 Y117.299 E2.71335
G1 X117.236 Y117.315 E2.71701
;WIDTH:0.484554
G1 X117.173 Y117.33 E2.7204
;WIDTH:0.452933
G1 X117.139 Y117.332 E2.72205
;WIDTH:0.450011
G1 X102.861 Y117.332 E3.40879
;WIDTH:0.483089
G1 X102.781 Y117.315 E3.41306
;WIDTH:0.516171
G1 X102.701 Y117.299 E3.41766
G1 X102.685 Y117.219 E3.42226
;WIDTH:0.483091
