; generated by PrusaSlicer 2.8.1+linux-x64-GTK3 on 2024-10-13 at 16:40:35 UTC

; 

; external perimeters extrusion width = 0.45mm
; perimeters extrusion width = 0.45mm
; infill extrusion width = 0.45mm
; solid infill extrusion width = 0.45mm
; top infill extrusion width = 0.40mm
; support material extrusion width = 0.40mm
; first layer extrusion width = 0.60mm

M190 S60 ; set bed temperature and wait for it to be reached
M104 S200 ; set temperature
;TYPE:Custom
G28 ; home all axes
G1 Z5 F5000 ; lift nozzle
M109 S200 ; set temperature and wait for it to be reached
G21 ; set units to millimeters
G90 ; use absolute coordinates
M82 ; use absolute distances for extrusion
G92 E0
; Filament gcode
M107
;LAYER_CHANGE
;Z:0.3
;HEIGHT:0.3
G1 E-2 F2400
G1 Z.3 F7800
G1 X100.384 Y101.034
G1 E0 F2400
;TYPE:Skirt/Brim
;WIDTH:0.6
G1 F1800
G1 X102.123 Y99.638 E.14898
G1 X105.114 Y98.878 E.35514
G1 X114.886 Y98.878 E1.00796
G1 X117.08 Y99.274 E1.1569
G1 X118.997 Y100.415 E1.30593
G1 X120.393 Y102.154 E1.45491
G1 X121.153 Y105.145 E1.66107
G1 X121.153 Y114.855 E2.30975
G1 X120.757 Y117.049 E2.45869
G1 X119.617 Y118.966 E2.60769
G1 X117.877 Y120.362 E2.75672
G1 X114.886 Y121.122 E2.96288
G1 X105.114 Y121.122 E3.6157
G1 X102.92 Y120.726 E3.76464
G1 X101.003 Y119.585 E3.91367
G1 X99.607 Y117.846 E4.06265
G1 X98.847 Y114.855 E4.26881
G1 X98.847 Y105.145 E4.91749
G1 X99.243 Y102.951 E5.06643
G1 X100.353 Y101.085 E5.21148
G1 E3.21148 F2400
G92 E0
G1 X100.353 Y101.085 F7800
G92 E0
G1 X113.514 Y113.483
G1 E2 F2400
;TYPE:Perimeter
;WIDTH:0.6
G1 F1800
G1 X106.486 Y113.483 E2.46951
G1 X106.486 Y106.517 E2.93488
G1 X113.514 Y106.517 E3.40439
G1 X113.514 Y110 E3.63707
G1 X113.514 Y113.423 E3.86574
G1 X113.514 Y113.423 F7800
G1 X114.05 Y114.019
G1 F1800
G1 X105.95 Y114.019 E4.40686
G1 X105.95 Y105.981 E4.94384
G1 X114.05 Y105.981 E5.48496
G1 X114.05 Y110 E5.75345
G1 X114.05 Y113.959 E6.01793
G1 X114.586 Y114.555 F7800
;TYPE:External perimeter
G1 F1800
G1 X105.414 Y114.555 E6.63067
G1 X105.414 Y105.445 E7.23927
G1 X114.586 Y105.445 E7.85201
G1 X114.586 Y110 E8.15631
G1 X114.586 Y114.495 E8.4566
G1 X114.19 Y114.554 F7800
G1 E6.4566 F2400
G92 E0
G1 X113.354 Y107.812 F7800
G1 E2 F2400
;TYPE:Solid infill
;WIDTH:0.62424
G1 F1800
G1 X112.461 Y106.918 E2.08824
G1 X111.669 Y106.918 E2.14354
G1 X113.113 Y108.362 E2.28614
G1 X113.113 Y109.154 E2.34144
G1 X110.877 Y106.918 E2.56225
G1 X110.085 Y106.918 E2.61755
G1 X113.113 Y109.946 E2.91657
G1 X113.113 Y110.738 E2.97187
G1 X109.294 Y106.918 E3.34906
G1 X108.502 Y106.918 E3.40436
G1 X113.113 Y111.529 E3.85971
G1 X113.113 Y112.321 E3.91501
G1 X107.71 Y106.918 E4.44857
G1 X106.918 Y106.918 E4.50387
G1 X113.082 Y113.082 E5.11258
G1 X112.29 Y113.082 E5.16788
G1 X106.887 Y107.679 E5.70144
G1 X106.887 Y108.471 E5.75674
G1 X111.498 Y113.082 E6.21209
G1 X110.706 Y113.082 E6.26739
G1 X106.887 Y109.263 E6.64453
G1 X106.887 Y110.054 E6.69976
G1 X109.915 Y113.082 E6.99878
G1 X109.123 Y113.082 E7.05408
G1 X106.887 Y110.846 E7.27489
G1 X106.887 Y111.638 E7.33019
G1 X108.331 Y113.082 E7.47279
G1 X107.539 Y113.082 E7.52809
G1 X106.646 Y112.189 E7.61628
;LAYER_CHANGE
;Z:0.6
;HEIGHT:0.3
G1 Z.6 F7800
G1 E5.61628 F2400
G92 E0
G1 X106.646 Y112.189 Z.6 F7800
G1 X113.889 Y113.858
G1 E2 F2400
;TYPE:Perimeter
;WIDTH:0.45
G1 F900
G1 X106.111 Y113.858 E2.37409
G1 X106.111 Y106.142 E2.7452
G1 X113.889 Y106.142 E3.11929
G1 X113.889 Y110 E3.30485
G1 X113.889 Y113.798 E3.48752
G1 X113.889 Y113.798 F7800
G1 X114.275 Y114.244
G1 F900
G1 X105.725 Y114.244 E3.89875
G1 X105.725 Y105.756 E4.30699
G1 X114.275 Y105.756 E4.71822
G1 X114.275 Y110 E4.92234
G1 X114.275 Y114.184 E5.12358
G1 X114.661 Y114.63 F7800
;TYPE:External perimeter
G1 F900
G1 X105.339 Y114.63 E5.57194
G1 X105.339 Y105.37 E6.01731
G1 X114.661 Y105.37 E6.46567
G1 X114.661 Y110 E6.68836
G1 X114.661 Y114.57 E6.90816
G1 X114.265 Y114.629 F7800
G1 E4.90816 F2400
G92 E0
G1 X106.504 Y106.462 F7800
G1 E2 F2400
;TYPE:Solid infill
;WIDTH:0.543559
G1 F1200
G1 X106.462 Y106.42 E2.00355
G1 X106.404 Y106.435 E2.00713
G1 X106.389 Y106.493 E2.01071
G1 X106.431 Y106.536 E2.0143
G1 X106.489 Y106.52 E2.0179
;WIDTH:0.45
G1 X107.105 Y106.431 E2.04784
G1 X106.276 Y107.273 E2.10467
;WIDTH:0.404381
G1 X106.205 Y107.254 E2.10779
G1 X106.224 Y107.325 E2.11091
G1 X106.265 Y107.314 E2.11271
;WIDTH:0.45
G1 X106.4 Y107.681 E2.13152
G1 X107.65 Y106.431 E2.21654
G1 X108.196 Y106.431 E2.2428
G1 X106.4 Y108.227 E2.36496
G1 X106.4 Y108.772 E2.39117
G1 X108.741 Y106.431 E2.5504
G1 X109.286 Y106.431 E2.57661
G1 X106.4 Y109.317 E2.77291
G1 X106.4 Y109.863 E2.79917
G1 X109.832 Y106.431 E3.03261
G1 X110.377 Y106.431 E3.05882
G1 X106.4 Y110.408 E3.32933
G1 X106.4 Y110.953 E3.35554
G1 X110.922 Y106.431 E3.66312
G1 X111.468 Y106.431 E3.68938
G1 X106.4 Y111.499 E4.0341
G1 X106.4 Y112.044 E4.06031
G1 X112.013 Y106.431 E4.4421
G1 X112.558 Y106.431 E4.46831
G1 X106.4 Y112.589 E4.88717
G1 X106.4 Y113.135 E4.91343
G1 X113.104 Y106.431 E5.36943
G1 X113.6 Y106.48 E5.3934
G1 X106.511 Y113.569 E5.87558
G1 X106.328 Y113.671 E5.88566
;WIDTH:0.404381
G1 X106.256 Y113.652 E5.88882
G1 X106.275 Y113.723 E5.89194
G1 X106.317 Y113.712 E5.89378
;WIDTH:0.45
G1 X107.056 Y113.569 E5.92998
G1 X113.6 Y107.025 E6.37509
G1 X113.6 Y107.57 E6.4013
G1 X107.601 Y113.569 E6.80934
G1 X108.147 Y113.569 E6.8356
G1 X113.6 Y108.116 E7.20651
G1 X113.6 Y108.661 E7.23272
G1 X108.692 Y113.569 E7.56656
G1 X109.238 Y113.569 E7.59282
G1 X113.6 Y109.206 E7.88955
G1 X113.6 Y109.752 E7.91581
G1 X109.783 Y113.569 E8.17544
G1 X110.328 Y113.569 E8.20165
G1 X113.6 Y110.297 E8.42421
G1 X113.6 Y110.842 E8.45042
G1 X110.874 Y113.569 E8.63587
G1 X111.312 Y113.723 E8.6582
;WIDTH:0.404381
G1 X111.241 Y113.704 E8.66132
G1 X111.26 Y113.775 E8.66444
G1 X111.301 Y113.764 E8.66624
;WIDTH:0.45
G1 X111.419 Y113.569 E8.6772
G1 X113.6 Y111.388 E8.82555
G1 X113.795 Y111.27 E8.83651
;WIDTH:0.404381
G1 X113.754 Y111.281 E8.83831
G1 X113.735 Y111.21 E8.84143
G1 X113.806 Y111.229 E8.84455
;WIDTH:0.45
G1 X113.6 Y111.933 E8.87983
G1 X113.6 Y113.569 E8.95852
G1 X111.964 Y113.569 E9.03721
G1 X113.464 Y112.07 E9.1392
G1 X113.464 Y112.07 F7800
G1 X113.19 Y113.071
;WIDTH:0.637076
G1 F1200
G1 X113.14 Y113.021 E9.14425
G1 X113.07 Y113.039 E9.14941
G1 X113.052 Y113.108 E9.1545
G1 X113.103 Y113.159 E9.15965
G1 X113.172 Y113.141 E9.16474
;LAYER_CHANGE
;Z:0.9
;HEIGHT:0.3
G1 Z.9 F7800
G1 X113.889 Y113.858
;TYPE:Perimeter
;WIDTH:0.45
G1 F900
G1 X106.111 Y113.858 E9.53883
G1 X106.111 Y106.142 E9.90994
G1 X113.889 Y106.142 E10.28403
G1 X113.889 Y110 E10.46959
G1 X113.889 Y113.798 E10.65226
G1 X113.889 Y113.798 F7800
G1 X114.275 Y114.244
G1 F900
G1 X105.725 Y114.244 E11.06349
G1 X105.725 Y105.756 E11.47173
G1 X114.275 Y105.756 E11.88296
G1 X114.275 Y110 E12.08708
G1 X114.275 Y114.184 E12.28832
G1 X114.661 Y114.63 F7800
;TYPE:External perimeter
G1 F900
G1 X105.339 Y114.63 E12.73668
G1 X105.339 Y105.37 E13.18205
G1 X114.661 Y105.37 E13.63041
G1 X114.661 Y110 E13.8531
G1 X114.661 Y114.57 E14.0729
G1 X114.265 Y114.629 F7800
G1 E12.0729 F2400
G92 E0
G1 X113.776 Y106.909 F7800
G1 E2 F2400
;TYPE:Top solid infill
;WIDTH:0.405398
G1 F900
G1 X113.273 Y106.406 E2.03026
G1 X112.791 Y106.406 E2.05076
G1 X113.625 Y107.241 E2.10096
G1 X113.625 Y107.723 E2.12146
G1 X112.308 Y106.406 E2.20068
G1 X111.826 Y106.406 E2.22118
G1 X113.625 Y108.205 E2.32939
G1 X113.625 Y108.687 E2.34989
G1 X111.344 Y106.406 E2.4871
G1 X110.862 Y106.406 E2.5076
G1 X113.625 Y109.17 E2.67383
G1 X113.625 Y109.652 E2.69433
G1 X110.379 Y106.406 E2.88958
G1 X109.897 Y106.406 E2.91008
G1 X113.625 Y110.134 E3.13432
G1 X113.625 Y110.616 E3.15482
G1 X109.415 Y106.406 E3.40806
G1 X108.932 Y106.406 E3.4286
G1 X113.625 Y111.099 E3.71089
G1 X113.625 Y111.581 E3.73139
G1 X108.45 Y106.406 E4.04267
G1 X107.968 Y106.406 E4.06317
G1 X113.625 Y112.063 E4.40345
G1 X113.625 Y112.546 E4.42399
G1 X107.486 Y106.406 E4.79329
G1 X107.003 Y106.406 E4.81383
G1 X113.625 Y113.028 E5.21215
G1 X113.625 Y113.117 E5.21594
G1 X113.415 Y113.3 E5.22779
G1 X106.686 Y106.571 E5.63255
G1 X106.434 Y106.801 E5.64706
G1 X113.186 Y113.553 E6.0532
G1 X113.136 Y113.594 E6.05595
G1 X112.745 Y113.594 E6.07258
G1 X106.375 Y107.224 E6.45574
G1 X106.375 Y107.706 E6.47624
G1 X112.263 Y113.594 E6.83041
G1 X111.78 Y113.594 E6.85095
G1 X106.375 Y108.189 E7.17607
G1 X106.375 Y108.671 E7.19657
G1 X111.298 Y113.594 E7.4927
G1 X110.816 Y113.594 E7.5132
G1 X106.375 Y109.153 E7.78033
G1 X106.375 Y109.636 E7.80087
G1 X110.333 Y113.594 E8.03895
G1 X109.851 Y113.594 E8.05945
G1 X106.375 Y110.118 E8.26854
G1 X106.375 Y110.6 E8.28904
G1 X109.369 Y113.594 E8.46913
G1 X108.887 Y113.594 E8.48963
G1 X106.375 Y111.082 E8.64073
G1 X106.375 Y111.565 E8.66127
G1 X108.404 Y113.594 E8.78332
G1 X107.922 Y113.594 E8.80382
G1 X106.375 Y112.047 E8.89687
G1 X106.375 Y112.529 E8.91737
G1 X107.44 Y113.594 E8.98143
G1 X106.966 Y113.594 E9.00159
G1 X106.224 Y112.86 E9.04598
G1 X106.224 Y112.86 F7800
G1 X106.4 Y113.506
;TYPE:Solid infill
;WIDTH:0.476127
G1 F1200
G1 X106.363 Y113.543 E9.04867
G1 X106.376 Y113.592 E9.05127
G1 X106.426 Y113.606 E9.05394
G1 X106.463 Y113.569 E9.05663
G1 X106.449 Y113.52 E9.05925
M106 S229.5
;LAYER_CHANGE
;Z:1.2
;HEIGHT:0.3
G1 Z1.2 F7800
G1 E7.05925 F2400
G92 E0
G1 X106.449 Y113.52 Z1.2 F7800
G1 X110.904 Y106.419
G1 E2 F2400
;TYPE:Perimeter
;WIDTH:0.52886
G1 F900
G1 X110.982 Y106.465 E2.00525
;WIDTH:0.481906
G1 X111.231 Y106.523 E2.01856
;WIDTH:0.45
G1 X111.775 Y106.774 E2.04738
G1 X112.419 Y107.21 E2.08479
G1 X112.553 Y107.358 E2.09439
G1 X112.56 Y107.427 E2.09773
G1 X112.688 Y107.475 E2.1043
G1 X113.045 Y107.917 E2.13163
G1 X113.298 Y108.356 E2.156
;WIDTH:0.487617
G1 X113.527 Y108.939 E2.18906
G1 X113.561 Y109.069 E2.19615
;WIDTH:0.524487
G1 X113.597 Y109.127 E2.20007
;WIDTH:0.561357
G1 X113.633 Y109.184 E2.20425
;WIDTH:0.598228
G1 X113.669 Y109.242 E2.2088
G1 X113.715 Y109.757 E2.24323
;WIDTH:0.589267
G1 X113.683 Y110.496 E2.29166
G1 X113.622 Y110.662 E2.30324
;WIDTH:0.542844
G1 X113.56 Y110.828 E2.31381
;WIDTH:0.496422
G1 X113.499 Y110.994 E2.32334
;WIDTH:0.45
G1 X113.296 Y111.52 E2.35046
G1 X113.041 Y111.958 E2.37484
G1 X112.678 Y112.403 E2.40246
G1 X112.559 Y112.444 E2.40851
G1 X112.504 Y112.581 E2.41561
G1 X112.072 Y112.928 E2.44226
G1 X111.863 Y113.03 E2.45345
G1 X111.63 Y113.183 E2.46686
G1 X111.107 Y113.384 E2.49381
G1 X110.304 Y113.537 E2.53313
G1 X109.798 Y113.538 E2.55747
G1 X109.189 Y113.43 E2.58722
G1 X108.467 Y113.181 E2.62395
G1 X108.276 Y113.052 E2.63504
G1 X108.028 Y112.926 E2.64842
G1 X107.585 Y112.564 E2.67594
G1 X107.544 Y112.442 E2.68213
G1 X107.418 Y112.399 E2.68853
G1 X107.056 Y111.954 E2.71612
G1 X106.956 Y111.748 E2.72713
G1 X106.803 Y111.515 E2.74054
G1 X106.601 Y110.989 E2.76764
G1 X106.45 Y110.188 E2.80684
G1 X106.474 Y109.936 E2.81902
G1 X106.449 Y109.679 E2.83144
G1 X106.556 Y109.075 E2.86094
G1 X106.806 Y108.351 E2.89778
G1 X106.934 Y108.161 E2.9088
G1 X107.06 Y107.913 E2.92218
G1 X107.395 Y107.493 E2.94802
G1 X107.542 Y107.427 E2.95577
G1 X107.582 Y107.309 E2.96176
G1 X108.03 Y106.943 E2.98958
G1 X108.472 Y106.688 E3.01412
G1 X108.876 Y106.521 E3.03515
;WIDTH:0.493667
G1 X108.903 Y106.49 E3.03735
;WIDTH:0.537335
G1 X108.929 Y106.46 E3.03969
;WIDTH:0.581002
G1 X108.956 Y106.43 E3.04229
;WIDTH:0.62467
G1 X108.982 Y106.399 E3.04512
G1 X109.387 Y106.343 E3.07369
;WIDTH:0.586132
G1 X109.792 Y106.286 E3.10031
;WIDTH:0.547595
G1 X110.313 Y106.285 E3.13171
;WIDTH:0.575814
G1 X110.746 Y106.328 E3.15947
G1 X110.852 Y106.389 E3.16727
G1 X110.852 Y106.389 F7800
G1 X110.96 Y106.893
;TYPE:External perimeter
;WIDTH:0.45
G1 F900
G1 X111.023 Y106.865 E3.17059
G1 X111.532 Y107.074 E3.19705
G1 X111.603 Y107.25 E3.20618
G1 X111.79 Y107.224 E3.21526
G1 X112.217 Y107.549 E3.24107
G1 X112.245 Y107.743 E3.2505
G1 X112.442 Y107.773 E3.26008
G1 X112.766 Y108.2 E3.28586
G1 X112.752 Y108.385 E3.29478
G1 X112.914 Y108.457 E3.30331
G1 X113.124 Y108.968 E3.32988
G1 X113.061 Y109.137 E3.33855
G1 X113.196 Y109.243 E3.34681
G1 X113.271 Y109.757 E3.37179
G1 X113.259 Y109.825 E3.37511
G1 X113.153 Y109.937 E3.38253
G1 X113.268 Y110.077 E3.39124
G1 X113.213 Y110.575 E3.41534
G1 X113.182 Y110.658 E3.4196
G1 X113.057 Y110.749 E3.42704
G1 X113.119 Y110.927 E3.43611
G1 X112.912 Y111.419 E3.46178
G1 X112.744 Y111.499 E3.47073
G1 X112.762 Y111.676 E3.47929
G1 X112.438 Y112.101 E3.50499
G1 X112.244 Y112.13 E3.51442
G1 X112.211 Y112.33 E3.52417
G1 X111.79 Y112.649 E3.54957
G1 X111.601 Y112.622 E3.55875
G1 X111.529 Y112.8 E3.56799
G1 X111.04 Y113.005 E3.59349
G1 X110.853 Y112.932 E3.60315
G1 X110.742 Y113.081 E3.61209
G1 X110.229 Y113.156 E3.63703
G1 X110.166 Y113.145 E3.64011
G1 X110.046 Y113.05 E3.64747
G1 X109.907 Y113.154 E3.65582
G1 X109.354 Y113.081 E3.68265
G1 X109.237 Y112.942 E3.69139
G1 X109.076 Y113.006 E3.69972
G1 X108.568 Y112.797 E3.72614
G1 X108.487 Y112.629 E3.73511
G1 X108.309 Y112.647 E3.74371
G1 X107.886 Y112.323 E3.76934
G1 X107.857 Y112.128 E3.77882
G1 X107.66 Y112.099 E3.7884
G1 X107.336 Y111.673 E3.81414
G1 X107.35 Y111.486 E3.82316
G1 X107.187 Y111.413 E3.83175
G1 X106.981 Y110.922 E3.85736
G1 X107.041 Y110.734 E3.86685
G1 X106.905 Y110.626 E3.8752
G1 X106.83 Y110.114 E3.90009
G1 X106.842 Y110.049 E3.90327
G1 X106.95 Y109.935 E3.91082
G1 X106.833 Y109.788 E3.91986
G1 X106.905 Y109.239 E3.94649
G1 X107.045 Y109.122 E3.95527
G1 X106.98 Y108.961 E3.96362
G1 X107.189 Y108.453 E3.99004
G1 X107.358 Y108.372 E3.99905
G1 X107.34 Y108.194 E4.00765
G1 X107.654 Y107.778 E4.03272
G1 X107.858 Y107.741 E4.04269
G1 X107.885 Y107.547 E4.05211
G1 X108.313 Y107.222 E4.07796
G1 X108.501 Y107.249 E4.08709
G1 X108.572 Y107.073 E4.09622
G1 X109.064 Y106.865 E4.12191
G1 X109.252 Y106.925 E4.1314
G1 X109.358 Y106.79 E4.13966
G1 X109.873 Y106.715 E4.16469
G1 X109.942 Y106.728 E4.16807
G1 X110.052 Y106.833 E4.17538
G1 X110.198 Y106.717 E4.18435
G1 X110.747 Y106.791 E4.21099
G1 X110.855 Y106.939 E4.2198
G1 X110.905 Y106.917 E4.22243
G1 X111.299 Y106.985 F7800
G1 E2.22243 F2400
G92 E0
G1 X113.884 Y111.061 F7800
G1 E2 F2400
;TYPE:Perimeter
;WIDTH:0.460593
G1 F900
G1 X113.889 Y111.715 E2.03232
;WIDTH:0.45
G1 X113.889 Y113.858 E2.13539
G1 X111.841 Y113.858 E2.23389
;WIDTH:0.497382
G1 X111.511 Y113.835 E2.25176
;WIDTH:0.544765
G1 X111.182 Y113.811 E2.27152
G1 X111.283 Y113.768 E2.2781
;WIDTH:0.51793
G1 X111.384 Y113.724 E2.28433
;WIDTH:0.491096
G1 X112.073 Y113.366 E2.32565
;WIDTH:0.45
G1 X112.651 Y112.97 E2.35935
G1 X112.918 Y112.704 E2.37748
G1 X113.347 Y112.194 E2.40953
G1 X113.652 Y111.667 E2.43882
;WIDTH:0.460593
G1 X113.863 Y111.117 E2.46793
G1 E.46793 F2400
G92 E0
G1 X113.863 Y111.117 F7800
G1 X111.182 Y113.811
G1 E2 F2400
;WIDTH:0.544765
G1 F900
G1 X110.974 Y113.83 E2.01251
;WIDTH:0.505814
G1 X110.766 Y113.85 E2.02401
;WIDTH:0.466864
G1 X110.558 Y113.869 E2.0345
;WIDTH:0.427913
G1 X110.349 Y113.889 E2.04402
;WIDTH:0.388963
G1 X109.751 Y113.889 E2.06823
;WIDTH:0.416855
G1 X109.531 Y113.875 E2.07792
;WIDTH:0.445833
G1 X109.31 Y113.86 E2.08846
G1 E.08846 F2400
G92 E0
G1 X109.31 Y113.86 F7800
G1 X113.896 Y110.927
G1 E2 F2400
;WIDTH:0.460593
G1 F900
G1 X113.884 Y111.061 E2.00665
G1 E.00665 F2400
G92 E0
G1 X113.884 Y111.061 F7800
G1 X111.273 Y106.142
G1 E2 F2400
;WIDTH:0.45
G1 F900
G1 X113.889 Y106.142 E2.12582
G1 X113.889 Y106.726 E2.15391
G1 X113.889 Y108.898 E2.25838
G1 X113.822 Y108.614 E2.27241
G1 X113.655 Y108.209 E2.29348
G1 X113.485 Y107.921 E2.30956
G1 X113.085 Y107.335 E2.34368
G1 X112.821 Y107.069 E2.36171
G1 X112.309 Y106.64 E2.39384
G1 X111.78 Y106.333 E2.42326
G1 X111.329 Y106.163 E2.44644
G1 E.44644 F2400
G92 E0
G1 X111.329 Y106.163 F7800
G1 X108.807 Y106.142
G1 E2 F2400
G1 F900
G1 X108.324 Y106.332 E2.02496
G1 X108.036 Y106.502 E2.04104
G1 X107.45 Y106.902 E2.07516
G1 X107.02 Y107.333 E2.10444
G1 X106.585 Y107.973 E2.14166
G1 X106.282 Y108.608 E2.1755
;WIDTH:0.463455
G1 X106.117 Y109.194 E2.2058
G1 X106.111 Y108.574 E2.23666
;WIDTH:0.45
G1 X106.111 Y106.142 E2.35363
G1 X108.747 Y106.142 E2.48041
G1 E.48041 F2400
G92 E0
G1 X108.747 Y106.142 F7800
G1 X106.166 Y111.065
G1 E2 F2400
;WIDTH:0.561215
G1 F900
G1 X106.212 Y111.166 E2.00688
;WIDTH:0.529466
G1 X106.258 Y111.267 E2.01332
