; generated by PrusaSlicer 2.8.1+linux-x64-GTK3 on 2024-10-07 at 13:34:15 UTC

; 

; external perimeters extrusion width = 0.45mm
; perimeters extrusion width = 0.45mm
; infill extrusion width = 0.45mm
; solid infill extrusion width = 0.45mm
; top infill extrusion width = 0.40mm
; support material extrusion width = 0.40mm
; first layer extrusion width = 0.60mm

M190 S60 ; set bed temperature and wait for it to be reached
M104 S200 ; set temperature
;TYPE:Custom
G28 ; home all axes
G1 Z5 F5000 ; lift nozzle
M109 S200 ; set temperature and wait for it to be reached
G21 ; set units to millimeters
G90 ; use absolute coordinates
M82 ; use absolute distances for extrusion
G92 E0
; Filament gcode
M107
;LAYER_CHANGE
;Z:0.3
;HEIGHT:0.3
G1 E-2 F2400
G1 Z.3 F7800
G1 X81.133 Y85.885
G1 E0 F2400
;TYPE:Skirt/Brim
;WIDTH:0.6
G1 F1800
G1 X82.72 Y84.565 E.1379
G1 X84.466 Y83.463 E.27583
G1 X85.583 Y82.912 E.35904
G1 X87.258 Y82.287 E.47848
G1 X89.534 Y81.742 E.63483
G1 X92 Y81.54 E.80012
G1 X117.369 Y81.57 E2.49491
G1 X118.549 Y81.744 E2.57459
G1 X133.888 Y85.301 E3.62651
G1 X134.834 Y85.601 E3.69281
G1 X135.876 Y86.025 E3.76796
G1 X136.889 Y86.549 E3.84415
G1 X137.837 Y87.155 E3.91932
G1 X138.738 Y87.854 E3.9955
G1 X139.56 Y88.621 E4.07061
G1 X140.32 Y89.472 E4.14683
G1 X140.989 Y90.376 E4.22196
G1 X141.582 Y91.35 E4.29814
G1 X142.408 Y93.175 E4.43197
G1 X148.244 Y111.235 E5.69991
G1 X149.66 Y117.071 E6.1011
G1 X149.915 Y119.054 E6.23467
G1 X149.914 Y120.263 E6.31544
G1 X149.745 Y121.828 E6.4206
G1 X147.888 Y132.61 E7.1515
G1 X147.443 Y134.318 E7.26941
G1 X147.037 Y135.383 E7.34555
G1 X145.99 Y137.308 E7.49194
G1 X144.731 Y138.916 E7.62837
G1 X139.674 Y144.12 E8.11313
G1 X138.641 Y145.098 E8.20816
G1 X137.74 Y145.798 E8.28438
G1 X136.793 Y146.406 E8.35956
G1 X135.78 Y146.931 E8.43578
G1 X134.738 Y147.357 E8.51098
G1 X133.647 Y147.691 E8.5872
G1 X132.544 Y147.92 E8.66246
G1 X131.41 Y148.05 E8.73871
G1 X130.284 Y148.076 E8.81395
G1 X112.488 Y147.787 E10.00298
G1 X110.5 Y147.537 E10.13684
G1 X109.267 Y147.212 E10.22202
G1 X107.938 Y146.705 E10.31705
G1 X85.88 Y137.225 E11.92097
G1 X83.756 Y136.127 E12.0807
G1 X82.07 Y134.936 E12.2186
G1 X81.133 Y134.115 E12.30183
G1 X79.914 Y132.807 E12.42128
G1 X79.233 Y131.948 E12.49451
G1 X78.54 Y130.912 E12.57778
G1 X77.58 Y129.085 E12.71566
G1 X76.954 Y127.41 E12.83512
G1 X76.653 Y126.356 E12.90835
G1 X76.303 Y124.321 E13.0463
G1 X76.208 Y122.668 E13.15691
G1 X76.208 Y97.332 E14.84949
G1 X76.303 Y95.679 E14.9601
G1 X76.653 Y93.644 E15.09805
G1 X76.865 Y92.853 E15.15276
G1 X77.58 Y90.915 E15.29076
G1 X78.54 Y89.088 E15.42864
G1 X79.233 Y88.052 E15.51191
G1 X80.553 Y86.465 E15.64981
G1 X81.09 Y85.928 E15.70054
G1 E13.70054 F2400
G92 E0
G1 X81.09 Y85.928 F7800
G92 E0
G1 X130.817 Y91.159
G1 E2 F2400
;TYPE:Support material
G1 F1800
G1 X131.402 Y91.185 E2.03912
G1 X132.472 Y91.407 E2.11212
G1 X133.514 Y91.831 E2.18727
G1 X134.462 Y92.436 E2.2624
G1 X135.284 Y93.204 E2.33755
G1 X135.954 Y94.107 E2.41267
G1 X136.448 Y95.117 E2.48778
G1 X136.752 Y96.2 E2.56293
G1 X136.854 Y97.32 E2.63806
G1 X136.752 Y98.441 E2.71326
G1 X136.448 Y99.523 E2.78834
G1 X135.954 Y100.533 E2.86345
G1 X135.294 Y101.424 E2.93753
G1 X134.881 Y101.819 E2.97571
G1 X134.448 Y102.213 E3.01482
G1 X133.514 Y102.81 E3.08887
G1 X132.472 Y103.234 E3.16402
G1 X131.371 Y103.462 E3.23913
G1 X130.247 Y103.487 E3.31424
G1 X129.137 Y103.307 E3.38936
G1 X128.077 Y102.93 E3.46452
G1 X127.104 Y102.366 E3.53965
G1 X126.249 Y101.636 E3.61476
G1 X125.541 Y100.763 E3.68985
G1 X125.03 Y99.826 E3.76115
G1 X124.661 Y98.712 E3.83955
G1 X124.509 Y97.6 E3.91453
G1 X124.509 Y97.041 E3.95187
G1 X124.661 Y95.929 E4.02685
G1 X125.03 Y94.815 E4.10525
G1 X125.541 Y93.878 E4.17655
G1 X126.249 Y93.005 E4.25164
G1 X127.104 Y92.275 E4.32675
G1 X128.077 Y91.711 E4.40188
G1 X129.137 Y91.334 E4.47704
G1 X130.217 Y91.159 E4.55013
G1 X130.737 Y91.159 E4.58487
G1 X130.737 Y91.159 F7800
G1 X136.186 Y99.512
G1 F1800
G1 X136.186 Y95.967 E4.8217
G1 X135.996 Y95.29 E4.86867
G1 X135.591 Y94.462 E4.93025
G1 X135.591 Y100.179 E5.31218
G1 X134.996 Y101.017 E5.38084
G1 X134.996 Y93.624 E5.87473
G1 X134.4 Y93.039 E5.93052
G1 X134.4 Y101.604 E6.50271
G1 X133.805 Y102.052 E6.55247
G1 X133.805 Y92.589 E7.18465
G1 X133.21 Y92.228 E7.23114
G1 X133.21 Y102.413 E7.91155
G1 X132.615 Y102.655 E7.95446
G1 X132.615 Y91.986 E8.66721
G1 X132.02 Y91.806 E8.70874
G1 X132.02 Y102.835 E9.44554
G1 X131.425 Y102.958 E9.48613
G1 X131.425 Y91.682 E10.23943
G1 X130.83 Y91.642 E10.27927
G1 X130.83 Y102.992 E11.03751
G1 X130.234 Y102.996 E11.07733
G1 X130.234 Y91.645 E11.83564
G1 X129.639 Y91.741 E11.8759
G1 X129.639 Y102.9 E12.62138
G1 X129.044 Y102.762 E12.66218
G1 X129.044 Y91.878 E13.38929
G1 X128.449 Y92.091 E13.43151
G1 X128.449 Y102.55 E14.13023
G1 X128.281 Y102.49 E14.14215
G1 X127.854 Y102.243 E14.1751
G1 X127.854 Y92.398 E14.8328
G1 X127.259 Y92.776 E14.87989
G1 X127.259 Y101.864 E15.48702
G1 X126.664 Y101.356 E15.53929
G1 X126.664 Y93.285 E16.07848
G1 X126.069 Y93.993 E16.14026
G1 X126.069 Y100.648 E16.58485
G1 X125.473 Y99.633 E16.66348
G1 X125.473 Y94.505 E17.00606
G1 E15.00606 F2400
G92 E0
G1 X125.473 Y94.505 F7800
G1 X131.885 Y105.978
G1 E2 F2400
G1 F1800
G1 X132.537 Y106.069 E2.04398
G1 X133.58 Y106.405 E2.11718
G1 X134.561 Y106.95 E2.19215
G1 X135.419 Y107.674 E2.26715
G1 X135.775 Y108.118 E2.30517
G1 X136.639 Y108.056 E2.36304
G1 X137.743 Y108.191 E2.43734
G1 X138.801 Y108.536 E2.51168
G1 X139.773 Y109.077 E2.586
G1 X140.622 Y109.795 E2.66028
G1 X141.318 Y110.662 E2.73455
G1 X141.835 Y111.647 E2.80887
G1 X142.153 Y112.713 E2.88319
G1 X142.26 Y113.82 E2.95749
G1 X142.153 Y114.927 E3.03179
G1 X141.969 Y115.543 E3.07474
G1 X142.728 Y116.489 E3.15576
G1 X143.254 Y117.492 E3.23142
G1 X143.569 Y118.549 E3.3051
G1 X143.676 Y119.656 E3.3794
G1 X143.568 Y120.764 E3.45377
G1 X143.253 Y121.82 E3.52739
G1 X142.726 Y122.823 E3.60308
G1 X142.17 Y123.515 E3.66238
G1 X142.245 Y124.316 E3.71613
G1 X142.144 Y125.436 E3.79126
G1 X141.842 Y126.52 E3.86643
G1 X141.181 Y127.759 E3.96024
G1 X141.407 Y128.221 E3.9946
G1 X141.711 Y129.304 E4.06975
G1 X141.813 Y130.422 E4.14475
G1 X141.711 Y131.546 E4.22015
G1 X141.408 Y132.627 E4.29515
G1 X140.919 Y133.625 E4.36939
G1 X140.235 Y134.548 E4.44614
G1 X139.422 Y135.308 E4.52049
G1 X138.495 Y135.9 E4.59397
G1 X137.411 Y136.342 E4.67218
G1 X136.665 Y136.497 E4.72308
G1 X136.34 Y137.837 E4.81519
G1 X135.847 Y138.848 E4.89033
G1 X135.179 Y139.753 E4.96547
G1 X134.357 Y140.522 E5.04067
G1 X133.41 Y141.129 E5.11582
G1 X132.368 Y141.554 E5.191
G1 X131.266 Y141.784 E5.26621
G1 X130.14 Y141.81 E5.34145
G1 X129.028 Y141.631 E5.41669
G1 X127.966 Y141.253 E5.492
G1 X126.99 Y140.688 E5.56734
G1 X126.133 Y139.954 E5.64272
G1 X125.424 Y139.077 E5.71806
G1 X124.913 Y138.137 E5.78954
G1 X124.546 Y137.019 E5.86815
G1 X124.448 Y136.478 E5.90488
G1 X124.397 Y135.36 E5.97965
G1 X124.549 Y134.251 E6.05443
G1 X124.915 Y133.145 E6.13226
G1 X125.148 Y132.717 E6.16482
G1 X127.743 Y132.704 E6.33818
G1 X128.127 Y132.501 E6.3672
G1 X128.394 Y132.025 E6.40366
G1 X128.437 Y117.896 E7.34756
G1 X129.659 Y117.362 E7.43665
G1 X128.437 Y116.74 E7.52825
G1 X128.436 Y113.645 E7.73501
G1 X128.385 Y113.279 E7.7597
G1 X128.227 Y112.95 E7.78408
G1 X128.003 Y112.736 E7.80478
G1 X127.743 Y112.632 E7.82349
G1 X125.582 Y112.619 E7.96786
G1 X125.501 Y111.493 E8.04328
G1 X125.65 Y110.389 E8.1177
G1 X126.01 Y109.332 E8.1923
G1 X126.593 Y108.322 E8.27021
G1 X127.287 Y107.519 E8.34111
G1 X128.138 Y106.855 E8.41322
G1 X129.228 Y106.305 E8.49478
G1 X130.269 Y106.014 E8.56699
G1 X131.352 Y105.931 E8.63955
G1 X131.805 Y105.971 E8.66993
G1 X131.805 Y105.971 F7800
G1 X142.732 Y122.301
G1 F1800
G1 X142.732 Y117.532 E8.98853
G1 X142.137 Y116.523 E9.06678
G1 X142.137 Y122.787 E9.48525
G1 X141.672 Y123.366 E9.53486
G1 X141.761 Y124.317 E9.59867
G1 X141.668 Y125.349 E9.66789
G1 X141.542 Y125.802 E9.6993
G1 X141.542 Y112.351 E10.5979
G1 X141.386 Y111.83 E10.63423
G1 X140.947 Y110.991 E10.69749
G1 X140.947 Y127.256 E11.78408
G1 X140.619 Y127.708 E11.82139
G1 X140.947 Y128.377 E11.87117
G1 X140.947 Y132.472 E12.14474
G1 X140.352 Y133.586 E12.22911
G1 X140.352 Y110.228 E13.78955
G1 X139.757 Y109.694 E13.84296
G1 X139.757 Y134.336 E15.48918
G1 X139.161 Y134.891 E15.54359
G1 X139.161 Y109.288 E17.25401
G1 X138.566 Y108.966 E17.29921
G1 X138.566 Y135.282 E19.05726
G1 X137.971 Y135.6 E19.10233
G1 X137.971 Y108.772 E20.89459
G1 X137.376 Y108.632 E20.93542
G1 X137.376 Y135.838 E22.75293
G1 X136.781 Y135.98 E22.7938
G1 X136.781 Y108.559 E24.62567
G1 X136.186 Y108.572 E24.66543
G1 X136.186 Y136.447 E26.52763
G1 X135.888 Y137.665 E26.6114
G1 X135.591 Y138.274 E26.65666
G1 X135.591 Y108.614 E28.63811
G1 X134.996 Y107.947 E28.69782
G1 X134.996 Y139.19 E30.78502
G1 X134.4 Y139.821 E30.84301
G1 X134.4 Y107.445 E33.0059
G1 X133.805 Y107.082 E33.05246
G1 X133.805 Y140.303 E35.2718
G1 X133.21 Y140.685 E35.31904
G1 X133.21 Y106.793 E37.58321
G1 X132.615 Y106.601 E37.62498
G1 X132.615 Y140.933 E39.91854
G1 X132.02 Y141.135 E39.96052
G1 X132.02 Y106.483 E42.27546
G1 X131.425 Y106.421 E42.31542
G1 X131.425 Y141.259 E44.64279
G1 X130.83 Y141.312 E44.6827
G1 X130.83 Y106.455 E47.01134
G1 X130.234 Y106.525 E47.05143
G1 X130.234 Y141.325 E49.37626
G1 X129.639 Y141.241 E49.4164
G1 X129.639 Y117.896 E50.97597
G1 X129.044 Y118.156 E51.01935
G1 X129.044 Y141.125 E52.5538
G1 X128.449 Y140.913 E52.596
G1 X128.449 Y132.86 E53.13398
G1 X127.854 Y133.173 E53.17889
G1 X127.854 Y140.631 E53.67712
G1 X127.259 Y140.283 E53.72317
G1 X127.259 Y133.199 E54.19642
G1 X126.664 Y133.199 E54.23617
G1 X126.664 Y139.774 E54.67542
G1 X126.069 Y139.108 E54.73508
G1 X126.069 Y133.199 E55.12983
G1 X125.473 Y133.199 E55.16965
G1 X125.473 Y138.664 E55.53474
G1 E53.53474 F2400
G92 E0
G1 X125.473 Y138.664 F7800
G1 X129.639 Y117.081
G1 E2 F2400
G1 F1800
G1 X129.639 Y106.691 E2.69411
G1 X129.044 Y106.921 E2.73673
G1 X129.044 Y116.508 E3.37719
G1 X128.919 Y116.444 E3.38657
G1 X128.903 Y113.414 E3.58899
G1 X128.732 Y112.847 E3.62855
G1 X128.449 Y112.476 E3.65972
G1 X128.449 Y107.234 E4.00991
G1 X127.854 Y107.688 E4.05991
G1 X127.854 Y112.163 E4.35886
G1 X127.259 Y112.137 E4.39865
G1 X127.259 Y108.288 E4.65578
G1 X126.664 Y109.122 E4.72422
G1 X126.664 Y112.137 E4.92564
G1 X126.069 Y112.137 E4.96539
G1 X126.069 Y109.837 E5.11904
G1 E3.11904 F2400
G92 E0
G1 X126.069 Y109.837 F7800
G1 X117.435 Y132.755
G1 E2 F2400
G1 F1800
G1 X117.988 Y133.735 E2.07517
G1 X118.333 Y134.808 E2.15047
G1 X118.454 Y135.93 E2.22586
G1 X118.347 Y137.055 E2.30136
G1 X118.013 Y138.136 E2.37695
G1 X117.468 Y139.127 E2.45251
G1 X116.732 Y139.989 E2.52823
G1 X115.837 Y140.684 E2.60393
G1 X114.82 Y141.183 E2.67961
G1 X113.723 Y141.466 E2.75529
G1 X112.591 Y141.52 E2.831
G1 X111.472 Y141.345 E2.90666
G1 X110.413 Y140.946 E2.98226
G1 X109.457 Y140.343 E3.05777
G1 X108.643 Y139.559 E3.13327
G1 X108.005 Y138.628 E3.20867
G1 X107.569 Y137.589 E3.28394
G1 X107.351 Y136.485 E3.35912
G1 X107.359 Y135.362 E3.43414
G1 X107.593 Y134.265 E3.50907
G1 X108.041 Y133.238 E3.58392
G1 X108.408 Y132.717 E3.62649
G1 X117.372 Y132.717 E4.22533
G1 X117.372 Y132.717 F7800
G1 X117.737 Y138.138
G1 F1800
G1 X117.737 Y134.528 E4.4665
G1 X117.545 Y133.929 E4.50852
G1 X117.142 Y133.215 E4.56329
G1 X117.142 Y138.72 E4.93105
G1 X116.546 Y139.464 E4.99473
G1 X116.546 Y133.199 E5.41327
G1 X115.951 Y133.199 E5.45302
G1 X115.951 Y139.985 E5.90636
G1 X115.356 Y140.383 E5.95418
G1 X115.356 Y133.199 E6.43411
G1 X114.761 Y133.199 E6.47386
G1 X114.761 Y140.675 E6.9733
G1 X114.166 Y140.854 E7.01481
G1 X114.166 Y133.199 E7.52621
G1 X113.571 Y133.199 E7.56596
G1 X113.571 Y140.99 E8.08644
G1 X112.976 Y141.019 E8.12624
G1 X112.976 Y133.199 E8.64866
G1 X112.381 Y133.199 E8.68841
G1 X112.381 Y140.999 E9.20949
G1 X111.785 Y140.906 E9.24979
G1 X111.785 Y133.199 E9.76466
G1 X111.19 Y133.199 E9.80441
G1 X111.19 Y140.724 E10.30712
G1 X110.628 Y140.513 E10.34722
G1 X110.595 Y133.199 E10.83584
G1 X110 Y133.199 E10.87559
G1 X110 Y140.116 E11.33768
G1 X109.405 Y139.624 E11.38926
G1 X109.405 Y133.199 E11.81848
G1 X108.81 Y133.199 E11.85823
G1 X108.81 Y138.95 E12.24243
G1 X108.43 Y138.396 E12.28731
G1 X108.215 Y137.883 E12.32447
G1 X108.215 Y133.443 E12.62109
G1 E10.62109 F2400
G92 E0
G1 X108.215 Y133.443 F7800
G1 X126.54 Y114.717
G1 E2 F2400
;TYPE:Perimeter
;WIDTH:0.6
G1 F1800
G1 X126.54 Y130.815 E3.07543
G1 X92.045 Y130.821 E5.37988
G1 X90.936 Y130.748 E5.45413
G1 X89.891 Y130.54 E5.52531
G1 X88.881 Y130.197 E5.59657
G1 X87.925 Y129.726 E5.66777
G1 X87.039 Y129.133 E5.73899
G1 X86.237 Y128.431 E5.81019
G1 X85.534 Y127.629 E5.88144
G1 X84.942 Y126.743 E5.95263
G1 X84.471 Y125.787 E6.02383
G1 X84.128 Y124.777 E6.09509
G1 X83.92 Y123.732 E6.16627
G1 X83.85 Y122.668 E6.2375
G1 X83.92 Y121.604 E6.30873
G1 X84.128 Y120.558 E6.37998
G1 X84.471 Y119.549 E6.45117
G1 X84.942 Y118.593 E6.52237
G1 X85.534 Y117.707 E6.59356
G1 X86.237 Y116.905 E6.66481
G1 X87.039 Y116.202 E6.73606
G1 X87.925 Y115.61 E6.80725
G1 X88.881 Y115.138 E6.87848
G1 X89.891 Y114.796 E6.94972
G1 X90.936 Y114.588 E7.0209
G1 X92.045 Y114.515 E7.09515
G1 X126.54 Y114.516 E9.3996
G1 X126.54 Y114.657 E9.40902
G1 X126.54 Y114.657 F7800
G1 X127.076 Y114.065
G1 F1800
G1 X127.076 Y131.35 E10.56375
G1 X92.027 Y131.356 E12.90521
G1 X90.866 Y131.28 E12.98294
G1 X89.752 Y131.058 E13.05882
G1 X88.676 Y130.693 E13.13473
G1 X87.657 Y130.191 E13.21062
G1 X86.712 Y129.559 E13.28657
G1 X85.858 Y128.81 E13.36246
G1 X85.108 Y127.956 E13.43839
G1 X84.477 Y127.011 E13.5143
G1 X83.975 Y125.992 E13.59019
G1 X83.609 Y124.916 E13.66612
G1 X83.388 Y123.802 E13.74199
G1 X83.313 Y122.668 E13.81791
G1 X83.388 Y121.534 E13.89383
G1 X83.609 Y120.42 E13.9697
G1 X83.975 Y119.344 E14.04563
G1 X84.477 Y118.325 E14.12152
G1 X85.108 Y117.38 E14.19743
G1 X85.858 Y116.525 E14.27341
G1 X86.712 Y115.776 E14.3493
G1 X87.657 Y115.145 E14.42521
G1 X88.676 Y114.642 E14.50113
G1 X89.752 Y114.277 E14.57704
G1 X90.866 Y114.056 E14.65291
G1 X92.027 Y113.979 E14.73064
G1 X127.076 Y113.981 E17.0721
G1 X127.076 Y114.005 E17.0737
G1 X127.548 Y113.455 F7800
;TYPE:External perimeter
G1 F1800
G1 X127.612 Y113.724 E17.09217
G1 X127.612 Y131.612 E18.28718
G1 X127.542 Y131.886 E18.30607
G1 X92.01 Y131.892 E20.6798
G1 X90.796 Y131.812 E20.76108
G1 X89.613 Y131.577 E20.84165
G1 X88.47 Y131.189 E20.92229
G1 X87.388 Y130.655 E21.0029
G1 X86.385 Y129.985 E21.08348
G1 X85.478 Y129.19 E21.16405
G1 X84.683 Y128.283 E21.24462
G1 X84.012 Y127.279 E21.32529
G1 X83.479 Y126.197 E21.40587
G1 X83.091 Y125.055 E21.48644
G1 X82.856 Y123.872 E21.56701
G1 X82.777 Y122.668 E21.64762
G1 X82.856 Y121.464 E21.72823
G1 X83.091 Y120.281 E21.8088
G1 X83.479 Y119.138 E21.88944
G1 X84.012 Y118.056 E21.97002
G1 X84.683 Y117.053 E22.05064
G1 X85.478 Y116.146 E22.13121
G1 X86.385 Y115.35 E22.21183
G1 X87.388 Y114.68 E22.29241
G1 X88.47 Y114.147 E22.37299
G1 X89.613 Y113.759 E22.45363
G1 X90.796 Y113.523 E22.53422
G1 X92.01 Y113.444 E22.61549
G1 X127.495 Y113.445 E24.98608
G1 X127.606 Y113.829 F7800
G1 E22.98608 F2400
G92 E0
G1 X125.281 Y114.677 F7800
G1 E2 F2400
;TYPE:Solid infill
;WIDTH:0.607438
G1 F1800
G1 X126.139 Y115.534 E2.08214
G1 X126.139 Y116.302 E2.13416
G1 X124.754 Y114.918 E2.26678
G1 X123.986 Y114.918 E2.3188
G1 X126.139 Y117.07 E2.52499
G1 X126.139 Y117.838 E2.57701
G1 X123.218 Y114.918 E2.85676
G1 X122.45 Y114.918 E2.90878
G1 X126.139 Y118.606 E3.2621
G1 X126.139 Y119.374 E3.31412
G1 X121.682 Y114.918 E3.741
G1 X120.914 Y114.918 E3.79302
G1 X126.139 Y120.142 E4.29347
G1 X126.139 Y120.91 E4.34549
G1 X120.146 Y114.918 E4.91951
G1 X119.378 Y114.918 E4.97153
G1 X126.139 Y121.678 E5.61911
G1 X126.139 Y122.446 E5.67113
G1 X118.61 Y114.918 E6.39228
G1 X117.842 Y114.918 E6.4443
G1 X126.139 Y123.214 E7.23901
G1 X126.139 Y123.982 E7.29103
G1 X117.074 Y114.918 E8.15931
G1 X116.306 Y114.918 E8.21133
G1 X126.139 Y124.75 E9.15318
G1 X126.139 Y125.518 E9.2052
G1 X115.538 Y114.918 E10.22061
G1 X114.77 Y114.918 E10.27263
G1 X126.139 Y126.286 E11.36161
G1 X126.139 Y127.054 E11.41363
G1 X114.002 Y114.918 E12.57617
G1 X113.234 Y114.918 E12.62819
G1 X126.139 Y127.822 E13.8643
