; generated by PrusaSlicer 2.8.1+linux-x64-GTK3 on 2024-10-07 at 11:58:29 UTC

; 

; external perimeters extrusion width = 0.45mm
; perimeters extrusion width = 0.45mm
; infill extrusion width = 0.45mm
; solid infill extrusion width = 0.45mm
; top infill extrusion width = 0.40mm
; support material extrusion width = 0.40mm
; first layer extrusion width = 0.60mm

M190 S60 ; set bed temperature and wait for it to be reached
M104 S200 ; set temperature
;TYPE:Custom
G28 ; home all axes
G1 Z5 F5000 ; lift nozzle
M109 S200 ; set temperature and wait for it to be reached
G21 ; set units to millimeters
G90 ; use absolute coordinates
M82 ; use absolute distances for extrusion
G92 E0
; Filament gcode
M107
;LAYER_CHANGE
;Z:0.3
;HEIGHT:0.3
G1 E-2 F2400
G1 Z.3 F7800
G1 X78.252 Y76.184
G1 E0 F2400
;TYPE:Skirt/Brim
;WIDTH:0.6
G1 F1800
G1 X79.487 Y75.124 E.10873
G1 X81.158 Y74.072 E.24064
G1 X82.191 Y73.587 E.31688
G1 X84.28 Y72.928 E.46322
G1 X100.086 Y70.106 E1.53584
G1 X101.352 Y69.916 E1.62136
G1 X102.958 Y69.86 E1.72871
G1 X104.762 Y70.033 E1.84978
G1 X106.871 Y70.592 E1.99554
G1 X134.488 Y81.957 E3.99062
G1 X136.316 Y82.918 E4.12859
G1 X138.002 Y84.109 E4.26649
G1 X139.519 Y85.51 E4.40444
G1 X140.839 Y87.098 E4.54239
G1 X141.941 Y88.843 E4.68027
G1 X142.806 Y90.718 E4.81822
G1 X143.418 Y92.69 E4.95616
G1 X143.769 Y94.724 E5.09405
G1 X143.863 Y96.411 E5.20693
G1 X143.72 Y123.655 E7.027
G1 X143.625 Y125.276 E7.13548
G1 X143.275 Y127.31 E7.27336
G1 X142.752 Y129.019 E7.39276
G1 X142.349 Y130.039 E7.46603
G1 X141.388 Y131.867 E7.604
G1 X140.197 Y133.553 E7.7419
G1 X138.795 Y135.069 E7.87985
G1 X137.208 Y136.39 E8.01779
G1 X135.463 Y137.492 E8.15567
G1 X133.624 Y138.344 E8.29107
G1 X101.271 Y149.548 E10.57836
G1 X99.388 Y149.991 E10.70759
G1 X98.254 Y150.119 E10.78383
G1 X97.13 Y150.143 E10.85894
G1 X95.993 Y150.064 E10.93508
G1 X94.883 Y149.885 E11.01019
G1 X93.778 Y149.601 E11.08641
G1 X92.719 Y149.223 E11.16153
G1 X91.685 Y148.744 E11.23766
G1 X90.712 Y148.18 E11.31279
G1 X89.781 Y147.522 E11.38895
G1 X88.927 Y146.792 E11.464
G1 X88.131 Y145.975 E11.5402
G1 X87.423 Y145.103 E11.61524
G1 X86.788 Y144.156 E11.69141
G1 X86.277 Y143.219 E11.76271
G1 X85.537 Y141.365 E11.89607
G1 X77.999 Y112.658 E13.87887
G1 X77.846 Y111.868 E13.93263
G1 X74.616 Y86.72 E15.62645
G1 X74.512 Y85.323 E15.72004
G1 X74.541 Y84.212 E15.79429
G1 X74.671 Y83.084 E15.87015
G1 X74.976 Y81.719 E15.96359
G1 X75.749 Y79.669 E16.10995
G1 X76.282 Y78.682 E16.18489
G1 X76.912 Y77.733 E16.26099
G1 X78.212 Y76.229 E16.3938
G1 E14.3938 F2400
G92 E0
G1 X78.212 Y76.229 F7800
G92 E0
G1 X92.951 Y133.457
G1 E2 F2400
;TYPE:Support material
G1 F1800
G1 X93.531 Y133.672 E2.04132
G1 X102.091 Y133.671 E2.61317
G1 X102.704 Y134.499 E2.68199
G1 X103.198 Y135.51 E2.75716
G1 X103.502 Y136.593 E2.83231
G1 X103.604 Y137.713 E2.90744
G1 X103.501 Y138.833 E2.98258
G1 X103.197 Y139.916 E3.05773
G1 X102.702 Y140.926 E3.13287
G1 X102.042 Y141.816 E3.20689
G1 X101.196 Y142.605 E3.28417
G1 X100.262 Y143.201 E3.35819
G1 X99.22 Y143.625 E3.43334
G1 X98.118 Y143.853 E3.50852
G1 X96.994 Y143.877 E3.58363
G1 X95.884 Y143.697 E3.65875
G1 X94.825 Y143.32 E3.73385
G1 X93.853 Y142.756 E3.80892
G1 X92.998 Y142.026 E3.88403
G1 X92.29 Y141.153 E3.95912
G1 X91.779 Y140.217 E4.03036
G1 X91.41 Y139.104 E4.10869
G1 X91.258 Y137.992 E4.18367
G1 X91.31 Y136.871 E4.25864
G1 X91.564 Y135.778 E4.3336
G1 X91.779 Y135.206 E4.37442
G1 X92.29 Y134.268 E4.44578
G1 X92.9 Y133.516 E4.51047
G1 X92.9 Y133.516 F7800
G1 X102.858 Y140.059
G1 F1800
G1 X102.858 Y136.084 E4.77602
G1 X102.746 Y135.682 E4.8039
G1 X102.263 Y134.715 E4.87611
G1 X102.263 Y140.708 E5.27647
G1 X101.668 Y141.506 E5.34297
G1 X101.668 Y134.153 E5.83419
G1 X101.073 Y134.153 E5.87394
G1 X101.073 Y142.065 E6.4025
G1 X100.478 Y142.491 E6.45139
G1 X100.478 Y134.153 E7.00841
G1 X99.883 Y134.153 E7.04816
G1 X99.883 Y142.835 E7.62816
G1 X99.288 Y143.077 E7.67107
G1 X99.288 Y134.153 E8.26724
G1 X98.692 Y134.153 E8.30706
G1 X98.692 Y143.242 E8.91425
G1 X98.097 Y143.365 E8.95484
G1 X98.097 Y134.153 E9.57025
G1 X97.502 Y134.153 E9.61
G1 X97.502 Y143.384 E10.22668
G1 X96.907 Y143.375 E10.26643
G1 X96.907 Y134.153 E10.88251
G1 X96.312 Y134.153 E10.92226
G1 X96.312 Y143.278 E11.53186
G1 X95.717 Y143.126 E11.57289
G1 X95.717 Y134.153 E12.17233
G1 X95.122 Y134.153 E12.21208
G1 X95.122 Y142.913 E12.7973
G1 X95.029 Y142.88 E12.80389
G1 X94.527 Y142.589 E12.84265
G1 X94.527 Y134.153 E13.40622
G1 X93.931 Y134.153 E13.44604
G1 X93.931 Y142.19 E13.98296
G1 X93.336 Y141.678 E14.0354
G1 X93.336 Y134.132 E14.53951
G1 X93.073 Y134.068 E14.55759
G1 X92.741 Y134.478 E14.59283
G1 X92.741 Y140.944 E15.02479
G1 X92.146 Y139.823 E15.10957
G1 X92.146 Y135.036 E15.42937
G1 E13.42937 F2400
G92 E0
G1 X92.146 Y135.036 F7800
G1 X90.766 Y103.663
G1 E2 F2400
G1 F1800
G1 X91.879 Y103.887 E2.07585
G1 X92.678 Y104.209 E2.1334
G1 X92.704 Y105.622 E2.22781
G1 X92.831 Y105.93 E2.25007
G1 X93.162 Y106.264 E2.28148
G1 X93.675 Y106.427 E2.31744
G1 X95.262 Y106.427 E2.42346
G1 X95.882 Y107.606 E2.51245
G1 X96.186 Y108.692 E2.58779
G1 X96.288 Y109.813 E2.66299
G1 X96.227 Y110.486 E2.70813
G1 X96.184 Y110.94 E2.7386
G1 X95.879 Y112.023 E2.81376
G1 X95.38 Y113.035 E2.88914
G1 X94.979 Y113.573 E2.93397
G1 X93.531 Y113.573 E3.0307
G1 X93.253 Y113.624 E3.04958
G1 X92.864 Y113.856 E3.07984
G1 X92.658 Y114.123 E3.10237
G1 X92.552 Y114.417 E3.12325
G1 X92.534 Y115.468 E3.19347
G1 X91.865 Y115.736 E3.24162
G1 X90.752 Y115.957 E3.31743
G1 X89.615 Y115.97 E3.39339
G1 X88.495 Y115.775 E3.46934
G1 X87.43 Y115.378 E3.54527
G1 X86.455 Y114.793 E3.62123
G1 X85.357 Y113.739 E3.72291
G1 X84.897 Y113.12 E3.77443
G1 X84.391 Y112.145 E3.84781
G1 X84.063 Y111.069 E3.92296
G1 X83.935 Y109.957 E3.99774
G1 X84.002 Y108.939 E4.0659
G1 X84.388 Y107.478 E4.16685
G1 X84.91 Y106.471 E4.24262
G1 X85.61 Y105.574 E4.31863
G1 X86.463 Y104.819 E4.39473
G1 X87.44 Y104.234 E4.4708
G1 X88.508 Y103.839 E4.54687
G1 X89.63 Y103.647 E4.62292
G1 X90.686 Y103.662 E4.69347
G1 X95.717 Y111.708 F7800
G1 F1800
G1 X95.71 Y108.779 E4.88914
G1 X95.43 Y107.779 E4.95851
G1 X95.122 Y107.15 E5.0053
G1 X95.122 Y112.469 E5.36064
G1 X94.737 Y113.091 E5.40951
G1 X94.527 Y113.091 E5.42354
G1 X94.527 Y106.909 E5.83653
G1 X93.931 Y106.909 E5.87635
G1 X93.931 Y113.091 E6.28934
G1 X93.336 Y113.113 E6.32912
G1 X93.336 Y106.862 E6.74672
G1 X92.741 Y106.548 E6.79166
G1 X92.741 Y113.341 E7.24547
G1 X92.356 Y113.709 E7.28105
G1 X92.146 Y114.099 E7.31064
G1 X92.146 Y104.514 E7.95097
G1 X91.551 Y104.313 E7.99293
G1 X91.551 Y115.307 E8.72739
G1 X90.956 Y115.425 E8.76791
G1 X90.956 Y104.193 E9.51827
G1 X90.361 Y104.139 E9.55818
G1 X90.361 Y115.479 E10.31575
G1 X89.766 Y115.487 E10.3555
G1 X89.766 Y104.131 E11.11414
G1 X89.17 Y104.215 E11.15435
G1 X89.17 Y115.404 E11.90184
G1 X88.575 Y115.291 E11.9423
G1 X88.575 Y104.328 E12.67469
G1 X87.98 Y104.549 E12.71709
G1 X87.98 Y115.069 E13.41988
G1 X87.64 Y114.942 E13.44413
G1 X87.385 Y114.789 E13.464
G1 X87.385 Y104.829 E14.12938
G1 X86.79 Y105.185 E14.1757
G1 X86.79 Y114.431 E14.79338
G1 X86.195 Y113.917 E14.84591
G1 X86.195 Y105.7 E15.39485
G1 X85.6 Y106.37 E15.45471
G1 X85.6 Y113.257 E15.9148
G1 X85.004 Y112.281 E15.9912
G1 X85.004 Y106.813 E16.35649
G1 E14.35649 F2400
G92 E0
G1 X85.004 Y106.813 F7800
G1 X107.491 Y107.039
G1 E2 F2400
G1 F1800
G1 X107.843 Y108.102 E2.07481
G1 X107.962 Y109.214 E2.14952
G1 X107.844 Y110.327 E2.22429
G1 X107.492 Y111.389 E2.29903
G1 X106.923 Y112.355 E2.37393
G1 X106.174 Y113.165 E2.44763
G1 X105.602 Y113.573 E2.49457
G1 X99.768 Y113.573 E2.88431
G1 X98.966 Y112.924 E2.95323
G1 X98.259 Y112.04 E3.02885
G1 X97.757 Y111.027 E3.10438
G1 X97.51 Y110.031 E3.17293
G1 X97.485 Y108.497 E3.27542
G1 X97.757 Y107.403 E3.35073
G1 X98.24 Y106.427 E3.42348
G1 X107.13 Y106.427 E4.01738
G1 X107.45 Y106.97 E4.05949
G1 X107.45 Y106.97 F7800
G1 X107.024 Y111.708
G1 F1800
G1 X107.024 Y107.196 E4.36092
G1 X106.855 Y106.909 E4.38317
G1 X106.429 Y106.909 E4.41163
G1 X106.429 Y112.178 E4.76363
G1 X105.834 Y112.815 E4.82186
G1 X105.834 Y106.909 E5.21641
G1 X105.239 Y106.909 E5.25616
G1 X105.239 Y113.091 E5.66915
G1 X104.644 Y113.091 E5.7089
G1 X104.644 Y106.909 E6.12189
G1 X104.049 Y106.909 E6.16164
G1 X104.049 Y113.091 E6.57463
G1 X103.454 Y113.091 E6.61438
G1 X103.454 Y106.909 E7.02737
G1 X102.858 Y106.909 E7.06719
G1 X102.858 Y113.091 E7.48018
G1 X102.263 Y113.091 E7.51993
G1 X102.263 Y106.909 E7.93292
G1 X101.668 Y106.909 E7.97267
G1 X101.668 Y113.091 E8.38566
G1 X101.073 Y113.091 E8.42541
G1 X101.073 Y106.909 E8.8384
G1 X100.478 Y106.909 E8.87815
G1 X100.478 Y113.091 E9.29114
G1 X99.883 Y113.046 E9.331
G1 X99.883 Y106.909 E9.74098
G1 X99.288 Y106.909 E9.78073
G1 X99.288 Y112.555 E10.15791
G1 X98.692 Y111.811 E10.22159
G1 X98.692 Y106.909 E10.54907
G1 X98.539 Y106.909 E10.55929
G1 X98.212 Y107.57 E10.60856
G1 X98.097 Y108.033 E10.64043
G1 X98.097 Y111.17 E10.85
G1 E8.85 F2400
G92 E0
G1 X98.097 Y111.17 F7800
G1 X87.62 Y78.934
G1 E2 F2400
G1 F1800
G1 X88.724 Y79.159 E2.07527
G1 X89.769 Y79.58 E2.15053
G1 X90.721 Y80.184 E2.22585
G1 X91.546 Y80.951 E2.3011
G1 X92.219 Y81.854 E2.37634
G1 X92.716 Y82.864 E2.45154
G1 X93.022 Y83.948 E2.52679
G1 X93.126 Y85.067 E2.60187
G1 X93.074 Y85.655 E2.6413
G1 X93.025 Y86.191 E2.67726
G1 X92.678 Y87.366 E2.75911
G1 X92.229 Y88.285 E2.82744
G1 X91.56 Y89.19 E2.90262
G1 X90.738 Y89.959 E2.97782
G1 X89.789 Y90.566 E3.05308
G1 X88.746 Y90.991 E3.12832
G1 X87.642 Y91.22 E3.20364
G1 X86.515 Y91.244 E3.27895
G1 X85.401 Y91.063 E3.35435
G1 X84.339 Y90.682 E3.42972
G1 X83.363 Y90.115 E3.50513
G1 X82.506 Y89.378 E3.58064
G1 X81.798 Y88.499 E3.65604
G1 X81.292 Y87.56 E3.7273
G1 X80.927 Y86.444 E3.80574
G1 X80.781 Y84.805 E3.91567
G1 X80.939 Y83.651 E3.99348
G1 X81.264 Y82.647 E4.06398
G1 X81.797 Y81.66 E4.13892
G1 X82.477 Y80.814 E4.21143
G1 X82.966 Y80.368 E4.25564
G1 X83.397 Y80.023 E4.29252
G1 X84.323 Y79.481 E4.3642
G1 X85.382 Y79.098 E4.43943
G1 X86.493 Y78.914 E4.51466
G1 X87.54 Y78.933 E4.58462
G1 X87.54 Y78.933 F7800
G1 X92.146 Y87.906
G1 F1800
G1 X92.146 Y82.797 E4.92593
G1 X91.806 Y82.107 E4.97732
G1 X91.551 Y81.764 E5.00587
G1 X91.551 Y88.391 E5.44859
G1 X90.956 Y89.095 E5.51017
G1 X90.956 Y81.06 E6.04695
G1 X90.361 Y80.526 E6.10036
G1 X90.361 Y89.628 E6.70842
G1 X89.766 Y90.009 E6.75562
G1 X89.766 Y80.148 E7.41439
G1 X89.548 Y80.011 E7.43159
G1 X89.17 Y79.858 E7.45883
G1 X89.17 Y90.297 E8.15621
G1 X88.605 Y90.528 E8.19699
G1 X88.575 Y79.62 E8.92571
G1 X87.98 Y79.499 E8.96627
G1 X87.98 Y90.657 E9.71168
G1 X87.385 Y90.743 E9.75184
G1 X87.385 Y79.412 E10.50881
G1 X86.79 Y79.401 E10.54857
G1 X86.79 Y90.756 E11.30715
G1 X86.195 Y90.703 E11.34706
G1 X86.195 Y79.452 E12.09869
G1 X85.6 Y79.551 E12.13899
G1 X85.6 Y90.607 E12.87759
G1 X85.004 Y90.409 E12.91955
G1 X85.004 Y79.748 E13.63176
G1 X84.409 Y79.99 E13.67467
G1 X84.409 Y90.166 E14.35448
G1 X83.814 Y89.819 E14.4005
G1 X83.814 Y80.338 E15.03388
G1 X83.219 Y80.789 E15.08376
G1 X83.219 Y89.355 E15.65602
G1 X82.624 Y88.756 E15.71242
G1 X82.624 Y81.4 E16.20384
G1 X82.029 Y82.245 E16.27288
G1 X82.029 Y87.911 E16.6514
G1 X81.732 Y87.36 E16.69322
G1 X81.434 Y86.464 E16.7563
G1 X81.434 Y82.905 E16.99406
G1 E14.99406 F2400
G92 E0
G1 X81.434 Y82.905 F7800
G1 X102.852 Y76.127
G1 E2 F2400
G1 F1800
G1 X103.425 Y76.157 E2.03833
G1 X104.489 Y76.389 E2.11108
G1 X105.517 Y76.819 E2.18552
G1 X106.451 Y77.426 E2.25994
G1 X107.262 Y78.193 E2.33451
G1 X107.922 Y79.094 E2.40912
G1 X108.409 Y80.099 E2.48373
G1 X108.707 Y81.177 E2.55845
G1 X108.807 Y82.29 E2.6331
G1 X108.705 Y83.403 E2.70777
G1 X108.405 Y84.48 E2.78246
G1 X107.916 Y85.484 E2.85707
G1 X107.296 Y86.329 E2.92709
G1 X97.994 Y86.329 E3.54851
G1 X97.576 Y85.834 E3.59179
G1 X97.02 Y84.864 E3.66648
G1 X96.647 Y83.807 E3.74136
G1 X96.476 Y82.731 E3.81414
G1 X96.476 Y81.843 E3.87346
G1 X96.646 Y80.765 E3.94637
G1 X97.02 Y79.707 E4.02134
G1 X97.577 Y78.736 E4.09612
G1 X98.298 Y77.883 E4.17073
G1 X99.16 Y77.174 E4.24529
G1 X100.134 Y76.633 E4.31972
G1 X101.188 Y76.276 E4.39406
G1 X102.266 Y76.117 E4.46686
G1 X102.772 Y76.126 E4.50067
G1 X102.772 Y76.126 F7800
G1 X108.215 Y84.265
G1 F1800
G1 X108.215 Y81.204 E4.70516
G1 X107.956 Y80.27 E4.76991
G1 X107.619 Y79.576 E4.82145
G1 X107.619 Y84.992 E5.18327
G1 X107.024 Y85.847 E5.25286
G1 X107.024 Y78.685 E5.73132
G1 X106.429 Y78.069 E5.78853
G1 X106.429 Y85.847 E6.30814
G1 X105.834 Y85.847 E6.34789
G1 X105.834 Y77.6 E6.89883
G1 X105.239 Y77.225 E6.94582
G1 X105.239 Y85.847 E7.52182
G1 X104.644 Y85.847 E7.56157
G1 X104.644 Y76.976 E8.1542
G1 X104.049 Y76.787 E8.19591
G1 X104.049 Y85.847 E8.80117
G1 X103.454 Y85.847 E8.84092
G1 X103.454 Y76.657 E9.45486
G1 X102.858 Y76.61 E9.4948
G1 X102.858 Y85.847 E10.11188
G1 X102.263 Y85.847 E10.15163
G1 X102.263 Y76.605 E10.76905
G1 X101.668 Y76.692 E10.80922
G1 X101.668 Y85.847 E11.42082
G1 X101.073 Y85.847 E11.46057
G1 X101.073 Y76.824 E12.06336
G1 X100.478 Y77.026 E12.10534
G1 X100.478 Y85.847 E12.69463
G1 X99.883 Y85.847 E12.73438
G1 X99.883 Y77.324 E13.30376
G1 X99.288 Y77.694 E13.35057
G1 X99.288 Y85.847 E13.89523
G1 X98.692 Y85.847 E13.93505
G1 X98.692 Y78.183 E14.44705
G1 X98.097 Y78.867 E14.50761
G1 X98.097 Y85.704 E14.96436
G1 X97.502 Y84.737 E15.04021
G1 X97.502 Y79.35 E15.40009
G1 E13.40009 F2400
G92 E0
G1 X97.502 Y79.35 F7800
G1 X94.431 Y115.73
G1 E2 F2400
;TYPE:Perimeter
;WIDTH:0.6
G1 F1800
G1 X94.431 Y115.47 E2.01737
G1 X127.883 Y115.47 E4.25214
G1 X128.992 Y115.542 E4.32638
G1 X130.038 Y115.75 E4.39763
G1 X131.047 Y116.093 E4.46882
G1 X132.003 Y116.565 E4.54005
G1 X132.89 Y117.157 E4.61129
G1 X133.691 Y117.86 E4.68249
G1 X134.394 Y118.661 E4.75369
G1 X134.986 Y119.548 E4.82493
G1 X135.458 Y120.504 E4.89616
G1 X135.8 Y121.513 E4.96733
G1 X136.008 Y122.559 E5.03858
G1 X136.078 Y123.622 E5.10975
G1 X136.043 Y124.154 E5.14537
G1 X136.008 Y124.686 E5.18099
G1 X135.8 Y125.732 E5.25224
G1 X135.458 Y126.741 E5.32341
G1 X134.986 Y127.697 E5.39464
G1 X134.394 Y128.584 E5.46588
G1 X133.691 Y129.385 E5.53708
G1 X132.89 Y130.088 E5.60828
G1 X132.003 Y130.68 E5.67952
G1 X131.047 Y131.152 E5.75075
G1 X130.038 Y131.495 E5.82194
G1 X128.992 Y131.703 E5.89319
G1 X127.883 Y131.775 E5.96743
G1 X94.431 Y131.776 E8.2022
G1 X94.431 Y115.79 E9.27015
G1 X94.431 Y115.79 F7800
G1 X93.895 Y115.017
G1 F1800
G1 X93.895 Y114.934 E9.27569
G1 X127.901 Y114.934 E11.54747
G1 X129.062 Y115.01 E11.6252
G1 X130.177 Y115.232 E11.70115
G1 X131.253 Y115.597 E11.77706
G1 X132.272 Y116.1 E11.85298
G1 X133.216 Y116.731 E11.92884
G1 X134.071 Y117.48 E12.00478
G1 X134.82 Y118.334 E12.08067
G1 X135.451 Y119.279 E12.15658
G1 X135.954 Y120.298 E12.2325
G1 X136.319 Y121.374 E12.30841
G1 X136.541 Y122.489 E12.38436
G1 X136.615 Y123.622 E12.46021
G1 X136.578 Y124.189 E12.49817
G1 X136.541 Y124.756 E12.53613
G1 X136.319 Y125.871 E12.61208
G1 X135.954 Y126.947 E12.68799
G1 X135.451 Y127.966 E12.76391
G1 X134.82 Y128.91 E12.83977
G1 X134.071 Y129.765 E12.91571
G1 X133.216 Y130.514 E12.99165
G1 X132.272 Y131.145 E13.06751
G1 X131.253 Y131.648 E13.14343
G1 X130.177 Y132.013 E13.21934
G1 X129.062 Y132.235 E13.29529
G1 X127.901 Y132.311 E13.37302
G1 X93.895 Y132.312 E15.6448
G1 X93.895 Y115.077 E16.79619
G1 X93.895 Y115.077 F7800
G1 X93.528 Y114.429
;TYPE:External perimeter
G1 F1800
G1 X93.602 Y114.398 E16.80155
G1 X127.919 Y114.398 E19.09411
G1 X129.132 Y114.478 E19.17532
G1 X130.316 Y114.713 E19.25596
G1 X131.458 Y115.101 E19.33653
G1 X132.54 Y115.635 E19.41714
G1 X133.543 Y116.305 E19.49772
G1 X134.45 Y117.101 E19.57834
G1 X135.246 Y118.008 E19.65896
G1 X135.916 Y119.011 E19.73954
G1 X136.45 Y120.093 E19.82015
G1 X136.837 Y121.235 E19.9007
G1 X137.073 Y122.419 E19.98135
G1 X137.152 Y123.622 E20.06189
G1 X137.112 Y124.224 E20.1022
G1 X137.073 Y124.826 E20.1425
G1 X136.837 Y126.01 E20.22315
G1 X136.45 Y127.152 E20.3037
G1 X135.916 Y128.234 E20.38431
G1 X135.246 Y129.237 E20.46489
G1 X134.45 Y130.144 E20.54551
G1 X133.543 Y130.94 E20.62613
G1 X132.54 Y131.61 E20.70671
G1 X131.458 Y132.144 E20.78732
G1 X130.316 Y132.532 E20.86789
G1 X129.132 Y132.767 E20.94853
G1 X127.919 Y132.846 E21.02974
G1 X93.651 Y132.848 E23.31903
