; generated by PrusaSlicer 2.8.1+linux-x64-GTK3 on 2024-10-16 at 11:15:39 UTC

; 

; external perimeters extrusion width = 0.45mm
; perimeters extrusion width = 0.45mm
; infill extrusion width = 0.45mm
; solid infill extrusion width = 0.45mm
; top infill extrusion width = 0.40mm
; support material extrusion width = 0.40mm
; first layer extrusion width = 0.60mm

M190 S60 ; set bed temperature and wait for it to be reached
M104 S200 ; set temperature
;TYPE:Custom
G28 ; home all axes
G1 Z5 F5000 ; lift nozzle
M109 S200 ; set temperature and wait for it to be reached
G21 ; set units to millimeters
G90 ; use absolute coordinates
M82 ; use absolute distances for extrusion
G92 E0
; Filament gcode
M107
;LAYER_CHANGE
;Z:0.3
;HEIGHT:0.3
G1 E-2 F2400
G1 Z.3 F7800
G1 X94.589 Y84.731
G1 E0 F2400
;TYPE:Skirt/Brim
;WIDTH:0.6
G1 F1800
G1 X95.303 Y84.051 E.06587
G1 X96.243 Y83.354 E.14405
G1 X97.102 Y82.868 E.20998
G1 X98.183 Y82.42 E.28815
G1 X99.134 Y82.157 E.35407
G1 X101 Y81.956 E.47945
G1 X119.154 Y81.958 E1.69224
G1 X120.564 Y82.097 E1.78689
G1 X122.107 Y82.524 E1.89384
G1 X123.388 Y83.13 E1.98851
G1 X124.697 Y84.051 E2.09543
G1 X125.699 Y85.053 E2.1901
G1 X126.62 Y86.362 E2.29702
G1 X127.33 Y87.933 E2.41219
G1 X127.675 Y89.308 E2.50689
G1 X127.794 Y90.75 E2.60355
G1 X127.794 Y129.25 E5.17556
G1 X127.653 Y130.815 E5.28053
G1 X127.226 Y132.357 E5.38742
G1 X126.827 Y133.259 E5.45331
G1 X126.204 Y134.293 E5.53396
G1 X125.411 Y135.268 E5.61792
G1 X124.697 Y135.949 E5.68384
G1 X123.757 Y136.646 E5.76202
G1 X122.898 Y137.132 E5.82795
G1 X121.817 Y137.58 E5.90612
G1 X120.564 Y137.903 E5.99256
G1 X119 Y138.044 E6.09747
G1 X100.846 Y138.042 E7.31026
G1 X99.436 Y137.903 E7.40491
G1 X97.893 Y137.476 E7.51186
G1 X96.72 Y136.932 E7.59824
G1 X95.886 Y136.404 E7.66418
G1 X94.955 Y135.636 E7.74481
G1 X94.106 Y134.709 E7.82879
G1 X93.38 Y133.638 E7.91523
G1 X92.818 Y132.473 E8.00164
G1 X92.509 Y131.536 E8.06755
G1 X92.265 Y130.265 E8.15401
G1 X92.206 Y129.25 E8.22193
G1 X92.206 Y90.75 E10.79394
G1 X92.347 Y89.185 E10.89891
G1 X92.774 Y87.643 E11.0058
G1 X93.318 Y86.47 E11.09218
G1 X93.846 Y85.636 E11.15812
G1 X94.551 Y84.778 E11.23231
G1 E9.23231 F2400
G92 E0
G1 X94.551 Y84.778 F7800
G92 E0
G1 X105.877 Y97.191
G1 E2 F2400
;TYPE:Perimeter
;WIDTH:0.6
G1 F1800
G1 X106.343 Y96.539 E2.05354
G1 X107.052 Y95.878 E2.1183
G1 X107.878 Y95.371 E2.18305
G1 X108.788 Y95.037 E2.24781
G1 X109.745 Y94.89 E2.31249
G1 X110.713 Y94.936 E2.37723
G1 X111.653 Y95.173 E2.44199
G1 X112.527 Y95.591 E2.50671
G1 X113.301 Y96.174 E2.57144
G1 X113.944 Y96.899 E2.63618
G1 X114.431 Y97.738 E2.70099
G1 X114.742 Y98.655 E2.76568
G1 X114.865 Y99.617 E2.83047
G1 X114.795 Y100.583 E2.89517
G1 X114.534 Y101.517 E2.95996
G1 X114.173 Y102.236 E3.01371
G1 X113.944 Y102.601 E3.0425
G1 X113.492 Y103.139 E3.08944
G1 X112.751 Y103.764 E3.1542
G1 X111.901 Y104.23 E3.21896
G1 X110.972 Y104.505 E3.28368
;WIDTH:0.57283
G1 X110.595 Y104.539 E3.30769
;WIDTH:0.54678
G1 X110.218 Y104.574 E3.33047
;WIDTH:0.545391
G1 X109.289 Y104.537 E3.38625
;WIDTH:0.58813
G1 X109.026 Y104.512 E3.40351
;WIDTH:0.6
G1 X108.347 Y104.327 E3.45052
G1 X107.473 Y103.909 E3.51524
G1 X106.699 Y103.326 E3.57997
G1 X106.158 Y102.722 E3.63414
G1 X105.906 Y102.38 E3.66252
G1 X105.569 Y101.762 E3.70955
G1 X105.258 Y100.844 E3.7743
G1 X105.143 Y100.077 E3.82611
G1 X105.17 Y99.155 E3.88773
G1 X105.383 Y98.212 E3.95231
G1 X105.78 Y97.327 E4.01711
G1 X105.842 Y97.24 E4.02425
G1 X105.842 Y97.24 F7800
G1 X106.322 Y97.478
G1 F1800
G1 X106.77 Y96.862 E4.07513
G1 X107.406 Y96.28 E4.13272
G1 X108.146 Y95.835 E4.19041
G1 X108.958 Y95.545 E4.24801
G1 X109.812 Y95.422 E4.30565
G1 X110.673 Y95.47 E4.36326
G1 X111.508 Y95.689 E4.42093
G1 X112.283 Y96.068 E4.47856
G1 X112.967 Y96.593 E4.53616
G1 X113.534 Y97.244 E4.59383
G1 X113.96 Y97.994 E4.65145
G1 X114.23 Y98.813 E4.70906
G1 X114.332 Y99.67 E4.76672
G1 X114.262 Y100.53 E4.82436
G1 X114.023 Y101.359 E4.882
G1 X113.703 Y101.98 E4.92867
G1 X113.534 Y102.256 E4.95029
G1 X113.082 Y102.795 E4.99728
G1 X112.417 Y103.345 E5.05493
G1 X111.657 Y103.753 E5.11256
G1 X110.831 Y104.002 E5.17019
G1 X110.168 Y104.081 E5.2148
G1 X109.327 Y104.03 E5.27109
G1 X108.492 Y103.811 E5.32876
G1 X107.717 Y103.432 E5.38639
G1 X107.033 Y102.907 E5.44399
G1 X106.568 Y102.378 E5.49104
G1 X106.376 Y102.124 E5.51231
G1 X106.04 Y101.506 E5.5593
G1 X105.77 Y100.686 E5.61697
G1 X105.674 Y100.011 E5.66252
G1 X105.705 Y99.182 E5.71794
G1 X105.902 Y98.344 E5.77545
G1 X106.262 Y97.56 E5.83308
G1 X106.286 Y97.526 E5.83586
G1 X106.286 Y97.526 F7800
G1 X106.765 Y97.765
;TYPE:External perimeter
G1 F1800
G1 X107.197 Y97.186 E5.88412
G1 X107.761 Y96.681 E5.93469
G1 X108.413 Y96.298 E5.98521
G1 X109.129 Y96.052 E6.03579
G1 X109.879 Y95.953 E6.08633
G1 X110.633 Y96.004 E6.13682
G1 X111.363 Y96.204 E6.18739
G1 X112.039 Y96.545 E6.23797
G1 X112.633 Y97.012 E6.28845
G1 X113.124 Y97.588 E6.33901
G1 X113.49 Y98.25 E6.38954
G1 X113.718 Y98.971 E6.44006
G1 X113.799 Y99.723 E6.49059
G1 X113.729 Y100.477 E6.54118
G1 X113.511 Y101.201 E6.59169
G1 X113.232 Y101.724 E6.63129
G1 X112.936 Y102.135 E6.66513
G1 X112.633 Y102.488 E6.69621
G1 X112.083 Y102.927 E6.74322
G1 X111.413 Y103.276 E6.79369
G1 X110.686 Y103.486 E6.84424
G1 X110.115 Y103.548 E6.88261
G1 X109.367 Y103.496 E6.9327
G1 X108.637 Y103.296 E6.98327
G1 X107.961 Y102.955 E7.03385
G1 X107.367 Y102.488 E7.08433
G1 X106.846 Y101.868 E7.13843
G1 X106.508 Y101.247 E7.18566
G1 X106.282 Y100.528 E7.23601
G1 X106.206 Y99.946 E7.27522
G1 X106.24 Y99.21 E7.32444
G1 X106.421 Y98.476 E7.37494
G1 X106.734 Y97.815 E7.4238
G1 X106.969 Y97.492 F7800
G1 E5.4238 F2400
G92 E0
G1 X101.098 Y125.095 F7800
G1 E2 F2400
;TYPE:Perimeter
G1 F1800
G1 X101.063 Y124.837 E2.01739
G1 X101.056 Y109.36 E3.05134
G1 X101.092 Y108.817 E3.08769
G1 X101.223 Y108.174 E3.13153
G1 X101.517 Y107.417 E3.18578
G1 X101.97 Y106.693 E3.24283
G1 X102.698 Y105.956 E3.31204
G1 X103.442 Y105.471 E3.37137
G1 X104.239 Y105.159 E3.42855
G1 X105.104 Y105.019 E3.48709
G1 X105.645 Y104.99 E3.52328
G1 X108.959 Y104.996 E3.74467
;WIDTH:0.58813
G1 X109.467 Y105.013 E3.77787
;WIDTH:0.553597
G1 X109.974 Y105.03 E3.80882
;WIDTH:0.547039
G1 X110.768 Y105.016 E3.85663
;WIDTH:0.573519
G1 X111.256 Y105.003 E3.88763
;WIDTH:0.6
G1 X114.574 Y104.99 E4.10929
G1 X115.116 Y105.026 E4.14558
G1 X115.895 Y105.215 E4.19913
G1 X116.394 Y105.395 E4.23457
G1 X117.04 Y105.761 E4.28417
G1 X117.303 Y105.956 E4.30604
G1 X117.84 Y106.468 E4.35561
G1 X118.048 Y106.721 E4.37749
G1 X118.445 Y107.348 E4.42707
G1 X118.586 Y107.645 E4.44903
G1 X118.818 Y108.349 E4.49855
G1 X118.944 Y109.36 E4.56661
G1 X118.944 Y124.703 E5.5916
G1 X118.843 Y125.603 E5.6521
G1 X118.646 Y126.283 E5.6994
G1 X118.173 Y127.169 E5.7665
G1 X117.978 Y127.432 E5.78837
G1 X117.466 Y127.969 E5.83794
G1 X117.213 Y128.177 E5.85982
G1 X116.586 Y128.574 E5.9094
G1 X115.761 Y128.904 E5.96876
G1 X114.918 Y129.055 E6.02597
G1 X114.722 Y129.07 E6.0391
G1 X105.427 Y129.073 E6.66006
G1 X104.527 Y128.973 E6.72055
G1 X104.209 Y128.893 E6.74246
G1 X103.516 Y128.626 E6.79207
G1 X103.227 Y128.471 E6.81398
G1 X102.62 Y128.044 E6.86356
G1 X102.122 Y127.559 E6.91
G1 X101.557 Y126.718 E6.97768
G1 X101.415 Y126.421 E6.99967
G1 X101.185 Y125.727 E7.04851
G1 X101.106 Y125.155 E7.08709
G1 X101.106 Y125.155 F7800
G1 X101.63 Y125.056
G1 F1800
G1 X101.596 Y124.783 E7.10547
G1 X101.592 Y109.36 E8.13581
G1 X101.626 Y108.857 E8.16949
G1 X101.745 Y108.293 E8.208
G1 X102.011 Y107.623 E8.25616
G1 X102.415 Y106.991 E8.30627
G1 X103.067 Y106.343 E8.36768
G1 X103.718 Y105.931 E8.41915
G1 X104.42 Y105.663 E8.46935
G1 X105.17 Y105.551 E8.52001
G1 X106.116 Y105.525 E8.58323
G1 X114.574 Y105.525 E9.14827
G1 X115.077 Y105.56 E9.18195
G1 X115.752 Y105.731 E9.22847
G1 X116.13 Y105.861 E9.25517
G1 X116.776 Y106.227 E9.30477
G1 X117.471 Y106.855 E9.36735
G1 X117.993 Y107.635 E9.43005
G1 X118.31 Y108.517 E9.49266
G1 X118.408 Y109.36 E9.54936
G1 X118.408 Y124.703 E10.57435
G1 X118.312 Y125.537 E10.63043
G1 X118.137 Y126.114 E10.67071
G1 X117.707 Y126.905 E10.73086
G1 X117.178 Y127.495 E10.7838
G1 X116.926 Y127.725 E10.80659
G1 X116.3 Y128.122 E10.85611
G1 X115.58 Y128.4 E10.90767
G1 X114.84 Y128.525 E10.95781
G1 X105.426 Y128.538 E11.58672
G1 X104.592 Y128.441 E11.64281
G1 X103.709 Y128.126 E11.70544
G1 X103.536 Y128.033 E11.71856
G1 X102.928 Y127.606 E11.76819
G1 X102.509 Y127.189 E11.80768
G1 X102.008 Y126.43 E11.86844
G1 X101.693 Y125.558 E11.93038
G1 X101.637 Y125.116 E11.96014
G1 X101.637 Y125.116 F7800
G1 X102.16 Y125.017
;TYPE:External perimeter
G1 F1800
G1 X102.128 Y124.73 E11.97943
G1 X102.127 Y109.36 E13.00623
G1 X102.167 Y108.857 E13.03994
G1 X102.282 Y108.368 E13.0735
G1 X102.506 Y107.829 E13.11249
G1 X102.861 Y107.288 E13.15572
G1 X103.436 Y106.731 E13.2092
G1 X103.993 Y106.39 E13.25283
G1 X104.6 Y106.167 E13.29603
G1 X105.235 Y106.082 E13.33883
G1 X106.116 Y106.061 E13.3977
G1 X114.574 Y106.061 E13.96274
G1 X115.076 Y106.1 E13.99638
G1 X115.866 Y106.327 E14.05129
G1 X116.512 Y106.693 E14.10089
G1 X117.102 Y107.243 E14.15478
G1 X117.54 Y107.921 E14.2087
G1 X117.801 Y108.685 E14.26264
G1 X117.873 Y109.36 E14.30799
G1 X117.873 Y124.703 E15.33298
G1 X117.78 Y125.472 E15.38473
G1 X117.607 Y125.994 E15.42147
G1 X117.241 Y126.641 E15.47113
G1 X116.64 Y127.272 E15.52935
G1 X116.013 Y127.669 E15.57893
G1 X115.4 Y127.896 E15.6226
G1 X114.722 Y127.998 E15.6684
G1 X105.426 Y128.002 E16.28942
G1 X104.658 Y127.909 E16.3411
G1 X103.844 Y127.595 E16.39939
G1 X103.237 Y127.168 E16.44897
G1 X102.865 Y126.778 E16.48498
G1 X102.46 Y126.143 E16.5353
G1 X102.201 Y125.389 E16.58856
G1 X102.167 Y125.077 E16.60953
G1 X102.133 Y124.678 F7800
G1 E14.60953 F2400
G92 E0
G1 X120.118 Y90.504 F7800
G1 E2 F2400
;TYPE:Perimeter
G1 F1800
G1 X120.152 Y90.817 E2.02103
G1 X120.155 Y128.9 E4.56518
G1 X120.126 Y129.474 E4.60358
G1 X119.988 Y129.842 E4.62984
G1 X119.643 Y130.194 E4.66277
G1 X119.351 Y130.344 E4.6847
G1 X119.04 Y130.402 E4.70583
G1 X101.872 Y130.405 E5.85274
G1 X100.882 Y130.387 E5.91889
G1 X100.494 Y130.281 E5.94576
G1 X100.113 Y129.98 E5.9782
G1 X99.916 Y129.638 E6.00457
G1 X99.848 Y129.29 E6.02826
G1 X99.845 Y90.88 E8.59425
G1 X99.87 Y90.559 E8.61576
G1 X99.987 Y90.233 E8.6389
G1 X100.141 Y89.988 E8.65823
G1 X100.429 Y89.752 E8.6831
G1 X100.871 Y89.607 E8.71418
G1 X118.931 Y89.597 E9.92068
G1 X119.214 Y89.62 E9.93965
G1 X119.638 Y89.795 E9.97029
G1 X119.95 Y90.103 E9.99958
G1 X120.103 Y90.447 E10.02473
G1 X120.103 Y90.447 F7800
G1 X120.638 Y90.36
G1 F1800
G1 X120.688 Y90.817 E10.05544
G1 X120.691 Y128.303 E12.55971
G1 X120.674 Y129.377 E12.63147
G1 X120.555 Y129.905 E12.66763
G1 X120.321 Y130.299 E12.69824
G1 X119.952 Y130.638 E12.73171
G1 X119.546 Y130.846 E12.76219
G1 X119.073 Y130.938 E12.79438
G1 X101.872 Y130.941 E13.9435
G1 X100.858 Y130.923 E14.01125
G1 X100.345 Y130.805 E14.04642
G1 X99.995 Y130.586 E14.074
G1 X99.644 Y130.256 E14.10618
G1 X99.41 Y129.819 E14.1393
G1 X99.312 Y129.323 E14.17308
G1 X99.309 Y90.88 E16.74128
G1 X99.344 Y90.441 E16.7707
G1 X99.461 Y90.113 E16.79396
G1 X99.644 Y89.744 E16.82148
G1 X99.994 Y89.394 E16.85455
G1 X100.339 Y89.213 E16.88058
G1 X100.825 Y89.071 E16.9144
G1 X118.931 Y89.062 E18.12398
G1 X119.323 Y89.094 E18.15025
G1 X119.791 Y89.27 E18.18365
G1 X120.195 Y89.559 E18.21683
G1 X120.455 Y89.905 E18.24574
G1 X120.621 Y90.304 E18.27461
G1 X120.621 Y90.304 F7800
G1 X121.159 Y90.217
;TYPE:External perimeter
G1 F1800
G1 X121.223 Y90.817 E18.31492
G1 X121.226 Y129.12 E20.87377
G1 X121.182 Y129.684 E20.91156
G1 X121.054 Y130.105 E20.94096
G1 X120.726 Y130.654 E20.98368
G1 X120.261 Y131.081 E21.02585
G1 X119.742 Y131.347 E21.06481
G1 X119.106 Y131.473 E21.10812
G1 X101.344 Y131.476 E22.29472
G1 X100.806 Y131.456 E22.33069
G1 X100.363 Y131.371 E22.36082
G1 X99.862 Y131.162 E22.39709
G1 X99.422 Y130.819 E22.43436
G1 X99.139 Y130.46 E22.4649
G1 X98.905 Y130 E22.49938
G1 X98.777 Y129.356 E22.54324
G1 X98.774 Y90.88 E25.11364
G1 X98.817 Y90.323 E25.15096
G1 X99.042 Y89.693 E25.19565
G1 X99.426 Y89.176 E25.23867
G1 X99.79 Y88.889 E25.26964
G1 X100.307 Y88.651 E25.30766
G1 X100.778 Y88.536 E25.34005
G1 X118.931 Y88.526 E26.55277
G1 X119.432 Y88.567 E26.58635
G1 X119.851 Y88.695 E26.61562
G1 X120.236 Y88.9 E26.64476
G1 X120.574 Y89.177 E26.67395
G1 X120.918 Y89.637 E26.71232
G1 X121.138 Y90.161 E26.75029
G1 X121.193 Y90.557 F7800
G1 E24.75029 F2400
G92 E0
G1 X118.307 Y89.764 F7800
G1 E2 F2400
;TYPE:Solid infill
;WIDTH:0.602598
G1 F1800
G1 X119.75 Y91.207 E2.13699
G1 X119.75 Y91.968 E2.18808
G1 X117.787 Y90.005 E2.37444
G1 X117.026 Y90.005 E2.42553
G1 X119.75 Y92.729 E2.68413
G1 X119.751 Y93.491 E2.73528
G1 X116.265 Y90.006 E3.06618
G1 X115.504 Y90.006 E3.11727
G1 X119.751 Y94.252 E3.52041
G1 X119.751 Y95.013 E3.5715
G1 X114.743 Y90.006 E4.04689
G1 X113.982 Y90.006 E4.09798
G1 X119.751 Y95.774 E4.64561
G1 X119.751 Y96.536 E4.69676
G1 X113.221 Y90.006 E5.31669
G1 X112.46 Y90.006 E5.36778
G1 X119.751 Y97.297 E6.05995
G1 X119.751 Y98.058 E6.11104
G1 X111.699 Y90.006 E6.87546
G1 X110.938 Y90.007 E6.92655
G1 X119.751 Y98.819 E7.76317
G1 X119.751 Y99.58 E7.81426
G1 X110.177 Y90.007 E8.72312
G1 X109.416 Y90.007 E8.77421
G1 X119.751 Y100.342 E9.75537
G1 X119.751 Y101.103 E9.80646
G1 X108.655 Y90.007 E10.85986
G1 X107.894 Y90.007 E10.91095
G1 X119.751 Y101.864 E12.0366
G1 X119.751 Y102.625 E12.08769
G1 X114.867 Y97.741 E12.55135
G1 X114.787 Y97.551 E12.56519
G1 X114.444 Y96.922 E12.61328
G1 X114.256 Y96.646 E12.6357
G1 X113.706 Y95.999 E12.69271
G1 X112.997 Y95.418 E12.75424
G1 X112.717 Y95.237 E12.77662
G1 X112.008 Y94.882 E12.82985
G1 X107.133 Y90.007 E13.29266
G1 X106.372 Y90.008 E13.34375
G1 X110.933 Y94.568 E13.7767
G1 X110.75 Y94.536 E13.78917
G1 X110.09 Y94.487 E13.8336
G1 X105.611 Y90.008 E14.25882
G1 X104.85 Y90.008 E14.30991
G1 X109.375 Y94.533 E14.73949
G1 X108.91 Y94.592 E14.77096
G1 X108.722 Y94.64 E14.78399
G1 X104.089 Y90.008 E15.22378
G1 X103.328 Y90.008 E15.27487
G1 X108.148 Y94.828 E15.73246
G1 X107.987 Y94.882 E15.74386
G1 X107.617 Y95.058 E15.77136
G1 X102.568 Y90.008 E16.25074
G1 X101.807 Y90.009 E16.30183
G1 X107.134 Y95.336 E16.80755
G1 X106.695 Y95.658 E16.8441
G1 X101.046 Y90.009 E17.38039
G1 X100.916 Y90.009 E17.38912
G1 X100.609 Y90.114 E17.4109
G1 X100.484 Y90.209 E17.42144
G1 X106.291 Y96.015 E17.97268
G1 X106.207 Y96.09 E17.98024
G1 X105.932 Y96.417 E18.00892
G1 X100.256 Y90.742 E18.54773
G1 X100.247 Y91.493 E18.59815
G1 X105.604 Y96.85 E19.10672
G1 X105.42 Y97.147 E19.13017
G1 X105.329 Y97.337 E19.14431
G1 X100.247 Y92.255 E19.62677
G1 X100.247 Y93.016 E19.67786
G1 X105.087 Y97.856 E20.13735
G1 X104.995 Y98.106 E20.15523
G1 X104.91 Y98.44 E20.17837
G1 X100.247 Y93.777 E20.62105
G1 X100.247 Y94.538 E20.67214
G1 X104.778 Y99.069 E21.10229
G1 X104.737 Y99.789 E21.1507
G1 X100.247 Y95.299 E21.57696
G1 X100.247 Y96.061 E21.62811
G1 X104.805 Y100.619 E22.06083
G1 X104.873 Y100.957 E22.08397
G1 X105.095 Y101.669 E22.13404
G1 X100.247 Y96.822 E22.59424
G1 X100.247 Y97.583 E22.64533
G1 X107.257 Y104.593 E23.31083
G1 X106.499 Y104.596 E23.36171
G1 X100.247 Y98.344 E23.95525
G1 X100.247 Y99.105 E24.00634
G1 X105.74 Y104.598 E24.52782
G1 X105.221 Y104.6 E24.56266
G1 X105.007 Y104.626 E24.57713
G1 X100.247 Y99.867 E25.02897
G1 X100.247 Y100.628 E25.08006
G1 X104.342 Y104.722 E25.46877
G1 X104.129 Y104.772 E25.48346
G1 X103.761 Y104.903 E25.50968
G1 X100.247 Y101.389 E25.84328
G1 X100.248 Y102.15 E25.89437
G1 X103.228 Y105.131 E26.17732
G1 X102.752 Y105.416 E26.21456
G1 X100.248 Y102.912 E26.45228
G1 X100.248 Y103.673 E26.50337
G1 X102.328 Y105.753 E26.70084
G1 X101.938 Y106.124 E26.73697
G1 X100.248 Y104.434 E26.89741
G1 X100.248 Y105.195 E26.9485
G1 X101.591 Y106.538 E27.076
G1 X101.288 Y106.996 E27.11286
G1 X100.248 Y105.956 E27.21159
G1 X100.248 Y106.718 E27.26274
G1 X101.042 Y107.512 E27.33812
G1 X100.919 Y107.807 E27.35958
G1 X100.836 Y108.067 E27.3779
G1 X100.248 Y107.479 E27.43372
G1 X100.248 Y108.24 E27.48481
G1 X100.708 Y108.7 E27.52848
G1 X100.654 Y109.407 E27.57608
G1 X100.248 Y109.001 E27.61462
G1 X100.248 Y109.762 E27.66571
G1 X100.654 Y110.169 E27.7043
G1 X100.654 Y110.93 E27.75539
