; generated by PrusaSlicer 2.8.1+linux-x64-GTK3 on 2024-10-16 at 07:42:29 UTC

; 

; external perimeters extrusion width = 0.45mm
; perimeters extrusion width = 0.45mm
; infill extrusion width = 0.45mm
; solid infill extrusion width = 0.45mm
; top infill extrusion width = 0.40mm
; support material extrusion width = 0.40mm
; first layer extrusion width = 0.60mm

M190 S60 ; set bed temperature and wait for it to be reached
M104 S200 ; set temperature
;TYPE:Custom
G28 ; home all axes
G1 Z5 F5000 ; lift nozzle
M109 S200 ; set temperature and wait for it to be reached
G21 ; set units to millimeters
G90 ; use absolute coordinates
M82 ; use absolute distances for extrusion
G92 E0
; Filament gcode
M107
;LAYER_CHANGE
;Z:0.3
;HEIGHT:0.3
G1 E-2 F2400
G1 Z.3 F7800
G1 X100.379 Y95.766
G1 E0 F2400
;TYPE:Skirt/Brim
;WIDTH:0.6
G1 F1800
G1 X102.154 Y94.415 E.14902
G1 X105 Y93.732 E.34455
G1 X115 Y93.732 E1.0126
G1 X117.195 Y94.129 E1.16162
G1 X119.112 Y95.269 E1.31062
G1 X120.508 Y97.008 E1.4596
G1 X121.268 Y100 E1.66583
G1 X121.268 Y120 E3.00194
G1 X120.859 Y124.503 E3.304
G1 X120.566 Y125.82 E3.39413
G1 X120.207 Y126.879 E3.46883
G1 X119.639 Y128.103 E3.55898
G1 X119.061 Y129.061 E3.63373
G1 X118.244 Y130.136 E3.72393
G1 X117.475 Y130.948 E3.79864
G1 X116.446 Y131.822 E3.88883
G1 X115.507 Y132.459 E3.96463
G1 X114.319 Y133.089 E4.05446
G1 X113.281 Y133.503 E4.12912
G1 X111.974 Y133.867 E4.21976
G1 X110.869 Y134.048 E4.29456
G1 X109.514 Y134.122 E4.38522
G1 X108.395 Y134.062 E4.46008
G1 X107.056 Y133.842 E4.55073
G1 X105.977 Y133.542 E4.62555
G1 X104.717 Y133.04 E4.71616
G1 X103.728 Y132.515 E4.79096
G1 X102.608 Y131.755 E4.88138
G1 X101.755 Y131.03 E4.95617
G1 X100.825 Y130.049 E5.04648
G1 X100.148 Y129.159 E5.12118
G1 X99.451 Y128.003 E5.21136
G1 X98.98 Y126.989 E5.28605
G1 X98.547 Y125.711 E5.37619
G1 X98.304 Y124.619 E5.45093
G1 X98.154 Y123.279 E5.54101
G1 X98.152 Y121.973 E5.62826
G1 X98.734 Y99.835 E7.10771
G1 X99.189 Y97.652 E7.25668
G1 X100.347 Y95.816 E7.40169
G1 E5.40169 F2400
G92 E0
G1 X100.347 Y95.816 F7800
G92 E0
G1 X114.636 Y121.581
G1 E2 F2400
;TYPE:Support material
G1 F1800
G1 X114.753 Y122.696 E2.0749
G1 X114.629 Y123.808 E2.14965
G1 X114.27 Y124.868 E2.22441
G1 X113.693 Y125.826 E2.29912
G1 X112.924 Y126.638 E2.37383
G1 X112.316 Y127.05 E2.42289
G1 X111.995 Y127.268 E2.44881
G1 X110.958 Y127.682 E2.5234
G1 X109.852 Y127.864 E2.59828
G1 X108.734 Y127.803 E2.67308
G1 X107.655 Y127.503 E2.7479
G1 X106.666 Y126.978 E2.8227
G1 X105.813 Y126.254 E2.89744
G1 X105.136 Y125.364 E2.97214
G1 X104.665 Y124.349 E3.04689
G1 X104.422 Y123.257 E3.12163
G1 X104.418 Y122.138 E3.19639
G1 X104.654 Y121.043 E3.27122
G1 X104.891 Y120.525 E3.30928
G1 X114.285 Y120.525 E3.93685
G1 X114.611 Y121.505 E4.00585
G1 X114.611 Y121.505 F7800
G1 X114.166 Y124.425
G1 F1800
G1 X114.162 Y121.684 E4.18896
G1 X113.937 Y121.007 E4.23662
G1 X113.571 Y121.007 E4.26107
G1 X113.571 Y125.095 E4.53417
G1 X113.307 Y125.532 E4.56828
G1 X112.976 Y125.882 E4.60046
G1 X112.976 Y121.007 E4.92614
G1 X112.381 Y121.007 E4.96589
G1 X112.381 Y126.424 E5.32777
G1 X111.785 Y126.828 E5.37587
G1 X111.785 Y121.007 E5.76474
G1 X111.19 Y121.007 E5.80449
G1 X111.19 Y127.07 E6.20953
G1 X110.595 Y127.253 E6.25112
G1 X110.595 Y121.007 E6.66839
G1 X110 Y121.007 E6.70814
G1 X110 Y127.351 E7.13195
G1 X109.405 Y127.357 E7.1717
G1 X109.405 Y121.007 E7.59591
G1 X108.81 Y121.007 E7.63566
G1 X108.81 Y127.324 E8.05767
G1 X108.215 Y127.158 E8.09894
G1 X108.215 Y121.007 E8.50986
G1 X107.619 Y121.007 E8.54968
G1 X107.619 Y126.939 E8.94597
G1 X107.024 Y126.623 E8.99098
G1 X107.024 Y121.007 E9.36616
G1 X106.429 Y121.007 E9.40591
G1 X106.429 Y126.145 E9.74916
G1 X105.834 Y125.485 E9.80852
G1 X105.834 Y121.007 E10.10767
G1 X105.239 Y121.007 E10.14742
G1 X105.239 Y125.013 E10.41504
G1 E8.41504 F2400
G92 E0
G1 X105.239 Y125.013 F7800
G1 X113.629 Y118.629
G1 E2 F2400
;TYPE:Perimeter
;WIDTH:0.6
G1 F1800
G1 X106.371 Y118.629 E2.48487
G1 X106.371 Y101.371 E3.6378
G1 X113.629 Y101.371 E4.12267
G1 X113.629 Y105 E4.36511
G1 X113.629 Y118.569 E5.27159
G1 X113.629 Y118.569 F7800
G1 X114.164 Y119.164
G1 F1800
G1 X105.836 Y119.164 E5.82794
G1 X105.836 Y100.836 E7.05235
G1 X114.164 Y100.836 E7.6087
G1 X114.164 Y105 E7.88688
G1 X114.164 Y119.104 E8.8291
G1 X114.164 Y119.104 F7800
G1 X114.7 Y119.7
;TYPE:External perimeter
G1 F1800
G1 X105.3 Y119.7 E9.45707
G1 X105.3 Y100.3 E10.75309
G1 X114.7 Y100.3 E11.38106
G1 X114.7 Y105 E11.69505
G1 X114.7 Y119.64 E12.67308
G1 X114.304 Y119.699 F7800
G1 E10.67308 F2400
G92 E0
G1 X113.468 Y102.639 F7800
G1 E2 F2400
;TYPE:Solid infill
;WIDTH:0.611349
G1 F1800
G1 X112.602 Y101.773 E2.08355
G1 X111.829 Y101.773 E2.13628
G1 X113.227 Y103.171 E2.27116
G1 X113.227 Y103.945 E2.32396
G1 X111.055 Y101.773 E2.53351
G1 X110.282 Y101.773 E2.58624
G1 X113.227 Y104.718 E2.87037
G1 X113.227 Y105.492 E2.92317
G1 X109.508 Y101.773 E3.28197
G1 X108.735 Y101.773 E3.3347
G1 X113.227 Y106.265 E3.76808
G1 X113.227 Y107.039 E3.82088
G1 X107.961 Y101.773 E4.32894
G1 X107.188 Y101.773 E4.38167
G1 X113.227 Y107.812 E4.96431
G1 X113.227 Y108.586 E5.01711
G1 X106.773 Y102.132 E5.63978
G1 X106.773 Y102.905 E5.69251
G1 X113.227 Y109.359 E6.31518
G1 X113.227 Y110.133 E6.36798
G1 X106.773 Y103.679 E6.99065
G1 X106.773 Y104.452 E7.04338
G1 X113.227 Y110.907 E7.6661
G1 X113.227 Y111.68 E7.71883
G1 X106.773 Y105.226 E8.3415
G1 X106.773 Y105.999 E8.39423
G1 X113.227 Y112.454 E9.01695
G1 X113.227 Y113.227 E9.06968
G1 X106.773 Y106.773 E9.69235
G1 X106.773 Y107.547 E9.74515
G1 X113.227 Y114.001 E10.36782
G1 X113.227 Y114.774 E10.42055
G1 X106.773 Y108.32 E11.04322
G1 X106.773 Y109.094 E11.09602
G1 X113.227 Y115.548 E11.71869
G1 X113.227 Y116.321 E11.77142
G1 X106.773 Y109.867 E12.39409
G1 X106.773 Y110.641 E12.44689
G1 X113.227 Y117.095 E13.06956
G1 X113.227 Y117.868 E13.12229
G1 X106.773 Y111.414 E13.74496
G1 X106.773 Y112.188 E13.79776
G1 X112.812 Y118.227 E14.3804
G1 X112.039 Y118.227 E14.43313
G1 X106.773 Y112.961 E14.94119
G1 X106.773 Y113.735 E14.99399
G1 X111.265 Y118.227 E15.42737
G1 X110.492 Y118.227 E15.4801
G1 X106.773 Y114.508 E15.8389
G1 X106.773 Y115.282 E15.8917
G1 X109.718 Y118.227 E16.17583
G1 X108.945 Y118.227 E16.22856
G1 X106.773 Y116.055 E16.43811
G1 X106.773 Y116.829 E16.49091
G1 X108.171 Y118.227 E16.62579
G1 X107.398 Y118.227 E16.67852
G1 X106.532 Y117.361 E16.76207
;LAYER_CHANGE
;Z:0.6
;HEIGHT:0.3
G1 Z.6 F7800
G1 E14.76207 F2400
G92 E0
G1 X106.532 Y117.361 Z.6 F7800
G1 X108.189 Y122.165
G1 E2 F2400
;TYPE:Support material
;WIDTH:0.4
G1 F3600
G1 X108.657 Y121.697 E2.02771
G1 X109.023 Y121.521 E2.04471
G1 X109.565 Y121.424 E2.06776
G1 X109.588 Y121.024 E2.08453
G1 X110.299 Y121.168 E2.1149
G1 X110.917 Y121.54 E2.14509
G1 X111.286 Y121.957 E2.1684
G1 X111.443 Y122.66 E2.19855
G1 X111.268 Y123.446 E2.23226
G1 X110.78 Y124.087 E2.26598
G1 X110.071 Y124.463 E2.29957
G1 X109.673 Y124.528 E2.31645
G1 X108.883 Y124.399 E2.34996
G1 X108.218 Y123.948 E2.3836
G1 X107.802 Y123.259 E2.41729
G1 X107.711 Y122.459 E2.45099
G1 X107.942 Y121.793 E2.4805
G1 X108.455 Y121.351 E2.50885
G1 X108.877 Y121.147 E2.52847
G1 X109.537 Y121.021 E2.5566
G1 X109.537 Y121.021 F7800
G1 X109.695 Y120.63
G1 F3600
G1 X110.443 Y120.793 E2.58865
G1 X111.171 Y121.229 E2.62417
G1 X111.641 Y121.765 E2.65401
G1 X111.795 Y122.175 E2.67234
G1 X111.846 Y122.661 E2.6928
G1 X111.791 Y123.15 E2.7134
G1 X111.633 Y123.616 E2.734
G1 X111.378 Y124.037 E2.7546
G1 X111.04 Y124.394 E2.77518
G1 X110.634 Y124.669 E2.79571
G1 X110.179 Y124.85 E2.81621
G1 X109.695 Y124.93 E2.83675
G1 X109.206 Y124.903 E2.85725
G1 X108.734 Y124.772 E2.87775
G1 X108.301 Y124.543 E2.89825
G1 X107.926 Y124.225 E2.91883
G1 X107.628 Y123.835 E2.93938
G1 X107.421 Y123.389 E2.95996
G1 X107.313 Y122.909 E2.98056
G1 X107.311 Y122.417 E3.00116
G1 X107.415 Y121.936 E3.02176
G1 X107.621 Y121.551 E3.04004
G1 X107.912 Y121.24 E3.05787
G1 X108.732 Y120.773 E3.09737
G1 X109.645 Y120.627 E3.13607
G1 E1.13607 F2400
G92 E0
G1 X109.645 Y120.627 F7800
G1 X114.004 Y119.004
G1 E2 F2400
;TYPE:Perimeter
;WIDTH:0.45
G1 F3600
G1 X105.996 Y119.004 E2.38516
G1 X105.996 Y100.996 E3.25128
G1 X114.004 Y100.996 E3.63644
G1 X114.004 Y105 E3.82902
G1 X114.004 Y118.944 E4.49968
G1 X114.004 Y118.944 F7800
G1 X114.389 Y119.389
G1 F3600
G1 X105.611 Y119.389 E4.92187
G1 X105.611 Y100.611 E5.82503
G1 X114.389 Y100.611 E6.24722
G1 X114.389 Y105 E6.45832
G1 X114.389 Y119.329 E7.1475
G1 X114.389 Y119.329 F7800
G1 X114.775 Y119.775
;TYPE:External perimeter
G1 F1800
G1 X105.225 Y119.775 E7.60682
G1 X105.225 Y100.225 E8.54711
G1 X114.775 Y100.225 E9.00643
G1 X114.775 Y105 E9.23609
G1 X114.775 Y119.715 E9.94383
G1 X114.379 Y119.774 F7800
G1 E7.94383 F2400
G92 E0
G1 X106.39 Y101.317 F7800
G1 E2 F2400
;TYPE:Solid infill
;WIDTH:0.543559
G1 F1200
G1 X106.348 Y101.274 E2.00359
G1 X106.29 Y101.29 E2.00719
G1 X106.274 Y101.348 E2.01079
G1 X106.317 Y101.39 E2.01438
G1 X106.375 Y101.375 E2.01796
;WIDTH:0.45
G1 X106.991 Y101.285 E2.0479
G1 X106.162 Y102.128 E2.10477
;WIDTH:0.404381
G1 X106.091 Y102.109 E2.10789
G1 X106.11 Y102.18 E2.11101
G1 X106.151 Y102.169 E2.11281
;WIDTH:0.45
G1 X106.285 Y102.536 E2.1316
G1 X107.536 Y101.285 E2.21669
G1 X108.081 Y101.285 E2.2429
G1 X106.285 Y103.081 E2.36506
G1 X106.285 Y103.627 E2.39132
G1 X108.627 Y101.285 E2.55062
G1 X109.172 Y101.285 E2.57683
G1 X106.285 Y104.172 E2.7732
G1 X106.285 Y104.717 E2.79941
G1 X109.717 Y101.285 E3.03285
G1 X110.263 Y101.285 E3.05911
G1 X106.285 Y105.263 E3.32969
G1 X106.285 Y105.808 E3.3559
G1 X110.808 Y101.285 E3.66355
G1 X111.353 Y101.285 E3.68976
G1 X106.285 Y106.353 E4.03448
G1 X106.285 Y106.899 E4.06074
G1 X111.899 Y101.285 E4.4426
G1 X112.444 Y101.285 E4.46881
G1 X106.285 Y107.444 E4.88774
G1 X106.285 Y107.989 E4.91395
G1 X112.989 Y101.285 E5.36995
G1 X112.989 Y101.285 F7800
G1 X113.847 Y101.183
;WIDTH:0.404381
G1 F1200
G1 X113.776 Y101.164 E5.37307
G1 X113.795 Y101.235 E5.37619
G1 X113.836 Y101.224 E5.37799
;WIDTH:0.45
G1 X113.535 Y101.285 E5.39276
G1 X106.285 Y108.535 E5.8859
G1 X106.285 Y109.08 E5.91211
G1 X113.715 Y101.651 E6.41746
G1 X113.715 Y102.196 E6.44367
G1 X106.285 Y109.625 E6.94902
G1 X106.285 Y110.171 E6.97528
G1 X113.715 Y102.742 E7.48063
G1 X113.715 Y103.287 E7.50684
G1 X106.285 Y110.716 E8.01219
G1 X106.285 Y111.261 E8.0384
G1 X113.715 Y103.832 E8.54375
G1 X113.715 Y104.378 E8.57001
G1 X106.285 Y111.807 E9.07536
G1 X106.285 Y112.352 E9.10157
G1 X113.715 Y104.923 E9.60692
G1 X113.715 Y105.468 E9.63313
G1 X106.285 Y112.897 E10.13848
G1 X106.285 Y113.443 E10.16474
G1 X113.715 Y106.014 E10.67009
G1 X113.715 Y106.559 E10.6963
G1 X106.285 Y113.988 E11.20165
G1 X106.285 Y114.534 E11.22791
G1 X113.715 Y107.104 E11.73329
G1 X113.715 Y107.65 E11.75955
G1 X106.285 Y115.079 E12.2649
G1 X106.285 Y115.624 E12.29111
G1 X113.715 Y108.195 E12.79646
G1 X113.715 Y108.74 E12.82267
G1 X106.285 Y116.17 E13.32805
G1 X106.285 Y116.715 E13.35426
G1 X113.715 Y109.286 E13.85961
G1 X113.715 Y109.831 E13.88582
G1 X106.285 Y117.26 E14.39117
G1 X106.285 Y117.806 E14.41743
G1 X113.715 Y110.377 E14.92278
G1 X113.715 Y110.922 E14.94899
G1 X106.285 Y118.351 E15.45434
G1 X106.224 Y118.836 E15.47785
;WIDTH:0.404381
G1 X106.183 Y118.847 E15.47965
G1 X106.164 Y118.776 E15.48277
G1 X106.235 Y118.795 E15.48589
;WIDTH:0.45
G1 X106.467 Y118.715 E15.49769
G1 X113.715 Y111.467 E15.99069
G1 X113.715 Y112.013 E16.01695
G1 X107.013 Y118.715 E16.47281
G1 X107.558 Y118.715 E16.49902
G1 X113.715 Y112.558 E16.91781
G1 X113.715 Y113.103 E16.94402
G1 X108.103 Y118.715 E17.32574
G1 X108.649 Y118.715 E17.352
G1 X113.715 Y113.649 E17.69658
G1 X113.715 Y114.194 E17.72279
G1 X109.194 Y118.715 E18.0303
G1 X109.739 Y118.715 E18.05651
G1 X113.715 Y114.739 E18.32695
G1 X113.715 Y115.285 E18.35321
G1 X110.285 Y118.715 E18.58651
G1 X110.83 Y118.715 E18.61272
G1 X113.715 Y115.83 E18.80895
G1 X113.715 Y116.375 E18.83516
G1 X111.375 Y118.715 E18.99432
G1 X111.803 Y118.909 E19.01692
;WIDTH:0.404381
G1 X111.762 Y118.92 E19.01872
G1 X111.743 Y118.849 E19.02184
G1 X111.814 Y118.868 E19.02496
;WIDTH:0.45
G1 X111.921 Y118.715 E19.03394
G1 X113.715 Y116.921 E19.15597
G1 X113.715 Y118.715 E19.24226
G1 X112.466 Y118.715 E19.30233
G1 X113.578 Y117.602 E19.378
;LAYER_CHANGE
;Z:0.9
;HEIGHT:0.3
G1 Z.9 F7800
G1 E17.378 F2400
G92 E0
G1 X113.578 Y117.602 Z.9 F7800
G1 X108.245 Y122.49
G1 E2 F2400
;TYPE:Support material
;WIDTH:0.4
G1 F3600
G1 X108.385 Y122.2 E2.01348
G1 X108.743 Y121.811 E2.03561
G1 X108.98 Y121.669 E2.04718
G1 X109.458 Y121.548 E2.06782
G1 X109.467 Y121.149 E2.08453
G1 X110.127 Y121.239 E2.11241
G1 X110.791 Y121.645 E2.14499
G1 X111.233 Y122.307 E2.17831
G1 X111.341 Y122.695 E2.19517
G1 X111.347 Y123.085 E2.2115
G1 X111.261 Y123.447 E2.22708
G1 X111.065 Y123.77 E2.2429
G1 X110.45 Y124.292 E2.27667
G1 X109.675 Y124.507 E2.31034
G1 X108.881 Y124.377 E2.34402
G1 X108.523 Y124.188 E2.36097
G1 X107.969 Y123.607 E2.39458
G1 X107.811 Y123.256 E2.41069
G1 X107.77 Y122.936 E2.42419
G1 X107.797 Y122.593 E2.43859
G1 X108.047 Y121.983 E2.46619
G1 X108.504 Y121.488 E2.49439
G1 X108.807 Y121.307 E2.50916
G1 X109.416 Y121.147 E2.53552
G1 X109.416 Y121.147 F7800
G1 X109.818 Y120.756
G1 F3600
G1 X110.688 Y121.061 E2.57411
G1 X111.245 Y121.558 E2.60536
G1 X111.607 Y122.158 E2.63469
G1 X111.74 Y122.637 E2.6555
G1 X111.748 Y123.129 E2.6761
G1 X111.635 Y123.601 E2.69642
G1 X111.385 Y124.015 E2.71666
G1 X111.046 Y124.372 E2.73727
G1 X110.638 Y124.647 E2.75787
G1 X110.181 Y124.829 E2.77846
G1 X109.697 Y124.909 E2.799
G1 X109.206 Y124.883 E2.81958
G1 X108.732 Y124.751 E2.84018
G1 X108.298 Y124.521 E2.86074
G1 X107.922 Y124.203 E2.88135
G1 X107.624 Y123.813 E2.9019
G1 X107.422 Y123.366 E2.92243
G1 X107.401 Y122.519 E2.9579
G1 X107.709 Y121.766 E2.99196
G1 X108.266 Y121.165 E3.02626
G1 X108.98 Y120.818 E3.05949
G1 X109.767 Y120.755 E3.09254
G1 E1.09254 F2400
G92 E0
G1 X109.767 Y120.755 F7800
G1 X114.004 Y119.004
G1 E2 F2400
;TYPE:Perimeter
;WIDTH:0.45
G1 F3600
G1 X105.996 Y119.004 E2.38516
G1 X105.996 Y100.996 E3.25128
G1 X114.004 Y100.996 E3.63644
G1 X114.004 Y105 E3.82902
G1 X114.004 Y118.944 E4.49968
G1 X114.004 Y118.944 F7800
G1 X114.389 Y119.389
G1 F3600
G1 X105.611 Y119.389 E4.92187
G1 X105.611 Y100.611 E5.82503
G1 X114.389 Y100.611 E6.24722
G1 X114.389 Y105 E6.45832
G1 X114.389 Y119.329 E7.1475
G1 X114.389 Y119.329 F7800
G1 X114.775 Y119.775
;TYPE:External perimeter
G1 F1800
G1 X105.225 Y119.775 E7.60682
G1 X105.225 Y100.225 E8.54711
G1 X114.775 Y100.225 E9.00643
G1 X114.775 Y105 E9.23609
G1 X114.775 Y119.715 E9.94383
G1 X114.379 Y119.774 F7800
G1 E7.94383 F2400
G92 E0
G1 X106.317 Y118.61 F7800
G1 E2 F2400
;TYPE:Solid infill
;WIDTH:0.543559
G1 F1200
G1 X106.274 Y118.652 E2.00359
G1 X106.29 Y118.71 E2.00719
G1 X106.348 Y118.726 E2.01079
G1 X106.39 Y118.683 E2.01438
G1 X106.375 Y118.625 E2.01796
;WIDTH:0.45
G1 X106.991 Y118.715 E2.0479
G1 X106.285 Y118.009 E2.09592
G1 X106.151 Y117.831 E2.10664
;WIDTH:0.404381
G1 X106.162 Y117.872 E2.10844
G1 X106.091 Y117.891 E2.11156
G1 X106.11 Y117.82 E2.11468
;WIDTH:0.45
G1 X106.285 Y117.464 E2.13376
G1 X107.536 Y118.715 E2.21885
G1 X108.081 Y118.715 E2.24506
G1 X106.285 Y116.919 E2.36722
G1 X106.285 Y116.373 E2.39348
G1 X108.627 Y118.715 E2.55278
G1 X109.172 Y118.715 E2.57899
G1 X106.285 Y115.828 E2.77536
G1 X106.285 Y115.283 E2.80157
G1 X109.717 Y118.715 E3.03501
G1 X110.263 Y118.715 E3.06127
G1 X106.285 Y114.737 E3.33185
G1 X106.285 Y114.192 E3.35806
G1 X110.808 Y118.715 E3.66571
G1 X111.353 Y118.715 E3.69192
G1 X106.285 Y113.647 E4.03664
G1 X106.285 Y113.101 E4.0629
G1 X111.899 Y118.715 E4.44476
G1 X112.444 Y118.715 E4.47097
G1 X106.285 Y112.556 E4.8899
G1 X106.285 Y112.011 E4.91611
G1 X112.989 Y118.715 E5.37211
G1 X112.989 Y118.715 F7800
G1 X113.836 Y118.776
;WIDTH:0.404381
G1 F1200
G1 X113.847 Y118.817 E5.37391
G1 X113.776 Y118.836 E5.37703
G1 X113.795 Y118.765 E5.38015
;WIDTH:0.45
G1 X113.535 Y118.715 E5.39288
G1 X106.285 Y111.465 E5.88602
G1 X106.285 Y110.92 E5.91223
G1 X113.715 Y118.349 E6.41758
G1 X113.715 Y117.804 E6.44379
G1 X106.285 Y110.375 E6.94914
G1 X106.285 Y109.829 E6.9754
G1 X113.715 Y117.258 E7.48075
G1 X113.715 Y116.713 E7.50696
