; generated by PrusaSlicer 2.8.1+linux-x64-GTK3 on 2024-10-14 at 12:33:38 UTC

; 

; external perimeters extrusion width = 0.45mm
; perimeters extrusion width = 0.45mm
; infill extrusion width = 0.45mm
; solid infill extrusion width = 0.45mm
; top infill extrusion width = 0.40mm
; support material extrusion width = 0.40mm
; first layer extrusion width = 0.60mm

M190 S60 ; set bed temperature and wait for it to be reached
M104 S200 ; set temperature
;TYPE:Custom
G28 ; home all axes
G1 Z5 F5000 ; lift nozzle
M109 S200 ; set temperature and wait for it to be reached
G21 ; set units to millimeters
G90 ; use absolute coordinates
M82 ; use absolute distances for extrusion
G92 E0
; Filament gcode
M107
;LAYER_CHANGE
;Z:0.3
;HEIGHT:0.3
G1 E-2 F2400
G1 Z.3 F7800
G1 X96.178 Y101.092
G1 E0 F2400
;TYPE:Skirt/Brim
;WIDTH:0.6
G1 F1800
G1 X97.917 Y99.696 E.14898
G1 X100.909 Y98.936 E.35521
G1 X119.091 Y98.936 E1.56987
G1 X121.286 Y99.333 E1.71889
G1 X123.202 Y100.473 E1.86783
G1 X124.599 Y102.212 E2.01685
G1 X125.359 Y105.204 E2.22308
G1 X125.359 Y114.796 E2.86388
G1 X124.962 Y116.991 E3.0129
G1 X123.822 Y118.908 E3.1619
G1 X122.083 Y120.304 E3.31088
G1 X119.091 Y121.064 E3.51711
G1 X100.909 Y121.064 E4.73177
G1 X98.714 Y120.667 E4.88079
G1 X96.798 Y119.527 E5.02973
G1 X95.401 Y117.788 E5.17875
G1 X94.641 Y114.796 E5.38498
G1 X94.641 Y105.204 E6.02578
G1 X95.038 Y103.009 E6.1748
G1 X96.148 Y101.144 E6.31979
G1 E4.31979 F2400
G92 E0
G1 X96.148 Y101.144 F7800
G92 E0
G1 X117.72 Y113.425
G1 E2 F2400
;TYPE:Perimeter
;WIDTH:0.6
G1 F1800
G1 X102.28 Y113.425 E3.03147
G1 X102.28 Y106.575 E3.48909
G1 X117.72 Y106.575 E4.52056
G1 X117.72 Y110 E4.74937
G1 X117.72 Y113.365 E4.97417
G1 X117.72 Y113.365 F7800
G1 X118.255 Y113.961
G1 F1800
G1 X101.745 Y113.961 E6.07713
G1 X101.745 Y106.039 E6.60636
G1 X118.255 Y106.039 E7.70932
G1 X118.255 Y110 E7.97394
G1 X118.255 Y113.901 E8.23455
G1 X118.255 Y113.901 F7800
G1 X118.791 Y114.496
;TYPE:External perimeter
G1 F1800
G1 X101.209 Y114.496 E9.40912
G1 X101.209 Y105.504 E10.00983
G1 X118.791 Y105.504 E11.1844
G1 X118.791 Y110 E11.48476
G1 X118.791 Y114.436 E11.78111
G1 X118.395 Y114.496 F7800
G1 E9.78111 F2400
G92 E0
G1 X117.559 Y107.848 F7800
G1 E2 F2400
;TYPE:Solid infill
;WIDTH:0.613744
G1 F1800
G1 X116.688 Y106.977 E2.0844
G1 X115.911 Y106.977 E2.13764
G1 X117.318 Y108.383 E2.27393
G1 X117.318 Y109.16 E2.32717
G1 X115.134 Y106.977 E2.53875
G1 X114.357 Y106.977 E2.59199
G1 X117.318 Y109.937 E2.87887
G1 X117.318 Y110.714 E2.93211
G1 X113.58 Y106.977 E3.29428
G1 X112.804 Y106.977 E3.34745
G1 X117.318 Y111.491 E3.78486
G1 X117.318 Y112.268 E3.8381
G1 X112.027 Y106.977 E4.35081
G1 X111.25 Y106.977 E4.40405
G1 X117.296 Y113.023 E4.98992
G1 X116.519 Y113.023 E5.04316
G1 X110.473 Y106.977 E5.62903
G1 X109.696 Y106.977 E5.68227
G1 X115.742 Y113.023 E6.26814
G1 X114.966 Y113.023 E6.32131
G1 X108.919 Y106.977 E6.90722
G1 X108.142 Y106.977 E6.96046
G1 X114.189 Y113.023 E7.54637
G1 X113.412 Y113.023 E7.59961
G1 X107.365 Y106.977 E8.18552
G1 X106.588 Y106.977 E8.23876
G1 X112.635 Y113.023 E8.82467
G1 X111.858 Y113.023 E8.87791
G1 X105.811 Y106.977 E9.46382
G1 X105.034 Y106.977 E9.51706
G1 X111.081 Y113.023 E10.10297
G1 X110.304 Y113.023 E10.15621
G1 X104.257 Y106.977 E10.74212
G1 X103.481 Y106.977 E10.79529
G1 X109.527 Y113.023 E11.38116
G1 X108.75 Y113.023 E11.4344
G1 X102.704 Y106.977 E12.02027
G1 X102.682 Y106.977 E12.02178
G1 X102.682 Y107.732 E12.07351
G1 X107.973 Y113.023 E12.58622
G1 X107.196 Y113.023 E12.63946
G1 X102.682 Y108.509 E13.07687
G1 X102.682 Y109.286 E13.13011
G1 X106.419 Y113.023 E13.49223
G1 X105.642 Y113.023 E13.54547
G1 X102.682 Y110.063 E13.8323
G1 X102.682 Y110.84 E13.88554
G1 X104.866 Y113.023 E14.09712
G1 X104.089 Y113.023 E14.15036
G1 X102.682 Y111.617 E14.28665
G1 X102.682 Y112.394 E14.33989
G1 X103.553 Y113.264 E14.42424
;LAYER_CHANGE
;Z:0.6
;HEIGHT:0.3
G1 Z.6 F7800
G1 E12.42424 F2400
G92 E0
G1 X103.553 Y113.264 Z.6 F7800
G1 X118.095 Y113.8
G1 E2 F2400
;TYPE:Perimeter
;WIDTH:0.45
G1 F3600
G1 X101.905 Y113.8 E2.77868
G1 X101.905 Y106.2 E3.14421
G1 X118.095 Y106.2 E3.92289
G1 X118.095 Y110 E4.10566
G1 X118.095 Y113.74 E4.28554
G1 X118.095 Y113.74 F7800
G1 X118.48 Y114.186
G1 F3600
G1 X101.52 Y114.186 E5.10126
G1 X101.52 Y105.814 E5.50392
G1 X118.48 Y105.814 E6.31964
G1 X118.48 Y110 E6.52097
G1 X118.48 Y114.126 E6.71942
G1 X118.48 Y114.126 F7800
G1 X118.866 Y114.571
;TYPE:External perimeter
G1 F1800
G1 X101.134 Y114.571 E7.57227
G1 X101.134 Y105.429 E8.01197
G1 X118.866 Y105.429 E8.86482
G1 X118.866 Y110 E9.08467
G1 X118.866 Y114.511 E9.30163
G1 X118.47 Y114.571 F7800
G1 E7.30163 F2400
G92 E0
G1 X102.299 Y106.52 F7800
G1 E2 F2400
;TYPE:Solid infill
;WIDTH:0.543559
G1 F1200
G1 X102.257 Y106.478 E2.00355
G1 X102.199 Y106.494 E2.00715
G1 X102.183 Y106.552 E2.01075
G1 X102.226 Y106.594 E2.01434
G1 X102.284 Y106.578 E2.01794
;WIDTH:0.45
G1 X102.195 Y107.194 E2.04788
G1 X102.9 Y106.489 E2.09583
G1 X103.078 Y106.355 E2.10655
;WIDTH:0.404381
G1 X103.037 Y106.366 E2.10835
G1 X103.018 Y106.295 E2.11147
G1 X103.089 Y106.314 E2.11459
;WIDTH:0.45
G1 X103.445 Y106.489 E2.13367
G1 X102.195 Y107.74 E2.21873
G1 X102.195 Y108.285 E2.24494
G1 X103.99 Y106.489 E2.36707
G1 X104.536 Y106.489 E2.39333
G1 X102.195 Y108.83 E2.55256
G1 X102.195 Y109.376 E2.57882
G1 X105.081 Y106.489 E2.77516
G1 X105.626 Y106.489 E2.80137
G1 X102.195 Y109.921 E3.03478
G1 X102.195 Y110.466 E3.06099
G1 X106.172 Y106.489 E3.3315
G1 X106.717 Y106.489 E3.35771
G1 X102.195 Y111.012 E3.66532
G1 X102.195 Y111.557 E3.69153
G1 X107.262 Y106.489 E4.03622
G1 X107.808 Y106.489 E4.06248
G1 X102.195 Y112.102 E4.44427
G1 X102.195 Y112.648 E4.47053
G1 X108.353 Y106.489 E4.88942
G1 X108.898 Y106.489 E4.91563
G1 X102.195 Y113.193 E5.37159
G1 X102.142 Y113.623 E5.39243
;WIDTH:0.404381
G1 X102.101 Y113.634 E5.39423
G1 X102.082 Y113.563 E5.39735
G1 X102.153 Y113.582 E5.40047
;WIDTH:0.45
G1 X102.422 Y113.511 E5.41385
G1 X109.444 Y106.489 E5.89148
G1 X109.989 Y106.489 E5.91769
G1 X102.968 Y113.511 E6.39528
G1 X103.513 Y113.511 E6.42149
G1 X110.534 Y106.489 E6.89908
G1 X111.08 Y106.489 E6.92534
G1 X104.058 Y113.511 E7.40297
G1 X104.604 Y113.511 E7.42923
G1 X111.625 Y106.489 E7.90682
G1 X112.171 Y106.489 E7.93308
G1 X105.149 Y113.511 E8.41071
G1 X105.694 Y113.511 E8.43692
G1 X112.716 Y106.489 E8.91455
G1 X113.261 Y106.489 E8.94076
G1 X106.24 Y113.511 E9.41835
G1 X106.785 Y113.511 E9.44456
G1 X113.807 Y106.489 E9.92219
G1 X114.352 Y106.489 E9.9484
G1 X107.33 Y113.511 E10.42603
G1 X107.876 Y113.511 E10.45229
G1 X114.897 Y106.489 E10.92988
G1 X115.443 Y106.489 E10.95614
G1 X108.421 Y113.511 E11.43377
G1 X108.966 Y113.511 E11.45998
G1 X115.988 Y106.489 E11.93761
G1 X116.533 Y106.489 E11.96382
G1 X109.512 Y113.511 E12.44141
G1 X110.057 Y113.511 E12.46762
G1 X117.079 Y106.489 E12.94525
G1 X117.079 Y106.489 F7800
G1 X117.938 Y106.387
;WIDTH:0.404381
G1 F1200
G1 X117.867 Y106.368 E12.94837
G1 X117.886 Y106.439 E12.95149
G1 X117.927 Y106.428 E12.95329
;WIDTH:0.45
G1 X117.624 Y106.489 E12.96816
G1 X110.602 Y113.511 E13.44579
G1 X111.148 Y113.511 E13.47205
G1 X117.805 Y106.853 E13.92488
G1 X117.805 Y107.398 E13.95109
G1 X111.693 Y113.511 E14.36685
G1 X112.238 Y113.511 E14.39306
G1 X117.805 Y107.944 E14.77172
G1 X117.805 Y108.489 E14.79793
G1 X112.784 Y113.511 E15.13949
G1 X113.329 Y113.511 E15.1657
G1 X117.805 Y109.035 E15.47015
G1 X117.805 Y109.58 E15.49636
G1 X113.875 Y113.511 E15.76371
G1 X114.42 Y113.511 E15.78992
G1 X117.805 Y110.125 E16.0202
G1 X117.805 Y110.671 E16.04646
G1 X114.965 Y113.511 E16.23963
G1 X115.511 Y113.511 E16.26589
G1 X117.805 Y111.216 E16.42196
G1 X118.011 Y111.602 E16.443
;WIDTH:0.404381
G1 X117.94 Y111.583 E16.44612
G1 X117.959 Y111.654 E16.44924
G1 X118 Y111.643 E16.45104
;WIDTH:0.45
G1 X117.805 Y111.761 E16.462
G1 X116.056 Y113.511 E16.581
G1 X116.056 Y113.511 F7800
G1 X117.669 Y112.443
G1 F1200
G1 X116.601 Y113.511 E16.65364
G1 X117.805 Y113.511 E16.71155
G1 X117.805 Y112.307 E16.76946
;LAYER_CHANGE
;Z:0.9
;HEIGHT:0.3
G1 Z.9 F7800
G1 X118.095 Y113.8
;TYPE:Perimeter
G1 F3600
G1 X101.905 Y113.8 E17.54814
G1 X101.905 Y106.2 E17.91367
G1 X118.095 Y106.2 E18.69235
G1 X118.095 Y110 E18.87512
G1 X118.095 Y113.74 E19.055
G1 X118.095 Y113.74 F7800
G1 X118.48 Y114.186
G1 F3600
G1 X101.52 Y114.186 E19.87072
G1 X101.52 Y105.814 E20.27338
G1 X118.48 Y105.814 E21.0891
G1 X118.48 Y110 E21.29043
G1 X118.48 Y114.126 E21.48888
G1 X118.48 Y114.126 F7800
G1 X118.866 Y114.571
;TYPE:External perimeter
G1 F1800
G1 X101.134 Y114.571 E22.34173
G1 X101.134 Y105.429 E22.78143
G1 X118.866 Y105.429 E23.63428
G1 X118.866 Y110 E23.85413
G1 X118.866 Y114.511 E24.07109
G1 X118.47 Y114.571 F7800
G1 E22.07109 F2400
G92 E0
G1 X117.981 Y107.399 F7800
G1 E2 F2400
;TYPE:Top solid infill
;WIDTH:0.402986
G1 F900
G1 X117.047 Y106.464 E2.05581
G1 X116.568 Y106.464 E2.07604
G1 X117.83 Y107.727 E2.15144
G1 X117.83 Y108.205 E2.17163
G1 X116.089 Y106.464 E2.27561
G1 X115.61 Y106.464 E2.29584
G1 X117.83 Y108.684 E2.42843
G1 X117.83 Y109.163 E2.44866
G1 X115.131 Y106.464 E2.60986
G1 X114.652 Y106.464 E2.63009
G1 X117.83 Y109.642 E2.8199
G1 X117.83 Y110.121 E2.84013
G1 X114.174 Y106.464 E3.05852
G1 X113.695 Y106.464 E3.07875
G1 X117.83 Y110.6 E3.32575
G1 X117.83 Y111.079 E3.34598
G1 X113.216 Y106.464 E3.62159
G1 X112.737 Y106.464 E3.64182
G1 X117.83 Y111.558 E3.94603
G1 X117.83 Y112.036 E3.96622
G1 X112.258 Y106.464 E4.29901
G1 X111.779 Y106.464 E4.31924
G1 X117.83 Y112.515 E4.68064
G1 X117.83 Y112.994 E4.70087
G1 X111.301 Y106.464 E5.09085
G1 X110.822 Y106.464 E5.11108
G1 X117.753 Y113.396 E5.52507
G1 X117.589 Y113.535 E5.53415
G1 X117.414 Y113.535 E5.54154
G1 X110.582 Y106.703 E5.94959
G1 X110.338 Y106.939 E5.96393
G1 X116.935 Y113.535 E6.35791
G1 X116.456 Y113.535 E6.37814
G1 X110.135 Y107.214 E6.75567
G1 X109.974 Y107.532 E6.77072
G1 X115.977 Y113.535 E7.12926
G1 X115.498 Y113.535 E7.14949
G1 X109.786 Y107.823 E7.49065
G1 X109.618 Y108.134 E7.50558
G1 X115.02 Y113.535 E7.82819
G1 X114.541 Y113.535 E7.84842
G1 X109.501 Y108.496 E8.14941
G1 X109.458 Y108.788 E8.16187
G1 X109.413 Y108.887 E8.16646
G1 X114.062 Y113.535 E8.4441
G1 X113.583 Y113.536 E8.46433
G1 X109.3 Y109.252 E8.72017
G1 X109.256 Y109.688 E8.73868
G1 X113.104 Y113.536 E8.96851
G1 X112.625 Y113.536 E8.98874
G1 X109.271 Y110.181 E9.18909
G1 X109.256 Y110.406 E9.19861
G1 X109.269 Y110.658 E9.20927
G1 X112.147 Y113.536 E9.38116
G1 X111.668 Y113.536 E9.40139
G1 X109.46 Y111.328 E9.53327
G1 X109.511 Y111.644 E9.54679
G1 X109.618 Y111.965 E9.56108
G1 X111.189 Y113.536 E9.65491
G1 X110.747 Y113.536 E9.67358
G1 X110.489 Y113.314 E9.68795
G1 X109.859 Y112.685 E9.72555
G1 E7.72555 F2400
G92 E0
G1 X109.859 Y112.685 F7800
G1 X102.226 Y113.406
G1 E2 F2400
;TYPE:Solid infill
;WIDTH:0.543559
G1 F1200
G1 X102.183 Y113.449 E2.00363
G1 X102.199 Y113.506 E2.00717
G1 X102.257 Y113.522 E2.01077
G1 X102.299 Y113.48 E2.01432
G1 X102.284 Y113.422 E2.0179
;WIDTH:0.45
G1 X102.195 Y112.806 E2.04784
G1 X103.037 Y113.634 E2.10464
;WIDTH:0.404381
G1 X103.018 Y113.705 E2.10776
G1 X103.089 Y113.686 E2.11088
G1 X103.078 Y113.645 E2.11268
;WIDTH:0.45
G1 X103.445 Y113.511 E2.13147
G1 X102.195 Y112.26 E2.21653
G1 X102.195 Y111.715 E2.24274
G1 X103.99 Y113.511 E2.36487
G1 X104.536 Y113.511 E2.39113
G1 X102.195 Y111.17 E2.55036
G1 X102.195 Y110.624 E2.57662
G1 X105.081 Y113.511 E2.77296
G1 X105.626 Y113.511 E2.79917
G1 X102.195 Y110.079 E3.03258
G1 X102.195 Y109.534 E3.05879
G1 X106.172 Y113.511 E3.3293
G1 X106.717 Y113.511 E3.35551
G1 X102.195 Y108.988 E3.66312
G1 X102.195 Y108.443 E3.68933
G1 X107.262 Y113.511 E4.03402
G1 X107.808 Y113.511 E4.06028
G1 X102.195 Y107.898 E4.44207
G1 X102.195 Y107.352 E4.46833
G1 X108.353 Y113.511 E4.88722
G1 X108.898 Y113.511 E4.91343
G1 X102.195 Y106.807 E5.36939
G1 X102.101 Y106.366 E5.39108
;WIDTH:0.404381
G1 X102.082 Y106.437 E5.3942
G1 X102.153 Y106.418 E5.39732
G1 X102.142 Y106.377 E5.39912
;WIDTH:0.45
G1 X102.422 Y106.489 E5.41362
G1 X109.444 Y113.511 E5.89125
G1 X109.444 Y113.511 F7800
G1 X109.679 Y112.716
;WIDTH:0.404381
G1 F1200
G1 X109.896 Y113.005 E5.90658
G1 X110.309 Y113.464 E5.93276
G1 X110.358 Y113.583 E5.93822
;WIDTH:0.45
G1 X109.989 Y113.511 E5.9563
G1 X102.968 Y106.489 E6.43389
G1 X103.513 Y106.489 E6.4601
G1 X109.459 Y112.435 E6.86454
G1 X109.459 Y112.435 F7800
G1 X109.171 Y111.161
;WIDTH:0.404381
G1 F1200
G1 X109.309 Y111.678 E6.88723
G1 X109.28 Y111.827 E6.89367
;WIDTH:0.45
G1 X109.124 Y111.554 E6.90879
G1 X104.058 Y106.489 E7.25334
G1 X104.604 Y106.489 E7.2796
G1 X108.926 Y110.812 E7.57361
G1 X108.902 Y110.242 E7.60105
G1 X105.149 Y106.489 E7.85632
G1 X105.694 Y106.489 E7.88253
G1 X108.896 Y109.691 E8.10033
G1 X108.943 Y109.193 E8.12439
G1 X106.24 Y106.489 E8.30828
G1 X106.785 Y106.489 E8.33449
G1 X109.069 Y108.773 E8.48984
G1 E6.48984 F2400
G92 E0
G1 X109.069 Y108.773 F7800
G1 X107.467 Y106.626
G1 E2 F2400
G1 F1200
G1 X109.172 Y108.331 E2.11597
G1 X109.362 Y107.835 E2.14152
G1 X109.651 Y107.374 E2.16769
G1 X109.911 Y106.9 E2.19369
G1 X110.276 Y106.489 E2.22013
G1 X107.33 Y106.489 E2.36182
G1 X107.33 Y106.489 F7800
G1 X108.385 Y106.926
;WIDTH:0.552739
G1 F1200
G1 X109.396 Y106.926 E2.4234
G1 X109.019 Y107.56 E2.46833
G1 X108.522 Y107.063 E2.51114
M106 S209.1
;LAYER_CHANGE
;Z:1.2
;HEIGHT:0.3
G1 Z1.2 F7800
G1 E.51114 F2400
G92 E0
G1 X108.522 Y107.063 Z1.2 F7800
G1 X117.552 Y108.487
G1 E2 F2400
;TYPE:Perimeter
;WIDTH:0.45
G1 F900
G1 X117.661 Y108.671 E2.01029
G1 X117.702 Y108.953 E2.024
G1 X117.682 Y109.109 E2.03156
;WIDTH:0.489897
G1 X117.76 Y109.221 E2.0388
;WIDTH:0.529795
G1 X117.839 Y109.332 E2.04671
;WIDTH:0.569693
G1 X117.917 Y109.443 E2.05526
G1 X117.937 Y109.855 E2.08126
;WIDTH:0.577481
G1 X117.895 Y110.08 E2.09591
G1 X117.939 Y110.433 E2.11868
;WIDTH:0.576925
G1 X117.911 Y110.699 E2.13578
G1 X117.834 Y110.803 E2.14405
;WIDTH:0.540178
G1 X117.757 Y110.907 E2.15173
;WIDTH:0.503431
G1 X117.68 Y111.011 E2.15882
;WIDTH:0.466685
G1 X117.697 Y111.307 E2.1737
;WIDTH:0.45
G1 X117.613 Y111.545 E2.18584
G1 X117.369 Y111.834 E2.20403
G1 X117.317 Y111.87 E2.20707
G1 X117.3 Y112.034 E2.215
G1 X117.067 Y112.411 E2.23632
G1 X116.871 Y112.575 E2.24861
G1 X116.738 Y112.62 E2.25536
G1 X116.662 Y112.805 E2.26498
G1 X116.357 Y113.081 E2.28476
G1 X116.082 Y113.196 E2.2991
G1 X115.964 Y113.21 E2.30482
G1 X115.875 Y113.343 E2.31252
;WIDTH:0.487679
G1 X115.729 Y113.44 E2.32177
;WIDTH:0.525359
G1 X115.582 Y113.537 E2.3319
;WIDTH:0.563039
G1 X115.435 Y113.634 E2.34285
G1 X115.099 Y113.65 E2.36377
;WIDTH:0.560196
G1 X114.934 Y113.703 E2.37449
;WIDTH:0.520597
G1 X114.769 Y113.755 E2.38433
;WIDTH:0.480998
G1 X114.471 Y113.781 E2.39987
;WIDTH:0.492149
G1 X114.168 Y113.71 E2.41647
G1 X113.967 Y113.775 E2.42774
;WIDTH:0.480306
G1 X113.571 Y113.756 E2.44831
;WIDTH:0.520397
G1 X113.423 Y113.719 E2.45699
;WIDTH:0.560488
G1 X113.276 Y113.681 E2.46638
G1 X113.198 Y113.612 E2.47282
G1 X113.01 Y113.64 E2.48458
;WIDTH:0.556389
G1 X112.898 Y113.592 E2.49206
;WIDTH:0.520926
G1 X112.785 Y113.543 E2.49907
;WIDTH:0.485463
G1 X112.672 Y113.495 E2.50552
;WIDTH:0.45
G1 X112.383 Y113.251 E2.52371
G1 X112.347 Y113.199 E2.52675
G1 X112.198 Y113.185 E2.53395
G1 X111.807 Y112.949 E2.55592
G1 X111.642 Y112.753 E2.56824
G1 X111.597 Y112.62 E2.57499
G1 X111.413 Y112.544 E2.58456
G1 X111.137 Y112.239 E2.60434
G1 X111.04 Y112.051 E2.61451
G1 X111.008 Y111.846 E2.62449
G1 X110.814 Y111.695 E2.63631
G1 X110.674 Y111.428 E2.65081
G1 X110.633 Y111.151 E2.66428
G1 X110.653 Y110.99 E2.67208
G1 X110.507 Y110.769 E2.68482
G1 X110.447 Y110.285 E2.70828
G1 X110.533 Y110.05 E2.72032
G1 X110.444 Y109.778 E2.73408
G1 X110.511 Y109.317 E2.75649
G1 X110.663 Y109.085 E2.76983
G1 X110.636 Y108.81 E2.78312
G1 X110.722 Y108.554 E2.79611
G1 X110.889 Y108.329 E2.80959
G1 X111.018 Y108.229 E2.81744
G1 X111.059 Y107.995 E2.82887
G1 X111.268 Y107.689 E2.84669
G1 X111.46 Y107.527 E2.85877
G1 X111.597 Y107.479 E2.86575
G1 X111.675 Y107.291 E2.87554
G1 X111.978 Y107.019 E2.89512
G1 X112.246 Y106.904 E2.90915
G1 X112.372 Y106.889 E2.91525
G1 X112.465 Y106.75 E2.92329
G1 X112.789 Y106.556 E2.94145
;WIDTH:0.496471
G1 X112.939 Y106.513 E2.94986
;WIDTH:0.542943
