; generated by PrusaSlicer 2.8.1+linux-x64-GTK3 on 2024-10-17 at 13:33:43 UTC

; 

; external perimeters extrusion width = 0.45mm
; perimeters extrusion width = 0.45mm
; infill extrusion width = 0.45mm
; solid infill extrusion width = 0.45mm
; top infill extrusion width = 0.40mm
; support material extrusion width = 0.40mm
; first layer extrusion width = 0.60mm

M190 S60 ; set bed temperature and wait for it to be reached
M104 S200 ; set temperature
;TYPE:Custom
G28 ; home all axes
G1 Z5 F5000 ; lift nozzle
M109 S200 ; set temperature and wait for it to be reached
G21 ; set units to millimeters
G90 ; use absolute coordinates
M82 ; use absolute distances for extrusion
G92 E0
; Filament gcode
M107
;LAYER_CHANGE
;Z:0.3
;HEIGHT:0.3
G1 E-2 F2400
G1 Z.3 F7800
G1 X74.914 Y22.421
G1 E0 F2400
;TYPE:Skirt/Brim
;WIDTH:0.6
G1 F1800
G1 X76.11 Y20.538 E.14902
G1 X77.89 Y19.194 E.29802
G1 X79.665 Y18.608 E.42289
G1 X94.798 Y16.027 E1.44845
G1 X96.621 Y15.839 E1.57088
G1 X98.751 Y15.892 E1.71322
G1 X100.851 Y16.213 E1.85514
G1 X102.905 Y16.833 E1.99847
G1 X104.855 Y17.791 E2.14361
G1 X106.62 Y19.057 E2.28872
G1 X125.133 Y36.184 E3.97357
G1 X125.893 Y37.035 E4.04979
G1 X126.911 Y38.463 E4.16695
G1 X140.279 Y60.93 E5.91346
G1 X140.762 Y61.856 E5.98323
G1 X141.142 Y62.841 E6.05376
G1 X141.462 Y64.166 E6.14482
G1 X141.585 Y65.523 E6.23585
G1 X141.587 Y86.769 E7.6552
G1 X141.19 Y88.964 E7.80422
G1 X139.393 Y91.532 E8.01361
G1 X92.409 Y131.722 E12.14407
G1 X90.149 Y133.33 E12.32937
G1 X88.922 Y133.951 E12.42124
G1 X88.235 Y134.209 E12.47027
G1 X86.803 Y134.596 E12.56937
G1 X85.559 Y134.814 E12.65374
G1 X84.245 Y134.892 E12.74168
G1 X83.001 Y134.835 E12.82487
G1 X81.871 Y134.678 E12.90109
G1 X80.658 Y134.396 E12.98429
G1 X79.493 Y134.001 E13.06647
G1 X78.467 Y133.537 E13.1417
G1 X76.702 Y132.443 E13.28042
G1 X75.151 Y131.092 E13.41783
G1 X73.934 Y129.633 E13.54476
G1 X72.892 Y127.894 E13.68019
G1 X72.123 Y125.964 E13.81898
G1 X71.832 Y124.791 E13.89972
G1 X71.66 Y123.638 E13.9776
G1 X71.611 Y121.753 E14.10357
G1 X74.454 Y24.603 E20.59649
G1 X74.902 Y22.48 E20.74144
G1 E18.74144 F2400
G92 E0
G1 X74.902 Y22.48 F7800
G92 E0
G1 X86.863 Y116.652
G1 E2 F2400
;TYPE:Support material
G1 F1800
G1 X87.976 Y117.363 E2.08823
G1 X88.446 Y117.749 E2.12886
G1 X89.105 Y118.468 E2.19402
G1 X89.655 Y119.303 E2.26082
G1 X90.083 Y120.257 E2.33067
G1 X90.357 Y121.279 E2.40136
G1 X90.445 Y122.395 E2.47615
G1 X90.328 Y123.507 E2.55085
G1 X90.015 Y124.648 E2.62989
G1 X89.471 Y125.686 E2.70818
G1 X88.94 Y126.42 E2.7687
G1 X87.53 Y127.555 E2.88962
G1 X86.721 Y128.083 E2.95416
G1 X86.034 Y128.341 E3.00319
G1 X84.534 Y128.631 E3.10525
G1 X83.291 Y128.574 E3.18838
G1 X82.078 Y128.292 E3.27158
G1 X81.052 Y127.827 E3.34683
G1 X79.94 Y127 E3.43941
G1 X79.491 Y126.569 E3.48099
G1 X78.882 Y125.786 E3.54726
G1 X78.392 Y124.889 E3.61554
G1 X78.031 Y123.871 E3.6877
G1 X77.86 Y122.718 E3.76557
G1 X77.946 Y121.289 E3.86121
G1 X78.293 Y120.027 E3.94865
G1 X78.684 Y119.229 E4.00802
G1 X79.322 Y118.256 E4.08575
G1 X80.194 Y117.574 E4.15971
G1 X80.194 Y119.772 E4.30655
G1 X80.719 Y120.076 E4.34708
G1 X86.788 Y116.625 E4.81349
G1 X86.788 Y116.625 F7800
G1 X89.57 Y124.978
G1 F1800
G1 X89.57 Y120.288 E5.12681
G1 X88.975 Y119.146 E5.21284
G1 X88.975 Y125.55 E5.64066
G1 X88.379 Y126.274 E5.70331
G1 X88.379 Y118.39 E6.23
G1 X87.784 Y117.83 E6.28459
G1 X87.784 Y126.743 E6.88003
G1 X87.189 Y127.201 E6.93019
G1 X87.189 Y117.404 E7.58468
G1 X86.754 Y117.148 E7.6184
G1 X86.594 Y117.24 E7.63073
G1 X86.594 Y127.59 E8.32217
G1 X85.999 Y127.839 E8.36526
G1 X85.999 Y117.584 E9.05035
G1 X85.404 Y117.927 E9.09623
G1 X85.404 Y127.991 E9.76856
G1 X84.809 Y128.097 E9.80894
G1 X84.809 Y118.271 E10.46537
G1 X84.214 Y118.615 E10.51128
G1 X84.214 Y128.134 E11.1472
G1 X83.618 Y128.106 E11.18706
G1 X83.618 Y118.958 E11.7982
G1 X83.023 Y119.302 E11.84411
G1 X83.023 Y128.016 E12.42625
G1 X82.428 Y127.878 E12.46705
G1 X82.428 Y119.645 E13.01706
G1 X81.833 Y119.989 E13.06297
G1 X81.833 Y127.651 E13.57483
G1 X81.29 Y127.405 E13.61465
G1 X81.238 Y127.37 E13.61884
G1 X81.238 Y120.332 E14.08902
G1 X80.719 Y120.632 E14.12907
G1 X80.643 Y120.588 E14.13494
G1 X80.643 Y126.961 E14.56069
G1 X80.048 Y126.435 E14.61374
G1 X80.048 Y120.245 E15.02727
G1 X79.712 Y120.051 E15.05319
G1 X79.712 Y118.564 E15.15253
G1 X79.452 Y118.937 E15.1829
G1 X79.452 Y125.734 E15.63698
G1 X78.857 Y124.735 E15.71466
G1 X78.857 Y119.423 E16.06953
G1 E14.06953 F2400
G92 E0
G1 X78.857 Y119.423 F7800
G1 X116.942 Y38.737
G1 E2 F2400
G1 F1800
G1 X118.043 Y38.966 E2.07513
G1 X119.085 Y39.39 E2.15028
G1 X120.033 Y39.996 E2.22545
G1 X120.855 Y40.764 E2.3006
G1 X121.524 Y41.668 E2.37573
G1 X122.019 Y42.679 E2.45093
G1 X122.322 Y43.762 E2.52606
G1 X122.423 Y44.88 E2.60105
G1 X122.32 Y46.004 E2.67645
G1 X122.016 Y47.085 E2.75147
G1 X121.52 Y48.095 E2.82664
G1 X120.85 Y48.999 E2.90181
G1 X120.027 Y49.766 E2.97697
G1 X119.078 Y50.371 E3.05216
G1 X118.133 Y50.754 E3.12028
G1 X110.078 Y44.774 E3.79048
G1 X110.228 Y43.493 E3.87664
G1 X110.596 Y42.378 E3.95508
G1 X111.107 Y41.44 E4.02644
G1 X111.816 Y40.565 E4.10168
G1 X112.672 Y39.834 E4.17688
G1 X113.646 Y39.27 E4.25207
G1 X114.706 Y38.892 E4.32725
G1 X115.817 Y38.712 E4.40244
G1 X116.861 Y38.735 E4.4722
G1 X116.861 Y38.735 F7800
G1 X121.707 Y47.168
G1 F1800
G1 X121.707 Y43.354 E4.727
G1 X121.566 Y42.851 E4.7619
G1 X121.112 Y41.922 E4.83098
G1 X121.112 Y47.834 E5.22593
G1 X120.517 Y48.639 E5.2928
G1 X120.517 Y41.117 E5.79531
G1 X119.921 Y40.552 E5.85017
G1 X119.921 Y49.205 E6.42824
G1 X119.326 Y49.641 E6.47752
G1 X119.326 Y40.117 E7.11377
G1 X118.863 Y39.82 E7.15052
G1 X118.731 Y39.766 E7.16005
G1 X118.731 Y49.991 E7.84314
G1 X118.202 Y50.206 E7.88129
G1 X118.136 Y50.157 E7.88678
G1 X118.136 Y39.524 E8.59712
G1 X117.541 Y39.354 E8.63846
G1 X117.541 Y49.715 E9.33063
G1 X116.946 Y49.273 E9.38015
G1 X116.946 Y39.23 E10.05108
G1 X116.351 Y39.206 E10.09086
G1 X116.351 Y48.831 E10.73386
G1 X115.756 Y48.389 E10.78338
G1 X115.756 Y39.21 E11.39659
G1 X115.16 Y39.307 E11.43693
G1 X115.16 Y47.947 E12.01413
G1 X114.565 Y47.505 E12.06365
G1 X114.565 Y39.454 E12.6015
G1 X113.97 Y39.666 E12.6437
G1 X113.97 Y47.064 E13.13793
G1 X113.375 Y46.622 E13.18745
G1 X113.375 Y39.984 E13.6309
G1 X112.78 Y40.375 E13.67846
G1 X112.78 Y46.18 E14.06627
G1 X112.185 Y45.738 E14.11579
G1 X112.185 Y40.884 E14.44006
G1 X111.59 Y41.61 E14.50277
G1 X111.59 Y45.296 E14.74901
G1 X110.994 Y44.854 E14.79858
G1 X110.994 Y42.151 E14.97916
G1 E12.97916 F2400
G92 E0
G1 X110.994 Y42.151 F7800
G1 X98.38 Y22.149
G1 E2 F2400
G1 F1800
G1 X99.792 Y22.391 E2.0957
G1 X100.869 Y22.761 E2.17178
G1 X101.871 Y23.303 E2.24788
G1 X102.77 Y24.003 E2.324
G1 X103.541 Y24.841 E2.40007
G1 X104.164 Y25.795 E2.47619
G1 X104.622 Y26.838 E2.55229
G1 X104.902 Y27.942 E2.62838
G1 X104.996 Y29.077 E2.70446
G1 X104.825 Y31.239 E2.84934
G1 X104.455 Y32.405 E2.93106
G1 X103.857 Y33.485 E3.01353
G1 X103.031 Y34.431 E3.09743
G1 X102.005 Y35.185 E3.18249
G1 X100.83 Y35.7 E3.2682
G1 X99.553 Y35.962 E3.35529
G1 X98.201 Y35.956 E3.44561
G1 X91.419 Y30.921 E4.0099
G1 X91.073 Y29.831 E4.0863
G1 X90.89 Y28.608 E4.16891
G1 X90.926 Y27.366 E4.25192
G1 X91.206 Y26.146 E4.33554
G1 X91.74 Y25.001 E4.41994
G1 X92.51 Y23.996 E4.50452
G1 X93.49 Y23.172 E4.59006
G1 X94.613 Y22.576 E4.67499
G1 X95.852 Y22.206 E4.76137
G1 X97.204 Y22.079 E4.85209
G1 X98.3 Y22.144 E4.92544
G1 X98.3 Y22.144 F7800
G1 X104.448 Y31.63
G1 F1800
G1 X104.425 Y28.022 E5.16648
G1 X104.164 Y26.995 E5.23727
G1 X103.853 Y26.285 E5.28905
G1 X103.853 Y32.497 E5.70405
G1 X103.258 Y33.439 E5.77848
G1 X103.258 Y25.289 E6.32294
G1 X102.663 Y24.599 E6.38381
G1 X102.663 Y34.104 E7.0188
G1 X102.067 Y34.541 E7.06817
G1 X102.067 Y24.067 E7.76789
G1 X101.472 Y23.636 E7.81697
G1 X101.472 Y34.892 E8.56893
G1 X100.877 Y35.153 E8.61234
G1 X100.877 Y23.314 E9.40325
G1 X100.282 Y23.069 E9.44624
G1 X100.282 Y35.32 E10.26467
G1 X99.687 Y35.442 E10.30525
G1 X99.687 Y22.865 E11.14546
G1 X99.092 Y22.763 E11.18579
G1 X99.092 Y35.478 E12.03522
G1 X98.497 Y35.475 E12.07497
G1 X98.497 Y22.667 E12.93061
G1 X97.902 Y22.604 E12.97058
G1 X97.902 Y35.134 E13.80765
G1 X97.306 Y34.692 E13.85722
G1 X97.306 Y22.568 E14.66717
G1 X97.212 Y22.563 E14.67346
G1 X96.711 Y22.609 E14.70707
G1 X96.711 Y34.25 E15.48475
G1 X96.116 Y33.808 E15.53427
G1 X96.116 Y22.665 E16.27868
G1 X95.521 Y22.808 E16.31956
G1 X95.521 Y33.366 E17.02489
G1 X94.926 Y32.925 E17.07437
G1 X94.926 Y22.986 E17.73835
G1 X94.331 Y23.272 E17.78245
G1 X94.331 Y32.483 E18.39779
G1 X93.736 Y32.041 E18.44731
G1 X93.736 Y23.596 E19.01148
G1 X93.14 Y24.095 E19.06341
G1 X93.14 Y31.599 E19.56472
G1 X92.545 Y31.157 E19.61424
G1 X92.545 Y24.743 E20.04273
G1 X92.154 Y25.253 E20.08566
G1 X91.95 Y25.69 E20.11788
G1 X91.95 Y31.015 E20.47362
G1 E18.47362 F2400
G92 E0
G1 X91.95 Y31.015 F7800
G1 X84.404 Y28.381
G1 E2 F2400
G1 F1800
G1 X85.348 Y28.646 E2.0655
G1 X86.115 Y29.258 E2.13105
G1 X86.584 Y30.119 E2.19655
G1 X86.681 Y31.095 E2.26207
G1 X86.449 Y31.922 E2.31945
G1 X85.856 Y32.704 E2.38501
G1 X85.007 Y33.195 E2.45053
G1 X84.034 Y33.317 E2.51604
G1 X83.09 Y33.051 E2.58156
G1 X82.323 Y32.439 E2.64711
G1 X81.893 Y31.695 E2.70452
G1 X81.747 Y30.725 E2.77005
G1 X81.989 Y29.775 E2.83554
G1 X82.581 Y28.993 E2.90106
G1 X83.431 Y28.503 E2.9666
G1 X84.324 Y28.377 E3.02685
G1 X84.324 Y28.377 F7800
G1 X85.999 Y32.198
G1 F1800
G1 X85.999 Y29.954 E3.17676
G1 X85.745 Y29.568 E3.20763
G1 X85.404 Y29.247 E3.23892
G1 X85.404 Y32.45 E3.4529
G1 X84.809 Y32.751 E3.49745
G1 X84.809 Y28.946 E3.75164
G1 X84.214 Y28.857 E3.79183
G1 X84.214 Y32.841 E4.05798
G1 X83.618 Y32.748 E4.09828
G1 X83.618 Y28.949 E4.35207
G1 X83.023 Y29.255 E4.39677
G1 X83.023 Y32.442 E4.60968
G1 X82.692 Y32.129 E4.64011
G1 X82.428 Y31.722 E4.67252
G1 X82.428 Y29.514 E4.82003
G1 E2.82003 F2400
G92 E0
G1 X82.428 Y29.514 F7800
G1 X82.086 Y27.054
G1 E2 F2400
;TYPE:Perimeter
;WIDTH:0.534201
G1 F1800
G1 X82.028 Y27.054 E2.0034
G1 X81.998 Y27.105 E2.00687
G1 X82.028 Y27.155 E2.01029
G1 X82.086 Y27.155 E2.01369
G1 X82.116 Y27.105 E2.01711
G1 X82.116 Y27.105 F7800
G1 X83.174 Y27.169
;WIDTH:0.6
G1 F1800
G1 X82.57 Y27.389 E2.06005
G1 X82.047 Y27.691 E2.1004
G1 X81.554 Y28.104 E2.14336
G1 X81.554 Y26.234 E2.26829
G1 X83.122 Y27.139 E2.38924
G1 E.38924 F2400
G92 E0
G1 X83.122 Y27.139 F7800
G1 X80.989 Y30.338
G1 E2 F2400
;TYPE:External perimeter
;WIDTH:0.570598
G1 F1800
G1 X81.004 Y30.036 E2.01909
;WIDTH:0.6
G1 X81.019 Y29.734 E2.03929
G1 X81.019 Y25.306 E2.3351
G1 X84.854 Y27.52 E2.63093
G1 X85.131 Y27.662 E2.65172
;WIDTH:0.568674
G1 X85.408 Y27.804 E2.6713
;WIDTH:0.540178
G1 X85.391 Y27.797 E2.67239
;WIDTH:0.570089
G1 X85.078 Y27.696 E2.69313
;WIDTH:0.6
G1 X84.765 Y27.595 E2.7151
G1 X84.11 Y27.552 E2.75895
G1 X83.459 Y27.639 E2.80283
G1 X82.838 Y27.853 E2.84671
G1 X82.272 Y28.186 E2.89058
G1 X81.783 Y28.625 E2.93448
G1 X81.39 Y29.151 E2.97834
G1 X81.11 Y29.745 E3.02221
G1 X81.05 Y30.042 E3.04245
;WIDTH:0.570598
G1 X81.001 Y30.279 E3.05773
G1 X81.01 Y29.879 F7800
G1 E1.05773 F2400
G92 E0
G1 X84.14 Y53.331 F7800
G1 E2 F2400
;TYPE:Perimeter
;WIDTH:0.6
G1 F1800
G1 X83.849 Y53.313 E2.01948
G1 X83.552 Y53.245 E2.03983
G1 X82.984 Y52.988 E2.08148
G1 X82.578 Y52.66 E2.11635
G1 X82.245 Y52.242 E2.15205
G1 X82.014 Y51.772 E2.18704
G1 X81.977 Y51.466 E2.20763
;WIDTH:0.550145
G1 X81.94 Y51.161 E2.22624
;WIDTH:0.539651
G1 X81.959 Y50.781 E2.24879
;WIDTH:0.579011
G1 X81.977 Y50.4 E2.27327
;WIDTH:0.6
G1 X82.133 Y49.964 E2.30421
G1 X82.484 Y49.449 E2.34585
G1 X82.828 Y49.136 E2.37692
G1 X83.226 Y48.897 E2.40793
G1 X83.665 Y48.743 E2.43901
G1 X84.152 Y48.678 E2.47183
G1 X84.588 Y48.705 E2.50101
G1 X85.038 Y48.824 E2.53211
G1 X85.454 Y49.03 E2.56312
G1 X85.822 Y49.314 E2.59417
G1 X86.126 Y49.665 E2.62519
G1 X86.373 Y50.126 E2.66013
G1 X86.425 Y50.388 E2.67797
;WIDTH:0.559403
G1 X86.478 Y50.65 E2.69447
;WIDTH:0.518806
G1 X86.497 Y51.162 E2.72351
;WIDTH:0.550154
G1 X86.46 Y51.467 E2.74212
;WIDTH:0.6
G1 X86.423 Y51.773 E2.76271
G1 X86.228 Y52.194 E2.79371
G1 X85.953 Y52.569 E2.82478
G1 X85.61 Y52.882 E2.8558
G1 X85.211 Y53.121 E2.88687
G1 X84.773 Y53.275 E2.91789
G1 X84.285 Y53.34 E2.95078
G1 X84.2 Y53.334 E2.95647
G1 X84.2 Y53.334 F7800
G1 X84.167 Y52.799
;TYPE:External perimeter
G1 F1800
G1 X83.968 Y52.791 E2.96978
G1 X83.671 Y52.723 E2.99013
G1 X83.296 Y52.554 E3.01761
G1 X82.996 Y52.326 E3.04278
G1 X82.663 Y51.908 E3.07848
G1 X82.492 Y51.513 E3.10723
G1 X82.426 Y51.161 E3.13116
G1 X82.432 Y50.803 E3.15508
G1 X82.508 Y50.453 E3.17901
G1 X82.652 Y50.125 E3.20294
G1 X82.858 Y49.832 E3.22687
G1 X83.118 Y49.586 E3.25078
G1 X83.422 Y49.396 E3.27473
G1 X83.758 Y49.27 E3.2987
G1 X84.139 Y49.214 E3.32443
G1 X84.469 Y49.227 E3.34649
G1 X84.817 Y49.312 E3.37042
G1 X85.141 Y49.465 E3.39436
G1 X85.429 Y49.678 E3.41829
G1 X85.669 Y49.944 E3.44222
G1 X85.857 Y50.271 E3.46742
G1 X86.001 Y50.784 E3.50302
G1 X86.006 Y51.215 E3.53182
G1 X85.93 Y51.565 E3.55575
G1 X85.786 Y51.893 E3.57968
G1 X85.579 Y52.186 E3.60365
G1 X85.319 Y52.432 E3.62756
G1 X85.016 Y52.622 E3.65145
G1 X84.68 Y52.748 E3.67542
G1 X84.299 Y52.804 E3.70115
G1 X84.227 Y52.801 E3.70596
G1 X83.83 Y52.753 F7800
G1 E1.70596 F2400
G92 E0
G1 X132.648 Y73.339 F7800
G1 E2 F2400
;TYPE:Perimeter
G1 F1800
G1 X132.373 Y73.436 E2.01948
G1 X131.884 Y73.5 E2.05243
G1 X131.449 Y73.473 E2.08155
G1 X131 Y73.354 E2.11258
G1 X130.584 Y73.149 E2.14356
G1 X130.177 Y72.82 E2.17852
G1 X129.845 Y72.403 E2.21413
G1 X129.614 Y71.933 E2.24912
G1 X129.577 Y71.627 E2.26971
;WIDTH:0.550148
G1 X129.54 Y71.322 E2.28832
;WIDTH:0.539652
G1 X129.559 Y70.941 E2.31093
;WIDTH:0.579007
G1 X129.577 Y70.56 E2.33541
;WIDTH:0.6
G1 X129.733 Y70.124 E2.36635
G1 X130.084 Y69.609 E2.40799
G1 X130.428 Y69.296 E2.43906
G1 X130.826 Y69.058 E2.47004
G1 X131.264 Y68.903 E2.50108
G1 X131.751 Y68.839 E2.53389
G1 X132.188 Y68.866 E2.56314
G1 X132.486 Y68.933 E2.58354
G1 X133.054 Y69.19 E2.62519
G1 X133.422 Y69.474 E2.65624
G1 X133.755 Y69.877 E2.69116
G1 X133.998 Y70.351 E2.72674
G1 X134.06 Y70.561 E2.74137
;WIDTH:0.578686
G1 X134.078 Y70.941 E2.76577
;WIDTH:0.538835
G1 X134.096 Y71.322 E2.78834
;WIDTH:0.532656
G1 X134.072 Y71.526 E2.80034
;WIDTH:0.566328
G1 X134.048 Y71.729 E2.81314
;WIDTH:0.6
G1 X134.023 Y71.933 E2.82687
G1 X133.828 Y72.355 E2.85793
G1 X133.554 Y72.729 E2.8889
G1 X133.21 Y73.042 E2.91997
G1 X132.811 Y73.281 E2.95104
G1 X132.705 Y73.319 E2.95856
G1 X132.705 Y73.319 F7800
G1 X132.466 Y72.838
;TYPE:External perimeter
G1 F1800
G1 X132.28 Y72.908 E2.97184
G1 X131.898 Y72.964 E2.99763
G1 X131.569 Y72.951 E3.01963
G1 X131.221 Y72.866 E3.04356
G1 X130.896 Y72.714 E3.06753
G1 X130.596 Y72.485 E3.09274
G1 X130.264 Y72.069 E3.1283
G1 X130.092 Y71.674 E3.15708
G1 X130.026 Y71.322 E3.18101
G1 X130.032 Y70.964 E3.20493
G1 X130.108 Y70.614 E3.22886
G1 X130.252 Y70.286 E3.25279
G1 X130.458 Y69.993 E3.27672
G1 X130.718 Y69.746 E3.30068
G1 X131.022 Y69.556 E3.32463
G1 X131.357 Y69.43 E3.34854
G1 X131.737 Y69.374 E3.3742
G1 X132.069 Y69.388 E3.3964
G1 X132.366 Y69.456 E3.41675
G1 X132.741 Y69.625 E3.44423
G1 X133.029 Y69.838 E3.46816
G1 X133.278 Y70.122 E3.49339
G1 X133.521 Y70.595 E3.52891
G1 X133.611 Y71.017 E3.55774
G1 X133.606 Y71.375 E3.58166
G1 X133.53 Y71.725 E3.60559
G1 X133.386 Y72.053 E3.62952
G1 X133.18 Y72.346 E3.65345
G1 X132.919 Y72.592 E3.67741
G1 X132.616 Y72.782 E3.7013
G1 X132.522 Y72.817 E3.708
G1 X132.136 Y72.922 F7800
G1 E1.708 F2400
G92 E0
G1 X85.36 Y73.186 F7800
G1 E2 F2400
;TYPE:Perimeter
G1 F1800
G1 X84.983 Y73.368 E2.02797
G1 X84.473 Y73.489 E2.06299
G1 X83.849 Y73.473 E2.10469
G1 X83.4 Y73.354 E2.13572
G1 X82.984 Y73.149 E2.1667
G1 X82.616 Y72.865 E2.19775
G1 X82.312 Y72.513 E2.22882
G1 X82.083 Y72.109 E2.25984
G1 X82.03 Y71.885 E2.27522
;WIDTH:0.562871
G1 X81.976 Y71.662 E2.28949
;WIDTH:0.525743
G1 X81.937 Y71.208 E2.31571
;WIDTH:0.53982
G1 X81.973 Y70.829 E2.33829
;WIDTH:0.581595
G1 X82.009 Y70.449 E2.36291
;WIDTH:0.6
G1 X82.187 Y70.022 E2.39382
G1 X82.564 Y69.525 E2.43549
G1 X82.923 Y69.229 E2.46657
G1 X83.39 Y68.994 E2.5015
G1 X83.907 Y68.863 E2.53713
G1 X84.429 Y68.846 E2.57202
G1 X84.886 Y68.933 E2.6031
G1 X85.454 Y69.19 E2.64475
