; generated by PrusaSlicer 2.8.1+linux-x64-GTK3 on 2024-10-06 at 12:53:25 UTC

; 

; external perimeters extrusion width = 0.45mm
; perimeters extrusion width = 0.45mm
; infill extrusion width = 0.45mm
; solid infill extrusion width = 0.45mm
; top infill extrusion width = 0.40mm
; first layer extrusion width = 0.60mm

M190 S60 ; set bed temperature and wait for it to be reached
M104 S200 ; set temperature
;TYPE:Custom
G28 ; home all axes
G1 Z5 F5000 ; lift nozzle
M109 S200 ; set temperature and wait for it to be reached
G21 ; set units to millimeters
G90 ; use absolute coordinates
M82 ; use absolute distances for extrusion
G92 E0
; Filament gcode
M107
;LAYER_CHANGE
;Z:0.3
;HEIGHT:0.3
G1 E-2 F2400
G1 Z.3 F7800
G1 X98.117 Y98.736
G1 E0 F2400
;TYPE:Skirt/Brim
;WIDTH:0.6
G1 F1800
G1 X99.856 Y97.34 E.14898
G1 X102.848 Y96.58 E.35521
G1 X117.152 Y96.58 E1.31079
G1 X119.347 Y96.977 E1.45981
G1 X121.264 Y98.117 E1.60881
G1 X122.66 Y99.856 E1.75779
G1 X123.42 Y102.848 E1.96402
G1 X123.42 Y117.152 E2.9196
G1 X123.023 Y119.347 E3.06862
G1 X121.883 Y121.264 E3.21762
G1 X120.144 Y122.66 E3.3666
G1 X117.152 Y123.42 E3.57283
G1 X102.848 Y123.42 E4.52841
G1 X100.653 Y123.023 E4.67743
G1 X98.736 Y121.883 E4.82643
G1 X97.34 Y120.144 E4.97541
G1 X96.58 Y117.152 E5.18164
G1 X96.58 Y102.848 E6.13722
G1 X96.977 Y100.653 E6.28624
G1 X98.086 Y98.788 E6.4312
G1 E4.4312 F2400
G92 E0
G1 X98.086 Y98.788 F7800
G92 E0
G1 X115.781 Y115.781
G1 E2 F2400
;TYPE:Perimeter
;WIDTH:0.6
G1 F1800
G1 X104.219 Y115.781 E2.7724
G1 X104.219 Y104.219 E3.5448
G1 X115.781 Y104.219 E4.3172
G1 X115.781 Y110 E4.7034
G1 X115.781 Y115.721 E5.08559
G1 X115.781 Y115.721 F7800
G1 X116.317 Y116.317
G1 F1800
G1 X103.683 Y116.317 E5.92961
G1 X103.683 Y103.683 E6.77363
G1 X116.317 Y103.683 E7.61765
G1 X116.317 Y110 E8.03966
G1 X116.317 Y116.257 E8.45766
G1 X116.317 Y116.257 F7800
G1 X116.852 Y116.852
;TYPE:External perimeter
G1 F1800
G1 X103.148 Y116.852 E9.37316
G1 X103.148 Y103.148 E10.28866
G1 X116.852 Y103.148 E11.20416
G1 X116.852 Y110 E11.66191
G1 X116.852 Y116.792 E12.11565
G1 X116.457 Y116.851 F7800
G1 E10.11565 F2400
G92 E0
G1 X115.62 Y105.495 F7800
G1 E2 F2400
;TYPE:Solid infill
;WIDTH:0.615143
G1 F1800
G1 X114.746 Y104.621 E2.08491
G1 X113.967 Y104.621 E2.13842
G1 X115.379 Y106.033 E2.27559
G1 X115.379 Y106.811 E2.32903
G1 X113.189 Y104.621 E2.54178
G1 X112.41 Y104.621 E2.59529
G1 X115.379 Y107.59 E2.88372
G1 X115.379 Y108.369 E2.93723
G1 X111.631 Y104.621 E3.30134
G1 X110.852 Y104.621 E3.35485
G1 X115.379 Y109.148 E3.79464
G1 X115.379 Y109.927 E3.84815
G1 X110.073 Y104.621 E4.36362
G1 X109.294 Y104.621 E4.41713
G1 X115.379 Y110.706 E5.00828
G1 X115.379 Y111.485 E5.06179
G1 X108.515 Y104.621 E5.72861
G1 X107.736 Y104.621 E5.78212
G1 X115.379 Y112.264 E6.52462
G1 X115.379 Y113.043 E6.57813
G1 X106.957 Y104.621 E7.39631
G1 X106.179 Y104.621 E7.44975
G1 X115.379 Y113.821 E8.34351
G1 X115.379 Y114.6 E8.39702
G1 X105.4 Y104.621 E9.36646
G1 X104.621 Y104.621 E9.41997
G1 X115.379 Y115.379 E10.46509
G1 X114.6 Y115.379 E10.5186
G1 X104.621 Y105.4 E11.48804
G1 X104.621 Y106.179 E11.54155
G1 X113.821 Y115.379 E12.43531
G1 X113.042 Y115.379 E12.48882
G1 X104.621 Y106.958 E13.3069
G1 X104.621 Y107.736 E13.36034
G1 X112.264 Y115.379 E14.10284
G1 X111.485 Y115.379 E14.15635
G1 X104.621 Y108.515 E14.82317
G1 X104.621 Y109.294 E14.87668
G1 X110.706 Y115.379 E15.46783
G1 X109.927 Y115.379 E15.52134
G1 X104.621 Y110.073 E16.03681
G1 X104.621 Y110.852 E16.09032
G1 X109.148 Y115.379 E16.53011
G1 X108.369 Y115.379 E16.58362
G1 X104.621 Y111.631 E16.94773
G1 X104.621 Y112.41 E17.00124
G1 X107.59 Y115.379 E17.28967
G1 X106.811 Y115.379 E17.34318
G1 X104.621 Y113.189 E17.55593
G1 X104.621 Y113.968 E17.60944
G1 X106.032 Y115.379 E17.74652
G1 X105.253 Y115.379 E17.80003
G1 X104.38 Y114.505 E17.88489
;LAYER_CHANGE
;Z:0.6
;HEIGHT:0.3
G1 Z.6 F7800
G1 E15.88489 F2400
G92 E0
G1 X104.38 Y114.505 Z.6 F7800
G1 X116.156 Y116.156
G1 E2 F2400
;TYPE:Perimeter
;WIDTH:0.45
G1 F3600
G1 X103.844 Y116.156 E2.59216
G1 X103.844 Y103.844 E3.18432
G1 X116.156 Y103.844 E3.77648
G1 X116.156 Y110 E4.07256
G1 X116.156 Y116.096 E4.36576
G1 X116.156 Y116.096 F7800
G1 X116.542 Y116.542
G1 F3600
G1 X103.458 Y116.542 E4.99505
G1 X103.458 Y103.458 E5.62434
G1 X116.542 Y103.458 E6.25363
G1 X116.542 Y110 E6.56828
G1 X116.542 Y116.482 E6.88004
G1 X116.542 Y116.482 F7800
G1 X116.927 Y116.927
;TYPE:External perimeter
G1 F1800
G1 X103.073 Y116.927 E7.54637
G1 X103.073 Y103.073 E8.2127
G1 X116.927 Y103.073 E8.87903
G1 X116.927 Y110 E9.21219
G1 X116.927 Y116.867 E9.54247
G1 X116.532 Y116.926 F7800
G1 E7.54247 F2400
G92 E0
G1 X104.238 Y104.165 F7800
G1 E2 F2400
;TYPE:Solid infill
;WIDTH:0.543559
G1 F1200
G1 X104.196 Y104.122 E2.00359
G1 X104.138 Y104.138 E2.00719
G1 X104.122 Y104.196 E2.01079
G1 X104.165 Y104.238 E2.01438
G1 X104.222 Y104.222 E2.01792
;WIDTH:0.45
G1 X104.133 Y104.838 E2.04786
G1 X104.838 Y104.133 E2.09581
G1 X105.384 Y104.133 E2.12207
G1 X104.133 Y105.384 E2.20716
G1 X104.133 Y105.929 E2.23337
G1 X105.929 Y104.133 E2.35553
G1 X106.474 Y104.133 E2.38174
G1 X104.133 Y106.474 E2.54097
G1 X104.133 Y107.02 E2.56723
G1 X107.02 Y104.133 E2.7636
G1 X107.565 Y104.133 E2.78981
G1 X104.133 Y107.565 E3.02325
G1 X104.133 Y108.11 E3.04946
G1 X108.11 Y104.133 E3.31997
G1 X108.656 Y104.133 E3.34623
G1 X104.133 Y108.656 E3.65388
G1 X104.133 Y109.201 E3.68009
G1 X109.201 Y104.133 E4.02481
G1 X109.747 Y104.133 E4.05107
G1 X104.133 Y109.747 E4.43293
G1 X104.133 Y110.292 E4.45914
G1 X110.292 Y104.133 E4.87807
G1 X110.837 Y104.133 E4.90428
G1 X104.133 Y110.837 E5.36028
G1 X104.133 Y111.383 E5.38654
G1 X111.383 Y104.133 E5.87968
G1 X111.928 Y104.133 E5.90589
G1 X104.133 Y111.928 E6.4361
G1 X104.133 Y112.473 E6.46231
G1 X112.473 Y104.133 E7.02959
G1 X113.019 Y104.133 E7.05585
G1 X104.133 Y113.019 E7.66026
G1 X104.133 Y113.564 E7.68647
G1 X113.564 Y104.133 E8.32795
G1 X114.109 Y104.133 E8.35416
G1 X104.133 Y114.109 E9.03272
G1 X104.133 Y114.655 E9.05898
G1 X114.655 Y104.133 E9.77467
G1 X115.2 Y104.133 E9.80088
G1 X104.133 Y115.2 E10.55364
G1 X104.133 Y115.2 F7800
G1 X104.054 Y116.006
;WIDTH:0.404381
G1 F1200
G1 X104.013 Y116.017 E10.55544
G1 X103.994 Y115.946 E10.55856
G1 X104.065 Y115.965 E10.56168
;WIDTH:0.45
G1 X104.133 Y115.745 E10.57276
G1 X115.745 Y104.133 E11.36259
G1 X115.867 Y104.557 E11.38381
G1 X104.557 Y115.867 E12.1531
G1 X105.103 Y115.867 E12.17936
G1 X115.867 Y105.103 E12.91151
G1 X115.867 Y105.648 E12.93772
G1 X105.648 Y115.867 E13.6328
G1 X106.193 Y115.867 E13.65901
G1 X115.867 Y106.193 E14.31702
G1 X115.867 Y106.739 E14.34328
G1 X106.739 Y115.867 E14.96416
G1 X107.284 Y115.867 E14.99037
G1 X115.867 Y107.284 E15.57418
G1 X115.867 Y107.829 E15.60039
G1 X107.829 Y115.867 E16.14712
G1 X108.375 Y115.867 E16.17338
G1 X115.867 Y108.375 E16.68298
G1 X115.867 Y108.92 E16.70919
G1 X108.92 Y115.867 E17.18172
G1 X109.465 Y115.867 E17.20793
G1 X115.867 Y109.465 E17.64339
G1 X115.867 Y110.011 E17.66965
G1 X110.011 Y115.867 E18.06797
G1 X110.556 Y115.867 E18.09418
G1 X115.867 Y110.556 E18.45543
G1 X115.867 Y111.101 E18.48164
G1 X111.101 Y115.867 E18.80582
G1 X111.647 Y115.867 E18.83208
G1 X115.867 Y111.647 E19.11912
G1 X115.867 Y112.192 E19.14533
G1 X112.192 Y115.867 E19.3953
G1 X112.738 Y115.867 E19.42156
G1 X115.867 Y112.738 E19.63439
G1 X115.867 Y113.283 E19.6606
G1 X113.283 Y115.867 E19.83636
G1 X113.71 Y116.061 E19.85892
;WIDTH:0.404381
G1 X113.669 Y116.072 E19.86072
G1 X113.65 Y116.001 E19.86384
G1 X113.721 Y116.02 E19.86696
;WIDTH:0.45
G1 X113.828 Y115.867 E19.87594
G1 X115.867 Y113.828 E20.01463
G1 X115.867 Y115.867 E20.1127
G1 X114.374 Y115.867 E20.18451
G1 X115.73 Y114.51 E20.27678
G1 X115.73 Y114.51 F7800
G1 X115.488 Y115.414
;WIDTH:0.553393
G1 F1200
G1 X115.445 Y115.37 E20.28053
G1 X115.386 Y115.386 E20.28426
G1 X115.37 Y115.445 E20.28799
G1 X115.414 Y115.488 E20.29174
G1 X115.473 Y115.473 E20.29545
;LAYER_CHANGE
;Z:0.9
;HEIGHT:0.3
G1 Z.9 F7800
G1 X116.156 Y116.156
;TYPE:Perimeter
;WIDTH:0.45
G1 F3600
G1 X103.844 Y116.156 E20.88761
G1 X103.844 Y103.844 E21.47977
G1 X116.156 Y103.844 E22.07193
G1 X116.156 Y110 E22.36801
G1 X116.156 Y116.096 E22.66121
G1 X116.156 Y116.096 F7800
G1 X116.542 Y116.542
G1 F3600
G1 X103.458 Y116.542 E23.2905
G1 X103.458 Y103.458 E23.91979
G1 X116.542 Y103.458 E24.54908
G1 X116.542 Y110 E24.86373
G1 X116.542 Y116.482 E25.17549
G1 X116.542 Y116.482 F7800
G1 X116.927 Y116.927
;TYPE:External perimeter
G1 F1800
G1 X103.073 Y116.927 E25.84182
G1 X103.073 Y103.073 E26.50815
G1 X116.927 Y103.073 E27.17448
G1 X116.927 Y110 E27.50764
G1 X116.927 Y116.867 E27.83792
G1 X116.532 Y116.926 F7800
G1 E25.83792 F2400
G92 E0
G1 X104.165 Y115.762 F7800
G1 E2 F2400
;TYPE:Solid infill
;WIDTH:0.543559
G1 F1200
G1 X104.122 Y115.804 E2.00359
G1 X104.138 Y115.862 E2.00719
G1 X104.196 Y115.878 E2.01079
G1 X104.238 Y115.835 E2.01438
G1 X104.222 Y115.778 E2.01792
;WIDTH:0.45
G1 X104.838 Y115.867 E2.04786
G1 X104.133 Y115.162 E2.09581
G1 X104.133 Y114.616 E2.12207
G1 X105.384 Y115.867 E2.20716
G1 X105.929 Y115.867 E2.23337
G1 X104.133 Y114.071 E2.35553
G1 X104.133 Y113.526 E2.38174
G1 X106.474 Y115.867 E2.54097
G1 X107.02 Y115.867 E2.56723
G1 X104.133 Y112.98 E2.7636
G1 X104.133 Y112.435 E2.78981
G1 X107.565 Y115.867 E3.02325
G1 X108.11 Y115.867 E3.04946
G1 X104.133 Y111.89 E3.31997
G1 X104.133 Y111.344 E3.34623
G1 X108.656 Y115.867 E3.65388
G1 X109.201 Y115.867 E3.68009
G1 X104.133 Y110.799 E4.02481
G1 X104.133 Y110.253 E4.05107
G1 X109.747 Y115.867 E4.43293
G1 X110.292 Y115.867 E4.45914
G1 X104.133 Y109.708 E4.87807
G1 X104.133 Y109.163 E4.90428
G1 X110.837 Y115.867 E5.36028
G1 X111.383 Y115.867 E5.38654
G1 X104.133 Y108.617 E5.87968
G1 X104.133 Y108.072 E5.90589
G1 X111.928 Y115.867 E6.4361
G1 X112.473 Y115.867 E6.46231
G1 X104.133 Y107.527 E7.02959
G1 X104.133 Y106.981 E7.05585
G1 X113.019 Y115.867 E7.66026
G1 X113.564 Y115.867 E7.68647
G1 X104.133 Y106.436 E8.32795
G1 X104.133 Y105.891 E8.35416
G1 X114.109 Y115.867 E9.03272
G1 X114.655 Y115.867 E9.05898
G1 X104.133 Y105.345 E9.77467
G1 X104.133 Y104.8 E9.80088
G1 X115.2 Y115.867 E10.55364
G1 X115.2 Y115.867 F7800
G1 X116.006 Y115.946
;WIDTH:0.404381
G1 F1200
G1 X116.017 Y115.987 E10.55544
G1 X115.946 Y116.006 E10.55856
G1 X115.965 Y115.935 E10.56168
;WIDTH:0.45
G1 X115.745 Y115.867 E10.57276
G1 X104.133 Y104.255 E11.36259
G1 X104.557 Y104.133 E11.38381
G1 X115.867 Y115.443 E12.1531
G1 X115.867 Y114.897 E12.17936
G1 X105.103 Y104.133 E12.91151
G1 X105.648 Y104.133 E12.93772
G1 X115.867 Y114.352 E13.6328
G1 X115.867 Y113.807 E13.65901
G1 X106.193 Y104.133 E14.31702
G1 X106.739 Y104.133 E14.34328
G1 X115.867 Y113.261 E14.96416
G1 X115.867 Y112.716 E14.99037
G1 X107.284 Y104.133 E15.57418
G1 X107.829 Y104.133 E15.60039
G1 X115.867 Y112.171 E16.14712
G1 X115.867 Y111.625 E16.17338
G1 X108.375 Y104.133 E16.68298
G1 X108.92 Y104.133 E16.70919
G1 X115.867 Y111.08 E17.18172
G1 X115.867 Y110.535 E17.20793
G1 X109.465 Y104.133 E17.64339
G1 X110.011 Y104.133 E17.66965
G1 X115.867 Y109.989 E18.06797
G1 X115.867 Y109.444 E18.09418
G1 X110.556 Y104.133 E18.45543
G1 X111.101 Y104.133 E18.48164
G1 X115.867 Y108.899 E18.80582
G1 X115.867 Y108.353 E18.83208
G1 X111.647 Y104.133 E19.11912
G1 X112.192 Y104.133 E19.14533
G1 X115.867 Y107.808 E19.3953
G1 X115.867 Y107.262 E19.42156
G1 X112.738 Y104.133 E19.63439
G1 X113.283 Y104.133 E19.6606
G1 X115.867 Y106.717 E19.83636
G1 X116.02 Y106.279 E19.85867
;WIDTH:0.404381
G1 X116.001 Y106.35 E19.86179
G1 X116.072 Y106.331 E19.86491
G1 X116.061 Y106.29 E19.86671
;WIDTH:0.45
G1 X115.867 Y106.172 E19.87763
G1 X113.828 Y104.133 E20.01632
G1 X113.71 Y103.939 E20.02724
;WIDTH:0.404381
G1 X113.721 Y103.98 E20.02904
G1 X113.65 Y103.999 E20.03216
G1 X113.669 Y103.928 E20.03528
;WIDTH:0.45
G1 X114.374 Y104.133 E20.07059
G1 X115.867 Y104.133 E20.1424
G1 X115.867 Y105.626 E20.21421
G1 X114.51 Y104.27 E20.30648
G1 X114.51 Y104.27 F7800
G1 X115.414 Y104.512
;WIDTH:0.553393
G1 F1200
G1 X115.37 Y104.555 E20.31023
G1 X115.386 Y104.614 E20.31396
G1 X115.445 Y104.63 E20.31769
G1 X115.488 Y104.586 E20.32144
G1 X115.473 Y104.527 E20.32515
M106 S229.5
;LAYER_CHANGE
;Z:1.2
;HEIGHT:0.3
G1 Z1.2 F7800
G1 E18.32515 F2400
G92 E0
G1 X115.473 Y104.527 Z1.2 F7800
G1 X116.156 Y116.156
G1 E2 F2400
;TYPE:Perimeter
;WIDTH:0.45
G1 F3600
G1 X103.844 Y116.156 E2.59216
G1 X103.844 Y103.844 E3.18432
G1 X116.156 Y103.844 E3.77648
G1 X116.156 Y110 E4.07256
G1 X116.156 Y116.096 E4.36576
G1 X116.156 Y116.096 F7800
G1 X116.542 Y116.542
G1 F3600
G1 X103.458 Y116.542 E4.99505
G1 X103.458 Y103.458 E5.62434
G1 X116.542 Y103.458 E6.25363
G1 X116.542 Y110 E6.56828
G1 X116.542 Y116.482 E6.88004
G1 X116.542 Y116.482 F7800
G1 X116.927 Y116.927
;TYPE:External perimeter
G1 F1800
G1 X103.073 Y116.927 E7.54637
G1 X103.073 Y103.073 E8.2127
G1 X116.927 Y103.073 E8.87903
G1 X116.927 Y110 E9.21219
G1 X116.927 Y116.867 E9.54247
G1 X116.532 Y116.926 F7800
G1 E7.54247 F2400
G92 E0
G1 X115.867 Y111.422 F7800
G1 E2 F2400
;TYPE:Internal infill
;WIDTH:0.45
G1 F4800
G1 X114.409 Y111.813 E2.0726
G1 X114.332 Y112.199 E2.09153
G1 X114.102 Y112.592 E2.11343
G1 X113.758 Y112.887 E2.13523
G1 X113.211 Y113.211 E2.16581
G1 X115.867 Y115.867 E2.34647
G1 X114.416 Y115.867 E2.41626
G1 X115.867 Y110.454 E2.6858
G1 X115.867 Y107.686 E2.81893
G1 X112.314 Y104.133 E3.0606
G1 X111.572 Y104.133 E3.09629
G1 X111.175 Y105.614 E3.17004
G1 X112.47 Y106.344 E3.24154
G1 X115.867 Y105.434 E3.41068
G1 X115.867 Y104.133 E3.47325
G1 X114.854 Y104.133 E3.52197
G1 E1.52197 F2400
G92 E0
G1 X114.854 Y104.133 F7800
G1 X107.327 Y106.882
G1 E2 F2400
;TYPE:Solid infill
;WIDTH:0.404381
G1 F1200
G1 X107.256 Y106.863 E2.00312
G1 X107.275 Y106.934 E2.00624
G1 X107.316 Y106.923 E2.00804
;WIDTH:0.45
G1 X107.014 Y107.105 E2.025
G1 X106.001 Y108.117 E2.09387
G1 X105.975 Y108.689 E2.12141
G1 X108.347 Y106.317 E2.28275
G1 X108.347 Y106.317 F7800
G1 X109.96 Y105.383
;WIDTH:0.404381
G1 F1200
G1 X109.76 Y105.414 E2.29133
;WIDTH:0.45
G1 X109.605 Y105.604 E2.30312
G1 X105.98 Y109.229 E2.54969
G1 X105.986 Y109.769 E2.57566
G1 X110.198 Y105.557 E2.86216
G1 X110.579 Y105.721 E2.88211
G1 X105.991 Y110.309 E3.19418
G1 X105.997 Y110.849 E3.22015
G1 X110.928 Y105.917 E3.55558
G1 X111.276 Y106.114 E3.57481
G1 X106.002 Y111.388 E3.93354
G1 X106.017 Y111.919 E3.95909
G1 X111.625 Y106.311 E4.34054
G1 X111.974 Y106.507 E4.35979
G1 X106.175 Y112.307 E4.75426
G1 X106.441 Y112.585 E4.77277
G1 X112.323 Y106.704 E5.17282
G1 X112.671 Y106.901 E5.19205
G1 X106.781 Y112.791 E5.59268
G1 X107.13 Y112.987 E5.61193
G1 X113.02 Y107.097 E6.01256
G1 X113.369 Y107.294 E6.03184
G1 X107.479 Y113.184 E6.43247
G1 X107.827 Y113.381 E6.4517
G1 X113.689 Y107.518 E6.85046
G1 X113.917 Y107.836 E6.86928
G1 X108.176 Y113.577 E7.25978
G1 X108.525 Y113.774 E7.27906
G1 X113.995 Y108.304 E7.65112
G1 X114 Y108.844 E7.67709
G1 X108.873 Y113.971 E8.02582
G1 X109.222 Y114.167 E8.04507
G1 X114.006 Y109.383 E8.37047
G1 X114.011 Y109.923 E8.39644
G1 X109.573 Y114.361 E8.69831
G1 X109.999 Y114.481 E8.7196
G1 X114.017 Y110.463 E8.9929
G1 X114.022 Y111.003 E9.01887
G1 X110.893 Y114.132 E9.2317
G1 X110.661 Y114.332 E9.24643
;WIDTH:0.404381
G1 X110.59 Y114.313 E9.24955
G1 X110.609 Y114.384 E9.25267
G1 X110.65 Y114.373 E9.25447
G1 X110.65 Y114.373 F7800
G1 X111.984 Y113.586
G1 F1200
G1 X111.943 Y113.597 E9.25627
G1 X111.924 Y113.526 E9.25939
G1 X111.995 Y113.545 E9.26251
;WIDTH:0.45
G1 X112.226 Y113.344 E9.27724
G1 X114.028 Y111.543 E9.39978
G1 X114.153 Y111.735 E9.4108
;WIDTH:0.404381
G1 X114.035 Y112.186 E9.43057
G1 X113.839 Y112.432 E9.44391
G1 X113.474 Y112.744 E9.46427
G1 X113.3 Y112.758 E9.47167
;WIDTH:0.45
G1 X113.573 Y112.543 E9.48838
G1 X113.846 Y112.27 E9.50695
G1 E7.50695 F2400
G92 E0
G1 X113.846 Y112.27 F7800
G1 X105.146 Y115.867
G1 E2 F2400
;TYPE:Internal infill
;WIDTH:0.45
G1 F4800
G1 X104.133 Y115.867 E2.04872
G1 X104.133 Y114.566 E2.11129
G1 X107.53 Y113.656 E2.28043
G1 X108.825 Y114.386 E2.35193
G1 X108.428 Y115.867 E2.42568
G1 X107.686 Y115.867 E2.46137
G1 X104.133 Y112.314 E2.70304
G1 X104.133 Y109.546 E2.83617
G1 X105.584 Y104.133 E3.10571
G1 X104.133 Y104.133 E3.1755
