; generated by PrusaSlicer 2.8.1+linux-x64-GTK3 on 2024-10-06 at 12:31:34 UTC

; 

; external perimeters extrusion width = 0.45mm
; perimeters extrusion width = 0.45mm
; infill extrusion width = 0.45mm
; solid infill extrusion width = 0.45mm
; top infill extrusion width = 0.40mm
; first layer extrusion width = 0.60mm

M190 S60 ; set bed temperature and wait for it to be reached
M104 S200 ; set temperature
;TYPE:Custom
G28 ; home all axes
G1 Z5 F5000 ; lift nozzle
M109 S200 ; set temperature and wait for it to be reached
G21 ; set units to millimeters
G90 ; use absolute coordinates
M82 ; use absolute distances for extrusion
G92 E0
; Filament gcode
M107
;LAYER_CHANGE
;Z:0.3
;HEIGHT:0.3
G1 E-2 F2400
G1 Z.3 F7800
G1 X98.303 Y98.922
G1 E0 F2400
;TYPE:Skirt/Brim
;WIDTH:0.6
G1 F1800
G1 X100.042 Y97.526 E.14898
G1 X103.034 Y96.766 E.35521
G1 X116.966 Y96.766 E1.28594
G1 X119.161 Y97.163 E1.43496
G1 X121.078 Y98.303 E1.58396
G1 X122.474 Y100.042 E1.73294
G1 X123.234 Y103.034 E1.93917
G1 X123.234 Y116.966 E2.8699
G1 X122.837 Y119.161 E3.01892
G1 X121.697 Y121.078 E3.16792
G1 X119.958 Y122.474 E3.3169
G1 X116.966 Y123.234 E3.52313
G1 X103.034 Y123.234 E4.45386
G1 X100.839 Y122.837 E4.60288
G1 X98.922 Y121.697 E4.75188
G1 X97.526 Y119.958 E4.90086
G1 X96.766 Y116.966 E5.10709
G1 X96.766 Y103.034 E6.03782
G1 X97.163 Y100.839 E6.18684
G1 X98.272 Y98.974 E6.3318
G1 E4.3318 F2400
G92 E0
G1 X98.272 Y98.974 F7800
G92 E0
G1 X115.595 Y115.595
G1 E2 F2400
;TYPE:Perimeter
;WIDTH:0.6
G1 F1800
G1 X104.405 Y115.595 E2.74755
G1 X104.405 Y104.405 E3.4951
G1 X115.595 Y104.405 E4.24265
G1 X115.595 Y110 E4.61643
G1 X115.595 Y115.535 E4.9862
G1 X116.131 Y116.131 F7800
G1 F1800
G1 X103.869 Y116.131 E5.80537
G1 X103.869 Y103.869 E6.62454
G1 X116.131 Y103.869 E7.44371
G1 X116.131 Y110 E7.85329
G1 X116.131 Y116.071 E8.25887
G1 X116.131 Y116.071 F7800
G1 X116.666 Y116.666
;TYPE:External perimeter
G1 F1800
G1 X103.334 Y116.666 E9.14952
G1 X103.334 Y103.334 E10.04017
G1 X116.666 Y103.334 E10.93082
G1 X116.666 Y110 E11.37614
G1 X116.666 Y116.606 E11.81746
G1 X116.271 Y116.666 F7800
G1 E9.81746 F2400
G92 E0
G1 X115.434 Y105.682 F7800
G1 E2 F2400
;TYPE:Solid infill
;WIDTH:0.616041
G1 F1800
G1 X114.559 Y104.807 E2.08514
G1 X113.778 Y104.807 E2.13888
G1 X115.193 Y106.222 E2.27657
G1 X115.193 Y107.002 E2.33024
G1 X112.998 Y104.807 E2.54383
G1 X112.218 Y104.807 E2.5975
G1 X115.193 Y107.782 E2.88699
G1 X115.193 Y108.562 E2.94066
G1 X111.438 Y104.807 E3.30605
G1 X110.658 Y104.807 E3.35972
G1 X115.193 Y109.342 E3.801
G1 X115.193 Y110.122 E3.85467
G1 X109.878 Y104.807 E4.37185
G1 X109.097 Y104.807 E4.42559
G1 X115.193 Y110.903 E5.01877
G1 X115.193 Y111.683 E5.07244
G1 X108.317 Y104.807 E5.74152
G1 X107.537 Y104.807 E5.79519
G1 X115.193 Y112.463 E6.54017
G1 X115.193 Y113.243 E6.59384
G1 X106.757 Y104.807 E7.41472
G1 X105.977 Y104.807 E7.46839
G1 X115.193 Y114.023 E8.36517
G1 X115.193 Y114.803 E8.41884
G1 X105.197 Y104.807 E9.39152
G1 X104.807 Y104.807 E9.41835
G1 X104.807 Y105.197 E9.44518
G1 X114.803 Y115.193 E10.41786
G1 X114.023 Y115.193 E10.47153
G1 X104.807 Y105.977 E11.36831
G1 X104.807 Y106.757 E11.42198
G1 X113.243 Y115.193 E12.24286
G1 X112.463 Y115.193 E12.29653
G1 X104.807 Y107.537 E13.04151
G1 X104.807 Y108.317 E13.09518
G1 X111.683 Y115.193 E13.76426
G1 X110.902 Y115.193 E13.818
G1 X104.807 Y109.098 E14.41108
G1 X104.807 Y109.878 E14.46475
G1 X110.122 Y115.193 E14.98193
G1 X109.342 Y115.193 E15.0356
G1 X104.807 Y110.658 E15.47688
G1 X104.807 Y111.438 E15.53055
G1 X108.562 Y115.193 E15.89594
G1 X107.782 Y115.193 E15.94961
G1 X104.807 Y112.218 E16.2391
G1 X104.807 Y112.998 E16.29277
G1 X107.002 Y115.193 E16.50636
G1 X106.221 Y115.193 E16.5601
G1 X104.807 Y113.779 E16.69769
G1 X104.807 Y114.559 E16.75136
G1 X105.682 Y115.434 E16.8365
;LAYER_CHANGE
;Z:0.6
;HEIGHT:0.3
G1 Z.6 F7800
G1 E14.8365 F2400
G92 E0
G1 X105.682 Y115.434 Z.6 F7800
G1 X115.97 Y115.97
G1 E2 F2400
;TYPE:Perimeter
;WIDTH:0.45
G1 F3600
G1 X104.03 Y115.97 E2.57427
G1 X104.03 Y104.03 E3.14854
G1 X115.97 Y104.03 E3.72281
G1 X115.97 Y110 E4.00995
G1 X115.97 Y115.91 E4.2942
G1 X116.356 Y116.356 F7800
G1 F3600
G1 X103.644 Y116.356 E4.9056
G1 X103.644 Y103.644 E5.517
G1 X116.356 Y103.644 E6.1284
G1 X116.356 Y110 E6.4341
G1 X116.356 Y116.296 E6.73692
G1 X116.356 Y116.296 F7800
G1 X116.741 Y116.741
;TYPE:External perimeter
G1 F1800
G1 X103.259 Y116.741 E7.38536
G1 X103.259 Y103.259 E8.0338
G1 X116.741 Y103.259 E8.68224
G1 X116.741 Y110 E9.00646
G1 X116.741 Y116.681 E9.32779
G1 X116.346 Y116.741 F7800
G1 E7.32779 F2400
G92 E0
G1 X104.424 Y104.35 F7800
G1 E2 F2400
;TYPE:Solid infill
;WIDTH:0.543559
G1 F1200
G1 X104.381 Y104.308 E2.00359
G1 X104.324 Y104.324 E2.00713
G1 X104.308 Y104.381 E2.01067
G1 X104.35 Y104.424 E2.01426
G1 X104.408 Y104.408 E2.01786
;WIDTH:0.45
G1 X105.024 Y104.319 E2.0478
G1 X104.196 Y105.161 E2.1046
;WIDTH:0.404381
G1 X104.125 Y105.142 E2.10772
G1 X104.144 Y105.213 E2.11084
G1 X104.185 Y105.202 E2.11264
;WIDTH:0.45
G1 X104.319 Y105.57 E2.13148
G1 X105.57 Y104.319 E2.21657
G1 X106.115 Y104.319 E2.24278
G1 X104.319 Y106.115 E2.36494
G1 X104.319 Y106.66 E2.39115
G1 X106.66 Y104.319 E2.55038
G1 X107.206 Y104.319 E2.57664
G1 X104.319 Y107.206 E2.77301
G1 X104.319 Y107.751 E2.79922
G1 X107.751 Y104.319 E3.03266
G1 X108.296 Y104.319 E3.05887
G1 X104.319 Y108.296 E3.32938
G1 X104.319 Y108.842 E3.35564
G1 X108.842 Y104.319 E3.66329
G1 X109.387 Y104.319 E3.6895
G1 X104.319 Y109.387 E4.03422
G1 X104.319 Y109.932 E4.06043
G1 X109.932 Y104.319 E4.44222
G1 X110.478 Y104.319 E4.46848
G1 X104.319 Y110.478 E4.88741
G1 X104.319 Y111.023 E4.91362
G1 X111.023 Y104.319 E5.36962
G1 X111.568 Y104.319 E5.39583
G1 X104.319 Y111.568 E5.8889
G1 X104.319 Y112.114 E5.91516
G1 X112.114 Y104.319 E6.44537
G1 X112.659 Y104.319 E6.47158
G1 X104.319 Y112.659 E7.03886
G1 X104.319 Y113.204 E7.06507
G1 X113.204 Y104.319 E7.66942
G1 X113.75 Y104.319 E7.69568
G1 X104.319 Y113.75 E8.33716
G1 X104.319 Y114.295 E8.36337
G1 X114.295 Y104.319 E9.04193
G1 X114.84 Y104.319 E9.06814
G1 X104.319 Y114.84 E9.78377
G1 X104.319 Y114.84 F7800
G1 X104.269 Y115.791
;WIDTH:0.404381
G1 F1200
G1 X104.228 Y115.802 E9.78557
G1 X104.209 Y115.731 E9.78869
G1 X104.28 Y115.75 E9.79181
;WIDTH:0.45
G1 X104.319 Y115.386 E9.80942
G1 X115.386 Y104.319 E10.56218
G1 X115.802 Y104.228 E10.58266
;WIDTH:0.404381
G1 X115.731 Y104.209 E10.58578
G1 X115.75 Y104.28 E10.5889
G1 X115.791 Y104.269 E10.5907
;WIDTH:0.45
G1 X115.681 Y104.569 E10.60607
G1 X104.569 Y115.681 E11.36189
G1 X105.115 Y115.681 E11.38815
G1 X115.681 Y105.115 E12.10684
G1 X115.681 Y105.66 E12.13305
G1 X105.66 Y115.681 E12.81467
G1 X106.206 Y115.681 E12.84093
G1 X115.681 Y106.206 E13.48541
G1 X115.681 Y106.751 E13.51162
G1 X106.751 Y115.681 E14.11903
G1 X107.296 Y115.681 E14.14524
G1 X115.681 Y107.296 E14.71558
G1 X115.681 Y107.842 E14.74184
G1 X107.842 Y115.681 E15.27504
G1 X108.387 Y115.681 E15.30125
G1 X115.681 Y108.387 E15.79738
G1 X115.681 Y108.932 E15.82359
G1 X108.932 Y115.681 E16.28265
G1 X109.478 Y115.681 E16.30891
G1 X115.681 Y109.478 E16.73083
G1 X115.681 Y110.023 E16.75704
G1 X110.023 Y115.681 E17.14189
G1 X110.568 Y115.681 E17.1681
G1 X115.681 Y110.568 E17.51588
G1 X115.681 Y111.114 E17.54214
G1 X111.114 Y115.681 E17.85278
G1 X111.659 Y115.681 E17.87899
G1 X115.681 Y111.659 E18.15256
G1 X115.681 Y112.204 E18.17877
G1 X112.204 Y115.681 E18.41527
G1 X112.75 Y115.681 E18.44153
G1 X115.681 Y112.75 E18.64089
G1 X115.681 Y113.295 E18.6671
G1 X113.295 Y115.681 E18.82939
G1 X113.722 Y115.875 E18.85195
;WIDTH:0.404381
G1 X113.681 Y115.886 E18.85375
G1 X113.662 Y115.815 E18.85687
G1 X113.733 Y115.834 E18.85999
;WIDTH:0.45
G1 X113.84 Y115.681 E18.86897
G1 X115.681 Y113.84 E18.99419
G1 X115.681 Y115.681 E19.08274
G1 X114.386 Y115.681 E19.14503
G1 X115.545 Y114.522 E19.22386
;LAYER_CHANGE
;Z:0.9
;HEIGHT:0.3
G1 Z.9 F7800
G1 X115.97 Y115.97
;TYPE:Perimeter
G1 F3600
G1 X104.03 Y115.97 E19.79813
G1 X104.03 Y104.03 E20.3724
G1 X115.97 Y104.03 E20.94667
G1 X115.97 Y110 E21.23381
G1 X115.97 Y115.91 E21.51806
G1 X116.356 Y116.356 F7800
G1 F3600
G1 X103.644 Y116.356 E22.12946
G1 X103.644 Y103.644 E22.74086
G1 X116.356 Y103.644 E23.35226
G1 X116.356 Y110 E23.65796
G1 X116.356 Y116.296 E23.96078
G1 X116.356 Y116.296 F7800
G1 X116.741 Y116.741
;TYPE:External perimeter
G1 F1800
G1 X103.259 Y116.741 E24.60922
G1 X103.259 Y103.259 E25.25766
G1 X116.741 Y103.259 E25.9061
G1 X116.741 Y110 E26.23032
G1 X116.741 Y116.681 E26.55165
G1 X116.346 Y116.741 F7800
G1 E24.55165 F2400
G92 E0
G1 X104.35 Y115.576 F7800
G1 E2 F2400
;TYPE:Solid infill
;WIDTH:0.543559
G1 F1200
G1 X104.308 Y115.619 E2.00359
G1 X104.324 Y115.676 E2.00713
G1 X104.381 Y115.692 E2.01067
G1 X104.424 Y115.65 E2.01426
G1 X104.408 Y115.592 E2.01786
;WIDTH:0.45
G1 X105.024 Y115.681 E2.0478
G1 X104.319 Y114.976 E2.09575
G1 X104.319 Y114.43 E2.12201
G1 X105.57 Y115.681 E2.2071
G1 X106.115 Y115.681 E2.23331
G1 X104.319 Y113.885 E2.35547
G1 X104.319 Y113.34 E2.38168
G1 X106.66 Y115.681 E2.54091
G1 X107.206 Y115.681 E2.56717
G1 X104.319 Y112.794 E2.76354
G1 X104.319 Y112.249 E2.78975
G1 X107.751 Y115.681 E3.02319
G1 X108.296 Y115.681 E3.0494
G1 X104.319 Y111.704 E3.31991
G1 X104.319 Y111.158 E3.34617
G1 X108.842 Y115.681 E3.65382
G1 X109.387 Y115.681 E3.68003
G1 X104.319 Y110.613 E4.02475
G1 X104.319 Y110.068 E4.05096
G1 X109.932 Y115.681 E4.43275
G1 X110.478 Y115.681 E4.45901
G1 X104.319 Y109.522 E4.87794
G1 X104.319 Y108.977 E4.90415
G1 X111.023 Y115.681 E5.36015
G1 X111.568 Y115.681 E5.38636
G1 X104.319 Y108.432 E5.87943
G1 X104.319 Y107.886 E5.90569
G1 X112.114 Y115.681 E6.4359
G1 X112.659 Y115.681 E6.46211
G1 X104.319 Y107.341 E7.02939
G1 X104.319 Y106.796 E7.0556
G1 X113.204 Y115.681 E7.65995
G1 X113.75 Y115.681 E7.68621
G1 X104.319 Y106.25 E8.32769
G1 X104.319 Y105.705 E8.3539
G1 X114.295 Y115.681 E9.03246
G1 X114.84 Y115.681 E9.05867
G1 X104.319 Y105.16 E9.7743
G1 X104.319 Y104.614 E9.80056
G1 X115.386 Y115.681 E10.55332
G1 X115.75 Y115.72 E10.57093
;WIDTH:0.404381
G1 X115.731 Y115.791 E10.57405
G1 X115.802 Y115.772 E10.57717
G1 X115.791 Y115.731 E10.57897
;WIDTH:0.45
G1 X115.681 Y115.431 E10.59434
G1 X104.569 Y104.319 E11.35016
G1 X104.269 Y104.209 E11.36553
;WIDTH:0.404381
G1 X104.28 Y104.25 E11.36733
G1 X104.209 Y104.269 E11.37045
G1 X104.228 Y104.198 E11.37357
G1 X104.228 Y104.198 F7800
G1 X105.115 Y104.319
;WIDTH:0.45
G1 F1200
G1 X115.681 Y114.885 E12.09226
G1 X115.681 Y114.34 E12.11847
G1 X105.66 Y104.319 E12.80009
G1 X106.206 Y104.319 E12.82635
G1 X115.681 Y113.794 E13.47083
G1 X115.681 Y113.249 E13.49704
G1 X106.751 Y104.319 E14.10445
G1 X107.296 Y104.319 E14.13066
G1 X115.681 Y112.704 E14.701
G1 X115.681 Y112.158 E14.72726
G1 X107.842 Y104.319 E15.26046
G1 X108.387 Y104.319 E15.28667
G1 X115.681 Y111.613 E15.7828
G1 X115.681 Y111.068 E15.80901
G1 X108.932 Y104.319 E16.26807
G1 X109.478 Y104.319 E16.29433
G1 X115.681 Y110.522 E16.71625
G1 X115.681 Y109.977 E16.74246
G1 X110.023 Y104.319 E17.12731
G1 X110.568 Y104.319 E17.15352
G1 X115.681 Y109.432 E17.5013
G1 X115.681 Y108.886 E17.52756
G1 X111.114 Y104.319 E17.8382
G1 X111.659 Y104.319 E17.86441
G1 X115.681 Y108.341 E18.13798
G1 X115.681 Y107.796 E18.16419
G1 X112.204 Y104.319 E18.40069
G1 X112.75 Y104.319 E18.42695
G1 X115.681 Y107.25 E18.62631
G1 X115.681 Y106.705 E18.65252
G1 X113.295 Y104.319 E18.81481
G1 X113.681 Y104.114 E18.83583
;WIDTH:0.404381
G1 X113.662 Y104.185 E18.83895
G1 X113.733 Y104.166 E18.84207
G1 X113.722 Y104.125 E18.84387
;WIDTH:0.45
G1 X113.84 Y104.319 E18.85479
G1 X115.681 Y106.16 E18.98001
G1 X115.875 Y106.278 E18.99093
;WIDTH:0.404381
G1 X115.886 Y106.319 E18.99273
G1 X115.815 Y106.338 E18.99585
G1 X115.834 Y106.267 E18.99897
G1 E16.99897 F2400
G92 E0
G1 X115.834 Y106.267 F7800
G1 X114.522 Y104.455
G1 E2 F2400
;WIDTH:0.45
G1 F1200
G1 X115.681 Y105.614 E2.07883
G1 X115.681 Y104.319 E2.14112
G1 X114.386 Y104.319 E2.20341
M106 S249.9
;LAYER_CHANGE
;Z:1.2
;HEIGHT:0.3
G1 Z1.2 F7800
G1 E.20341 F2400
G92 E0
G1 X114.386 Y104.319 Z1.2 F7800
G1 X115.97 Y115.97
G1 E2 F2400
;TYPE:Perimeter
G1 F3600
G1 X104.03 Y115.97 E2.57427
G1 X104.03 Y104.03 E3.14854
G1 X115.97 Y104.03 E3.72281
G1 X115.97 Y110 E4.00995
G1 X115.97 Y115.91 E4.2942
G1 X116.356 Y116.356 F7800
G1 F3600
G1 X103.644 Y116.356 E4.9056
G1 X103.644 Y103.644 E5.517
G1 X116.356 Y103.644 E6.1284
G1 X116.356 Y110 E6.4341
G1 X116.356 Y116.296 E6.73692
G1 X116.356 Y116.296 F7800
G1 X116.741 Y116.741
;TYPE:External perimeter
G1 F1800
G1 X103.259 Y116.741 E7.38536
G1 X103.259 Y103.259 E8.0338
G1 X116.741 Y103.259 E8.68224
G1 X116.741 Y110 E9.00646
G1 X116.741 Y116.681 E9.32779
G1 X116.346 Y116.741 F7800
G1 E7.32779 F2400
G92 E0
G1 X115.681 Y113.367 F7800
G1 E2 F2400
;TYPE:Internal infill
;WIDTH:0.45
G1 F4800
G1 X115.681 Y115.681 E2.1113
G1 X104.705 Y104.705 E2.85787
G1 X104.489 Y104.705 E2.86826
G1 X104.537 Y104.537 E2.87666
G1 X104.319 Y104.319 E2.89149
G1 X104.319 Y106.633 E3.00279
G1 X104.319 Y106.633 F7800
G1 X104.319 Y108.389
;TYPE:Solid infill
;WIDTH:0.450031
G1 F1200
G1 X104.319 Y112.164 E3.18437
G1 E1.18437 F2400
G92 E0
G1 X104.319 Y112.164 F7800
G1 X107.898 Y115.681
G1 E2 F2400
G1 F1200
G1 X114.844 Y115.681 E2.33411
G1 E.33411 F2400
G92 E0
G1 X114.844 Y115.681 F7800
G1 X112.256 Y115.295
G1 E2 F2400
;TYPE:Internal infill
;WIDTH:0.45
G1 F4800
G1 X114.569 Y115.295 E2.11125
G1 X115.466 Y111.95 E2.27782
G1 X115.295 Y111.983 E2.2862
G1 X115.295 Y111.575 E2.30582
G1 X104.319 Y114.516 E2.85235
G1 X104.319 Y112.563 E2.94628
G1 X104.406 Y112.586 E2.95061
G1 X107.501 Y115.681 E3.16113
G1 X107.556 Y115.295 E3.17988
G1 X108.581 Y115.295 E3.22918
G1 X111.419 Y104.705 E3.7565
G1 X112.033 Y104.705 E3.78603
G1 X112.136 Y104.319 E3.80524
G1 X112.499 Y104.319 E3.8227
G1 X115.681 Y107.501 E4.03914
G1 X115.681 Y105.484 E4.13615
G1 X104.705 Y108.425 E4.68268
G1 X104.705 Y107.966 E4.70476
G1 X104.553 Y107.98 E4.7121
G1 X105.431 Y104.705 E4.87518
G1 X107.744 Y104.705 E4.98643
G1 E2.98643 F2400
G92 E0
G1 X107.744 Y104.705 F7800
G1 X105 Y104.319
G1 E2 F2400
;TYPE:Solid infill
;WIDTH:0.450031
G1 F1200
G1 X111.737 Y104.319 E2.32405
G1 E.32405 F2400
G92 E0
G1 X111.737 Y104.319 F7800
G1 X115.681 Y108.153
G1 E2 F2400
;WIDTH:0.450029
G1 F1200
G1 X115.681 Y111.517 E2.16181
M106 S242.25
;LAYER_CHANGE
;Z:1.5
;HEIGHT:0.3
G1 Z1.5 F7800
G1 E.16181 F2400
G92 E0
G1 X115.681 Y111.517 Z1.5 F7800
G1 X115.97 Y115.97
G1 E2 F2400
;TYPE:Perimeter
;WIDTH:0.45
G1 F3600
G1 X104.03 Y115.97 E2.57427
G1 X104.03 Y104.03 E3.14854
G1 X115.97 Y104.03 E3.72281
G1 X115.97 Y110 E4.00995
G1 X115.97 Y115.91 E4.2942
G1 X116.356 Y116.356 F7800
G1 F3600
G1 X103.644 Y116.356 E4.9056
G1 X103.644 Y103.644 E5.517
G1 X116.356 Y103.644 E6.1284
G1 X116.356 Y110 E6.4341
G1 X116.356 Y116.296 E6.73692
G1 X116.356 Y116.296 F7800
G1 X116.741 Y116.741
;TYPE:External perimeter
G1 F1800
G1 X103.259 Y116.741 E7.38536
G1 X103.259 Y103.259 E8.0338
G1 X116.741 Y103.259 E8.68224
G1 X116.741 Y110 E9.00646
G1 X116.741 Y116.681 E9.32779
G1 X116.346 Y116.741 F7800
G1 E7.32779 F2400
G92 E0
G1 X114.704 Y114.148 F7800
G1 E2 F2400
;TYPE:Internal infill
;WIDTH:0.45
G1 F4800
G1 X114.215 Y113.66 E2.03323
G1 X113.173 Y113.173 E2.08855
G1 X112.682 Y112.682 E2.12195
G1 X112.962 Y112.607 E2.13589
G1 X112.706 Y112.269 E2.15628
G1 X113.132 Y112.155 E2.17749
G1 X114.394 Y112.223 E2.23828
G1 X115.466 Y111.95 E2.29149
G1 X114.84 Y114.285 E2.40776
G1 X115.267 Y114.981 E2.44703
G1 X115.207 Y115.207 E2.45828
G1 X115.681 Y115.681 E2.49052
G1 X115.681 Y113.367 E2.60182
G1 E.60182 F2400
G92 E0
G1 X115.681 Y113.367 F7800
G1 X113.691 Y107.221
G1 E2 F2400
G1 F4800
G1 X115.681 Y107.754 E2.09909
G1 X115.681 Y107.501 E2.11126
G1 X113.84 Y105.659 E2.23652
G1 X113.84 Y105.977 E2.25181
G1 X115.681 Y105.484 E2.34348
G1 X115.681 Y104.319 E2.39951
G1 X112.499 Y104.319 E2.55255
G1 X113.481 Y105.301 E2.61934
G1 X111.981 Y104.899 E2.69403
G1 X112.136 Y104.319 E2.7229
G1 X112.296 Y104.319 E2.7306
G1 E.7306 F2400
G92 E0
G1 X112.296 Y104.319 F7800
G1 X105.715 Y106.271
G1 E2 F2400
G1 F4800
G1 X106.209 Y106.765 E2.0336
G1 X107.44 Y107.531 E2.10333
G1 X107.426 Y107.696 E2.11129
G1 X106.228 Y108.016 E2.17093
