; generated by PrusaSlicer 2.8.1+linux-x64-GTK3 on 2024-10-13 at 07:40:50 UTC

; 

; external perimeters extrusion width = 0.45mm
; perimeters extrusion width = 0.45mm
; infill extrusion width = 0.45mm
; solid infill extrusion width = 0.45mm
; top infill extrusion width = 0.40mm
; support material extrusion width = 0.40mm
; first layer extrusion width = 0.60mm

M190 S60 ; set bed temperature and wait for it to be reached
M104 S200 ; set temperature
;TYPE:Custom
G28 ; home all axes
G1 Z5 F5000 ; lift nozzle
M109 S200 ; set temperature and wait for it to be reached
G21 ; set units to millimeters
G90 ; use absolute coordinates
M82 ; use absolute distances for extrusion
G92 E0
; Filament gcode
M107
;LAYER_CHANGE
;Z:0.3
;HEIGHT:0.3
G1 E-2 F2400
G1 Z.3 F7800
G1 X78.204 Y87.612
G1 E0 F2400
;TYPE:Skirt/Brim
;WIDTH:0.6
G1 F1800
G1 X79.267 Y86.847 E.08749
G1 X80.017 Y86.471 E.14354
G1 X80.969 Y86.148 E.2107
G1 X81.663 Y86.008 E.258
G1 X82.65 Y85.934 E.32412
G1 X137.35 Y85.934 E3.97838
G1 X138.245 Y85.995 E4.03831
G1 X139.526 Y86.297 E4.12623
G1 X140.708 Y86.832 E4.21291
G1 X141.765 Y87.585 E4.29961
G1 X142.657 Y88.524 E4.38613
G1 X143.496 Y89.919 E4.49488
G1 X143.957 Y91.371 E4.59665
G1 X144.071 Y92.264 E4.65679
G1 X144.084 Y113.868 E6.10005
G1 X143.963 Y115.331 E6.19812
G1 X143.742 Y116.314 E6.26543
G1 X143.343 Y117.428 E6.34448
G1 X142.416 Y119.066 E6.47022
G1 X141.665 Y119.981 E6.5493
G1 X141.034 Y120.59 E6.60789
G1 X140.24 Y121.21 E6.67519
G1 X139.225 Y121.818 E6.75423
G1 X137.47 Y122.495 E6.87989
G1 X136.308 Y122.726 E6.95904
G1 X135.304 Y122.8 E7.02629
G1 X84.258 Y122.782 E10.43644
G1 X83.258 Y122.659 E10.50375
G1 X82.069 Y122.358 E10.58569
G1 X80.892 Y121.877 E10.67063
G1 X80.016 Y121.38 E10.73791
G1 X78.998 Y120.618 E10.82286
G1 X78.129 Y119.753 E10.90477
G1 X77.509 Y118.958 E10.97212
G1 X76.9 Y117.943 E11.0512
G1 X76.223 Y116.188 E11.17686
G1 X75.992 Y115.027 E11.25594
G1 X75.921 Y114.153 E11.31452
G1 X75.927 Y92.302 E12.77429
G1 X76.201 Y90.734 E12.88063
G1 X76.813 Y89.312 E12.98405
G1 X77.782 Y88.017 E13.0921
G1 X78.16 Y87.654 E13.12711
G1 E11.12711 F2400
G92 E0
G1 X78.16 Y87.654 F7800
G92 E0
G1 X99.398 Y95.527
G1 E2 F2400
;TYPE:Support material
G1 F1800
G1 X99.983 Y95.553 E2.03912
G1 X101.054 Y95.775 E2.11219
G1 X102.095 Y96.199 E2.18728
G1 X103.043 Y96.804 E2.26241
G1 X103.865 Y97.571 E2.33752
G1 X104.535 Y98.475 E2.41269
G1 X105.03 Y99.485 E2.48783
G1 X105.333 Y100.568 E2.56296
G1 X105.436 Y101.688 E2.6381
G1 X105.333 Y102.808 E2.71324
G1 X105.03 Y103.891 E2.78837
G1 X104.535 Y104.901 E2.86351
G1 X103.875 Y105.792 E2.93759
G1 X103.462 Y106.186 E2.97572
G1 X103.03 Y106.581 E3.01483
G1 X102.095 Y107.178 E3.08894
G1 X101.053 Y107.602 E3.16409
G1 X99.952 Y107.83 E3.2392
G1 X98.828 Y107.854 E3.31431
G1 X97.718 Y107.675 E3.38942
G1 X96.659 Y107.297 E3.46454
G1 X95.685 Y106.734 E3.5397
G1 X94.83 Y106.004 E3.61481
G1 X94.122 Y105.131 E3.6899
G1 X93.611 Y104.194 E3.7612
G1 X93.242 Y103.08 E3.8396
G1 X93.09 Y101.967 E3.91464
G1 X93.09 Y101.409 E3.95192
G1 X93.242 Y100.297 E4.0269
G1 X93.611 Y99.183 E4.1053
G1 X94.122 Y98.245 E4.17666
G1 X94.83 Y97.372 E4.25175
G1 X95.685 Y96.642 E4.32686
G1 X96.659 Y96.079 E4.40202
G1 X97.718 Y95.701 E4.47714
G1 X98.798 Y95.527 E4.55022
G1 X99.318 Y95.527 E4.58496
G1 X99.318 Y95.527 F7800
G1 X104.644 Y104.131
G1 F1800
G1 X104.644 Y99.895 E4.86795
G1 X104.049 Y98.629 E4.9614
G1 X104.049 Y104.747 E5.37012
G1 X103.454 Y105.528 E5.43571
G1 X103.454 Y97.847 E5.94884
G1 X102.858 Y97.291 E6.00329
G1 X102.858 Y106.084 E6.59071
G1 X102.263 Y106.498 E6.63913
G1 X102.263 Y96.878 E7.2818
G1 X101.668 Y96.545 E7.32735
G1 X101.668 Y106.831 E8.01451
G1 X101.073 Y107.073 E8.05742
G1 X101.073 Y96.303 E8.77691
G1 X100.478 Y96.148 E8.81799
G1 X100.478 Y107.228 E9.55819
G1 X99.883 Y107.349 E9.59875
G1 X99.883 Y96.031 E10.35485
G1 X99.288 Y96.009 E10.39463
G1 X99.288 Y107.362 E11.15307
G1 X98.692 Y107.344 E11.1929
G1 X98.692 Y96.032 E11.9486
G1 X98.097 Y96.128 E11.98886
G1 X98.097 Y107.248 E12.73174
G1 X97.502 Y107.086 E12.77294
G1 X97.502 Y96.29 E13.49417
G1 X96.907 Y96.502 E13.53637
G1 X96.862 Y106.858 E14.22821
G1 X96.312 Y106.54 E14.27065
G1 X96.312 Y96.837 E14.91886
G1 X95.717 Y97.249 E14.96721
G1 X95.717 Y106.127 E15.56031
G1 X95.122 Y105.598 E15.6135
G1 X95.122 Y97.779 E16.13585
G1 X94.527 Y98.512 E16.19892
G1 X94.527 Y104.864 E16.62327
G1 X93.931 Y103.676 E16.71206
G1 X93.931 Y99.098 E17.0179
G1 E15.0179 F2400
G92 E0
G1 X93.931 Y99.098 F7800
G1 X134.644 Y104.454
G1 E2 F2400
;TYPE:Perimeter
;WIDTH:0.6
G1 F1800
G1 X134.934 Y104.486 E2.01949
G1 X135.376 Y104.627 E2.05048
G1 X135.827 Y104.892 E2.08543
G1 X136.218 Y105.254 E2.12103
G1 X136.516 Y105.684 E2.15598
G1 X136.585 Y105.906 E2.17151
;WIDTH:0.562324
G1 X136.655 Y106.128 E2.18597
;WIDTH:0.524649
G1 X136.677 Y106.41 E2.20221
;WIDTH:0.477019
G1 X136.699 Y106.692 E2.21677
;WIDTH:0.469827
G1 X136.69 Y106.891 E2.22684
;WIDTH:0.510265
G1 X136.681 Y107.091 E2.23797
;WIDTH:0.550703
G1 X136.673 Y107.29 E2.25005
;WIDTH:0.591142
G1 X136.664 Y107.49 E2.2632
;WIDTH:0.6
G1 X136.481 Y107.916 E2.29417
G1 X136.105 Y108.413 E2.3358
G1 X135.746 Y108.708 E2.36684
G1 X135.336 Y108.927 E2.39789
G1 X134.891 Y109.059 E2.4289
G1 X134.36 Y109.096 E2.46446
G1 X133.966 Y109.051 E2.49095
G1 X133.524 Y108.91 E2.52194
G1 X133.118 Y108.684 E2.55298
G1 X132.765 Y108.382 E2.58401
G1 X132.478 Y108.016 E2.61508
G1 X132.27 Y107.6 E2.64615
G1 X132.149 Y107.152 E2.67715
G1 X132.126 Y106.629 E2.71212
G1 X132.219 Y106.105 E2.74767
G1 X132.419 Y105.621 E2.78266
G1 X132.795 Y105.124 E2.82429
G1 X133.154 Y104.828 E2.85537
G1 X133.564 Y104.61 E2.88639
G1 X134.009 Y104.477 E2.91742
G1 X134.472 Y104.435 E2.94848
G1 X134.584 Y104.448 E2.95601
G1 X134.584 Y104.448 F7800
G1 X134.591 Y104.984
;TYPE:External perimeter
G1 F1800
G1 X134.789 Y105.001 E2.96929
G1 X135.132 Y105.103 E2.9932
G1 X135.463 Y105.284 E3.0184
G1 X135.854 Y105.647 E3.05404
G1 X136.082 Y106.012 E3.08279
G1 X136.2 Y106.35 E3.10671
G1 X136.248 Y106.705 E3.13064
G1 X136.225 Y107.063 E3.15461
G1 X136.131 Y107.409 E3.17856
G1 X135.971 Y107.729 E3.20246
G1 X135.751 Y108.011 E3.22635
G1 X135.478 Y108.244 E3.25033
G1 X135.166 Y108.419 E3.27423
G1 X134.824 Y108.528 E3.29821
G1 X134.4 Y108.562 E3.32663
G1 X134.111 Y108.535 E3.34602
G1 X133.768 Y108.433 E3.36993
G1 X133.452 Y108.265 E3.39384
G1 X133.175 Y108.037 E3.41781
G1 X132.949 Y107.759 E3.44174
G1 X132.782 Y107.442 E3.46568
G1 X132.682 Y107.099 E3.48955
G1 X132.654 Y106.722 E3.5148
G1 X132.746 Y106.198 E3.55034
G1 X132.929 Y105.808 E3.57912
G1 X133.15 Y105.525 E3.60311
G1 X133.422 Y105.292 E3.62704
G1 X133.735 Y105.118 E3.65096
G1 X134.076 Y105.009 E3.67488
G1 X134.432 Y104.969 E3.69881
G1 X134.531 Y104.978 E3.70545
G1 X134.925 Y105.049 F7800
G1 E1.70545 F2400
G92 E0
G1 X134.297 Y94.651 F7800
G1 E2 F2400
;TYPE:Perimeter
G1 F1800
G1 X134.472 Y94.635 E2.01174
G1 X134.99 Y94.704 E2.04665
G1 X135.491 Y94.886 E2.08226
G1 X135.933 Y95.167 E2.11725
G1 X136.357 Y95.624 E2.1589
G1 X136.586 Y96.029 E2.18998
G1 X136.613 Y96.218 E2.20273
;WIDTH:0.558799
G1 X136.639 Y96.406 E2.21443
;WIDTH:0.517599
G1 X136.666 Y96.595 E2.22522
;WIDTH:0.476399
G1 X136.693 Y96.784 E2.23503
;WIDTH:0.444595
G1 X136.68 Y97.322 E2.26055
;WIDTH:0.493463
G1 X136.675 Y97.445 E2.26714
;WIDTH:0.542331
G1 X136.67 Y97.567 E2.27442
;WIDTH:0.591199
G1 X136.664 Y97.689 E2.28245
;WIDTH:0.6
G1 X136.481 Y98.116 E2.31349
G1 X136.105 Y98.613 E2.35512
G1 X135.746 Y98.908 E2.38616
G1 X135.336 Y99.127 E2.41721
G1 X134.891 Y99.259 E2.44822
G1 X134.588 Y99.297 E2.46862
G1 X133.966 Y99.251 E2.51029
G1 X133.524 Y99.11 E2.54128
G1 X133.118 Y98.884 E2.57232
G1 X132.765 Y98.582 E2.60335
G1 X132.478 Y98.216 E2.63442
G1 X132.27 Y97.8 E2.66549
G1 X132.149 Y97.352 E2.69649
G1 X132.126 Y96.829 E2.73146
G1 X132.219 Y96.305 E2.76701
G1 X132.419 Y95.821 E2.802
G1 X132.795 Y95.324 E2.84363
G1 X133.154 Y95.028 E2.87471
G1 X133.564 Y94.81 E2.90573
G1 X134.009 Y94.677 E2.93676
G1 X134.237 Y94.656 E2.95206
G1 X134.237 Y94.656 F7800
G1 X134.323 Y95.181
;TYPE:External perimeter
G1 F1800
G1 X134.432 Y95.169 E2.95939
G1 X134.807 Y95.207 E2.98457
G1 X135.308 Y95.39 E3.0202
G1 X135.66 Y95.637 E3.04893
G1 X135.9 Y95.903 E3.07286
G1 X136.082 Y96.212 E3.09682
G1 X136.2 Y96.55 E3.12074
G1 X136.248 Y96.905 E3.14467
G1 X136.225 Y97.263 E3.16864
G1 X136.131 Y97.609 E3.19259
G1 X135.971 Y97.929 E3.21649
G1 X135.751 Y98.211 E3.24038
G1 X135.478 Y98.444 E3.26436
G1 X135.166 Y98.619 E3.28826
G1 X134.824 Y98.728 E3.31224
G1 X134.522 Y98.766 E3.33257
G1 X134.111 Y98.735 E3.3601
G1 X133.768 Y98.633 E3.38401
G1 X133.452 Y98.465 E3.40792
G1 X133.175 Y98.237 E3.43189
G1 X132.949 Y97.96 E3.45577
G1 X132.782 Y97.642 E3.47977
G1 X132.682 Y97.299 E3.50364
G1 X132.654 Y96.922 E3.52889
G1 X132.746 Y96.398 E3.56443
G1 X132.929 Y96.008 E3.59321
G1 X133.15 Y95.725 E3.6172
G1 X133.422 Y95.492 E3.64113
G1 X133.734 Y95.318 E3.665
G1 X134.076 Y95.209 E3.68898
G1 X134.264 Y95.188 E3.70162
G1 X134.664 Y95.197 F7800
G1 E1.70162 F2400
G92 E0
G1 X85.588 Y109.096 F7800
G1 E2 F2400
;TYPE:Perimeter
G1 F1800
G1 X85.528 Y109.101 E2.00402
G1 X85.01 Y109.032 E2.03893
G1 X84.509 Y108.85 E2.07454
G1 X84.067 Y108.569 E2.10953
G1 X83.643 Y108.112 E2.15118
G1 X83.414 Y107.708 E2.1822
G1 X83.387 Y107.519 E2.19495
;WIDTH:0.558877
G1 X83.36 Y107.33 E2.20673
;WIDTH:0.517754
G1 X83.333 Y107.141 E2.21753
;WIDTH:0.476631
G1 X83.306 Y106.952 E2.22735
;WIDTH:0.452333
G1 X83.328 Y106.36 E2.25602
;WIDTH:0.501555
G1 X83.347 Y106.205 E2.26453
;WIDTH:0.550777
G1 X83.367 Y106.05 E2.27401
;WIDTH:0.6
G1 X83.386 Y105.896 E2.28438
G1 X83.602 Y105.484 E2.31546
G1 X83.895 Y105.124 E2.34647
G1 X84.254 Y104.828 E2.37755
G1 X84.664 Y104.61 E2.40857
G1 X85.109 Y104.477 E2.4396
G1 X85.412 Y104.439 E2.46
G1 X86.034 Y104.486 E2.50167
G1 X86.476 Y104.627 E2.53266
G1 X86.882 Y104.853 E2.5637
G1 X87.235 Y105.155 E2.59473
G1 X87.522 Y105.521 E2.6258
;WIDTH:0.628362
G1 X87.684 Y105.87 E2.65287
;WIDTH:0.656723
G1 X87.847 Y106.219 E2.68133
;WIDTH:0.702233
G1 X87.886 Y106.298 E2.68834
;WIDTH:0.747743
G1 X87.925 Y106.377 E2.69585
G1 X87.948 Y106.855 E2.73664
;WIDTH:0.753906
G1 X87.919 Y107.224 E2.76847
G1 X87.841 Y107.383 E2.7837
;WIDTH:0.715429
G1 X87.762 Y107.542 E2.79812
;WIDTH:0.676953
G1 X87.684 Y107.701 E2.81165
;WIDTH:0.638476
G1 X87.605 Y107.861 E2.82443
;WIDTH:0.6
G1 X87.314 Y108.296 E2.85939
G1 X86.846 Y108.708 E2.90104
G1 X86.436 Y108.927 E2.93209
G1 X85.991 Y109.059 E2.9631
G1 X85.647 Y109.09 E2.98617
G1 X85.647 Y109.09 F7800
G1 X85.588 Y108.565
;TYPE:External perimeter
G1 F1800
G1 X85.568 Y108.567 E2.98751
G1 X85.193 Y108.529 E3.01269
G1 X84.692 Y108.347 E3.0483
G1 X84.34 Y108.099 E3.07707
G1 X84.1 Y107.833 E3.101
G1 X83.918 Y107.525 E3.1249
G1 X83.8 Y107.186 E3.14888
G1 X83.752 Y106.831 E3.17281
G1 X83.775 Y106.474 E3.19671
G1 X83.869 Y106.128 E3.22066
G1 X84.029 Y105.808 E3.24456
G1 X84.25 Y105.525 E3.26855
G1 X84.522 Y105.292 E3.29248
G1 X84.834 Y105.118 E3.31635
G1 X85.176 Y105.009 E3.34033
G1 X85.479 Y104.971 E3.36073
G1 X85.889 Y105.001 E3.38819
G1 X86.232 Y105.103 E3.4121
G1 X86.548 Y105.272 E3.43604
G1 X86.825 Y105.499 E3.45997
G1 X87.051 Y105.777 E3.4839
G1 X87.218 Y106.094 E3.50784
G1 X87.318 Y106.438 E3.53177
G1 X87.349 Y106.795 E3.55571
G1 X87.301 Y107.169 E3.5809
G1 X87.107 Y107.665 E3.61648
G1 X86.851 Y108.011 E3.64523
G1 X86.578 Y108.244 E3.66921
G1 X86.266 Y108.419 E3.69311
G1 X85.924 Y108.528 E3.71709
G1 X85.647 Y108.558 E3.7357
G1 X85.248 Y108.532 F7800
G1 E1.7357 F2400
G92 E0
G1 X85.397 Y94.651 F7800
G1 E2 F2400
;TYPE:Perimeter
G1 F1800
G1 X85.572 Y94.635 E2.01174
G1 X86.034 Y94.686 E2.04279
G1 X86.476 Y94.827 E2.07378
G1 X86.882 Y95.053 E2.10482
G1 X87.235 Y95.355 E2.13585
G1 X87.522 Y95.721 E2.16692
;WIDTH:0.628365
G1 X87.684 Y96.07 E2.19399
;WIDTH:0.65673
G1 X87.847 Y96.419 E2.22245
;WIDTH:0.702244
G1 X87.886 Y96.498 E2.22946
;WIDTH:0.747758
G1 X87.925 Y96.577 E2.23697
G1 X87.948 Y97.055 E2.27776
;WIDTH:0.75392
G1 X87.919 Y97.424 E2.30959
G1 X87.841 Y97.583 E2.32482
;WIDTH:0.71544
G1 X87.762 Y97.742 E2.33924
;WIDTH:0.67696
G1 X87.684 Y97.901 E2.35277
;WIDTH:0.63848
G1 X87.606 Y98.061 E2.36552
;WIDTH:0.6
G1 X87.314 Y98.496 E2.40052
G1 X86.846 Y98.908 E2.44217
G1 X86.436 Y99.127 E2.47322
G1 X85.991 Y99.259 E2.50423
G1 X85.528 Y99.301 E2.53529
G1 X85.066 Y99.251 E2.56633
G1 X84.572 Y99.08 E2.60125
G1 X84.117 Y98.803 E2.63684
G1 X83.74 Y98.44 E2.6718
G1 X83.414 Y97.908 E2.71348
G1 X83.387 Y97.719 E2.72623
;WIDTH:0.558877
G1 X83.36 Y97.53 E2.73801
;WIDTH:0.517754
G1 X83.333 Y97.341 E2.74881
;WIDTH:0.476631
G1 X83.306 Y97.152 E2.75863
;WIDTH:0.452334
G1 X83.328 Y96.56 E2.7873
;WIDTH:0.501556
G1 X83.347 Y96.405 E2.79581
;WIDTH:0.550778
G1 X83.367 Y96.25 E2.80529
;WIDTH:0.6
G1 X83.386 Y96.096 E2.81566
G1 X83.602 Y95.684 E2.84674
G1 X83.895 Y95.324 E2.87775
G1 X84.254 Y95.028 E2.90883
G1 X84.664 Y94.81 E2.93985
G1 X85.109 Y94.677 E2.97088
G1 X85.337 Y94.656 E2.98618
G1 X85.337 Y94.656 F7800
G1 X85.423 Y95.181
;TYPE:External perimeter
G1 F1800
G1 X85.532 Y95.169 E2.99351
G1 X85.889 Y95.201 E3.01746
G1 X86.232 Y95.304 E3.04139
G1 X86.548 Y95.472 E3.0653
G1 X86.825 Y95.699 E3.08923
G1 X87.051 Y95.977 E3.11316
G1 X87.218 Y96.294 E3.1371
G1 X87.318 Y96.638 E3.16103
G1 X87.349 Y96.995 E3.18497
G1 X87.301 Y97.369 E3.21016
G1 X87.107 Y97.865 E3.24574
G1 X86.851 Y98.211 E3.27449
G1 X86.578 Y98.444 E3.29847
G1 X86.266 Y98.619 E3.32237
G1 X85.924 Y98.728 E3.34635
G1 X85.568 Y98.767 E3.37027
G1 X85.211 Y98.735 E3.39422
G1 X84.851 Y98.623 E3.41941
G1 X84.396 Y98.346 E3.455
G1 X84.1 Y98.033 E3.48378
G1 X83.918 Y97.725 E3.50768
G1 X83.8 Y97.386 E3.53166
G1 X83.752 Y97.031 E3.55559
G1 X83.775 Y96.674 E3.57949
G1 X83.869 Y96.328 E3.60344
G1 X84.029 Y96.008 E3.62734
G1 X84.25 Y95.725 E3.65133
G1 X84.522 Y95.492 E3.67526
G1 X84.834 Y95.318 E3.69913
G1 X85.176 Y95.209 E3.72311
G1 X85.364 Y95.188 E3.73575
G1 X85.764 Y95.194 F7800
G1 E1.73575 F2400
G92 E0
G1 X88.547 Y113.171 F7800
G1 E2 F2400
;TYPE:Perimeter
G1 F1800
G1 X88.671 Y113.299 E2.01191
G1 X89.044 Y113.499 E2.04018
G1 X89.484 Y113.573 E2.06999
G1 X130.516 Y113.573 E4.81115
G1 X130.956 Y113.499 E4.84096
G1 X131.329 Y113.299 E4.86923
G1 X131.596 Y113.026 E4.89474
G1 X131.759 Y112.733 E4.91714
G1 X131.855 Y112.235 E4.95102
G1 X131.859 Y108.006 E5.23354
G1 X132.008 Y108.272 E5.25391
G1 X132.354 Y108.726 E5.29204
G1 X132.784 Y109.102 E5.3302
G1 X133.279 Y109.386 E5.36832
G1 X133.821 Y109.566 E5.40647
G1 X134.388 Y109.635 E5.44463
G1 X134.957 Y109.591 E5.48276
G1 X135.507 Y109.434 E5.52097
G1 X136.014 Y109.172 E5.5591
G1 X136.442 Y108.829 E5.59574
G1 X136.442 Y113.882 E5.93331
G1 X136.329 Y114.389 E5.96801
G1 X136.017 Y114.825 E6.00383
G1 X135.568 Y115.085 E6.03849
G1 X135.1 Y115.163 E6.07019
G1 X85.875 Y115.163 E9.35868
G1 X84.694 Y115.148 E9.43758
G1 X84.246 Y115.006 E9.46898
G1 X83.893 Y114.735 E9.49871
G1 X83.641 Y114.301 E9.53224
G1 X83.555 Y113.835 E9.5639
G1 X83.555 Y108.829 E9.89833
G1 X83.754 Y109.004 E9.91603
G1 X84.326 Y109.354 E9.96083
G1 X84.827 Y109.536 E9.99644
G1 X85.488 Y109.635 E10.04109
G1 X86.057 Y109.591 E10.07922
G1 X86.607 Y109.434 E10.11743
G1 X87.114 Y109.172 E10.15556
G1 X87.559 Y108.814 E10.19371
G1 X87.925 Y108.376 E10.23184
G1 X88.145 Y107.952 E10.26375
G1 X88.145 Y112.234 E10.54981
G1 X88.241 Y112.733 E10.58376
G1 X88.403 Y113.025 E10.60607
G1 X88.505 Y113.129 E10.6158
G1 E8.6158 F2400
G92 E0
G1 X88.505 Y113.129 F7800
G1 X131.741 Y107.284
G1 E2 F2400
;WIDTH:0.372237
G1 F1800
G1 X131.717 Y106.769 E2.0198
;WIDTH:0.360603
G1 X131.735 Y106.521 E2.02899
;WIDTH:0.397744
G1 X131.754 Y106.274 E2.03929
;WIDTH:0.434885
G1 X131.773 Y106.026 E2.05078
G1 E.05078 F2400
G92 E0
G1 X131.773 Y106.026 F7800
G1 X134.27 Y94.112
G1 E2 F2400
;WIDTH:0.625017
G1 F1800
G1 X133.876 Y94.143 E2.02764
G1 X133.393 Y94.302 E2.0632
;WIDTH:0.6
G1 X132.886 Y94.564 E2.10133
G1 X132.441 Y94.922 E2.13948
G1 X132.075 Y95.361 E2.17766
G1 X131.855 Y95.756 E2.20786
G1 X131.855 Y93.574 E2.35363
G1 X133.274 Y93.574 E2.44843
;WIDTH:0.619074
G1 X134.532 Y93.572 E2.53546
;WIDTH:0.625533
G1 X134.908 Y93.587 E2.5618
;WIDTH:0.655095
G1 X135.284 Y93.602 E2.58952
;WIDTH:0.701992
