; generated by PrusaSlicer 2.8.1+linux-x64-GTK3 on 2024-10-06 at 13:24:03 UTC

; 

; external perimeters extrusion width = 0.45mm
; perimeters extrusion width = 0.45mm
; infill extrusion width = 0.45mm
; solid infill extrusion width = 0.45mm
; top infill extrusion width = 0.40mm
; support material extrusion width = 0.40mm
; first layer extrusion width = 0.60mm

M190 S60 ; set bed temperature and wait for it to be reached
M104 S200 ; set temperature
;TYPE:Custom
G28 ; home all axes
G1 Z5 F5000 ; lift nozzle
M109 S200 ; set temperature and wait for it to be reached
G21 ; set units to millimeters
G90 ; use absolute coordinates
M82 ; use absolute distances for extrusion
G92 E0
; Filament gcode
M107
;LAYER_CHANGE
;Z:0.3
;HEIGHT:0.3
G1 E-2 F2400
G1 Z.3 F7800
G1 X74.045 Y103.021
G1 E0 F2400
;TYPE:Skirt/Brim
;WIDTH:0.6
G1 F1800
G1 X76.765 Y101.196 E.21882
G1 X110.014 Y89.946 E2.56374
G1 X111.562 Y89.71 E2.66835
G1 X128.318 Y89.765 E3.78775
G1 X130.159 Y90.258 E3.91507
G1 X131.838 Y91.282 E4.04645
G1 X145.209 Y102.294 E5.20365
G1 X146.65 Y103.996 E5.35263
G1 X147.492 Y107.132 E5.56955
G1 X147.492 Y121.375 E6.52106
G1 X147.095 Y123.569 E6.67001
G1 X145.955 Y125.486 E6.81901
G1 X144.216 Y126.882 E6.96799
G1 X143.075 Y127.363 E7.05071
G1 X134.572 Y129.991 E7.64527
G1 X133.539 Y130.217 E7.71591
G1 X132.605 Y130.286 E7.77848
G1 X87.415 Y130.289 E10.79742
G1 X86.48 Y130.22 E10.86005
G1 X85.449 Y129.994 E10.93056
G1 X76.927 Y127.363 E11.52639
G1 X74.947 Y126.337 E11.67537
G1 X73.452 Y124.682 E11.82436
G1 X72.631 Y122.608 E11.97338
G1 X72.508 Y121.375 E12.05616
G1 X72.508 Y107.132 E13.00767
G1 X72.905 Y104.938 E13.15662
G1 X74.015 Y103.072 E13.30167
G1 E11.30167 F2400
G92 E0
G1 X74.015 Y103.072 F7800
G92 E0
G1 X141.224 Y121.375
G1 E2 F2400
;TYPE:Support material
G1 F1800
G1 X136.19 Y121.375 E2.3363
G1 X136.889 Y120.639 E2.40411
G1 X137.046 Y120.103 E2.44142
G1 X137.056 Y115.955 E2.71853
G1 X136.529 Y115.645 E2.75938
G1 X133.5 Y117.394 E2.99304
G1 X130.994 Y115.947 E3.18636
G1 X130.994 Y113.053 E3.37969
G1 X133.5 Y111.606 E3.57301
G1 X136.529 Y113.355 E3.80667
G1 X137.056 Y113.045 E3.84752
G1 X137.019 Y108.677 E4.13934
G1 X136.774 Y108.213 E4.17439
G1 X135.697 Y107.132 E4.27633
G1 X141.224 Y107.132 E4.64556
G1 X141.224 Y121.294 E5.59166
G1 X141.224 Y121.294 F7800
G1 X140.352 Y121.134
G1 F1800
G1 X140.352 Y107.614 E6.49487
G1 X139.757 Y107.614 E6.53462
G1 X139.757 Y120.893 E7.42173
G1 X139.161 Y120.893 E7.46155
G1 X139.161 Y107.614 E8.34866
G1 X138.566 Y107.614 E8.38841
G1 X138.566 Y120.893 E9.27552
G1 X137.971 Y120.893 E9.31527
G1 X137.971 Y107.614 E10.20238
G1 X137.376 Y107.614 E10.24213
G1 X137.376 Y121.134 E11.14534
G1 X137.376 Y121.134 F7800
G1 X136.781 Y115.514
G1 F1800
G1 X136.781 Y113.766 E11.26212
G1 X136.531 Y113.913 E11.28149
G1 X136.186 Y113.713 E11.30813
G1 X136.186 Y115.287 E11.41328
G1 X135.591 Y115.63 E11.45916
G1 X135.591 Y113.37 E11.61014
G1 X134.996 Y113.026 E11.65605
G1 X134.996 Y115.974 E11.85299
G1 X134.4 Y116.317 E11.89893
G1 X134.4 Y112.683 E12.1417
G1 X133.805 Y112.339 E12.18761
G1 X133.805 Y116.661 E12.47634
G1 X133.5 Y116.837 E12.49986
G1 X133.21 Y116.67 E12.52222
G1 X133.21 Y112.33 E12.81216
G1 X132.615 Y112.674 E12.85807
G1 X132.615 Y116.326 E13.10204
G1 X132.02 Y115.983 E13.14792
G1 X132.02 Y112.739 E13.36464
G1 E11.36464 F2400
G92 E0
G1 X132.02 Y112.739 F7800
G1 X83.605 Y107.83
G1 E2 F2400
G1 F1800
G1 X83.111 Y108.361 E2.04845
G1 X82.954 Y108.897 E2.08576
G1 X82.944 Y113.045 E2.36287
G1 X83.471 Y113.355 E2.40372
G1 X86.5 Y111.606 E2.63738
G1 X89.533 Y113.357 E2.87134
G1 X90.064 Y113.036 E2.91279
G1 X90.046 Y111.534 E3.01314
G1 X90.083 Y111.254 E3.03201
G1 X90.329 Y110.829 E3.06482
G1 X90.754 Y110.583 E3.09763
G1 X91.034 Y110.546 E3.1165
G1 X93.018 Y110.546 E3.24904
G1 X93.018 Y119.454 E3.84414
G1 X91.034 Y119.454 E3.97668
G1 X90.754 Y119.417 E3.99555
G1 X90.329 Y119.171 E4.02836
G1 X90.083 Y118.746 E4.06117
G1 X90.046 Y118.466 E4.08004
G1 X90.059 Y115.958 E4.24759
G1 X89.53 Y115.644 E4.28869
G1 X86.5 Y117.394 E4.52245
G1 X83.471 Y115.645 E4.75611
G1 X82.944 Y115.955 E4.79696
G1 X82.954 Y120.103 E5.07407
G1 X83.111 Y120.639 E5.11138
G1 X83.81 Y121.375 E5.17919
G1 X78.776 Y121.375 E5.51549
G1 X78.776 Y107.132 E6.467
G1 X84.303 Y107.132 E6.83623
G1 X83.662 Y107.774 E6.89684
G1 E4.89684 F2400
G92 E0
G1 X83.662 Y107.774 F7800
G1 X92.146 Y119.213
G1 E2 F2400
G1 F1800
G1 X92.146 Y111.028 E2.5468
G1 X91.551 Y111.028 E2.58655
G1 X91.551 Y118.972 E3.11725
G1 X90.956 Y118.958 E3.15701
G1 X90.956 Y111.042 E3.68584
G1 X90.672 Y111.172 E3.70671
G1 X90.528 Y111.566 E3.73473
G1 X90.557 Y113.301 E3.85065
G1 X90.361 Y113.42 E3.86597
G1 X90.361 Y115.576 E4.01
G1 X89.766 Y115.223 E4.05622
G1 X89.766 Y113.78 E4.15262
G1 X89.539 Y113.917 E4.17033
G1 X89.17 Y113.705 E4.19876
G1 X89.17 Y115.295 E4.30498
G1 X88.575 Y115.639 E4.35089
G1 X88.575 Y113.361 E4.50307
G1 X87.98 Y113.017 E4.54898
G1 X87.98 Y115.983 E4.74712
G1 X87.385 Y116.326 E4.793
G1 X87.385 Y112.674 E5.03697
G1 X86.79 Y112.33 E5.08288
G1 X86.79 Y116.67 E5.37282
G1 X86.5 Y116.837 E5.39518
G1 X86.195 Y116.661 E5.4187
G1 X86.195 Y112.339 E5.70743
G1 X85.6 Y112.683 E5.75334
G1 X85.6 Y116.317 E5.99611
G1 X85.004 Y115.974 E6.04205
G1 X85.004 Y113.026 E6.23899
G1 X84.409 Y113.37 E6.2849
G1 X84.409 Y115.63 E6.43588
G1 X83.814 Y115.287 E6.48176
G1 X83.814 Y113.713 E6.58691
G1 X83.469 Y113.913 E6.61355
G1 X83.219 Y113.766 E6.63292
G1 X83.219 Y115.514 E6.7497
G1 X83.219 Y115.514 F7800
G1 X82.624 Y121.134
G1 F1800
G1 X82.624 Y107.614 E7.65291
G1 X82.029 Y107.614 E7.69266
G1 X82.029 Y120.893 E8.57977
G1 X81.434 Y120.893 E8.61952
G1 X81.434 Y107.614 E9.50663
G1 X80.839 Y107.614 E9.54638
G1 X80.839 Y120.893 E10.43349
G1 X80.243 Y120.893 E10.47331
G1 X80.243 Y107.614 E11.36042
G1 X79.648 Y107.614 E11.40017
G1 X79.648 Y121.134 E12.30338
G1 E10.30338 F2400
G92 E0
G1 X79.648 Y121.134 F7800
G1 X123.234 Y121.239
G1 E2 F2400
;TYPE:Perimeter
;WIDTH:0.6
G1 F1800
G1 X123.123 Y121.279 E2.00788
G1 X122.502 Y121.35 E2.04964
G1 X119.188 Y121.35 E2.27103
G1 X118.624 Y121.288 E2.30894
G1 X117.922 Y121.046 E2.35855
G1 X117.307 Y120.632 E2.40808
G1 X113.634 Y116.975 E2.75434
G1 X113.46 Y116.775 E2.77205
;WIDTH:0.562744
G1 X113.285 Y116.574 E2.78862
;WIDTH:0.525488
G1 X113.111 Y116.373 E2.80391
;WIDTH:0.488233
G1 X112.975 Y116.233 E2.81423
;WIDTH:0.481837
G1 X104.312 Y107.57 E3.45213
;WIDTH:0.514262
G1 X103.949 Y107.14 E3.48371
;WIDTH:0.557131
G1 X103.844 Y107.001 E3.49442
;WIDTH:0.6
G1 X103.74 Y106.862 E3.50602
G1 X103.523 Y106.291 E3.54683
G1 X103.442 Y105.527 E3.59816
G1 X103.503 Y105.019 E3.63234
G1 X103.595 Y104.68 E3.65581
G1 X103.927 Y104.011 E3.7057
G1 X104.376 Y103.487 E3.7518
G1 X104.882 Y103.118 E3.79364
G1 X110.362 Y100.018 E4.21425
G1 X110.874 Y99.798 E4.25148
G1 X111.589 Y99.661 E4.30011
G1 X112.3 Y99.65 E4.34761
G1 X122.502 Y99.65 E5.02916
G1 X123.066 Y99.712 E5.06707
G1 X123.768 Y99.954 E5.11668
G1 X124.384 Y100.369 E5.1663
G1 X124.871 Y100.929 E5.21588
G1 X125.197 Y101.596 E5.26548
G1 X125.339 Y102.323 E5.31497
G1 X125.35 Y102.498 E5.32668
G1 X125.35 Y118.502 E6.39583
G1 X125.288 Y119.066 E6.43374
G1 X125.197 Y119.404 E6.45712
G1 X124.871 Y120.071 E6.50672
G1 X124.384 Y120.631 E6.5563
G1 X123.768 Y121.046 E6.60592
G1 X123.291 Y121.218 E6.63979
G1 X123.291 Y121.218 F7800
G1 X123.095 Y120.719
G1 F1800
G1 X122.502 Y120.815 E6.67992
G1 X119.188 Y120.815 E6.90131
G1 X118.694 Y120.757 E6.93454
G1 X118.127 Y120.551 E6.97484
G1 X117.634 Y120.208 E7.01496
G1 X104.649 Y107.233 E8.24127
G1 X104.34 Y106.841 E8.27462
G1 X104.084 Y106.291 E8.31515
G1 X103.978 Y105.539 E8.36588
G1 X104.047 Y105.018 E8.40099
G1 X104.243 Y104.522 E8.43662
G1 X104.593 Y104.028 E8.47707
G1 X105.058 Y103.642 E8.51744
G1 X110.625 Y100.484 E8.94502
G1 X111.275 Y100.241 E8.99138
G1 X111.761 Y100.185 E9.02406
G1 X122.502 Y100.185 E9.74162
G1 X122.996 Y100.243 E9.77485
G1 X123.563 Y100.449 E9.81515
G1 X124.058 Y100.794 E9.85546
G1 X124.446 Y101.255 E9.89571
G1 X124.702 Y101.801 E9.936
G1 X124.815 Y102.498 E9.98317
G1 X124.815 Y118.502 E11.05232
G1 X124.746 Y119.059 E11.08982
G1 X124.551 Y119.563 E11.12592
G1 X124.206 Y120.058 E11.16623
G1 X123.745 Y120.446 E11.20648
G1 X123.199 Y120.702 E11.24677
G1 X123.154 Y120.71 E11.24982
G1 X123.154 Y120.71 F7800
G1 X122.959 Y120.213
;TYPE:External perimeter
G1 F1800
G1 X122.926 Y120.226 E11.25219
G1 X122.502 Y120.279 E11.28074
G1 X119.188 Y120.279 E11.50213
G1 X118.696 Y120.208 E11.53534
G1 X118.271 Y120.022 E11.56633
G1 X117.933 Y119.76 E11.5949
G1 X105.028 Y106.854 E12.81417
G1 X104.73 Y106.454 E12.84749
G1 X104.559 Y106.002 E12.87977
G1 X104.513 Y105.552 E12.90999
G1 X104.583 Y105.095 E12.94088
G1 X104.772 Y104.669 E12.97201
G1 X105.066 Y104.307 E13.00316
G1 X105.41 Y104.05 E13.03185
G1 X110.889 Y100.951 E13.45237
G1 X111.344 Y100.773 E13.48501
G1 X111.761 Y100.721 E13.51308
G1 X122.502 Y100.721 E14.23064
G1 X122.994 Y100.793 E14.26386
G1 X123.47 Y101.017 E14.299
G1 X123.781 Y101.268 E14.3257
G1 X124.056 Y101.642 E14.35671
G1 X124.226 Y102.074 E14.38772
G1 X124.279 Y102.498 E14.41627
G1 X124.279 Y118.502 E15.48542
G1 X124.208 Y118.994 E15.51863
G1 X124.022 Y119.419 E15.54962
G1 X123.732 Y119.781 E15.58061
G1 X123.358 Y120.056 E15.61162
G1 X123.015 Y120.191 E15.63625
G1 X122.621 Y120.261 F7800
G1 E13.63625 F2400
G92 E0
G1 X129.283 Y112.065 F7800
G1 E2 F2400
;TYPE:Perimeter
G1 F1800
G1 X129.227 Y112.156 E2.00714
G1 X129.131 Y112.433 E2.02672
G1 X129.098 Y112.731 E2.04675
G1 X129.098 Y116.269 E2.28311
G1 X129.118 Y116.5 E2.2986
G1 X129.234 Y116.858 E2.32374
G1 X129.445 Y117.168 E2.34879
G1 X129.767 Y117.428 E2.37644
G1 X132.83 Y119.197 E2.61274
G1 X133.197 Y119.341 E2.63908
G1 X133.665 Y119.366 E2.67039
G1 X134.17 Y119.197 E2.70597
G1 X135.152 Y118.63 E2.78172
G1 X135.15 Y119.521 E2.84124
G1 X135.15 Y119.733 E2.8554
G1 X132.234 Y122.65 E3.13094
G1 X87.766 Y122.65 E6.10164
G1 X84.85 Y119.733 E6.37718
G1 X84.848 Y118.63 E6.45087
G1 X85.83 Y119.197 E6.52662
G1 X86.432 Y119.374 E6.56854
G1 X86.959 Y119.295 E6.60414
G1 X87.17 Y119.197 E6.61968
G1 X88.158 Y118.626 E6.69591
G1 X88.303 Y119.404 E6.74878
G1 X88.51 Y119.887 E6.78389
G1 X88.869 Y120.384 E6.82485
G1 X89.116 Y120.631 E6.84819
G1 X89.732 Y121.046 E6.89781
G1 X90.434 Y121.288 E6.94742
G1 X90.998 Y121.35 E6.98533
G1 X110.707 Y121.35 E8.302
G1 X111.271 Y121.288 E8.33991
G1 X111.608 Y121.197 E8.36323
G1 X112.275 Y120.871 E8.41283
G1 X112.836 Y120.384 E8.46246
G1 X113.188 Y119.898 E8.50255
G1 X113.402 Y119.404 E8.53852
G1 X113.544 Y118.675 E8.58814
G1 X113.492 Y117.934 E8.63776
G1 X113.251 Y117.232 E8.68734
G1 X113.146 Y117.094 E8.69892
;WIDTH:0.556978
G1 X113.042 Y116.955 E8.70959
;WIDTH:0.513957
G1 X112.68 Y116.528 E8.74098
;WIDTH:0.481837
G1 X104.017 Y107.865 E9.37888
;WIDTH:0.488292
G1 X103.881 Y107.724 E9.38924
;WIDTH:0.525528
G1 X103.705 Y107.523 E9.40461
;WIDTH:0.562764
G1 X103.53 Y107.321 E9.42122
;WIDTH:0.6
G1 X103.354 Y107.119 E9.43912
G1 X102.752 Y106.532 E9.49529
G1 X102.282 Y106.188 E9.5342
G1 X101.816 Y105.984 E9.56818
G1 X101.445 Y105.878 E9.59396
G1 X100.71 Y105.824 E9.64319
G1 X99.985 Y105.96 E9.69247
G1 X99.467 Y106.182 E9.73012
G1 X95.105 Y108.65 E10.06493
G1 X90.998 Y108.65 E10.3393
G1 X90.377 Y108.721 E10.38106
G1 X89.732 Y108.954 E10.42687
G1 X89.375 Y109.17 E10.45475
G1 X88.942 Y109.529 E10.49233
G1 X88.629 Y109.929 E10.52626
G1 X88.349 Y110.484 E10.56779
G1 X87.17 Y109.803 E10.65875
G1 X86.772 Y109.652 E10.68719
G1 X86.316 Y109.636 E10.71767
G1 X85.83 Y109.803 E10.752
G1 X84.848 Y110.37 E10.82775
G1 X84.85 Y109.267 E10.90144
G1 X87.766 Y106.35 E11.17698
G1 X95.727 Y106.35 E11.70882
G1 X96.386 Y106.177 E11.75434
G1 X111.997 Y97.346 E12.95254
G1 X126.65 Y97.35 E13.93144
G1 X126.65 Y103.502 E14.34243
G1 X126.721 Y104.123 E14.38419
G1 X126.954 Y104.768 E14.43
G1 X127.369 Y105.384 E14.47962
G1 X127.929 Y105.871 E14.5292
G1 X128.596 Y106.197 E14.5788
G1 X128.934 Y106.288 E14.60218
G1 X129.498 Y106.35 E14.64009
G1 X132.234 Y106.35 E14.82287
G1 X135.15 Y109.267 E15.09841
G1 X135.152 Y110.37 E15.1721
G1 X134.17 Y109.803 E15.24785
G1 X133.665 Y109.634 E15.28343
G1 X133.197 Y109.659 E15.31474
G1 X132.83 Y109.803 E15.34108
G1 X129.744 Y111.585 E15.57914
G1 X129.373 Y111.918 E15.61244
G1 X129.315 Y112.014 E15.61993
G1 X129.315 Y112.014 F7800
G1 X129.751 Y112.334
G1 F1800
G1 X129.711 Y112.386 E15.62431
G1 X129.633 Y112.731 E15.64794
G1 X129.633 Y116.269 E15.8843
G1 X129.655 Y116.452 E15.89661
G1 X129.807 Y116.767 E15.91998
G1 X130.035 Y116.964 E15.94011
G1 X132.671 Y118.487 E16.14349
G1 X133.318 Y118.82 E16.1921
G1 X133.599 Y118.834 E16.2109
G1 X133.902 Y118.733 E16.23224
G1 X135.689 Y117.701 E16.3701
G1 X135.686 Y119.522 E16.49175
G1 X135.685 Y119.955 E16.52068
G1 X132.455 Y123.185 E16.82584
G1 X87.545 Y123.185 E19.82607
G1 X84.315 Y119.955 E20.13123
G1 X84.311 Y117.701 E20.28181
G1 X86.098 Y118.733 E20.41967
G1 X86.459 Y118.84 E20.44482
G1 X86.775 Y118.792 E20.46617
G1 X86.902 Y118.733 E20.47553
G1 X88.687 Y117.702 E20.61324
G1 X88.692 Y118.607 E20.6737
G1 X88.798 Y119.199 E20.71388
G1 X89.054 Y119.745 E20.75417
G1 X89.442 Y120.206 E20.79442
G1 X89.937 Y120.551 E20.83473
G1 X90.504 Y120.757 E20.87503
G1 X90.998 Y120.815 E20.90826
G1 X110.811 Y120.808 E22.23187
G1 X111.403 Y120.702 E22.27205
G1 X111.949 Y120.446 E22.31234
G1 X112.411 Y120.058 E22.35264
G1 X112.756 Y119.563 E22.39295
G1 X112.961 Y118.996 E22.43323
G1 X113.013 Y118.395 E22.47353
G1 X112.907 Y117.801 E22.51384
G1 X112.651 Y117.255 E22.55413
G1 X112.343 Y116.865 E22.58733
G1 X102.976 Y107.498 E23.4723
G1 X102.425 Y106.957 E23.52389
G1 X102.02 Y106.656 E23.5576
G1 X101.516 Y106.442 E23.59418
G1 X100.985 Y106.356 E23.63012
G1 X100.387 Y106.404 E23.6702
G1 X99.73 Y106.648 E23.71702
G1 X95.223 Y109.185 E24.06254
G1 X90.998 Y109.185 E24.34479
G1 X90.47 Y109.249 E24.38032
G1 X89.937 Y109.449 E24.41835
G1 X89.442 Y109.794 E24.45866
G1 X89.054 Y110.255 E24.49891
G1 X88.798 Y110.801 E24.5392
G1 X88.703 Y111.307 E24.57359
G1 X87.096 Y110.379 E24.69756
G1 X86.663 Y110.176 E24.72951
G1 X86.39 Y110.167 E24.74776
G1 X86.098 Y110.267 E24.76838
G1 X84.311 Y111.299 E24.90624
G1 X84.315 Y109.045 E25.05682
G1 X87.545 Y105.815 E25.36198
G1 X95.727 Y105.815 E25.90858
G1 X96.122 Y105.711 E25.93587
G1 X111.879 Y96.81 E27.14486
G1 X127.185 Y96.815 E28.16738
G1 X127.185 Y103.502 E28.61411
G1 X127.298 Y104.199 E28.66128
G1 X127.554 Y104.745 E28.70157
G1 X127.942 Y105.206 E28.74182
G1 X128.437 Y105.551 E28.78213
G1 X128.961 Y105.75 E28.81958
G1 X129.498 Y105.815 E28.85572
G1 X132.455 Y105.815 E29.05326
G1 X135.685 Y109.045 E29.35842
G1 X135.689 Y111.299 E29.509
G1 X133.902 Y110.267 E29.64686
G1 X133.599 Y110.166 E29.6682
G1 X133.318 Y110.18 E29.687
G1 X133.098 Y110.267 E29.7028
G1 X130.57 Y111.727 E29.89783
G1 X129.905 Y112.129 E29.94974
G1 X129.787 Y112.286 E29.96286
G1 X129.787 Y112.286 F7800
G1 X130.212 Y112.604
;TYPE:External perimeter
G1 F1800
G1 X130.169 Y112.731 E29.97182
G1 X130.169 Y116.269 E30.20818
G1 X130.196 Y116.386 E30.2162
G1 X130.303 Y116.501 E30.22669
G1 X133.439 Y118.298 E30.46815
G1 X133.634 Y118.269 E30.48132
G1 X136.226 Y116.773 E30.68125
G1 X136.222 Y119.522 E30.8649
G1 X136.221 Y120.048 E30.90004
G1 X136.142 Y120.256 E30.9149
G1 X132.768 Y123.63 E31.23367
G1 X132.566 Y123.721 E31.24847
G1 X87.451 Y123.721 E34.26239
G1 X87.244 Y123.642 E34.27719
G1 X83.87 Y120.268 E34.59596
G1 X83.779 Y120.066 E34.61076
G1 X83.774 Y116.773 E34.83075
G1 X86.155 Y118.148 E35.01443
G1 X86.486 Y118.305 E35.0389
G1 X86.634 Y118.269 E35.04908
G1 X89.225 Y116.773 E35.24895
G1 X89.221 Y118.501 E35.36439
G1 X89.274 Y118.926 E35.393
G1 X89.444 Y119.358 E35.42401
G1 X89.719 Y119.732 E35.45502
G1 X90.081 Y120.022 E35.48601
G1 X90.506 Y120.208 E35.517
G1 X90.998 Y120.279 E35.55021
G1 X110.707 Y120.279 E36.86688
G1 X111.131 Y120.226 E36.89543
G1 X111.563 Y120.056 E36.92644
G1 X111.936 Y119.781 E36.9574
G1 X112.226 Y119.419 E36.98839
G1 X112.412 Y118.994 E37.01938
G1 X112.482 Y118.535 E37.0504
G1 X112.43 Y118.074 E37.08139
G1 X112.261 Y117.642 E37.11238
G1 X111.964 Y117.243 E37.14561
G1 X102.316 Y107.596 E38.05708
G1 X101.79 Y107.144 E38.10341
