; generated by PrusaSlicer 2.8.1+linux-x64-GTK3 on 2024-10-06 at 15:33:39 UTC

; 

; external perimeters extrusion width = 0.45mm
; perimeters extrusion width = 0.45mm
; infill extrusion width = 0.45mm
; solid infill extrusion width = 0.45mm
; top infill extrusion width = 0.40mm
; support material extrusion width = 0.40mm
; first layer extrusion width = 0.60mm

M190 S60 ; set bed temperature and wait for it to be reached
M104 S200 ; set temperature
;TYPE:Custom
G28 ; home all axes
G1 Z5 F5000 ; lift nozzle
M109 S200 ; set temperature and wait for it to be reached
G21 ; set units to millimeters
G90 ; use absolute coordinates
M82 ; use absolute distances for extrusion
G92 E0
; Filament gcode
M107
;LAYER_CHANGE
;Z:0.3
;HEIGHT:0.3
G1 E-2 F2400
G1 Z.3 F7800
G1 X83.23 Y100.159
G1 E0 F2400
;TYPE:Skirt/Brim
;WIDTH:0.6
G1 F1800
G1 X84.56 Y99.347 E.1041
G1 X85.108 Y99.117 E.1438
G1 X110.014 Y89.946 E1.91687
G1 X111.562 Y89.71 E2.02148
G1 X127.505 Y89.711 E3.08656
G1 X128.453 Y89.783 E3.15007
G1 X130.159 Y90.258 E3.26838
G1 X131.669 Y91.148 E3.38547
G1 X132.687 Y92.13 E3.47996
G1 X141.623 Y105.112 E4.53283
G1 X142.196 Y106.146 E4.6118
G1 X144.025 Y110.397 E4.92096
G1 X144.387 Y111.47 E4.99661
G1 X144.678 Y112.793 E5.08711
G1 X144.8 Y113.918 E5.16271
G1 X144.8 Y115.274 E5.2533
G1 X144.678 Y116.399 E5.3289
G1 X144.387 Y117.723 E5.41946
G1 X144.025 Y118.795 E5.49505
G1 X142.145 Y122.966 E5.80069
G1 X141.424 Y124.162 E5.89398
G1 X140.814 Y124.869 E5.95636
G1 X136.77 Y128.841 E6.33504
G1 X135.299 Y129.716 E6.44938
G1 X133.539 Y130.217 E6.57163
G1 X132.605 Y130.286 E6.6342
G1 X87.415 Y130.289 E9.65314
G1 X86.596 Y130.235 E9.70797
G1 X84.98 Y129.831 E9.81925
G1 X83.424 Y128.985 E9.93757
G1 X82.65 Y128.333 E10.00518
G1 X78.659 Y124.27 E10.38565
G1 X77.849 Y122.953 E10.48894
G1 X76.023 Y118.96 E10.78226
G1 X75.455 Y116.353 E10.96051
G1 X75.455 Y112.557 E11.2141
G1 X76.034 Y109.925 E11.39414
G1 X77.879 Y105.983 E11.6849
G1 X78.576 Y104.838 E11.77445
G1 X79.2 Y104.114 E11.8383
G1 X83.188 Y100.201 E12.21155
G1 E10.21155 F2400
G92 E0
G1 X83.188 Y100.201 F7800
G92 E0
G1 X138.086 Y112.398
G1 E2 F2400
;TYPE:Support material
G1 F1800
G1 X138.447 Y113.471 E2.07563
G1 X138.569 Y114.596 E2.15123
G1 X138.447 Y115.721 E2.22683
G1 X138.086 Y116.794 E2.30246
G1 X137.163 Y118.327 E2.422
G1 X137.046 Y118.26 E2.43101
G1 X137.046 Y116.181 E2.5699
G1 X136.521 Y115.878 E2.61039
G1 X133.5 Y117.622 E2.84342
G1 X130.796 Y116.061 E3.052
G1 X130.796 Y112.939 E3.26057
G1 X133.5 Y111.378 E3.46915
G1 X136.521 Y113.122 E3.70218
G1 X137.046 Y112.819 E3.74267
G1 X137.077 Y110.722 E3.88278
G1 X138.044 Y112.33 E4.00813
G1 X138.044 Y112.33 F7800
G1 X137.971 Y116.378
G1 F1800
G1 X137.971 Y113.569 E4.19579
G1 X137.528 Y112.407 E4.27887
G1 X137.528 Y113.097 E4.32497
G1 X137.376 Y113.185 E4.3367
G1 X137.376 Y115.815 E4.5124
G1 X136.781 Y115.472 E4.55828
G1 X136.781 Y113.528 E4.68815
G1 X136.521 Y113.678 E4.7082
G1 X136.186 Y113.485 E4.73403
G1 X136.186 Y115.515 E4.86964
G1 X135.591 Y115.859 E4.91555
G1 X135.591 Y113.141 E5.09713
G1 X134.996 Y112.798 E5.14301
G1 X134.996 Y116.202 E5.37042
G1 X134.4 Y116.546 E5.41639
G1 X134.4 Y112.454 E5.68976
G1 X133.805 Y112.111 E5.73564
G1 X133.805 Y116.889 E6.05484
G1 X133.5 Y117.066 E6.0784
G1 X133.21 Y116.898 E6.10079
G1 X133.21 Y112.102 E6.42119
G1 X132.615 Y112.445 E6.46707
G1 X132.615 Y116.555 E6.74164
G1 X132.02 Y116.211 E6.78755
G1 X132.02 Y112.789 E7.01616
G1 X131.425 Y113.132 E7.06204
G1 X131.425 Y116.146 E7.26339
G1 E5.26339 F2400
G92 E0
G1 X131.425 Y116.146 F7800
G1 X91.278 Y111.742
G1 E2 F2400
G1 F1800
G1 X91.278 Y117.258 E2.3685
G1 X90.046 Y117.969 E2.46353
G1 X90.046 Y111.534 E2.89342
G1 X90.15 Y111.091 E2.92382
G1 X91.208 Y111.702 E3.00544
G1 E1.00544 F2400
G92 E0
G1 X91.208 Y111.702 F7800
G1 X88.684 Y113.015
G1 E2 F2400
G1 F1800
G1 X88.878 Y113.127 E2.01497
G1 X88.878 Y115.873 E2.19842
G1 X86.5 Y117.246 E2.38186
G1 X84.122 Y115.873 E2.5653
G1 X84.122 Y113.127 E2.74875
G1 X86.5 Y111.754 E2.93219
G1 X88.614 Y112.975 E3.09528
G1 X88.614 Y112.975 F7800
G1 X87.98 Y116.113
G1 F1800
G1 X87.98 Y113.166 E3.29216
G1 X87.385 Y112.822 E3.33807
G1 X87.385 Y116.178 E3.56227
G1 X86.79 Y116.522 E3.60818
G1 X86.79 Y112.478 E3.87834
G1 X86.5 Y112.311 E3.9007
G1 X86.195 Y112.487 E3.92422
G1 X86.195 Y116.513 E4.19318
G1 X85.6 Y116.169 E4.23909
G1 X85.6 Y112.831 E4.46209
G1 X85.004 Y113.175 E4.50806
G1 X85.004 Y116.104 E4.70373
G1 E2.70373 F2400
G92 E0
G1 X85.004 Y116.104 F7800
G1 X82.954 Y111.217
G1 E2 F2400
G1 F1800
G1 X82.954 Y117.694 E2.4327
G1 X82.399 Y117.816 E2.47066
G1 X81.722 Y116.353 E2.57835
G1 X81.722 Y112.557 E2.83194
G1 X82.399 Y111.095 E2.93957
G1 X82.876 Y111.2 E2.9722
G1 E.9722 F2400
G92 E0
G1 X82.876 Y111.2 F7800
G1 X123.232 Y99.769
G1 E2 F2400
;TYPE:Perimeter
;WIDTH:0.6
G1 F1800
G1 X123.768 Y99.954 E2.03788
G1 X124.384 Y100.369 E2.0875
G1 X124.871 Y100.929 E2.13708
G1 X125.197 Y101.596 E2.18668
G1 X125.339 Y102.323 E2.23617
G1 X125.35 Y102.498 E2.24788
G1 X125.35 Y118.502 E3.31703
G1 X125.288 Y119.066 E3.35494
G1 X125.197 Y119.404 E3.37832
G1 X124.871 Y120.071 E3.42792
G1 X124.384 Y120.631 E3.4775
G1 X123.768 Y121.046 E3.52712
G1 X123.123 Y121.279 E3.57293
G1 X122.502 Y121.35 E3.61469
G1 X119.188 Y121.35 E3.83608
G1 X118.624 Y121.288 E3.87399
G1 X117.922 Y121.046 E3.9236
G1 X117.307 Y120.632 E3.97313
G1 X114.88 Y118.221 E4.20167
G1 X113.634 Y116.975 E4.31939
G1 X113.46 Y116.775 E4.3371
;WIDTH:0.562744
G1 X113.285 Y116.574 E4.35367
;WIDTH:0.525488
G1 X113.111 Y116.373 E4.36896
;WIDTH:0.488232
G1 X112.975 Y116.233 E4.37928
;WIDTH:0.481837
G1 X104.312 Y107.57 E5.01718
;WIDTH:0.514262
G1 X103.949 Y107.14 E5.04876
;WIDTH:0.557131
G1 X103.844 Y107.001 E5.05947
;WIDTH:0.6
G1 X103.74 Y106.862 E5.07107
G1 X103.523 Y106.291 E5.11188
G1 X103.452 Y105.728 E5.14979
G1 X103.455 Y105.368 E5.17384
G1 X103.525 Y104.897 E5.20565
G1 X103.749 Y104.315 E5.24731
G1 X104.17 Y103.699 E5.29715
G1 X104.42 Y103.452 E5.32063
G1 X104.882 Y103.118 E5.35871
G1 X110.362 Y100.018 E5.77932
G1 X110.874 Y99.798 E5.81655
G1 X111.589 Y99.661 E5.86518
G1 X112.298 Y99.65 E5.91255
G1 X122.502 Y99.65 E6.59423
G1 X123.066 Y99.712 E6.63214
G1 X123.175 Y99.75 E6.63985
G1 X123.175 Y99.75 F7800
G1 X123.095 Y100.279
G1 F1800
G1 X123.563 Y100.449 E6.67311
G1 X124.058 Y100.794 E6.71342
G1 X124.446 Y101.255 E6.75367
G1 X124.702 Y101.801 E6.79396
G1 X124.815 Y102.498 E6.84113
G1 X124.815 Y118.502 E7.91028
G1 X124.75 Y119.038 E7.94635
G1 X124.551 Y119.563 E7.98386
G1 X124.206 Y120.058 E8.02417
G1 X123.745 Y120.446 E8.06442
G1 X123.199 Y120.702 E8.10471
G1 X122.502 Y120.815 E8.15188
G1 X119.188 Y120.815 E8.37327
G1 X118.694 Y120.757 E8.4065
G1 X118.127 Y120.551 E8.4468
G1 X117.634 Y120.208 E8.48692
G1 X115.259 Y117.842 E8.71088
G1 X104.649 Y107.233 E9.71323
G1 X104.34 Y106.841 E9.74658
G1 X104.084 Y106.291 E9.78711
G1 X103.985 Y105.671 E9.82905
G1 X104.033 Y105.091 E9.86793
G1 X104.243 Y104.522 E9.90845
G1 X104.593 Y104.028 E9.9489
G1 X105.146 Y103.584 E9.99628
G1 X110.625 Y100.484 E10.41683
G1 X111.275 Y100.241 E10.46319
G1 X111.761 Y100.185 E10.49587
G1 X122.502 Y100.185 E11.21343
G1 X122.996 Y100.243 E11.24666
G1 X123.039 Y100.259 E11.24973
G1 X123.039 Y100.259 F7800
G1 X122.959 Y100.787
;TYPE:External perimeter
G1 F1800
G1 X122.994 Y100.793 E11.2521
G1 X123.47 Y101.018 E11.28727
G1 X123.781 Y101.268 E11.31393
G1 X124.056 Y101.642 E11.34494
G1 X124.226 Y102.074 E11.37595
G1 X124.279 Y102.498 E11.4045
G1 X124.279 Y118.502 E12.47365
G1 X124.208 Y118.994 E12.50686
G1 X124.022 Y119.419 E12.53785
G1 X123.732 Y119.781 E12.56884
G1 X123.358 Y120.056 E12.59985
G1 X122.926 Y120.226 E12.63086
G1 X122.502 Y120.279 E12.65941
G1 X119.188 Y120.279 E12.8808
G1 X118.696 Y120.208 E12.91401
G1 X118.271 Y120.022 E12.945
G1 X117.933 Y119.76 E12.97357
G1 X115.637 Y117.464 E13.19049
G1 X105.028 Y106.854 E14.19284
G1 X104.73 Y106.454 E14.22616
G1 X104.559 Y106.002 E14.25844
G1 X104.517 Y105.513 E14.29123
G1 X104.583 Y105.095 E14.3195
G1 X104.772 Y104.669 E14.35063
G1 X105.066 Y104.307 E14.38178
G1 X105.41 Y104.05 E14.41047
G1 X110.889 Y100.951 E14.83099
G1 X111.344 Y100.773 E14.86363
G1 X111.761 Y100.721 E14.8917
G1 X122.502 Y100.721 E15.60926
G1 X122.899 Y100.779 E15.63606
G1 X123.271 Y100.927 F7800
G1 E13.63606 F2400
G92 E0
G1 X129.088 Y117.048 F7800
G1 E2 F2400
;TYPE:Perimeter
G1 F1800
G1 X129.235 Y117.269 E2.01773
G1 X129.569 Y117.543 E2.04659
G1 X132.83 Y119.425 E2.29812
G1 X133.197 Y119.57 E2.32448
G1 X133.665 Y119.595 E2.35579
G1 X134.17 Y119.425 E2.39139
G1 X135.15 Y118.86 E2.46696
G1 X135.15 Y119.565 E2.51406
G1 X135.15 Y119.734 E2.52535
G1 X132.234 Y122.65 E2.80085
G1 X87.766 Y122.65 E5.77155
G1 X84.85 Y119.734 E6.04705
G1 X84.85 Y118.483 E6.13062
G1 X85.83 Y119.049 E6.20622
G1 X86.406 Y119.225 E6.24646
G1 X86.919 Y119.161 E6.281
G1 X87.17 Y119.049 E6.29936
G1 X88.133 Y118.492 E6.37368
G1 X88.303 Y119.404 E6.43566
G1 X88.476 Y119.815 E6.46545
G1 X88.852 Y120.361 E6.50974
G1 X89.116 Y120.631 E6.53497
G1 X89.732 Y121.046 E6.58459
G1 X90.374 Y121.271 E6.63004
G1 X90.998 Y121.35 E6.67206
G1 X110.707 Y121.35 E7.98873
G1 X111.271 Y121.288 E8.02664
G1 X111.608 Y121.197 E8.04996
G1 X112.275 Y120.871 E8.09956
G1 X112.836 Y120.384 E8.14919
G1 X113.188 Y119.898 E8.18928
G1 X113.402 Y119.404 E8.22525
G1 X113.544 Y118.675 E8.27487
G1 X113.492 Y117.934 E8.32449
G1 X113.251 Y117.232 E8.37407
G1 X113.146 Y117.094 E8.38565
;WIDTH:0.556978
G1 X113.042 Y116.955 E8.39632
;WIDTH:0.513956
G1 X112.68 Y116.528 E8.42771
;WIDTH:0.481837
G1 X104.017 Y107.865 E9.06561
;WIDTH:0.488292
G1 X103.881 Y107.724 E9.07597
;WIDTH:0.525528
G1 X103.705 Y107.523 E9.09134
;WIDTH:0.562764
G1 X103.53 Y107.321 E9.10795
;WIDTH:0.6
G1 X103.354 Y107.119 E9.12585
G1 X102.752 Y106.532 E9.18202
G1 X102.282 Y106.188 E9.22093
G1 X101.816 Y105.984 E9.25491
G1 X101.445 Y105.878 E9.28069
G1 X100.71 Y105.824 E9.32992
G1 X100.045 Y105.946 E9.37509
G1 X99.467 Y106.182 E9.4168
G1 X95.105 Y108.65 E9.75161
G1 X90.998 Y108.65 E10.02598
G1 X90.377 Y108.721 E10.06774
G1 X89.732 Y108.954 E10.11355
G1 X89.116 Y109.369 E10.16317
G1 X88.869 Y109.616 E10.18651
G1 X88.454 Y110.232 E10.23613
G1 X88.304 Y110.607 E10.26311
G1 X87.173 Y109.953 E10.35039
G1 X86.733 Y109.793 E10.38167
G1 X86.294 Y109.788 E10.411
G1 X85.83 Y109.951 E10.44385
G1 X84.85 Y110.517 E10.51945
G1 X84.85 Y109.266 E10.60302
G1 X87.766 Y106.35 E10.87852
G1 X95.727 Y106.35 E11.41036
G1 X96.386 Y106.177 E11.45588
G1 X111.995 Y97.347 E12.65393
G1 X126.65 Y97.35 E13.63296
G1 X126.65 Y103.502 E14.04395
G1 X126.721 Y104.123 E14.08571
G1 X126.954 Y104.768 E14.13152
G1 X127.369 Y105.384 E14.18114
G1 X127.929 Y105.871 E14.23072
G1 X128.596 Y106.197 E14.28032
G1 X128.934 Y106.288 E14.3037
G1 X129.498 Y106.35 E14.34161
G1 X132.234 Y106.35 E14.52439
G1 X135.15 Y109.266 E14.79989
G1 X135.15 Y110.14 E14.85828
G1 X134.17 Y109.575 E14.93385
G1 X133.665 Y109.405 E14.96945
G1 X133.197 Y109.43 E15.00076
G1 X132.83 Y109.575 E15.02712
G1 X129.922 Y111.254 E15.25145
G1 X129.323 Y111.641 E15.29909
G1 X129.106 Y111.903 E15.32182
G1 X128.954 Y112.238 E15.3464
G1 X128.9 Y112.617 E15.37197
G1 X128.9 Y116.383 E15.62356
G1 X128.92 Y116.614 E15.63905
G1 X129.031 Y116.961 E15.66339
G1 X129.055 Y116.998 E15.66634
G1 X129.055 Y116.998 F7800
G1 X129.557 Y116.776
G1 F1800
G1 X129.602 Y116.873 E15.67348
G1 X129.837 Y117.079 E15.69436
G1 X132.661 Y118.709 E15.91219
G1 X133.318 Y119.048 E15.96158
G1 X133.599 Y119.063 E15.98038
G1 X133.902 Y118.962 E16.00172
G1 X135.685 Y117.932 E16.13928
G1 X135.685 Y119.565 E16.24837
G1 X135.685 Y119.955 E16.27442
G1 X132.455 Y123.185 E16.57958
G1 X87.545 Y123.185 E19.57981
G1 X84.315 Y119.955 E19.88497
G1 X84.315 Y117.555 E20.0453
G1 X85.992 Y118.524 E20.17469
G1 X86.443 Y118.69 E20.2068
G1 X86.751 Y118.652 E20.22753
G1 X86.902 Y118.585 E20.23857
G1 X88.685 Y117.555 E20.37613
G1 X88.692 Y118.607 E20.44641
G1 X88.812 Y119.233 E20.48899
G1 X89.03 Y119.7 E20.52342
G1 X89.442 Y120.206 E20.56701
G1 X89.937 Y120.551 E20.60732
G1 X90.455 Y120.741 E20.64418
G1 X90.998 Y120.815 E20.68079
G1 X110.811 Y120.808 E22.0044
G1 X111.403 Y120.702 E22.04458
G1 X111.949 Y120.446 E22.08487
G1 X112.411 Y120.058 E22.12517
G1 X112.756 Y119.563 E22.16548
G1 X112.961 Y118.996 E22.20576
G1 X113.013 Y118.395 E22.24606
G1 X112.907 Y117.801 E22.28637
G1 X112.651 Y117.255 E22.32666
G1 X112.343 Y116.865 E22.35986
G1 X102.976 Y107.498 E23.24483
G1 X102.425 Y106.957 E23.29642
G1 X101.936 Y106.615 E23.33628
G1 X101.373 Y106.409 E23.37633
G1 X100.776 Y106.355 E23.41638
G1 X100.235 Y106.446 E23.45303
G1 X99.731 Y106.648 E23.4893
G1 X95.223 Y109.185 E23.83487
G1 X90.998 Y109.185 E24.11712
G1 X90.47 Y109.249 E24.15265
G1 X89.937 Y109.449 E24.19068
G1 X89.442 Y109.794 E24.23099
G1 X89.054 Y110.255 E24.27124
G1 X88.811 Y110.77 E24.30928
G1 X88.689 Y111.447 E24.35524
G1 X86.905 Y110.417 E24.49286
G1 X86.64 Y110.32 E24.51171
G1 X86.376 Y110.317 E24.52935
G1 X86.098 Y110.415 E24.54904
G1 X84.315 Y111.445 E24.6866
G1 X84.315 Y109.045 E24.84693
G1 X87.545 Y105.815 E25.15209
G1 X95.727 Y105.815 E25.69869
G1 X96.122 Y105.711 E25.72598
G1 X111.86 Y96.812 E26.9338
G1 X127.185 Y96.815 E27.95759
G1 X127.185 Y103.502 E28.40432
G1 X127.298 Y104.199 E28.45149
G1 X127.554 Y104.745 E28.49178
G1 X127.942 Y105.206 E28.53203
G1 X128.437 Y105.551 E28.57234
G1 X128.927 Y105.743 E28.6075
G1 X129.498 Y105.815 E28.64595
G1 X132.455 Y105.815 E28.84349
G1 X135.685 Y109.045 E29.14865
G1 X135.685 Y111.068 E29.2838
G1 X133.902 Y110.038 E29.42136
G1 X133.599 Y109.937 E29.4427
G1 X133.318 Y109.952 E29.4615
G1 X133.098 Y110.038 E29.47728
G1 X129.837 Y111.921 E29.72884
G1 X129.559 Y112.189 E29.75464
G1 X129.468 Y112.39 E29.76938
G1 X129.435 Y112.617 E29.7847
G1 X129.435 Y116.383 E30.03629
G1 X129.456 Y116.563 E30.0484
G1 X129.531 Y116.722 E30.06014
G1 X129.531 Y116.722 F7800
G1 X130.013 Y116.515
;TYPE:External perimeter
G1 F1800
G1 X130.105 Y116.615 E30.06922
G1 X133.439 Y118.527 E30.32598
G1 X133.634 Y118.498 E30.33915
G1 X136.221 Y117.004 E30.53872
G1 X136.221 Y119.565 E30.70981
G1 X136.221 Y120.049 E30.74214
G1 X136.142 Y120.256 E30.75694
G1 X132.768 Y123.63 E31.07571
G1 X132.566 Y123.721 E31.09051
G1 X87.451 Y123.721 E34.10443
G1 X87.244 Y123.642 E34.11923
G1 X83.87 Y120.268 E34.438
G1 X83.779 Y120.066 E34.4528
G1 X83.779 Y116.627 E34.68254
G1 X86.26 Y118.06 E34.87394
G1 X86.481 Y118.156 E34.89004
G1 X86.634 Y118.121 E34.90053
G1 X89.221 Y116.627 E35.1001
G1 X89.221 Y118.502 E35.22536
G1 X89.274 Y118.926 E35.25391
G1 X89.43 Y119.327 E35.28265
G1 X89.715 Y119.727 E35.31546
G1 X90.081 Y120.022 E35.34686
G1 X90.475 Y120.194 E35.37558
G1 X90.998 Y120.279 E35.41098
G1 X110.707 Y120.279 E36.72765
G1 X111.131 Y120.226 E36.7562
G1 X111.563 Y120.056 E36.78721
G1 X111.936 Y119.781 E36.81817
G1 X112.226 Y119.419 E36.84916
G1 X112.412 Y118.994 E36.88015
G1 X112.482 Y118.535 E36.91117
G1 X112.43 Y118.074 E36.94216
G1 X112.261 Y117.642 E36.97315
G1 X111.964 Y117.243 E37.00638
G1 X102.316 Y107.596 E37.91785
G1 X101.79 Y107.144 E37.96418
G1 X101.404 Y106.973 E37.99238
G1 X100.912 Y106.887 E38.02575
G1 X100.488 Y106.931 E38.05423
G1 X99.994 Y107.114 E38.08942
G1 X95.549 Y109.629 E38.43061
G1 X95.292 Y109.721 E38.44885
G1 X90.998 Y109.721 E38.73571
G1 X90.574 Y109.774 E38.76426
G1 X90.142 Y109.944 E38.79527
G1 X89.768 Y110.219 E38.82628
G1 X89.478 Y110.581 E38.85727
G1 X89.306 Y110.975 E38.88599
G1 X89.221 Y111.498 E38.92139
G1 X89.221 Y112.373 E38.97984
G1 X86.547 Y110.847 E39.18552
G1 X86.366 Y110.879 E39.1978
G1 X83.779 Y112.373 E39.39737
G1 X83.779 Y108.951 E39.62598
G1 X83.858 Y108.744 E39.64078
G1 X87.232 Y105.37 E39.95955
G1 X87.434 Y105.279 E39.97435
G1 X95.727 Y105.279 E40.52837
G1 X95.859 Y105.244 E40.53749
G1 X111.204 Y96.564 E41.71526
G1 X111.776 Y96.276 E41.75804
G1 X127.463 Y96.279 E42.80602
G1 X127.644 Y96.356 E42.81916
G1 X127.721 Y96.537 E42.8323
G1 X127.721 Y103.502 E43.2976
G1 X127.774 Y103.926 E43.32615
G1 X127.944 Y104.358 E43.35716
G1 X128.219 Y104.732 E43.38817
G1 X128.581 Y105.022 E43.41916
G1 X129.006 Y105.208 E43.45015
G1 X129.498 Y105.279 E43.48336
G1 X132.549 Y105.279 E43.68718
G1 X132.756 Y105.358 E43.70198
