; generated by PrusaSlicer 2.8.1+linux-x64-GTK3 on 2024-10-06 at 08:48:43 UTC

; 

; external perimeters extrusion width = 0.45mm
; perimeters extrusion width = 0.45mm
; infill extrusion width = 0.45mm
; solid infill extrusion width = 0.45mm
; top infill extrusion width = 0.40mm
; first layer extrusion width = 0.60mm

M190 S60 ; set bed temperature and wait for it to be reached
M104 S200 ; set temperature
;TYPE:Custom
G28 ; home all axes
G1 Z5 F5000 ; lift nozzle
M109 S200 ; set temperature and wait for it to be reached
G21 ; set units to millimeters
G90 ; use absolute coordinates
M82 ; use absolute distances for extrusion
G92 E0
; Filament gcode
M107
;LAYER_CHANGE
;Z:0.3
;HEIGHT:0.3
G1 E-2 F2400
G1 Z.3 F7800
G1 X69.816 Y82.818
G1 E0 F2400
;TYPE:Skirt/Brim
;WIDTH:0.6
G1 F1800
G1 X96.424 Y63.203 E2.20835
G1 X96.932 Y62.865 E2.24911
G1 X98.027 Y62.328 E2.33059
G1 X99.657 Y61.921 E2.44283
G1 X100.448 Y61.872 E2.49577
G1 X118.999 Y61.87 E3.73508
G1 X119.818 Y61.924 E3.78991
G1 X121.533 Y62.365 E3.90821
G1 X122.99 Y63.174 E4.01954
G1 X124.273 Y64.394 E4.13782
G1 X125.153 Y65.805 E4.24891
G1 X132.382 Y85.258 E5.63531
G1 X132.624 Y86.08 E5.69255
G1 X132.792 Y87.566 E5.79246
G1 X132.794 Y103.847 E6.88012
G1 X132.792 Y112.435 E7.45384
G1 X132.624 Y113.92 E7.55368
G1 X132.382 Y114.742 E7.61092
G1 X125.294 Y133.874 E8.97394
G1 X124.485 Y135.331 E9.08527
G1 X123.265 Y136.614 E9.20355
G1 X121.713 Y137.557 E9.32487
G1 X119.953 Y138.058 E9.44712
G1 X119.019 Y138.127 E9.50969
G1 X100.465 Y138.13 E10.7492
G1 X99.672 Y138.08 E10.80228
G1 X98.479 Y137.828 E10.88374
G1 X96.945 Y137.143 E10.99597
G1 X96.438 Y136.805 E11.03668
G1 X69.924 Y117.265 E13.23701
G1 X68.698 Y116.071 E13.35134
G1 X67.758 Y114.5 E13.47364
G1 X67.323 Y113.032 E13.57593
G1 X67.214 Y111.86 E13.65456
G1 X67.211 Y88.16 E15.23785
G1 X67.28 Y87.225 E15.30048
G1 X67.632 Y85.826 E15.39685
G1 X68.576 Y84.083 E15.52927
G1 X69.774 Y82.861 E15.64359
G1 E13.64359 F2400
G92 E0
G92 E0
G1 X112.306 Y106.09 F7800
G1 E2 F2400
;TYPE:Perimeter
;WIDTH:0.6
G1 F1800
G1 X112.72 Y106.226 E2.02911
G1 X113.231 Y106.559 E2.06986
G1 X113.64 Y107.013 E2.11068
G1 X113.918 Y107.557 E2.15149
G1 X114.029 Y108.031 E2.18401
G1 X114.048 Y108.501 E2.21543
G1 X113.978 Y108.933 E2.24467
G1 X114.539 Y108.867 E2.28241
G1 X115.141 Y108.957 E2.32307
G1 X115.505 Y109.099 E2.34917
G1 X116.023 Y109.434 E2.39038
G1 X116.458 Y109.933 E2.4346
G1 X116.713 Y110.442 E2.47263
G1 X116.839 Y111.043 E2.51365
G1 X116.85 Y111.218 E2.52536
G1 X116.85 Y123.84 E3.36858
G1 X116.796 Y124.332 E3.40165
G1 X116.613 Y124.857 E3.43879
G1 X116.277 Y125.37 E3.47976
G1 X115.819 Y125.779 E3.52078
G1 X115.272 Y126.055 E3.56171
G1 X114.934 Y126.146 E3.58509
G1 X114.499 Y126.191 E3.61431
G1 X102.15 Y126.191 E4.43929
G1 X101.716 Y126.146 E4.46844
G1 X101.136 Y125.956 E4.50921
G1 X100.625 Y125.622 E4.54999
G1 X100.362 Y125.356 E4.57498
G1 X100.048 Y124.883 E4.61291
G1 X99.854 Y124.334 E4.65181
G1 X99.811 Y123.866 E4.68321
G1 X99.272 Y124.347 E4.73147
G1 X98.816 Y124.596 E4.76618
G1 X98.272 Y124.743 E4.80383
G1 X97.709 Y124.757 E4.84145
G1 X97.158 Y124.635 E4.87915
G1 X96.653 Y124.387 E4.91674
G1 X96.23 Y124.019 E4.9542
;WIDTH:0.579352
G1 X96.124 Y123.9 E4.96444
;WIDTH:0.573635
G1 X86.176 Y111.722 E5.96323
;WIDTH:0.596904
G1 X85.846 Y111.337 E5.99691
;WIDTH:0.6
G1 X84.614 Y109.832 E6.12684
G1 X84.383 Y109.483 E6.1548
G1 X84.165 Y108.937 E6.19408
G1 X84.104 Y108.608 E6.21643
G1 X84.111 Y108.021 E6.25565
G1 X84.264 Y107.454 E6.29488
G1 X84.553 Y106.942 E6.33416
G1 X84.96 Y106.518 E6.37342
G1 X85.459 Y106.209 E6.41263
G1 X85.956 Y106.042 E6.44766
G1 X86.437 Y105.991 E6.47997
G1 X111.707 Y105.991 E8.16814
G1 X112.14 Y106.036 E8.19722
G1 X112.248 Y106.072 E8.20483
G1 X112.248 Y106.072 F7800
G1 X112.168 Y106.603
G1 F1800
G1 X112.272 Y106.621 E8.21188
G1 X112.697 Y106.825 E8.24337
G1 X113.055 Y107.132 E8.27488
G1 X113.322 Y107.521 E8.3064
G1 X113.479 Y107.966 E8.33792
G1 X113.517 Y108.436 E8.36942
G1 X113.432 Y108.9 E8.40093
G1 X113.228 Y109.324 E8.43236
;WIDTH:0.59366
G1 X113.066 Y109.492 E8.44777
;WIDTH:0.555558
G1 X112.904 Y109.659 E8.46202
;WIDTH:0.517457
G1 X100.556 Y122.279 E9.45977
;WIDTH:0.546082
G1 X100.337 Y122.524 E9.47951
;WIDTH:0.57471
G1 X100.117 Y122.769 E9.50047
;WIDTH:0.6
G1 X99.233 Y123.691 E9.5858
G1 X98.812 Y124.007 E9.62097
G1 X98.406 Y124.171 E9.65022
G1 X97.976 Y124.232 E9.67923
G1 X97.543 Y124.19 E9.70829
G1 X97.132 Y124.045 E9.73741
G1 X96.768 Y123.808 E9.76643
G1 X96.528 Y123.569 E9.78906
G1 X85.029 Y109.493 E11.0033
G1 X84.752 Y109.016 E11.04015
G1 X84.639 Y108.577 E11.07043
G1 X84.637 Y108.123 E11.10076
G1 X84.748 Y107.683 E11.13108
G1 X84.965 Y107.285 E11.16136
G1 X85.274 Y106.952 E11.19171
G1 X85.656 Y106.707 E11.22203
G1 X86.086 Y106.564 E11.2523
G1 X86.437 Y106.526 E11.27589
G1 X111.706 Y106.526 E12.96399
G1 X112.109 Y106.594 E12.99129
G1 X112.109 Y106.594 F7800
G1 X112.033 Y107.111
;TYPE:External perimeter
G1 F1800
G1 X112.068 Y107.116 E12.99365
G1 X112.372 Y107.251 E13.01587
G1 X112.631 Y107.46 E13.0381
G1 X112.828 Y107.729 E13.06037
G1 X112.948 Y108.039 E13.08258
G1 X112.985 Y108.37 E13.10483
G1 X112.913 Y108.755 E13.131
G1 X112.742 Y109.084 E13.15577
G1 X112.551 Y109.314 E13.17574
G1 X98.85 Y123.316 E14.48447
G1 X98.566 Y123.531 E14.50827
G1 X98.302 Y123.645 E14.52748
G1 X98 Y123.697 E14.54795
G1 X97.693 Y123.676 E14.56851
G1 X97.401 Y123.582 E14.589
G1 X97.139 Y123.421 E14.60954
G1 X96.943 Y123.23 E14.62782
G1 X85.444 Y109.154 E15.84206
G1 X85.263 Y108.853 E15.86552
G1 X85.173 Y108.546 E15.88689
G1 X85.163 Y108.225 E15.90834
G1 X85.232 Y107.913 E15.92969
G1 X85.377 Y107.627 E15.95111
G1 X85.588 Y107.386 E15.97251
G1 X85.853 Y107.205 E15.99395
G1 X86.153 Y107.095 E16.0153
G1 X86.437 Y107.062 E16.0344
G1 X111.706 Y107.062 E17.7225
G1 X111.974 Y107.102 E17.7406
G1 X112.345 Y107.25 F7800
G1 E15.7406 F2400
G92 E0
G1 X113.577 Y109.66 F7800
G1 E2 F2400
;TYPE:Perimeter
G1 F1800
G1 X113.984 Y109.48 E2.02973
G1 X114.519 Y109.403 E2.06584
G1 X114.986 Y109.469 E2.09735
G1 X115.486 Y109.699 E2.13412
G1 X115.857 Y110.022 E2.16698
G1 X116.124 Y110.422 E2.19911
G1 X116.273 Y110.851 E2.22945
G1 X116.315 Y111.218 E2.25413
G1 X116.315 Y123.84 E3.09735
G1 X116.219 Y124.408 E3.13583
G1 X116.013 Y124.834 E3.16744
G1 X115.703 Y125.193 E3.19913
G1 X115.311 Y125.459 E3.23078
G1 X114.864 Y125.615 E3.26241
G1 X114.499 Y125.656 E3.28695
G1 X102.15 Y125.656 E4.11193
G1 X101.584 Y125.561 E4.15027
G1 X101.159 Y125.357 E4.18176
G1 X100.792 Y125.037 E4.21429
G1 X100.526 Y124.641 E4.24616
G1 X100.377 Y124.216 E4.27625
G1 X100.341 Y123.73 E4.30881
G1 X100.432 Y123.263 E4.34059
G1 X100.541 Y123.068 E4.35551
;WIDTH:0.569367
G1 X100.65 Y122.874 E4.36953
;WIDTH:0.538735
G1 X100.88 Y122.596 E4.39088
;WIDTH:0.517457
G1 X113.228 Y109.976 E5.38863
;WIDTH:0.555558
G1 X113.389 Y109.824 E5.40219
;WIDTH:0.59366
G1 X113.528 Y109.693 E5.4148
G1 X113.528 Y109.693 F7800
G1 X113.848 Y110.122
;TYPE:External perimeter
;WIDTH:0.6
G1 F1800
G1 X113.881 Y110.098 E5.41753
G1 X114.303 Y109.961 E5.44717
G1 X114.664 Y109.957 E5.47129
G1 X114.831 Y109.982 E5.48257
G1 X115.162 Y110.126 E5.50668
G1 X115.427 Y110.341 E5.52948
G1 X115.63 Y110.628 E5.55296
G1 X115.742 Y110.921 E5.57392
G1 X115.779 Y111.218 E5.59391
G1 X115.779 Y123.84 E6.43713
G1 X115.724 Y124.203 E6.46166
G1 X115.588 Y124.508 E6.48397
G1 X115.377 Y124.768 E6.50634
G1 X115.107 Y124.964 E6.52863
G1 X114.794 Y125.083 E6.551
G1 X114.499 Y125.12 E6.57086
G1 X102.15 Y125.12 E7.39584
G1 X101.788 Y125.066 E7.42029
G1 X101.484 Y124.931 E7.44251
G1 X101.222 Y124.717 E7.46511
G1 X101.02 Y124.434 E7.48834
G1 X100.908 Y124.143 E7.50917
G1 X100.872 Y123.806 E7.53181
G1 X100.929 Y123.463 E7.55504
G1 X101.054 Y123.178 E7.57583
G1 X101.234 Y122.942 E7.59566
G1 X113.581 Y110.322 E8.77513
G1 X113.8 Y110.158 E8.79341
G1 X114.171 Y110.008 F7800
G1 E6.79341 F2400
G92 E0
G1 X84.8 Y111.281 F7800
G1 E2 F2400
;TYPE:Perimeter
G1 F1800
G1 X84.67 Y111.209 E2.00993
G1 X84.065 Y111.036 E2.05197
G1 X83.587 Y110.991 E2.08404
G1 X74.85 Y110.991 E2.66772
G1 X74.85 Y104.691 E3.08859
G1 X125.154 Y104.697 E6.44917
G1 X125.153 Y112.083 E6.94259
G1 X118.959 Y118.414 E7.53429
G1 X118.846 Y118.545 E7.54585
G1 X118.444 Y119.152 E7.59449
G1 X118.21 Y119.844 E7.64329
G1 X118.15 Y120.398 E7.68052
G1 X118.15 Y130.491 E8.35479
G1 X100.867 Y130.491 E9.50939
G1 X96.413 Y125.038 E9.97976
;WIDTH:0.600189
G1 X95.729 Y124.222 E10.05092
;WIDTH:0.573635
G1 X85.781 Y112.045 E11.04966
;WIDTH:0.57849
G1 X85.684 Y111.935 E11.05906
;WIDTH:0.599698
G1 X85.221 Y111.512 E11.10093
;WIDTH:0.6
G1 X84.852 Y111.31 E11.12903
G1 X84.852 Y111.31 F7800
G1 X84.572 Y111.76
G1 F1800
G1 X84.179 Y111.607 E11.1572
G1 X83.587 Y111.526 E11.19712
G1 X74.315 Y111.526 E11.81654
G1 X74.315 Y104.156 E12.3089
G1 X125.69 Y104.161 E15.74102
G1 X125.688 Y112.302 E16.28488
G1 X119.342 Y118.788 E16.89108
G1 X119.043 Y119.174 E16.9237
G1 X118.794 Y119.713 E16.96336
G1 X118.685 Y120.398 E17.0097
G1 X118.685 Y131.026 E17.71971
G1 X100.613 Y131.026 E18.92702
G1 X85.377 Y112.375 E20.5359
G1 X85.079 Y112.077 E20.56405
G1 X84.655 Y111.792 E20.59818
G1 X84.628 Y111.781 E20.60013
G1 X84.628 Y111.781 F7800
G1 X84.346 Y112.237
;TYPE:External perimeter
G1 F1800
G1 X84.005 Y112.113 E20.62437
G1 X83.587 Y112.062 E20.6525
G1 X74.037 Y112.062 E21.29049
G1 X73.856 Y111.985 E21.30363
G1 X73.779 Y111.804 E21.31677
G1 X73.779 Y103.878 E21.84627
G1 X73.856 Y103.697 E21.85941
G1 X74.037 Y103.62 E21.87255
G1 X125.924 Y103.626 E25.33888
G1 X126.013 Y103.634 E25.34485
G1 X126.174 Y103.759 E25.35847
G1 X126.226 Y103.918 E25.36965
G1 X126.224 Y112.395 E25.93596
G1 X126.144 Y112.601 E25.95072
G1 X119.725 Y119.163 E26.56396
G1 X119.47 Y119.497 E26.59203
G1 X119.29 Y119.915 E26.62243
G1 X119.221 Y120.398 E26.65502
G1 X119.221 Y131.304 E27.3836
G1 X119.149 Y131.482 E27.39643
G1 X118.959 Y131.562 E27.4102
G1 X100.455 Y131.553 E28.64637
G1 X100.273 Y131.456 E28.66015
G1 X84.962 Y112.714 E30.27691
G1 X84.705 Y112.46 E30.30105
G1 X84.399 Y112.264 E30.32533
G1 X84.023 Y112.128 F7800
G1 E28.32533 F2400
G92 E0
G1 X123.911 Y104.857 F7800
G1 E2 F2400
;TYPE:Solid infill
;WIDTH:0.600082
G1 F1800
G1 X124.752 Y105.699 E2.07951
G1 X124.752 Y106.457 E2.13016
G1 X123.394 Y105.098 E2.25853
G1 X122.636 Y105.098 E2.30918
G1 X124.752 Y107.214 E2.50912
G1 X124.752 Y107.971 E2.5597
G1 X121.879 Y105.098 E2.83117
G1 X121.121 Y105.098 E2.88182
G1 X124.752 Y108.729 E3.22492
G1 X124.752 Y109.486 E3.2755
G1 X120.363 Y105.098 E3.69018
G1 X119.606 Y105.098 E3.74076
G1 X124.751 Y110.244 E4.22697
G1 X124.751 Y111.001 E4.27755
G1 X118.848 Y105.098 E4.83533
G1 X118.09 Y105.098 E4.88598
G1 X124.751 Y111.758 E5.51534
G1 X124.751 Y111.919 E5.5261
G1 X124.456 Y112.221 E5.55431
G1 X117.333 Y105.098 E6.22737
G1 X116.575 Y105.098 E6.27802
G1 X124.081 Y112.604 E6.98727
G1 X123.707 Y112.987 E7.02304
G1 X115.817 Y105.097 E7.76858
G1 X115.06 Y105.097 E7.81916
G1 X123.332 Y113.37 E8.60084
G1 X122.957 Y113.753 E8.63665
G1 X114.302 Y105.097 E9.45452
G1 X113.544 Y105.097 E9.50517
G1 X122.583 Y114.136 E10.35928
G1 X122.208 Y114.519 E10.39509
G1 X112.787 Y105.097 E11.28534
G1 X112.029 Y105.097 E11.33599
G1 X121.833 Y114.901 E12.26238
G1 X121.459 Y115.284 E12.29815
G1 X117.237 Y111.063 E12.69705
G1 X117.252 Y111.835 E12.74864
G1 X121.084 Y115.667 E13.11073
G1 X120.709 Y116.05 E13.14654
G1 X117.252 Y112.593 E13.4732
G1 X117.252 Y113.351 E13.52385
G1 X120.335 Y116.433 E13.81512
G1 X119.96 Y116.816 E13.85093
G1 X117.252 Y114.108 E14.10681
G1 X117.252 Y114.866 E14.15746
G1 X119.585 Y117.199 E14.37791
G1 X119.211 Y117.582 E14.41368
G1 X117.252 Y115.623 E14.59879
G1 X117.252 Y116.381 E14.64944
G1 X118.836 Y117.965 E14.79911
G1 X118.667 Y118.138 E14.81527
G1 X118.484 Y118.37 E14.83501
G1 X117.252 Y117.139 E14.95138
G1 X117.252 Y117.896 E15.00196
G1 X118.174 Y118.819 E15.08913
G1 X118.076 Y118.992 E15.10241
G1 X117.935 Y119.337 E15.12731
G1 X117.252 Y118.654 E15.19185
G1 X117.252 Y119.411 E15.24243
G1 X117.795 Y119.954 E15.29374
G1 X117.748 Y120.391 E15.32311
G1 X117.748 Y120.665 E15.34142
G1 X117.252 Y120.169 E15.38829
G1 X117.252 Y120.927 E15.43894
G1 X117.748 Y121.422 E15.48576
G1 X117.748 Y122.18 E15.53641
G1 X117.252 Y121.684 E15.58328
G1 X117.252 Y122.442 E15.63393
G1 X117.748 Y122.938 E15.6808
G1 X117.748 Y123.695 E15.73138
G1 X117.252 Y123.199 E15.77825
G1 X117.241 Y123.946 E15.82817
G1 X117.748 Y124.453 E15.87608
G1 X117.748 Y125.21 E15.92666
G1 X117.135 Y124.598 E15.98454
G1 X117.088 Y124.76 E15.99581
G1 X116.914 Y125.134 E16.02337
G1 X117.748 Y125.968 E16.10218
G1 X117.748 Y126.726 E16.15283
G1 X116.613 Y125.591 E16.26008
G1 X116.233 Y125.968 E16.29585
G1 X117.748 Y127.483 E16.439
G1 X117.748 Y128.241 E16.48965
G1 X115.774 Y126.266 E16.67622
G1 X115.678 Y126.322 E16.68365
G1 X115.238 Y126.488 E16.71507
G1 X117.748 Y128.998 E16.95224
G1 X117.748 Y129.756 E17.00289
G1 X114.58 Y126.588 E17.30224
G1 X113.827 Y126.593 E17.35255
G1 X117.323 Y130.089 E17.68289
G1 X116.566 Y130.089 E17.73347
G1 X113.069 Y126.593 E18.06386
G1 X112.311 Y126.592 E18.11451
G1 X115.808 Y130.089 E18.44495
G1 X115.05 Y130.089 E18.4956
G1 X111.553 Y126.592 E18.82604
G1 X110.796 Y126.592 E18.87662
G1 X114.293 Y130.089 E19.20706
G1 X113.535 Y130.089 E19.25771
G1 X110.038 Y126.591 E19.58819
G1 X109.28 Y126.591 E19.63884
G1 X112.778 Y130.089 E19.96937
G1 X112.02 Y130.089 E20.02002
G1 X108.522 Y126.591 E20.35055
G1 X107.764 Y126.591 E20.4012
G1 X111.262 Y130.089 E20.73173
G1 X110.505 Y130.089 E20.78231
G1 X107.006 Y126.59 E21.11294
G1 X106.248 Y126.59 E21.16359
G1 X109.747 Y130.089 E21.49422
G1 X108.99 Y130.089 E21.5448
G1 X105.491 Y126.59 E21.87543
G1 X104.733 Y126.59 E21.92608
G1 X108.232 Y130.089 E22.25671
G1 X107.474 Y130.089 E22.30736
G1 X103.975 Y126.589 E22.63803
G1 X103.217 Y126.589 E22.68868
G1 X106.717 Y130.089 E23.0194
G1 X105.959 Y130.089 E23.07005
G1 X102.459 Y126.589 E23.40077
G1 X102.022 Y126.589 E23.42997
G1 X101.656 Y126.543 E23.45462
G1 X105.202 Y130.089 E23.78969
G1 X104.444 Y130.089 E23.84034
G1 X99.21 Y124.855 E24.33491
G1 X98.803 Y125.034 E24.36462
G1 X98.663 Y125.066 E24.37422
G1 X103.687 Y130.089 E24.8489
G1 X102.929 Y130.089 E24.89955
G1 X98.004 Y125.164 E25.36492
G1 X97.683 Y125.157 E25.38637
G1 X97.287 Y125.092 E25.41318
G1 X97.127 Y125.045 E25.42432
G1 X102.171 Y130.089 E25.90094
G1 X101.414 Y130.089 E25.95152
G1 X97.77 Y126.445 E26.29585
G1 E24.29585 F2400
G92 E0
G1 X97.77 Y126.445 F7800
G1 X114.926 Y108.752
G1 E2 F2400
G1 F1800
G1 X114.187 Y108.013 E2.06983
G1 E.06983 F2400
G92 E0
G1 X114.187 Y108.013 F7800
G1 X112.034 Y105.86
G1 E2 F2400
G1 F1800
G1 X111.271 Y105.097 E2.0721
G1 X110.514 Y105.097 E2.12268
G1 X111.006 Y105.589 E2.16917
G1 X110.248 Y105.589 E2.21982
G1 X109.756 Y105.097 E2.26631
G1 X108.998 Y105.097 E2.31696
G1 X109.49 Y105.589 E2.36345
G1 X108.733 Y105.589 E2.41403
G1 X108.24 Y105.097 E2.46057
G1 X107.483 Y105.097 E2.51115
G1 X107.975 Y105.589 E2.55764
G1 X107.218 Y105.589 E2.60822
G1 X106.725 Y105.097 E2.65476
G1 X105.967 Y105.096 E2.70541
G1 X106.46 Y105.589 E2.75199
G1 X105.702 Y105.589 E2.80264
G1 X105.21 Y105.096 E2.84918
G1 X104.452 Y105.096 E2.89983
G1 X104.945 Y105.589 E2.94641
G1 X104.187 Y105.589 E2.99706
G1 X103.694 Y105.096 E3.04364
G1 X102.937 Y105.096 E3.09422
G1 X103.43 Y105.589 E3.1408
G1 X102.672 Y105.589 E3.19145
G1 X102.179 Y105.096 E3.23803
G1 X101.421 Y105.096 E3.28868
G1 X101.914 Y105.589 E3.33526
G1 X101.157 Y105.589 E3.38584
G1 X100.664 Y105.096 E3.43242
G1 X99.906 Y105.096 E3.48307
G1 X100.399 Y105.589 E3.52965
G1 X99.642 Y105.589 E3.58023
G1 X99.148 Y105.096 E3.62686
G1 X98.391 Y105.096 E3.67744
G1 X98.884 Y105.589 E3.72402
G1 X98.126 Y105.589 E3.77467
G1 X97.633 Y105.096 E3.82125
G1 X96.875 Y105.095 E3.8719
G1 X97.369 Y105.589 E3.91858
G1 X96.611 Y105.589 E3.96923
G1 X96.118 Y105.095 E4.01586
G1 X95.36 Y105.095 E4.06651
G1 X95.854 Y105.589 E4.11319
G1 X95.096 Y105.589 E4.16384
G1 X94.602 Y105.095 E4.21052
G1 X93.845 Y105.095 E4.2611
G1 X94.338 Y105.589 E4.30773
G1 X93.581 Y105.589 E4.35831
G1 X93.087 Y105.095 E4.40499
G1 X92.329 Y105.095 E4.45564
G1 X92.823 Y105.589 E4.50232
G1 X92.066 Y105.589 E4.5529
