; generated by PrusaSlicer 2.8.1+linux-x64-GTK3 on 2024-10-06 at 14:37:49 UTC

; 

; external perimeters extrusion width = 0.45mm
; perimeters extrusion width = 0.45mm
; infill extrusion width = 0.45mm
; solid infill extrusion width = 0.45mm
; top infill extrusion width = 0.40mm
; support material extrusion width = 0.40mm
; first layer extrusion width = 0.60mm

M190 S60 ; set bed temperature and wait for it to be reached
M104 S200 ; set temperature
;TYPE:Custom
G28 ; home all axes
G1 Z5 F5000 ; lift nozzle
M109 S200 ; set temperature and wait for it to be reached
G21 ; set units to millimeters
G90 ; use absolute coordinates
M82 ; use absolute distances for extrusion
G92 E0
; Filament gcode
M107
;LAYER_CHANGE
;Z:0.3
;HEIGHT:0.3
G1 E-2 F2400
G1 Z.3 F7800
G1 X82.614 Y91.7
G1 E0 F2400
;TYPE:Skirt/Brim
;WIDTH:0.6
G1 F1800
G1 X83.338 Y91.076 E.06385
G1 X84.881 Y90.206 E.18219
G1 X86.461 Y89.783 E.29146
G1 X87.395 Y89.714 E.35403
G1 X132.585 Y89.711 E3.37297
G1 X133.404 Y89.765 E3.4278
G1 X135.119 Y90.206 E3.5461
G1 X136.576 Y91.015 E3.65743
G1 X137.369 Y91.686 E3.72683
G1 X140.798 Y95.112 E4.05065
G1 X141.412 Y95.823 E4.11341
G1 X142.309 Y97.418 E4.23566
G1 X143.596 Y100.583 E4.46391
G1 X144.262 Y102.628 E4.60759
G1 X144.518 Y103.869 E4.69224
G1 X144.628 Y106.078 E4.84
G1 X144.485 Y107.353 E4.92571
G1 X143.873 Y109.753 E5.09117
G1 X142.225 Y113.784 E5.3821
G1 X141.623 Y114.887 E5.46605
G1 X132.852 Y127.669 E6.50166
G1 X131.765 Y128.773 E6.60516
G1 X130.213 Y129.716 E6.72648
G1 X128.453 Y130.217 E6.84873
G1 X127.526 Y130.286 E6.91083
G1 X111.562 Y130.29 E7.97731
G1 X110.096 Y130.076 E8.07628
G1 X109.538 Y129.905 E8.11527
G1 X85.108 Y120.883 E9.85506
G1 X83.338 Y119.924 E9.98955
G1 X82.27 Y118.956 E10.08584
G1 X79.2 Y115.886 E10.37588
G1 X78.576 Y115.162 E10.43973
G1 X77.775 Y113.784 E10.54621
G1 X76.388 Y110.501 E10.7843
G1 X75.688 Y108.187 E10.94581
G1 X75.428 Y106.721 E11.04528
G1 X75.358 Y105.65 E11.11698
G1 X75.482 Y103.869 E11.23625
G1 X75.738 Y102.628 E11.3209
G1 X76.231 Y101.063 E11.43052
G1 X77.758 Y97.255 E11.70461
G1 X78.659 Y95.73 E11.82294
G1 X82.572 Y91.742 E12.19619
G1 E10.19619 F2400
G92 E0
G1 X82.572 Y91.742 F7800
G92 E0
G1 X82.954 Y103.058
G1 E2 F2400
;TYPE:Support material
G1 F1800
G1 X82.954 Y107.954 E2.32708
G1 X82.163 Y108.063 E2.38042
G1 X81.724 Y106.496 E2.48913
G1 X81.636 Y105.864 E2.53176
G1 X81.717 Y104.51 E2.62238
G1 X82.21 Y102.944 E2.73206
G1 X82.875 Y103.046 E2.77701
G1 E.77701 F2400
G92 E0
G1 X82.875 Y103.046 F7800
G1 X87.166 Y103.122
G1 E2 F2400
G1 F1800
G1 X87.783 Y103.39 E2.04494
G1 X88.316 Y103.823 E2.09082
G1 X88.558 Y104.129 E2.11688
G1 X88.921 Y104.998 E2.1798
G1 X88.974 Y105.518 E2.21472
G1 X88.921 Y106.006 E2.24751
G1 X88.549 Y106.888 E2.31146
G1 X88.059 Y107.416 E2.35958
G1 X87.484 Y107.766 E2.40455
G1 X86.836 Y107.947 E2.4495
G1 X86.164 Y107.947 E2.49439
G1 X85.516 Y107.766 E2.53934
G1 X84.941 Y107.416 E2.58431
G1 X84.46 Y106.901 E2.63139
G1 X84.079 Y106.006 E2.69637
G1 X84.026 Y105.518 E2.72916
G1 X84.079 Y104.998 E2.76408
G1 X84.438 Y104.134 E2.82658
G1 X84.683 Y103.824 E2.85298
G1 X85.217 Y103.39 E2.89895
G1 X85.834 Y103.122 E2.94389
G1 X86.5 Y103.03 E2.9888
G1 X87.087 Y103.111 E3.02839
G1 X87.087 Y103.111 F7800
G1 X87.98 Y107.147
G1 F1800
G1 X87.98 Y104.175 E3.22694
G1 X87.385 Y103.742 E3.2761
G1 X87.385 Y107.262 E3.51126
G1 X86.79 Y107.459 E3.55313
G1 X86.79 Y103.556 E3.81387
G1 X86.5 Y103.517 E3.83342
G1 X86.195 Y103.558 E3.85398
G1 X86.195 Y107.455 E4.11432
G1 X85.6 Y107.252 E4.15632
G1 X85.6 Y103.749 E4.39034
G1 X85.004 Y104.194 E4.44003
G1 X85.004 Y107.131 E4.63624
G1 E2.63624 F2400
G92 E0
G1 X85.004 Y107.131 F7800
G1 X91.283 Y104.51
G1 E2 F2400
G1 F1800
G1 X91.364 Y105.864 E2.09062
G1 X91.276 Y106.496 E2.13325
G1 X90.838 Y108.063 E2.24195
G1 X90.046 Y107.954 E2.29536
G1 X90.046 Y103.058 E2.62244
G1 X90.79 Y102.944 E2.67272
G1 X91.259 Y104.433 E2.77701
G1 E.77701 F2400
G92 E0
G1 X91.259 Y104.433 F7800
G1 X134.166 Y103.122
G1 E2 F2400
G1 F1800
G1 X134.783 Y103.39 E2.04494
G1 X135.316 Y103.823 E2.09082
G1 X135.558 Y104.129 E2.11688
G1 X135.921 Y104.998 E2.1798
G1 X135.974 Y105.518 E2.21472
G1 X135.921 Y106.006 E2.24751
G1 X135.549 Y106.888 E2.31146
G1 X135.059 Y107.416 E2.35958
G1 X134.484 Y107.766 E2.40455
G1 X133.836 Y107.947 E2.4495
G1 X133.164 Y107.947 E2.49439
G1 X132.516 Y107.766 E2.53934
G1 X131.941 Y107.416 E2.58431
G1 X131.482 Y106.924 E2.62926
G1 X131.173 Y106.327 E2.67417
G1 X131.036 Y105.669 E2.71907
G1 X131.082 Y104.997 E2.76407
G1 X131.308 Y104.361 E2.80916
G1 X131.693 Y103.815 E2.85379
G1 X132.217 Y103.39 E2.89886
G1 X132.834 Y103.122 E2.9438
G1 X133.5 Y103.03 E2.98871
G1 X134.087 Y103.111 E3.0283
G1 X134.087 Y103.111 F7800
G1 X134.996 Y107.131
G1 F1800
G1 X134.996 Y104.195 E3.22444
G1 X134.4 Y103.749 E3.27417
G1 X134.4 Y107.252 E3.50819
G1 X133.805 Y107.455 E3.55019
G1 X133.805 Y103.558 E3.81053
G1 X133.5 Y103.517 E3.83109
G1 X133.21 Y103.556 E3.85064
G1 X133.21 Y107.459 E4.11138
G1 X132.615 Y107.262 E4.15325
G1 X132.615 Y103.742 E4.38841
G1 X132.02 Y104.188 E4.43809
G1 X132.02 Y107.147 E4.63577
G1 E2.63577 F2400
G92 E0
G1 X132.02 Y107.147 F7800
G1 X138.283 Y104.51
G1 E2 F2400
G1 F1800
G1 X138.364 Y105.864 E2.09062
G1 X138.276 Y106.496 E2.13325
G1 X137.838 Y108.063 E2.24195
G1 X137.046 Y107.954 E2.29536
G1 X137.046 Y103.058 E2.62244
G1 X137.79 Y102.944 E2.67272
G1 X138.259 Y104.433 E2.77701
G1 E.77701 F2400
G92 E0
G1 X138.259 Y104.433 F7800
G1 X123.914 Y119.948
G1 E2 F2400
;TYPE:Perimeter
;WIDTH:0.6
G1 F1800
G1 X123.768 Y120.046 E2.01175
G1 X123.123 Y120.279 E2.05756
G1 X122.502 Y120.35 E2.09932
G1 X111.761 Y120.35 E2.81688
G1 X111.207 Y120.29 E2.85411
G1 X110.874 Y120.202 E2.87712
G1 X110.362 Y119.982 E2.91435
G1 X104.882 Y116.882 E3.33496
G1 X104.42 Y116.548 E3.37304
G1 X103.927 Y115.989 E3.42283
G1 X103.595 Y115.32 E3.47272
G1 X103.503 Y114.981 E3.49619
G1 X103.438 Y114.46 E3.53127
G1 X103.487 Y113.931 E3.56676
G1 X103.589 Y113.504 E3.59609
G1 X103.745 Y113.14 E3.62255
;WIDTH:0.588947
G1 X103.896 Y112.945 E3.63869
;WIDTH:0.555395
G1 X104.048 Y112.75 E3.65383
;WIDTH:0.521844
G1 X104.199 Y112.554 E3.66795
;WIDTH:0.488293
G1 X104.312 Y112.43 E3.67682
;WIDTH:0.481837
G1 X112.975 Y103.767 E4.31472
;WIDTH:0.513956
G1 X113.379 Y103.341 E4.34764
;WIDTH:0.556978
G1 X113.646 Y103.043 E4.37222
;WIDTH:0.6
G1 X113.913 Y102.745 E4.39895
G1 X117.176 Y99.483 E4.70718
G1 X117.619 Y99.129 E4.74506
G1 X118.286 Y98.803 E4.79466
G1 X118.624 Y98.712 E4.81804
G1 X119.188 Y98.65 E4.85595
G1 X122.502 Y98.65 E5.07734
G1 X123.066 Y98.712 E5.11525
G1 X123.768 Y98.954 E5.16486
G1 X124.384 Y99.369 E5.21448
G1 X124.871 Y99.929 E5.26406
G1 X125.197 Y100.596 E5.31366
G1 X125.288 Y100.934 E5.33704
G1 X125.35 Y101.498 E5.37495
G1 X125.35 Y117.502 E6.4441
G1 X125.288 Y118.066 E6.48201
G1 X125.197 Y118.404 E6.50539
G1 X124.871 Y119.071 E6.55499
G1 X124.384 Y119.631 E6.60457
G1 X123.963 Y119.915 E6.6385
G1 X123.963 Y119.915 F7800
G1 X123.652 Y119.496
G1 F1800
G1 X123.563 Y119.551 E6.64549
G1 X123.03 Y119.751 E6.68352
G1 X122.502 Y119.815 E6.71905
G1 X111.761 Y119.815 E7.43661
G1 X111.11 Y119.719 E7.48057
G1 X110.625 Y119.516 E7.51569
G1 X105.146 Y116.416 E7.93624
G1 X104.743 Y116.12 E7.96964
G1 X104.349 Y115.66 E8.0101
G1 X104.089 Y115.112 E8.05062
G1 X103.99 Y114.593 E8.08592
G1 X103.979 Y114.305 E8.10517
G1 X104.084 Y113.708 E8.14566
G1 X104.32 Y113.187 E8.18387
G1 X104.649 Y112.767 E8.21951
G1 X117.554 Y99.862 E9.43874
G1 X117.945 Y99.554 E9.47199
G1 X118.491 Y99.298 E9.51228
G1 X119.188 Y99.185 E9.55945
G1 X122.502 Y99.185 E9.78084
G1 X122.996 Y99.243 E9.81407
G1 X123.563 Y99.449 E9.85437
G1 X124.058 Y99.794 E9.89468
G1 X124.446 Y100.255 E9.93493
G1 X124.702 Y100.801 E9.97522
G1 X124.808 Y101.393 E10.0154
G1 X124.815 Y101.951 E10.05268
G1 X124.815 Y117.502 E11.09157
G1 X124.751 Y118.03 E11.1271
G1 X124.551 Y118.563 E11.16513
G1 X124.206 Y119.058 E11.20544
G1 X123.796 Y119.407 E11.24141
G1 X123.703 Y119.465 E11.24873
G1 X123.703 Y119.465 F7800
G1 X123.387 Y119.036
;TYPE:External perimeter
G1 F1800
G1 X123.358 Y119.056 E11.25108
G1 X122.926 Y119.226 E11.28209
G1 X122.502 Y119.279 E11.31064
G1 X111.761 Y119.279 E12.0282
G1 X111.278 Y119.21 E12.06079
G1 X110.889 Y119.049 E12.08892
G1 X105.41 Y115.95 E12.50944
G1 X105.015 Y115.643 E12.54286
G1 X104.736 Y115.27 E12.57398
G1 X104.564 Y114.837 E12.60511
G1 X104.51 Y114.374 E12.63625
G1 X104.579 Y113.913 E12.66739
G1 X104.765 Y113.485 E12.69857
G1 X105.028 Y113.146 E12.72723
G1 X117.933 Y100.24 E13.9465
G1 X118.271 Y99.978 E13.97507
G1 X118.752 Y99.776 E14.00992
G1 X119.188 Y99.721 E14.03928
G1 X122.502 Y99.721 E14.26067
G1 X122.994 Y99.792 E14.29388
G1 X123.419 Y99.978 E14.32487
G1 X123.781 Y100.268 E14.35586
G1 X124.056 Y100.642 E14.38687
G1 X124.226 Y101.074 E14.41788
G1 X124.279 Y101.498 E14.44643
G1 X124.279 Y117.502 E15.51558
G1 X124.208 Y117.994 E15.54879
G1 X124.022 Y118.419 E15.57978
G1 X123.732 Y118.781 E15.61077
G1 X123.435 Y119 E15.63542
G1 X123.071 Y119.166 F7800
G1 E13.63542 F2400
G92 E0
G1 X96.063 Y113.708 F7800
G1 E2 F2400
;TYPE:Perimeter
G1 F1800
G1 X95.727 Y113.65 E2.02278
G1 X87.766 Y113.65 E2.55462
G1 X84.85 Y110.734 E2.83012
G1 X84.85 Y109.536 E2.91015
G1 X85.719 Y109.792 E2.97067
G1 X86.087 Y109.843 E2.99549
G1 X86.913 Y109.843 E3.05067
G1 X87.558 Y109.714 E3.09461
G1 X88.326 Y109.461 E3.14863
G1 X88.454 Y109.768 E3.17085
G1 X88.808 Y110.305 E3.21382
G1 X89.116 Y110.631 E3.24378
G1 X89.732 Y111.046 E3.2934
G1 X90.374 Y111.271 E3.33885
G1 X90.998 Y111.35 E3.38087
G1 X95.105 Y111.35 E3.65524
G1 X99.467 Y113.818 E3.99005
G1 X100.039 Y114.061 E4.03157
G1 X100.71 Y114.176 E4.07705
G1 X101.445 Y114.122 E4.12628
G1 X101.78 Y114.031 E4.14947
G1 X102.267 Y113.815 E4.18506
G1 X102.729 Y113.485 E4.22299
G1 X103.074 Y113.161 E4.25461
G1 X103.343 Y112.863 E4.28143
;WIDTH:0.557132
G1 X103.611 Y112.564 E4.30611
;WIDTH:0.514264
G1 X104.017 Y112.135 E4.33925
;WIDTH:0.481837
G1 X112.68 Y103.472 E4.97715
;WIDTH:0.488232
G1 X112.793 Y103.348 E4.98602
;WIDTH:0.521586
G1 X112.944 Y103.154 E5.00004
;WIDTH:0.55494
G1 X113.094 Y102.96 E5.01504
;WIDTH:0.588294
G1 X113.245 Y102.766 E5.0311
;WIDTH:0.6
G1 X113.402 Y102.404 E5.05746
G1 X113.544 Y101.675 E5.10708
G1 X113.492 Y100.934 E5.1567
G1 X113.251 Y100.232 E5.20628
G1 X113.076 Y99.929 E5.22966
G1 X112.589 Y99.369 E5.27924
G1 X111.973 Y98.954 E5.32886
G1 X111.33 Y98.729 E5.37437
G1 X110.707 Y98.65 E5.41632
G1 X90.998 Y98.65 E6.73299
G1 X90.434 Y98.712 E6.7709
G1 X90.096 Y98.803 E6.79428
G1 X89.429 Y99.129 E6.84388
G1 X88.984 Y99.484 E6.88191
G1 X88.595 Y99.975 E6.92376
G1 X88.303 Y100.596 E6.9696
G1 X88.212 Y100.934 E6.99298
G1 X88.151 Y101.482 E7.02982
G1 X87.492 Y101.252 E7.07645
G1 X86.984 Y101.186 E7.11067
G1 X86.297 Y101.144 E7.15665
G1 X85.5 Y101.253 E7.21039
G1 X84.85 Y101.481 E7.25641
G1 X84.85 Y100.266 E7.33758
G1 X87.766 Y97.35 E7.61308
G1 X132.234 Y97.35 E10.58378
G1 X135.15 Y100.266 E10.85928
G1 X135.15 Y101.481 E10.94045
G1 X134.492 Y101.252 E10.98699
G1 X133.653 Y101.143 E11.04351
G1 X133.297 Y101.144 E11.06729
G1 X132.5 Y101.253 E11.12103
G1 X132.148 Y101.352 E11.14546
G1 X131.391 Y101.681 E11.2006
G1 X131.079 Y101.87 E11.22497
G1 X130.437 Y102.393 E11.28029
G1 X130.187 Y102.66 E11.30473
G1 X129.713 Y103.333 E11.35972
G1 X129.546 Y103.656 E11.38401
G1 X129.269 Y104.435 E11.43924
G1 X129.195 Y104.792 E11.4636
G1 X129.139 Y105.616 E11.51877
G1 X129.165 Y105.988 E11.54368
G1 X129.343 Y106.815 E11.60019
G1 X129.463 Y107.15 E11.62396
G1 X129.834 Y107.865 E11.67777
G1 X130.044 Y108.163 E11.70212
G1 X130.554 Y108.708 E11.75198
G1 X130.89 Y108.996 E11.78154
G1 X131.596 Y109.426 E11.83676
G1 X131.931 Y109.571 E11.86115
G1 X132.726 Y109.794 E11.91631
G1 X133.087 Y109.843 E11.94065
G1 X133.913 Y109.843 E11.99583
G1 X134.281 Y109.792 E12.02065
G1 X135.15 Y109.536 E12.08117
G1 X135.15 Y110.734 E12.1612
G1 X132.234 Y113.65 E12.4367
G1 X129.408 Y113.653 E12.62549
G1 X128.877 Y113.721 E12.66125
G1 X128.232 Y113.954 E12.70706
G1 X127.643 Y114.348 E12.7544
G1 X127.146 Y114.907 E12.80437
G1 X126.954 Y115.231 E12.82953
G1 X126.712 Y115.934 E12.8792
G1 X126.65 Y116.498 E12.91711
G1 X126.65 Y122.65 E13.3281
G1 X111.997 Y122.654 E14.307
G1 X96.386 Y113.823 E15.5052
G1 X96.175 Y113.727 E15.52069
G1 X96.123 Y113.718 E15.52422
G1 X96.123 Y113.718 F7800
G1 X95.924 Y114.237
G1 F1800
G1 X95.727 Y114.185 E15.53783
G1 X87.545 Y114.185 E16.08443
G1 X84.315 Y110.955 E16.38959
G1 X84.315 Y108.628 E16.54505
G1 X85.075 Y109.055 E16.60329
G1 X86.087 Y109.308 E16.67298
G1 X86.913 Y109.308 E16.72816
G1 X87.413 Y109.198 E16.76236
G1 X88.126 Y108.968 E16.81241
G1 X88.694 Y108.622 E16.85684
G1 X88.798 Y109.199 E16.89601
G1 X89.054 Y109.745 E16.9363
G1 X89.442 Y110.206 E16.97655
G1 X89.937 Y110.551 E17.01686
G1 X90.455 Y110.741 E17.05372
G1 X90.998 Y110.815 E17.09033
G1 X95.266 Y110.826 E17.37546
G1 X99.73 Y113.352 E17.71811
G1 X100.219 Y113.556 E17.75351
G1 X100.776 Y113.645 E17.79119
G1 X101.373 Y113.591 E17.83124
G1 X101.61 Y113.521 E17.84775
G1 X102.071 Y113.304 E17.88179
G1 X102.503 Y112.975 E17.91807
G1 X112.412 Y103.056 E18.85472
G1 X112.756 Y102.563 E18.89488
G1 X112.961 Y101.996 E18.93516
G1 X113.013 Y101.395 E18.97546
G1 X112.907 Y100.801 E19.01577
G1 X112.651 Y100.255 E19.05606
G1 X112.262 Y99.794 E19.09636
G1 X111.768 Y99.449 E19.13661
G1 X111.249 Y99.259 E19.17353
G1 X110.707 Y99.185 E19.21007
G1 X90.893 Y99.192 E20.53375
G1 X90.301 Y99.298 E20.57393
G1 X89.755 Y99.554 E20.61422
G1 X89.363 Y99.863 E20.64757
G1 X89.033 Y100.283 E20.68325
G1 X88.766 Y100.894 E20.7278
G1 X88.685 Y101.498 E20.76851
G1 X88.685 Y102.369 E20.8267
G1 X88.583 Y102.286 E20.83549
G1 X87.952 Y101.979 E20.88237
G1 X87.422 Y101.783 E20.92012
G1 X86.914 Y101.717 E20.95434
G1 X86.37 Y101.674 E20.9908
G1 X85.362 Y101.843 E21.05908
G1 X84.604 Y102.172 E21.11428
G1 X84.315 Y102.369 E21.13765
G1 X84.315 Y100.045 E21.29291
G1 X87.545 Y96.815 E21.59807
G1 X132.455 Y96.815 E24.5983
G1 X135.685 Y100.045 E24.90346
G1 X135.685 Y102.369 E25.05872
G1 X135.396 Y102.172 E25.08209
G1 X134.638 Y101.843 E25.13729
G1 X134.301 Y101.767 E25.16037
G1 X133.37 Y101.674 E25.22288
G1 X132.362 Y101.843 E25.29116
G1 X131.417 Y102.286 E25.36088
G1 X130.717 Y102.861 E25.4214
G1 X130.412 Y103.272 E25.45559
G1 X130.05 Y103.836 E25.50036
G1 X129.729 Y104.828 E25.57001
G1 X129.673 Y105.652 E25.62518
G1 X129.689 Y105.876 E25.64018
G1 X129.939 Y106.903 E25.71079
G1 X130.435 Y107.797 E25.77909
G1 X130.945 Y108.343 E25.829
G1 X131.169 Y108.539 E25.84888
G1 X132.078 Y109.056 E25.91874
G1 X133.087 Y109.308 E25.98822
G1 X133.913 Y109.308 E26.0434
G1 X134.137 Y109.276 E26.05852
G1 X135.126 Y108.968 E26.12772
G1 X135.685 Y108.628 E26.17143
G1 X135.685 Y110.955 E26.32689
G1 X132.455 Y114.185 E26.63205
G1 X129.393 Y114.192 E26.83661
G1 X128.801 Y114.298 E26.87679
G1 X128.255 Y114.554 E26.91708
G1 X127.831 Y114.908 E26.95398
G1 X127.449 Y115.436 E26.99752
G1 X127.243 Y116.004 E27.03788
G1 X127.185 Y116.498 E27.07111
G1 X127.185 Y123.185 E27.51784
G1 X112.3 Y123.189 E28.51224
G1 X111.833 Y123.177 E28.54345
G1 X96.122 Y114.289 E29.74934
G1 X95.983 Y114.253 E29.75893
G1 X95.983 Y114.253 F7800
G1 X95.793 Y114.738
;TYPE:External perimeter
G1 F1800
G1 X95.727 Y114.721 E29.76348
G1 X87.451 Y114.721 E30.31636
G1 X87.244 Y114.642 E30.33116
G1 X83.87 Y111.268 E30.64993
G1 X83.779 Y111.066 E30.66473
G1 X83.779 Y107.382 E30.91084
G1 X84.447 Y108.081 E30.97543
G1 X85.22 Y108.539 E31.03545
G1 X86.087 Y108.772 E31.09543
G1 X86.985 Y108.762 E31.15542
G1 X87.767 Y108.543 E31.20967
G1 X88.609 Y108.035 E31.27536
G1 X89.216 Y107.381 E31.33497
G1 X89.221 Y108.276 E31.39476
G1 X89.274 Y108.926 E31.43833
G1 X89.438 Y109.345 E31.46839
G1 X89.702 Y109.711 E31.49854
G1 X90.027 Y109.98 E31.52672
G1 X90.475 Y110.194 E31.55989
G1 X90.998 Y110.279 E31.59529
G1 X95.2 Y110.279 E31.87601
G1 X95.47 Y110.326 E31.89432
G1 X99.994 Y112.886 E32.24158
G1 X100.387 Y113.047 E32.26995
G1 X100.843 Y113.113 E32.30073
G1 X101.301 Y113.06 E32.33153
G1 X101.706 Y112.901 E32.3606
G1 X102.125 Y112.596 E32.39522
G1 X111.964 Y102.757 E33.32478
G1 X112.226 Y102.419 E33.35335
G1 X112.412 Y101.994 E33.38434
