; generated by PrusaSlicer 2.9.0 on 2025-01-22 at 14:17:57 UTC

; 

; external perimeters extrusion width = 0.42mm
; perimeters extrusion width = 0.44mm
; infill extrusion width = 0.44mm
; solid infill extrusion width = 0.44mm
; top infill extrusion width = 0.40mm
; first layer extrusion width = 0.42mm

M201 X500 Y500 Z100 E5000 ; sets maximum accelerations, mm/sec^2
M203 X500 Y500 Z10 E60 ; sets maximum feedrates, mm / sec
M204 S500 T1000 ; sets acceleration (S) and retract acceleration (R), mm/sec^2
M205 X8.00 Y8.00 Z0.40 E5.00 ; sets the jerk limits, mm/sec
M205 S0 T0 ; sets the minimum extruding and travel feed rate, mm/sec

; printing object Coxa Bearing id:0 copy 0
; stop printing object Coxa Bearing id:0 copy 0

;TYPE:Custom
G90 ; use absolute coordinates
M83 ; extruder relative mode
M104 S200 ; set temporary nozzle temp to prevent oozing during homing
M140 S60 ; set final bed temp
G4 S30 ; allow partial nozzle warmup
G28 ; home all axis
G1 Z50 F240
G1 X2.0 Y10 F3000
M104 S205 ; set final nozzle temp
M190 S60 ; wait for bed temp to stabilize
M109 S205 ; wait for nozzle temp to stabilize
G1 Z0.28 F240
G92 E0
G1 X2.0 Y140 E10 F1500 ; prime the nozzle
G1 X2.3 Y140 F5000
G92 E0
G1 X2.3 Y10 E10 F1200 ; prime the nozzle
G92 E0
G21 ; set units to millimeters
G90 ; use absolute coordinates
M83 ; use relative distances for extrusion
; Filament gcode
M107
;LAYER_CHANGE
;Z:0.34
;HEIGHT:0.34
G1 E-5 F3600
G1 Z.34 F9000
G1 X106.116 Y100.78
G1 Z.34
G1 E5 F2400
M204 S500
;TYPE:Skirt/Brim
;WIDTH:0.42
G1 F1200
G1 X106.392 Y100.54 E.01794
G1 X107.862 Y99.866 E.07933
G1 X110.561 Y99.444 E.13401
G1 X120.983 Y99.491 E.51126
G1 X123.139 Y99.866 E.10735
G1 X124.605 Y100.536 E.07907
G1 X125.383 Y101.322 E.05425
G1 X125.82 Y101.979 E.03871
G1 X126.184 Y102.789 E.04356
G1 X126.417 Y103.779 E.04989
G1 X126.456 Y126.6 E1.11949
G1 X126.368 Y127.505 E.0446
G1 X126.071 Y128.502 E.05103
G1 X125.509 Y129.509 E.05657
G1 X124.69 Y130.391 E.05904
G1 X123.141 Y131.133 E.08425
G1 X120.985 Y131.509 E.10736
G1 X110.561 Y131.556 E.51136
G1 X107.861 Y131.134 E.13406
G1 X106.35 Y130.426 E.08186
G1 X105.68 Y129.749 E.04672
G1 X105.196 Y129.048 E.04179
G1 X104.929 Y128.502 E.02982
G1 X104.706 Y127.843 E.03413
G1 X104.578 Y127.138 E.03515
G1 X104.544 Y104.4 E1.11542
G1 X104.649 Y103.402 E.04923
G1 X104.908 Y102.55 E.04368
G1 X105.417 Y101.598 E.05296
G1 X106.077 Y100.826 E.04982
G1 E-3.5 F3600
;WIPE_START
G1 F7200
G1 X106.116 Y100.78 E-.02865
G1 X106.392 Y100.54 E-.17373
G1 X107.862 Y99.866 E-.76815
G1 X108.963 Y99.694 E-.52947
;WIPE_END
; printing object Coxa Bearing id:0 copy 0
G1 X112.208 Y110.377 F9000
G1 E5 F2400
;TYPE:External perimeter
;WIDTH:0.42
G1 F1200
G1 X112.484 Y110.187 E.01644
G1 X113.155 Y109.858 E.03666
G1 X114.151 Y109.541 E.05127
G1 X114.863 Y109.423 E.0354
G1 X115.936 Y109.406 E.05264
G1 X116.674 Y109.504 E.03652
G1 X117.678 Y109.792 E.05124
G1 X118.336 Y110.089 E.03541
G1 X119.237 Y110.667 E.05251
G1 X119.799 Y111.159 E.03664
G1 X120.484 Y111.968 E.052
G1 X120.86 Y112.567 E.03469
G1 X121.175 Y113.238 E.03636
G1 X121.484 Y114.269 E.0528
G1 X121.606 Y115.306 E.05122
G1 X121.587 Y116.027 E.03538
G1 X121.483 Y116.737 E.0352
G1 X121.164 Y117.79 E.05397
G1 X120.675 Y118.748 E.05276
G1 X120.026 Y119.604 E.0527
G1 X119.26 Y120.315 E.05127
G1 X118.667 Y120.725 E.03537
G1 X118.033 Y121.06 E.03518
G1 X117.364 Y121.319 E.03519
G1 X116.319 Y121.554 E.05254
G1 X115.246 Y121.604 E.05269
G1 X114.528 Y121.532 E.0354
G1 X113.828 Y121.376 E.03518
G1 X113.151 Y121.14 E.03517
G1 X112.506 Y120.826 E.03519
G1 X111.902 Y120.438 E.03522
G1 X111.096 Y119.734 E.0525
G1 X110.422 Y118.897 E.05272
G1 X110.057 Y118.275 E.03538
G1 X109.769 Y117.618 E.03519
G1 X109.488 Y116.585 E.05252
G1 X109.391 Y115.515 E.0527
G1 X109.486 Y114.429 E.05348
G1 X109.657 Y113.717 E.03592
G1 X110.053 Y112.734 E.05199
G1 X110.408 Y112.123 E.03466
G1 X111.076 Y111.287 E.05249
G1 X111.603 Y110.794 E.0354
G1 X112.159 Y110.411 E.03312
G1 X112.159 Y110.411 F9000
G1 X111.765 Y109.839
;TYPE:Perimeter
G1 F1200
G1 X111.23 Y110.206 E.03183
G1 X110.534 Y110.853 E.04662
G1 X109.809 Y111.773 E.05746
G1 X109.352 Y112.616 E.04704
G1 X109.352 Y104.993 E.37395
G1 X109.978 Y104.944 E.0308
G1 X110.492 Y104.751 E.02693
G1 X110.724 Y104.6 E.01358
G1 X111.098 Y104.252 E.02506
G1 X119.891 Y104.252 E.43134
G1 X120.152 Y104.503 E.01776
G1 X120.414 Y104.676 E.0154
G1 X120.865 Y104.896 E.02462
G1 X121.334 Y104.988 E.02345
G1 X121.648 Y104.993 E.01541
G1 X121.648 Y112.608 E.37356
G1 X121.449 Y112.2 E.02227
G1 X121.014 Y111.519 E.03964
G1 X120.329 Y110.711 E.05196
G1 X119.613 Y110.083 E.04672
G1 X118.735 Y109.517 E.05124
G1 X117.87 Y109.125 E.04659
G1 X116.865 Y108.837 E.05128
G1 X115.923 Y108.712 E.04662
G1 X114.878 Y108.727 E.05127
G1 X113.941 Y108.88 E.04657
G1 X112.945 Y109.197 E.05127
G1 X112.091 Y109.615 E.04664
G1 X111.815 Y109.805 E.01644
G1 X111.815 Y109.805 F9000
G1 X112.029 Y110.08
G1 F1200
G1 X111.367 Y110.54 E.03954
G1 X110.805 Y111.07 E.03789
G1 X110.109 Y111.948 E.05496
G1 X109.731 Y112.605 E.03718
G1 X109.311 Y113.66 E.0557
;WIDTH:0.469653
G1 X109.234 Y113.876 E.01286
;WIDTH:0.519307
G1 X109.157 Y114.091 E.01441
;WIDTH:0.568961
G1 X109.08 Y114.306 E.01601
G1 X109.055 Y114.079 E.01601
;WIDTH:0.519307
G1 X109.03 Y113.851 E.01447
;WIDTH:0.469653
G1 X109.005 Y113.624 E.01281
;WIDTH:0.42
G1 X109.005 Y104.583 E.44351
G1 X109.114 Y104.611 E.00552
G1 X109.574 Y104.652 E.02265
G1 X110.064 Y104.561 E.02445
G1 X110.49 Y104.343 E.02347
G1 X110.936 Y103.905 E.03066
G1 X120.088 Y103.905 E.44895
G1 X120.197 Y104.069 E.00966
G1 X120.605 Y104.387 E.02538
G1 X120.932 Y104.556 E.01806
G1 X121.563 Y104.654 E.03133
G1 X121.995 Y104.582 E.02148
G1 X121.995 Y113.066 E.41619
;WIDTH:0.460562
G1 X121.974 Y113.414 E.0191
;WIDTH:0.501125
G1 X121.954 Y113.763 E.02116
;WIDTH:0.541688
G1 X121.934 Y114.111 E.0231
;WIDTH:0.586575
G1 X121.911 Y114.218 E.00795
G1 X121.868 Y114.121 E.0077
;WIDTH:0.541688
G1 X121.748 Y113.793 E.02314
;WIDTH:0.501125
G1 X121.628 Y113.466 E.02108
;WIDTH:0.460562
G1 X121.508 Y113.138 E.01914
;WIDTH:0.42
G1 X121.154 Y112.383 E.04091
G1 X120.749 Y111.743 E.03715
G1 X120.064 Y110.935 E.05196
G1 X119.425 Y110.375 E.04168
G1 X118.547 Y109.809 E.05124
G1 X117.774 Y109.459 E.04163
G1 X116.695 Y109.155 E.05499
G1 X115.928 Y109.059 E.03792
G1 X114.883 Y109.074 E.05127
G1 X114.046 Y109.211 E.04161
G1 X112.979 Y109.556 E.05501
G1 X112.288 Y109.901 E.03789
G1 X112.078 Y110.046 E.01252
G1 E-3.5 F3600
;WIPE_START
G1 F7200
G1 X112.029 Y110.08 E-.02833
G1 X111.367 Y110.54 E-.38291
G1 X110.805 Y111.07 E-.36693
G1 X110.109 Y111.948 E-.53219
G1 X109.91 Y112.294 E-.18964
;WIPE_END
G1 X121.911 Y114.218 F9000
G1 E5 F2400
;WIDTH:0.586575
G1 F1200
G1 X121.932 Y114.566 E.02531
;WIDTH:0.545671
G1 X121.952 Y114.915 E.02336
;WIDTH:0.504768
G1 X121.973 Y115.263 E.02128
;WIDTH:0.480813
G1 X121.964 Y116.038 E.04468
;WIDTH:0.516878
G1 X121.946 Y116.292 E.01598
;WIDTH:0.552943
G1 X121.928 Y116.546 E.01728
;WIDTH:0.589009
G1 X121.91 Y116.8 E.01857
;WIDTH:0.591619
G1 X121.909 Y116.816 E.00118
G1 X121.909 Y116.816 F9000
G1 X121.648 Y118.371
;WIDTH:0.42
G1 F1200
G1 X121.648 Y126.007 E.37459
G1 X121.022 Y126.056 E.0308
G1 X120.508 Y126.249 E.02693
G1 X120.276 Y126.4 E.01358
G1 X119.902 Y126.748 E.02506
G1 X111.105 Y126.748 E.43154
G1 X110.861 Y126.501 E.01703
G1 X110.629 Y126.334 E.01402
G1 X110.136 Y126.104 E.02669
G1 X109.667 Y126.012 E.02345
G1 X109.352 Y126.01 E.01545
G1 X109.352 Y118.399 E.37336
G1 X109.457 Y118.625 E.01222
G1 X109.88 Y119.331 E.04037
G1 X110.533 Y120.146 E.05123
G1 X110.639 Y120.257 E.00753
G1 X111.526 Y121.022 E.05746
G1 X112.201 Y121.449 E.03918
G1 X112.921 Y121.795 E.03919
G1 X113.676 Y122.054 E.03916
G1 X114.457 Y122.222 E.03919
G1 X115.276 Y122.298 E.04035
G1 X116.471 Y122.232 E.05871
G1 X117.491 Y122.003 E.05128
G1 X118.356 Y121.674 E.0454
G1 X119.06 Y121.297 E.03918
G1 X119.733 Y120.824 E.04035
G1 X120.6 Y119.999 E.05871
G1 X121.229 Y119.165 E.05124
G1 X121.62 Y118.424 E.0411
G1 X121.62 Y118.424 F9000
G1 X121.307 Y118.265
G1 F1200
G1 X121.507 Y117.862 E.02207
;WIDTH:0.466658
G1 X121.631 Y117.536 E.01941
;WIDTH:0.513316
G1 X121.754 Y117.209 E.02175
;WIDTH:0.559975
G1 X121.877 Y116.883 E.02399
;WIDTH:0.591619
G1 X121.909 Y116.816 E.00544
G1 X121.925 Y116.89 E.00555
;WIDTH:0.559975
G1 X121.948 Y117.238 E.02401
;WIDTH:0.513316
G1 X121.971 Y117.586 E.02171
;WIDTH:0.466658
G1 X121.995 Y117.935 E.01947
;WIDTH:0.42
G1 X121.995 Y126.417 E.41609
G1 X121.886 Y126.389 E.00552
G1 X121.426 Y126.348 E.02265
G1 X120.936 Y126.439 E.02445
G1 X120.51 Y126.657 E.02347
G1 X120.064 Y127.095 E.03066
G1 X110.953 Y127.095 E.44694
G1 X110.617 Y126.747 E.02373
G1 X110.229 Y126.504 E.02246
G1 X109.6 Y126.352 E.03174
G1 X109.005 Y126.426 E.02941
G1 X109.005 Y117.74 E.42609
;WIDTH:0.459867
G1 X109.025 Y117.392 E.01906
;WIDTH:0.499734
G1 X109.045 Y117.044 E.02103
;WIDTH:0.539602
G1 X109.065 Y116.695 E.02306
;WIDTH:0.558247
G1 X109.074 Y116.642 E.00369
G1 X109.095 Y116.691 E.00366
;WIDTH:0.539602
G1 X109.205 Y117.022 E.02301
;WIDTH:0.499734
G1 X109.315 Y117.353 E.02104
;WIDTH:0.459867
G1 X109.426 Y117.685 E.01915
;WIDTH:0.42
G1 X109.757 Y118.45 E.04089
G1 X110.151 Y119.114 E.03788
G1 X110.867 Y119.996 E.05573
G1 X111.714 Y120.73 E.05498
G1 X112.353 Y121.138 E.03719
G1 X113.036 Y121.467 E.03719
G1 X113.752 Y121.715 E.03717
G1 X114.492 Y121.877 E.03716
G1 X115.261 Y121.951 E.0379
G1 X116.395 Y121.893 E.0557
G1 X117.415 Y121.665 E.05127
G1 X118.194 Y121.367 E.04091
G1 X118.863 Y121.011 E.03718
G1 X119.497 Y120.569 E.03791
G1 X120.323 Y119.79 E.0557
G1 X121 Y118.879 E.05568
G1 X121.28 Y118.318 E.03076
G1 E-3.5 F3600
;WIPE_START
G1 F7200
G1 X121.307 Y118.265 E-.02825
G1 X121.507 Y117.862 E-.2137
G1 X121.631 Y117.536 E-.16567
G1 X121.754 Y117.209 E-.16595
G1 X121.877 Y116.883 E-.16551
G1 X121.909 Y116.816 E-.03527
G1 X121.925 Y116.89 E-.03596
G1 X121.948 Y117.238 E-.16566
G1 X121.971 Y117.586 E-.16566
G1 X121.995 Y117.935 E-.16617
G1 X121.995 Y118.34 E-.1922
;WIPE_END
G1 X109.074 Y116.642 F9000
G1 E5 F2400
;WIDTH:0.558247
G1 F1200
G1 X109.071 Y116.591 E.0035
;WIDTH:0.551645
G1 X109.048 Y116.069 E.03535
;WIDTH:0.505664
G1 X109.025 Y115.547 E.03196
;WIDTH:0.459769
G1 X109.025 Y115.451 E.00525
;WIDTH:0.507336
G1 X109.049 Y114.922 E.03251
;WIDTH:0.554903
G1 X109.073 Y114.392 E.03614
;WIDTH:0.568961
G1 X109.08 Y114.306 E.00605
G1 E-3.5 F3600
;WIPE_START
G1 F7200
G1 X109.074 Y116.642 E-1.1096
G1 X109.071 Y116.591 E-.02427
G1 X109.048 Y116.069 E-.24819
G1 X109.037 Y115.821 E-.11794
;WIPE_END
G1 X108.68 Y104.302 F9000
G1 E5 F2400
;TYPE:External perimeter
;WIDTH:0.42
G1 F1200
G1 X108.682 Y104.232 E.00344
G1 X108.746 Y104.084 E.00791
G1 X109.117 Y104.256 E.02006
G1 X109.476 Y104.309 E.0178
G1 X109.878 Y104.257 E.01988
G1 X110.236 Y104.102 E.01914
G1 X110.608 Y103.767 E.02456
G1 X110.736 Y103.558 E.01202
G1 X120.273 Y103.558 E.46784
G1 X120.486 Y103.876 E.01878
G1 X120.936 Y104.19 E.02692
G1 X121.467 Y104.307 E.02667
G1 X121.856 Y104.263 E.0192
G1 X122.253 Y104.081 E.02142
G1 X122.291 Y104.162 E.00439
G1 X122.342 Y104.435 E.01362
G1 X122.342 Y126.434 E1.07917
G1 X122.26 Y126.921 E.02423
G1 X121.983 Y126.784 E.01516
G1 X121.524 Y126.691 E.02297
G1 X121.122 Y126.743 E.01988
G1 X120.764 Y126.897 E.01912
G1 X120.392 Y127.233 E.02459
G1 X120.264 Y127.442 E.01202
G1 X110.733 Y127.442 E.46755
G1 X110.624 Y127.252 E.01075
G1 X110.373 Y126.994 E.01766
G1 X110.056 Y126.805 E.0181
G1 X109.533 Y126.693 E.02624
G1 X109.022 Y126.776 E.0254
G1 X108.753 Y126.93 E.01521
G1 X108.693 Y126.803 E.00689
G1 X108.658 Y126.581 E.01102
G1 X108.658 Y105.026 E1.05739
G1 X108.678 Y104.362 E.03259
G1 E-3.5 F3600
;WIPE_START
G1 F7200
G1 X108.68 Y104.302 E-.02852
G1 X108.682 Y104.232 E-.03326
G1 X108.746 Y104.084 E-.07659
G1 X109.117 Y104.256 E-.19424
G1 X109.476 Y104.309 E-.17237
G1 X109.878 Y104.257 E-.19254
G1 X110.236 Y104.102 E-.1853
G1 X110.608 Y103.767 E-.23779
G1 X110.736 Y103.558 E-.11641
G1 X111.29 Y103.558 E-.26298
;WIPE_END
G1 X121.537 Y105.809 F9000
G1 E5 F2400
;TYPE:Solid infill
;WIDTH:0.421071
G1 F1200
G1 X120.904 Y105.176 E.04405
G1 X120.805 Y105.157 E.00496
G1 X120.414 Y104.997 E.02079
G1 X119.997 Y104.721 E.02461
G1 X119.794 Y104.519 E.01409
G1 X119.754 Y104.519 E.00197
G1 X121.38 Y106.145 E.11315
G1 X121.38 Y106.637 E.02421
G1 X119.262 Y104.519 E.14739
G1 X118.77 Y104.519 E.02421
G1 X121.38 Y107.13 E.18166
G1 X121.38 Y107.622 E.02421
G1 X118.278 Y104.519 E.2159
G1 X117.785 Y104.519 E.02426
G1 X121.38 Y108.114 E.25017
G1 X121.38 Y108.607 E.02426
G1 X117.293 Y104.519 E.28444
G1 X116.801 Y104.519 E.02421
G1 X121.38 Y109.099 E.31868
G1 X121.38 Y109.591 E.02421
G1 X116.309 Y104.519 E.35292
G1 X115.816 Y104.519 E.02426
G1 X121.38 Y110.084 E.38723
G1 X121.38 Y110.576 E.02421
G1 X115.324 Y104.519 E.42146
G1 X114.832 Y104.519 E.02421
G1 X121.38 Y111.068 E.4557
G1 X121.38 Y111.56 E.02421
G1 X114.339 Y104.519 E.48997
G1 X113.847 Y104.519 E.02421
G1 X118.403 Y109.076 E.31708
G1 X117.95 Y108.87 E.02449
G1 X117.607 Y108.772 E.01755
G1 X113.355 Y104.519 E.29593
G1 X112.863 Y104.519 E.02421
G1 X116.92 Y108.577 E.28236
G1 X116.351 Y108.5 E.02825
G1 X112.37 Y104.519 E.27703
G1 X111.878 Y104.52 E.02421
G1 X115.805 Y108.447 E.27328
G1 X115.32 Y108.454 E.02387
G1 X111.386 Y104.52 E.27376
G1 X111.21 Y104.52 E.00866
G1 X111.044 Y104.67 E.01101
G1 X114.839 Y108.465 E.26409
G1 X114.41 Y108.529 E.02134
G1 X110.778 Y104.896 E.25278
G1 X110.451 Y105.062 E.01805
G1 X113.985 Y108.595 E.24589
G1 X113.609 Y108.712 E.01938
G1 X110.086 Y105.189 E.24516
G1 X109.664 Y105.26 E.02106
G1 X113.234 Y108.829 E.2484
G1 X112.858 Y108.945 E.01936
G1 X109.62 Y105.707 E.22533
G1 X109.62 Y106.199 E.02421
G1 X112.521 Y109.101 E.20191
G1 X112.188 Y109.26 E.01816
G1 X109.62 Y106.692 E.1787
G1 X109.62 Y107.184 E.02421
G1 X111.881 Y109.446 E.15738
G1 X111.587 Y109.644 E.01744
G1 X109.62 Y107.676 E.13692
G1 X109.62 Y108.169 E.02426
G1 X111.293 Y109.842 E.11642
G1 X111.008 Y110.049 E.01733
G1 X109.62 Y108.661 E.09659
G1 X109.62 Y109.153 E.02421
G1 X110.749 Y110.283 E.0786
G1 X110.491 Y110.517 E.01714
G1 X109.62 Y109.645 E.06065
G1 X109.62 Y110.138 E.02426
G1 X110.261 Y110.78 E.04464
G1 X110.04 Y111.051 E.01721
G1 X109.62 Y110.63 E.02926
G1 X109.62 Y111.122 E.02421
G1 X109.93 Y111.433 E.02161
G1 E-3.5 F3600
;WIPE_START
G1 F7200
G1 X109.62 Y111.122 E-.20858
G1 X109.62 Y110.63 E-.2337
G1 X110.04 Y111.051 E-.28247
G1 X110.261 Y110.78 E-.1661
G1 X109.62 Y110.138 E-.43093
G1 X109.62 Y109.763 E-.17822
;WIPE_END
G1 X121.069 Y119.562 F9000
G1 E5 F2400
;WIDTH:0.421328
G1 F1200
G1 X121.38 Y119.873 E.02166
G1 X121.38 Y120.365 E.02423
G1 X120.969 Y119.954 E.02862
G1 X120.752 Y120.229 E.01725
G1 X121.38 Y120.858 E.04377
G1 X121.38 Y121.351 E.02428
G1 X120.503 Y120.473 E.06111
G1 X120.247 Y120.71 E.01718
G1 X121.38 Y121.843 E.0789
G1 X121.38 Y122.336 E.02428
G1 X119.992 Y120.947 E.0967
G1 X119.712 Y121.161 E.01735
G1 X121.38 Y122.829 E.11616
G1 X121.38 Y123.321 E.02423
G1 X119.421 Y121.362 E.13643
G1 X119.13 Y121.564 E.01744
G1 X121.38 Y123.814 E.15669
G1 X121.38 Y124.307 E.02428
G1 X118.809 Y121.735 E.17908
G1 X118.484 Y121.902 E.01799
G1 X121.38 Y124.799 E.20171
G1 X121.38 Y125.292 E.02428
G1 X118.137 Y122.048 E.22588
G1 X117.777 Y122.181 E.0189
G1 X121.336 Y125.74 E.24785
G1 X120.914 Y125.811 E.02107
G1 X117.4 Y122.297 E.24472
G1 X116.998 Y122.387 E.02029
G1 X120.549 Y125.938 E.24729
G1 X120.222 Y126.104 E.01806
G1 X116.595 Y122.477 E.25258
G1 X116.474 Y122.503 E.00609
G1 X116.145 Y122.52 E.01622
G1 X119.956 Y126.33 E.26536
G1 X119.79 Y126.48 E.01102
G1 X119.613 Y126.48 E.00872
G1 X115.676 Y122.544 E.27414
G1 X115.202 Y122.562 E.02336
G1 X119.12 Y126.48 E.27285
G1 X118.628 Y126.481 E.02423
G1 X114.652 Y122.505 E.27689
G1 X114.303 Y122.468 E.01728
G1 X114.068 Y122.413 E.01188
G1 X118.135 Y126.481 E.28326
G1 X117.643 Y126.481 E.02423
G1 X113.413 Y122.251 E.29458
G1 X112.772 Y122.024 E.03349
G1 X112.616 Y121.947 E.00857
G1 X117.15 Y126.481 E.31575
G1 X116.657 Y126.481 E.02428
G1 X109.62 Y119.443 E.49009
G1 X109.62 Y119.936 E.02428
G1 X116.165 Y126.481 E.4558
G1 X115.672 Y126.481 E.02428
G1 X109.62 Y120.428 E.4215
