; generated by PrusaSlicer 2.9.0 on 2025-01-28 at 16:35:48 UTC

; 

; external perimeters extrusion width = 0.42mm
; perimeters extrusion width = 0.44mm
; infill extrusion width = 0.44mm
; solid infill extrusion width = 0.44mm
; top infill extrusion width = 0.40mm
; first layer extrusion width = 0.42mm

M201 X500 Y500 Z100 E5000 ; sets maximum accelerations, mm/sec^2
M203 X500 Y500 Z10 E60 ; sets maximum feedrates, mm / sec
M204 S500 T1000 ; sets acceleration (S) and retract acceleration (R), mm/sec^2
M205 X8.00 Y8.00 Z0.40 E5.00 ; sets the jerk limits, mm/sec
M205 S0 T0 ; sets the minimum extruding and travel feed rate, mm/sec

; printing object Coxa Bottom id:0 copy 0
; stop printing object Coxa Bottom id:0 copy 0

;TYPE:Custom
G90 ; use absolute coordinates
M83 ; extruder relative mode
M104 S200 ; set temporary nozzle temp to prevent oozing during homing
M140 S60 ; set final bed temp
G4 S30 ; allow partial nozzle warmup
G28 ; home all axis
G1 Z50 F240
G1 X2.0 Y10 F3000
M104 S205 ; set final nozzle temp
M190 S60 ; wait for bed temp to stabilize
M109 S205 ; wait for nozzle temp to stabilize
G1 Z0.28 F240
G92 E0
G1 X2.0 Y140 E10 F1500 ; prime the nozzle
G1 X2.3 Y140 F5000
G92 E0
G1 X2.3 Y10 E10 F1200 ; prime the nozzle
G92 E0
G21 ; set units to millimeters
G90 ; use absolute coordinates
M83 ; use relative distances for extrusion
; Filament gcode
M107
;LAYER_CHANGE
;Z:0.34
;HEIGHT:0.34
G1 E-5 F3600
G1 Z.34 F9000
G1 X85.97 Y113.077
G1 Z.34
G1 E5 F2400
M204 S500
;TYPE:Skirt/Brim
;WIDTH:0.42
G1 F1200
G1 X86.93 Y112.447 E.05633
G1 X87.825 Y111.979 E.04954
G1 X88.722 Y111.608 E.04762
G1 X89.915 Y111.251 E.06109
G1 X91.175 Y111.027 E.06278
G1 X92.453 Y110.952 E.0628
G1 X137.64 Y110.958 E2.21667
G1 X138.764 Y111.064 E.05538
G1 X139.722 Y111.29 E.04829
G1 X140.776 Y111.731 E.05605
G1 X141.663 Y112.298 E.05164
G1 X142.244 Y112.835 E.03881
G1 X142.853 Y113.639 E.04948
G1 X143.276 Y114.569 E.05012
G1 X143.474 Y115.617 E.05232
G1 X143.487 Y127.906 E.60284
G1 X143.438 Y128.552 E.03178
G1 X143.276 Y129.243 E.03482
G1 X142.689 Y130.428 E.06487
G1 X142.248 Y130.971 E.03432
G1 X141.644 Y131.525 E.04021
G1 X140.471 Y132.23 E.06714
G1 X139.317 Y132.634 E.05998
G1 X138.304 Y132.811 E.05045
G1 X137.453 Y132.86 E.04182
G1 X92.453 Y132.86 E2.20749
G1 X90.943 Y132.755 E.07425
G1 X89.331 Y132.405 E.08092
G1 X87.742 Y131.795 E.0835
G1 X86.467 Y131.079 E.07173
G1 X85.087 Y130.013 E.08554
G1 X84.005 Y128.878 E.07692
G1 X83.096 Y127.6 E.07693
G1 X82.297 Y126.006 E.08747
G1 X81.827 Y124.567 E.07426
G1 X81.52 Y122.573 E.09897
G1 X81.504 Y121.594 E.04803
G1 X81.604 Y120.398 E.05887
G1 X81.827 Y119.245 E.05761
G1 X82.118 Y118.278 E.04954
G1 X82.482 Y117.372 E.0479
G1 X83.046 Y116.296 E.0596
G1 X83.692 Y115.331 E.05697
G1 X84.335 Y114.552 E.04955
G1 X85.021 Y113.86 E.0478
G1 X85.923 Y113.116 E.05736
G1 E-3.5 F3600
;WIPE_START
G1 F7200
G1 X85.97 Y113.077 E-.02901
G1 X86.93 Y112.447 E-.54542
G1 X87.825 Y111.979 E-.47974
G1 X88.693 Y111.62 E-.44583
;WIPE_END
; printing object Coxa Bottom id:0 copy 0
G1 X137.885 Y115.826 F9000
G1 E5 F2400
;TYPE:Perimeter
;WIDTH:0.42
G1 F1200
G1 X138.277 Y116.007 E.02118
G1 X138.276 Y127.808 E.5789
G1 X138.225 Y127.853 E.00334
G1 X137.95 Y127.975 E.01476
G1 X137.419 Y128.049 E.0263
G1 X92.656 Y128.049 E2.19586
G1 X92.072 Y128.026 E.02867
G1 X91.435 Y127.954 E.03145
G1 X90.68 Y127.775 E.03806
G1 X89.985 Y127.523 E.03627
G1 X89.447 Y127.262 E.02933
G1 X88.657 Y126.734 E.04661
G1 X88.161 Y126.291 E.03262
G1 X87.735 Y125.833 E.03068
G1 X87.333 Y125.286 E.0333
G1 X87.025 Y124.781 E.02902
G1 X86.742 Y124.166 E.03321
G1 X86.572 Y123.632 E.02749
G1 X86.437 Y123.116 E.02616
G1 X86.343 Y122.39 E.03591
G1 X86.32 Y121.719 E.03294
G1 X86.372 Y121.038 E.0335
G1 X86.491 Y120.431 E.03034
G1 X86.732 Y119.671 E.03911
G1 X87.075 Y118.948 E.03926
G1 X87.434 Y118.377 E.03309
G1 X87.801 Y117.896 E.02968
G1 X88.284 Y117.416 E.0334
G1 X88.679 Y117.066 E.02589
G1 X89.19 Y116.71 E.03055
G1 X89.729 Y116.401 E.03048
G1 X90.344 Y116.153 E.03253
G1 X90.856 Y115.98 E.02651
G1 X91.392 Y115.863 E.02691
G1 X91.907 Y115.792 E.0255
G1 X92.467 Y115.763 E.02751
G1 X137.353 Y115.763 E2.2019
G1 X137.829 Y115.808 E.02345
G1 X137.829 Y115.808 F9000
G1 X137.957 Y115.479
G1 F1200
G1 X138.325 Y115.624 E.0194
G1 X138.559 Y115.793 E.01416
G1 X138.624 Y115.991 E.01022
G1 X138.624 Y127.389 E.55913
G1 X138.603 Y127.947 E.02739
G1 X138.396 Y128.164 E.01471
G1 X138.032 Y128.312 E.01928
G1 X137.431 Y128.396 E.02977
G1 X92.656 Y128.396 E2.19645
G1 X92.052 Y128.373 E.02965
G1 X91.377 Y128.296 E.03333
G1 X90.583 Y128.108 E.04003
G1 X89.852 Y127.844 E.03813
G1 X89.271 Y127.562 E.03168
G1 X88.681 Y127.168 E.0348
G1 X88.233 Y126.83 E.02753
G1 X87.826 Y126.445 E.02748
G1 X87.468 Y126.055 E.02597
G1 X87.048 Y125.484 E.03477
G1 X86.716 Y124.94 E.03126
G1 X86.418 Y124.292 E.03499
G1 X86.241 Y123.738 E.02853
G1 X86.097 Y123.184 E.02808
G1 X85.997 Y122.422 E.0377
G1 X85.973 Y121.713 E.0348
G1 X86.029 Y120.986 E.03577
G1 X86.154 Y120.345 E.03204
G1 X86.306 Y119.866 E.02465
G1 X86.543 Y119.243 E.0327
G1 X86.771 Y118.78 E.02532
G1 X87.146 Y118.184 E.03454
G1 X87.542 Y117.663 E.0321
G1 X88.039 Y117.17 E.03434
G1 X88.464 Y116.794 E.02784
G1 X89 Y116.419 E.03209
G1 X89.582 Y116.086 E.03289
G1 X90.215 Y115.831 E.03348
G1 X90.764 Y115.645 E.02844
G1 X91.33 Y115.522 E.02841
G1 X91.874 Y115.446 E.02695
G1 X92.462 Y115.416 E.02888
G1 X137.42 Y115.416 E2.20543
G1 X137.899 Y115.466 E.02363
G1 X137.899 Y115.466 F9000
G1 X138.028 Y115.134
;TYPE:External perimeter
G1 F1200
G1 X138.586 Y115.354 E.02942
G1 X138.748 Y115.497 E.0106
G1 X138.937 Y115.742 E.01518
G1 X138.971 Y115.991 E.01233
G1 X138.971 Y127.389 E.55913
G1 X138.952 Y127.972 E.02861
G1 X138.831 Y128.247 E.01474
G1 X138.585 Y128.46 E.01596
G1 X138.307 Y128.583 E.01491
G1 X137.947 Y128.69 E.01842
G1 X137.443 Y128.743 E.02486
G1 X92.656 Y128.743 E2.19704
G1 X92.033 Y128.719 E.03058
G1 X91.319 Y128.638 E.03525
G1 X90.487 Y128.441 E.04194
G1 X89.719 Y128.165 E.04003
G1 X89.094 Y127.861 E.03409
G1 X88.488 Y127.456 E.03576
G1 X88.009 Y127.095 E.02942
G1 X87.579 Y126.689 E.02901
G1 X87.201 Y126.276 E.02746
G1 X86.762 Y125.681 E.03627
G1 X86.407 Y125.099 E.03344
G1 X86.094 Y124.418 E.03677
G1 X85.817 Y123.553 E.04456
G1 X85.698 Y122.962 E.02957
G1 X85.619 Y122.101 E.04241
G1 X85.631 Y121.451 E.03189
G1 X85.685 Y120.935 E.02545
G1 X85.818 Y120.259 E.0338
G1 X85.976 Y119.761 E.02563
G1 X86.235 Y119.08 E.03574
G1 X86.467 Y118.613 E.02558
G1 X86.858 Y117.99 E.03608
G1 X87.284 Y117.431 E.03448
G1 X88.01 Y116.71 E.05019
G1 X88.433 Y116.375 E.02647
G1 X88.993 Y116.009 E.03282
G1 X89.434 Y115.772 E.02456
G1 X90.085 Y115.509 E.03444
G1 X90.672 Y115.311 E.03039
G1 X91.267 Y115.18 E.02989
G1 X91.842 Y115.101 E.02847
G1 X92.457 Y115.069 E.03021
G1 X137.438 Y115.069 E2.20656
G1 X137.969 Y115.125 E.02619
G1 X137.969 Y115.125 F9000
G1 X138.166 Y116.764
;TYPE:Solid infill
;WIDTH:0.421531
G1 F1200
G1 X137.436 Y116.035 E.05083
G1 X136.938 Y116.03 E.02454
G1 X138.009 Y117.101 E.07463
G1 X138.009 Y117.594 E.02429
G1 X136.445 Y116.03 E.10898
G1 X135.952 Y116.03 E.02429
G1 X138.009 Y118.087 E.14333
G1 X138.009 Y118.58 E.02429
G1 X135.459 Y116.03 E.17769
G1 X134.966 Y116.03 E.02429
G1 X138.009 Y119.073 E.21204
G1 X138.009 Y119.566 E.02429
G1 X134.474 Y116.03 E.24636
G1 X133.981 Y116.03 E.02429
G1 X138.009 Y120.059 E.28071
G1 X138.009 Y120.552 E.02429
G1 X133.488 Y116.03 E.31506
G1 X132.995 Y116.03 E.02429
G1 X138.009 Y121.045 E.34941
G1 X138.009 Y121.537 E.02424
G1 X132.502 Y116.03 E.38373
G1 X132.009 Y116.03 E.02429
G1 X138.009 Y122.03 E.41808
G1 X138.009 Y122.523 E.02429
G1 X131.516 Y116.03 E.45244
G1 X131.023 Y116.03 E.02429
G1 X138.009 Y123.016 E.48679
G1 X138.009 Y123.509 E.02429
G1 X130.53 Y116.03 E.52114
G1 X130.037 Y116.03 E.02429
G1 X138.009 Y124.002 E.5555
G1 X138.009 Y124.495 E.02429
G1 X129.544 Y116.03 E.58985
G1 X129.051 Y116.03 E.02429
G1 X138.009 Y124.988 E.6242
G1 X138.009 Y125.481 E.02429
G1 X128.558 Y116.03 E.65855
G1 X128.065 Y116.03 E.02429
G1 X138.009 Y125.974 E.69291
G1 X138.009 Y126.467 E.02429
G1 X127.572 Y116.03 E.72726
G1 X127.079 Y116.03 E.02429
G1 X138.009 Y126.96 E.76161
G1 X138.009 Y127.453 E.02429
G1 X126.586 Y116.03 E.79596
G1 X126.093 Y116.03 E.02429
G1 X137.8 Y127.736 E.81572
G1 X137.69 Y127.763 E.00558
G1 X137.353 Y127.782 E.01663
G1 X125.601 Y116.03 E.81889
G1 X125.108 Y116.03 E.02429
G1 X136.86 Y127.782 E.81889
G1 X136.367 Y127.782 E.02429
G1 X124.615 Y116.03 E.81889
G1 X124.122 Y116.03 E.02429
G1 X135.874 Y127.782 E.81889
G1 X135.381 Y127.782 E.02429
G1 X123.629 Y116.03 E.81889
G1 X123.136 Y116.03 E.02429
G1 X134.888 Y127.782 E.81889
G1 X134.395 Y127.782 E.02429
G1 X122.643 Y116.03 E.81889
G1 X122.15 Y116.03 E.02429
G1 X133.902 Y127.782 E.81889
G1 X133.409 Y127.782 E.02429
G1 X121.657 Y116.03 E.81889
G1 X121.164 Y116.03 E.02429
G1 X132.916 Y127.782 E.81889
G1 X132.423 Y127.782 E.02429
G1 X120.671 Y116.03 E.81889
G1 X120.178 Y116.03 E.02429
G1 X131.93 Y127.782 E.81889
G1 X131.437 Y127.782 E.02429
G1 X119.685 Y116.03 E.81889
G1 X119.192 Y116.03 E.02429
G1 X130.945 Y127.782 E.81892
G1 X130.452 Y127.782 E.02429
G1 X118.699 Y116.03 E.81892
G1 X118.206 Y116.03 E.02429
G1 X129.959 Y127.782 E.81892
G1 X129.466 Y127.782 E.02429
G1 X117.713 Y116.03 E.81892
G1 X117.22 Y116.03 E.02429
G1 X128.973 Y127.782 E.81892
G1 X128.48 Y127.782 E.02429
G1 X116.727 Y116.03 E.81892
G1 X116.235 Y116.03 E.02424
G1 X127.987 Y127.782 E.81889
G1 X127.494 Y127.782 E.02429
G1 X115.742 Y116.03 E.81889
G1 X115.249 Y116.03 E.02429
G1 X127.001 Y127.782 E.81889
G1 X126.508 Y127.782 E.02429
G1 X114.756 Y116.03 E.81889
G1 X114.263 Y116.03 E.02429
G1 X126.015 Y127.782 E.81889
G1 X125.522 Y127.782 E.02429
G1 X113.77 Y116.03 E.81889
G1 X113.277 Y116.03 E.02429
G1 X125.029 Y127.782 E.81889
G1 X124.536 Y127.782 E.02429
G1 X112.784 Y116.03 E.81889
G1 X112.291 Y116.03 E.02429
G1 X124.043 Y127.782 E.81889
G1 X123.55 Y127.782 E.02429
G1 X111.798 Y116.03 E.81889
G1 X111.305 Y116.03 E.02429
G1 X123.057 Y127.782 E.81889
G1 X122.564 Y127.782 E.02429
G1 X110.812 Y116.03 E.81889
G1 X110.319 Y116.03 E.02429
G1 X122.072 Y127.782 E.81892
G1 X121.579 Y127.782 E.02429
G1 X109.826 Y116.03 E.81892
G1 X109.333 Y116.03 E.02429
G1 X121.086 Y127.782 E.81892
G1 X120.593 Y127.782 E.02429
G1 X108.84 Y116.03 E.81892
G1 X108.347 Y116.03 E.02429
G1 X120.1 Y127.782 E.81892
G1 X119.607 Y127.782 E.02429
G1 X107.854 Y116.03 E.81892
G1 X107.361 Y116.03 E.02429
G1 X119.114 Y127.782 E.81892
G1 X118.621 Y127.782 E.02429
G1 X106.869 Y116.03 E.81889
G1 X106.376 Y116.03 E.02429
G1 X118.128 Y127.782 E.81889
G1 X117.635 Y127.782 E.02429
G1 X105.883 Y116.03 E.81889
G1 X105.39 Y116.03 E.02429
G1 X117.142 Y127.782 E.81889
G1 X116.649 Y127.782 E.02429
G1 X104.897 Y116.03 E.81889
G1 X104.404 Y116.03 E.02429
G1 X116.156 Y127.782 E.81889
G1 X115.663 Y127.782 E.02429
G1 X103.911 Y116.03 E.81889
G1 X103.418 Y116.03 E.02429
G1 X115.17 Y127.782 E.81889
G1 X114.677 Y127.782 E.02429
G1 X102.925 Y116.03 E.81889
G1 X102.432 Y116.03 E.02429
G1 X114.184 Y127.782 E.81889
G1 X113.691 Y127.782 E.02429
G1 X101.939 Y116.03 E.81889
G1 X101.446 Y116.03 E.02429
G1 X113.198 Y127.782 E.81889
G1 X112.706 Y127.782 E.02424
G1 X100.953 Y116.03 E.81892
G1 X100.46 Y116.03 E.02429
G1 X112.213 Y127.782 E.81892
G1 X111.72 Y127.782 E.02429
G1 X99.967 Y116.03 E.81892
G1 X99.474 Y116.03 E.02429
G1 X111.227 Y127.782 E.81892
G1 X110.734 Y127.782 E.02429
G1 X98.981 Y116.03 E.81892
G1 X98.488 Y116.03 E.02429
G1 X110.241 Y127.782 E.81892
G1 X109.748 Y127.782 E.02429
G1 X97.995 Y116.03 E.81892
G1 X97.503 Y116.03 E.02424
G1 X109.255 Y127.782 E.81889
G1 X108.762 Y127.782 E.02429
G1 X97.01 Y116.03 E.81889
G1 X96.517 Y116.03 E.02429
G1 X108.269 Y127.782 E.81889
G1 X107.776 Y127.782 E.02429
G1 X96.024 Y116.03 E.81889
G1 X95.531 Y116.03 E.02429
G1 X107.283 Y127.782 E.81889
G1 X106.79 Y127.782 E.02429
G1 X95.038 Y116.03 E.81889
G1 X94.545 Y116.03 E.02429
G1 X106.297 Y127.782 E.81889
G1 X105.804 Y127.782 E.02429
G1 X94.052 Y116.03 E.81889
G1 X93.559 Y116.03 E.02429
G1 X105.311 Y127.782 E.81889
G1 X104.818 Y127.782 E.02429
G1 X93.066 Y116.03 E.81889
G1 X92.573 Y116.03 E.02429
G1 X104.325 Y127.782 E.81889
G1 X103.832 Y127.782 E.02429
G1 X92.093 Y116.043 E.81798
G1 X91.646 Y116.088 E.02214
G1 X103.34 Y127.782 E.81485
G1 X102.847 Y127.782 E.02429
G1 X91.229 Y116.165 E.80952
G1 X90.834 Y116.263 E.02005
G1 X102.354 Y127.782 E.80269
G1 X101.861 Y127.782 E.02429
G1 X90.469 Y116.391 E.79377
G1 X90.118 Y116.532 E.01864
G1 X101.368 Y127.782 E.78391
G1 X100.875 Y127.782 E.02429
G1 X89.773 Y116.681 E.77356
G1 X89.455 Y116.855 E.01786
G1 X100.382 Y127.782 E.7614
G1 X99.889 Y127.782 E.02429
G1 X89.157 Y117.05 E.74781
G1 X88.87 Y117.256 E.01741
G1 X99.396 Y127.782 E.73346
G1 X98.903 Y127.782 E.02429
G1 X88.6 Y117.479 E.71792
G1 X88.352 Y117.725 E.01721
G1 X98.41 Y127.782 E.70081
G1 X97.917 Y127.782 E.02429
G1 X88.105 Y117.97 E.68371
G1 X87.874 Y118.232 E.01721
G1 X97.424 Y127.782 E.66545
G1 X96.931 Y127.782 E.02429
G1 X87.663 Y118.514 E.6458
G1 X87.465 Y118.809 E.01751
G1 X96.438 Y127.782 E.62525
G1 X95.945 Y127.782 E.02429
G1 X87.285 Y119.121 E.60347
G1 X87.122 Y119.452 E.01818
G1 X95.452 Y127.782 E.58044
G1 X94.959 Y127.782 E.02429
G1 X86.973 Y119.796 E.55647
G1 X86.854 Y120.17 E.01934
G1 X94.466 Y127.782 E.53041
G1 X93.974 Y127.782 E.02424
G1 X86.74 Y120.549 E.50404
G1 X86.66 Y120.961 E.02068
G1 X93.481 Y127.782 E.47529
G1 X92.988 Y127.782 E.02429
G1 X86.603 Y121.398 E.44488
G1 X86.585 Y121.872 E.02337
G1 X92.495 Y127.782 E.41181
G1 X91.972 Y127.753 E.02581
G1 X86.611 Y122.391 E.37359
G1 X86.676 Y122.95 E.02773
G1 X91.405 Y127.678 E.32949
G1 X91.168 Y127.638 E.01184
G1 X90.751 Y127.517 E.02139
G1 X86.846 Y123.612 E.2721
G1 X86.992 Y124.069 E.02364
G1 X87.147 Y124.406 E.01828
G1 X89.968 Y127.227 E.19657
G1 X89.584 Y127.032 E.02122
G1 X88.818 Y126.521 E.04537
G1 X88.492 Y126.244 E.02108
G1 X87.321 Y125.073 E.0816
M106 S255
;LAYER_CHANGE
;Z:0.5
;HEIGHT:0.16
;BEFORE_LAYER_CHANGE
G92 E0
;0.5


G1 E-3.5 F3600
;WIPE_START
G1 F7200
G1 X88.492 Y126.244 E-.78662
G1 X88.818 Y126.521 E-.2032
G1 X89.584 Y127.032 E-.43738
G1 X89.721 Y127.102 E-.0728
;WIPE_END
G1 Z.5 F9000
;AFTER_LAYER_CHANGE
;0.5
M104 S200 ; set temperature
; stop printing object Coxa Bottom id:0 copy 0
G1 X83.321 Y127.917
G1 E5 F2400
;TYPE:Skirt/Brim
;WIDTH:0.42
G1 X83.096 Y127.6 E.00997
G1 X82.297 Y126.006 E.04574
G1 X81.827 Y124.567 E.03884
G1 X81.52 Y122.573 E.05176
G1 X81.504 Y121.594 E.02512
G1 X81.604 Y120.398 E.03079
G1 X81.827 Y119.245 E.03013
G1 X82.118 Y118.278 E.02591
G1 X82.482 Y117.372 E.02505
G1 X83.046 Y116.296 E.03117
G1 X83.692 Y115.331 E.02979
G1 X84.335 Y114.552 E.02591
G1 X85.021 Y113.86 E.025
G1 X85.97 Y113.077 E.03156
G1 X86.93 Y112.447 E.02946
G1 X87.825 Y111.979 E.02591
G1 X88.722 Y111.608 E.0249
G1 X89.915 Y111.251 E.03195
G1 X91.175 Y111.027 E.03283
G1 X92.453 Y110.952 E.03284
G1 X137.64 Y110.958 E1.15925
G1 X138.764 Y111.064 E.02896
G1 X139.722 Y111.29 E.02525
G1 X140.776 Y111.731 E.02931
G1 X141.663 Y112.298 E.02701
G1 X142.244 Y112.835 E.0203
G1 X142.853 Y113.639 E.02588
G1 X143.276 Y114.569 E.02621
G1 X143.474 Y115.617 E.02736
G1 X143.487 Y127.906 E.31527
G1 X143.438 Y128.552 E.01662
G1 X143.276 Y129.243 E.01821
G1 X142.689 Y130.428 E.03393
G1 X142.248 Y130.971 E.01795
G1 X141.644 Y131.525 E.02103
G1 X140.471 Y132.23 E.03511
G1 X139.317 Y132.634 E.03137
G1 X138.304 Y132.811 E.02638
G1 X137.453 Y132.86 E.02187
G1 X92.453 Y132.86 E1.15445
G1 X90.943 Y132.755 E.03883
G1 X89.331 Y132.405 E.04232
G1 X87.742 Y131.795 E.04367
G1 X86.467 Y131.079 E.03751
G1 X85.087 Y130.013 E.04474
G1 X84.005 Y128.878 E.04023
G1 X83.356 Y127.965 E.02874
G1 E-3.5 F3600
;WIPE_START
G1 F7200
G1 X83.321 Y127.917 E-.02822
G1 X83.096 Y127.6 E-.18465
G1 X82.297 Y126.006 E-.84694
G1 X82.01 Y125.125 E-.44019
;WIPE_END
; printing object Coxa Bottom id:0 copy 0
G1 X138.859 Y128.343 F9000
G1 E5 F2400
;TYPE:Perimeter
;WIDTH:0.439999
G1 X138.445 Y128.534 E.0123
G1 X137.873 Y128.639 E.01569
G1 X137.43 Y128.675 E.01199
G1 X92.675 Y128.675 E1.20771
G1 X92.033 Y128.649 E.01734
G1 X91.332 Y128.57 E.01904
