; generated by PrusaSlicer 2.9.0 on 2025-01-22 at 12:37:53 UTC

; 

; external perimeters extrusion width = 0.42mm
; perimeters extrusion width = 0.44mm
; infill extrusion width = 0.44mm
; solid infill extrusion width = 0.44mm
; top infill extrusion width = 0.40mm
; first layer extrusion width = 0.42mm

M201 X500 Y500 Z100 E5000 ; sets maximum accelerations, mm/sec^2
M203 X500 Y500 Z10 E60 ; sets maximum feedrates, mm / sec
M204 S500 T1000 ; sets acceleration (S) and retract acceleration (R), mm/sec^2
M205 X8.00 Y8.00 Z0.40 E5.00 ; sets the jerk limits, mm/sec
M205 S0 T0 ; sets the minimum extruding and travel feed rate, mm/sec

; printing object Coxa Top id:0 copy 0
; stop printing object Coxa Top id:0 copy 0

;TYPE:Custom
G90 ; use absolute coordinates
M83 ; extruder relative mode
M104 S200 ; set temporary nozzle temp to prevent oozing during homing
M140 S60 ; set final bed temp
G4 S30 ; allow partial nozzle warmup
G28 ; home all axis
G1 Z50 F240
G1 X2.0 Y10 F3000
M104 S205 ; set final nozzle temp
M190 S60 ; wait for bed temp to stabilize
M109 S205 ; wait for nozzle temp to stabilize
G1 Z0.28 F240
G92 E0
G1 X2.0 Y140 E10 F1500 ; prime the nozzle
G1 X2.3 Y140 F5000
G92 E0
G1 X2.3 Y10 E10 F1200 ; prime the nozzle
G92 E0
G21 ; set units to millimeters
G90 ; use absolute coordinates
M83 ; use relative distances for extrusion
; Filament gcode
M107
;LAYER_CHANGE
;Z:0.34
;HEIGHT:0.34
G1 E-5 F3600
G1 Z.34 F9000
G1 X86.515 Y106.671
G1 Z.34
G1 E5 F2400
M204 S500
;TYPE:Skirt/Brim
;WIDTH:0.42
G1 F1200
G1 X87.475 Y106.041 E.05633
G1 X88.37 Y105.573 E.04954
G1 X89.268 Y105.202 E.04766
G1 X90.461 Y104.845 E.06109
G1 X91.721 Y104.621 E.06278
G1 X92.999 Y104.546 E.0628
G1 X138.185 Y104.552 E2.21662
G1 X139.303 Y104.657 E.05509
G1 X140.262 Y104.882 E.04832
G1 X141.315 Y105.322 E.05598
G1 X142.188 Y105.876 E.05072
G1 X142.765 Y106.403 E.03833
G1 X143.392 Y107.223 E.05064
G1 X143.819 Y108.158 E.05042
G1 X144.019 Y109.208 E.05243
G1 X144.033 Y121.5 E.60299
G1 X143.983 Y122.148 E.03188
G1 X143.818 Y122.846 E.03518
G1 X143.204 Y124.064 E.06691
G1 X142.484 Y124.868 E.05294
G1 X141.28 Y125.696 E.07168
G1 X139.871 Y126.226 E.07385
G1 X138.937 Y126.397 E.04658
G1 X138.01 Y126.457 E.04557
G1 X92.999 Y126.454 E2.20803
G1 X91.488 Y126.349 E.0743
G1 X89.876 Y125.999 E.08092
G1 X88.288 Y125.389 E.08345
G1 X87.013 Y124.673 E.07173
G1 X85.633 Y123.607 E.08554
G1 X84.55 Y122.472 E.07696
G1 X83.642 Y121.194 E.07691
G1 X82.842 Y119.6 E.08749
G1 X82.373 Y118.161 E.07425
G1 X82.066 Y116.167 E.09897
G1 X82.05 Y115.188 E.04803
G1 X82.149 Y113.992 E.05887
G1 X82.373 Y112.839 E.05762
G1 X82.663 Y111.872 E.04952
G1 X83.028 Y110.966 E.04792
G1 X83.591 Y109.89 E.05957
G1 X84.238 Y108.925 E.05699
G1 X84.881 Y108.146 E.04955
G1 X85.566 Y107.454 E.04777
G1 X86.469 Y106.71 E.0574
G1 E-3.5 F3600
;WIPE_START
G1 F7200
G1 X86.515 Y106.671 E-.02865
G1 X87.475 Y106.041 E-.54542
G1 X88.37 Y105.573 E-.47974
G1 X89.238 Y105.214 E-.44619
;WIPE_END
; printing object Coxa Top id:0 copy 0
G1 X110.519 Y114.799 F9000
G1 E5 F2400
;TYPE:Perimeter
;WIDTH:0.42
G1 F1200
G1 X110.651 Y114.391 E.02104
G1 X110.976 Y113.865 E.03033
G1 X111.383 Y113.462 E.0281
G1 X111.867 Y113.158 E.02804
G1 X112.407 Y112.967 E.0281
G1 X112.642 Y112.928 E.01169
G1 X113.214 Y112.913 E.02807
G1 X113.821 Y113.032 E.03034
G1 X114.34 Y113.272 E.02805
G1 X114.795 Y113.619 E.02807
G1 X115.163 Y114.058 E.0281
G1 X115.426 Y114.566 E.02806
G1 X115.571 Y115.118 E.028
G1 X115.591 Y115.355 E.01167
G1 X115.556 Y115.979 E.03066
G1 X115.39 Y116.523 E.0279
G1 X115.109 Y117.02 E.02801
G1 X114.736 Y117.408 E.0264
G1 X114.34 Y117.728 E.02498
G1 X113.821 Y117.968 E.02805
G1 X113.238 Y118.088 E.0292
G1 X112.642 Y118.072 E.02925
G1 X112.042 Y117.919 E.03038
G1 X111.537 Y117.651 E.02805
G1 X110.95 Y117.095 E.03966
G1 X110.627 Y116.567 E.03036
G1 X110.451 Y116.023 E.02805
G1 X110.418 Y115.497 E.02585
G1 X110.428 Y115.082 E.02036
G1 X110.501 Y114.856 E.01165
G1 X110.861 Y114.896 F9000
G1 F1200
G1 X110.979 Y114.504 E.02008
G1 X111.261 Y114.063 E.02568
G1 X111.71 Y113.65 E.02993
G1 X112.146 Y113.413 E.02434
G1 X112.651 Y113.275 E.02568
G1 X113.224 Y113.259 E.02812
G1 X113.736 Y113.369 E.02569
G1 X114.28 Y113.644 E.0299
G1 X114.655 Y113.969 E.02434
G1 X114.949 Y114.368 E.02431
G1 X115.149 Y114.822 E.02434
G1 X115.245 Y115.329 E.02531
G1 X115.211 Y115.939 E.02997
G1 X115.044 Y116.455 E.02661
G1 X114.772 Y116.897 E.02546
G1 X114.301 Y117.337 E.03162
G1 X113.843 Y117.591 E.02569
G1 X113.328 Y117.733 E.02621
G1 X112.652 Y117.725 E.03316
G1 X112.146 Y117.587 E.02573
G1 X111.711 Y117.351 E.02428
G1 X111.199 Y116.853 E.03504
G1 X110.932 Y116.401 E.02575
G1 X110.77 Y115.854 E.02799
G1 X110.765 Y115.214 E.0314
G1 X110.844 Y114.953 E.01338
G1 X110.844 Y114.953 F9000
G1 X111.186 Y114.987
;TYPE:External perimeter
G1 F1200
G1 X111.308 Y114.616 E.01916
G1 X111.571 Y114.232 E.02283
G1 X111.883 Y113.95 E.02063
G1 X112.249 Y113.744 E.0206
G1 X112.661 Y113.622 E.02108
G1 X113.233 Y113.606 E.02807
G1 X113.686 Y113.719 E.0229
G1 X114.059 Y113.912 E.0206
G1 X114.381 Y114.182 E.02061
G1 X114.635 Y114.516 E.02058
G1 X114.811 Y114.898 E.02063
G1 X114.898 Y115.317 E.02099
G1 X114.866 Y115.9 E.02864
G1 X114.717 Y116.332 E.02242
G1 X114.488 Y116.694 E.02101
G1 X114.066 Y117.082 E.02812
G1 X113.65 Y117.295 E.02293
G1 X113.234 Y117.394 E.02098
G1 X112.661 Y117.378 E.02812
G1 X112.214 Y117.241 E.02293
G1 X111.847 Y117.021 E.02099
G1 X111.447 Y116.611 E.0281
G1 X111.223 Y116.201 E.02292
G1 X111.112 Y115.787 E.02103
G1 X111.112 Y115.214 E.02811
G1 X111.168 Y115.044 E.00878
G1 E-3.5 F3600
;WIPE_START
G1 F7200
G1 X111.186 Y114.987 E-.02839
G1 X111.308 Y114.616 E-.18551
G1 X111.571 Y114.232 E-.22108
G1 X111.883 Y113.95 E-.19976
G1 X112.249 Y113.744 E-.1995
G1 X112.661 Y113.622 E-.2041
G1 X113.233 Y113.606 E-.27181
G1 X113.621 Y113.702 E-.18985
;WIPE_END
G1 X95.583 Y115.5 F9000
G1 E5 F2400
;TYPE:Perimeter
G1 F1200
G1 X95.56 Y115.927 E.02098
G1 X95.39 Y116.523 E.0304
G1 X95.109 Y117.02 E.02801
G1 X94.537 Y117.592 E.03968
G1 X94 Y117.901 E.03039
G1 X93.451 Y118.061 E.02805
G1 X93.108 Y118.085 E.01687
G1 X92.553 Y118.065 E.02724
G1 X92.042 Y117.919 E.02607
G1 X91.552 Y117.66 E.02719
G1 X91.177 Y117.328 E.02457
G1 X90.818 Y116.919 E.0267
G1 X90.584 Y116.476 E.02458
G1 X90.418 Y115.786 E.03481
G1 X90.419 Y115.166 E.03041
G1 X90.554 Y114.611 E.02802
G1 X90.789 Y114.167 E.02464
G1 X91.101 Y113.721 E.0267
G1 X91.495 Y113.375 E.02572
G1 X91.965 Y113.11 E.02647
G1 X92.452 Y112.955 E.02507
G1 X93.125 Y112.915 E.03307
G1 X93.451 Y112.939 E.01604
G1 X94 Y113.099 E.02805
G1 X94.5 Y113.376 E.02804
G1 X94.928 Y113.756 E.02808
G1 X95.263 Y114.22 E.02807
G1 X95.488 Y114.746 E.02806
G1 X95.592 Y115.332 E.0292
G1 X95.586 Y115.44 E.00531
G1 X95.586 Y115.44 F9000
G1 X95.236 Y115.5
G1 F1200
G1 X95.213 Y115.908 E.02005
G1 X95.062 Y116.41 E.02572
G1 X94.813 Y116.839 E.02433
G1 X94.301 Y117.337 E.03504
G1 X93.843 Y117.591 E.02569
G1 X93.366 Y117.725 E.02431
G1 X92.667 Y117.725 E.03429
G1 X92.146 Y117.587 E.02644
G1 X91.66 Y117.318 E.02725
G1 X91.199 Y116.853 E.03212
G1 X90.932 Y116.402 E.02571
G1 X90.757 Y115.71 E.03501
G1 X90.766 Y115.185 E.02576
G1 X90.89 Y114.7 E.02456
G1 X91.245 Y114.087 E.03475
G1 X91.618 Y113.718 E.02574
G1 X92.058 Y113.449 E.0253
G1 X92.537 Y113.291 E.02474
G1 X93.135 Y113.262 E.02937
G1 X93.366 Y113.275 E.01135
G1 X93.843 Y113.409 E.02431
G1 X94.28 Y113.644 E.02434
G1 X94.655 Y113.969 E.02434
G1 X94.949 Y114.368 E.02431
G1 X95.149 Y114.822 E.02434
G1 X95.245 Y115.322 E.02498
G1 X95.239 Y115.44 E.0058
G1 X95.239 Y115.44 F9000
G1 X94.888 Y115.5
;TYPE:External perimeter
G1 F1200
G1 X94.867 Y115.889 E.01911
G1 X94.717 Y116.332 E.02294
G1 X94.488 Y116.694 E.02101
G1 X94.066 Y117.082 E.02812
G1 X93.65 Y117.295 E.02293
G1 X93.281 Y117.388 E.01867
G1 X92.676 Y117.378 E.02968
G1 X92.214 Y117.241 E.02364
G1 X91.847 Y117.021 E.02099
G1 X91.447 Y116.611 E.0281
G1 X91.221 Y116.192 E.02335
G1 X91.095 Y115.633 E.02811
G1 X91.135 Y115.11 E.02573
G1 X91.241 Y114.757 E.01808
G1 X91.541 Y114.269 E.0281
G1 X91.883 Y113.95 E.02294
G1 X92.249 Y113.744 E.0206
G1 X92.661 Y113.622 E.02108
G1 X93.233 Y113.606 E.02807
G1 X93.686 Y113.719 E.0229
G1 X94.059 Y113.912 E.0206
G1 X94.381 Y114.182 E.02061
G1 X94.635 Y114.516 E.02058
G1 X94.811 Y114.898 E.02063
G1 X94.898 Y115.317 E.02099
G1 X94.891 Y115.44 E.00604
G1 E-3.5 F3600
;WIPE_START
G1 F7200
G1 X94.888 Y115.5 E-.02854
G1 X94.867 Y115.889 E-.18504
G1 X94.717 Y116.332 E-.22216
G1 X94.488 Y116.694 E-.20347
G1 X94.066 Y117.082 E-.2723
G1 X93.65 Y117.295 E-.222
G1 X93.281 Y117.388 E-.18076
G1 X92.89 Y117.382 E-.18573
;WIPE_END
G1 X138.287 Y121.597 F9000
G1 E5 F2400
;TYPE:Perimeter
G1 F1200
G1 X137.956 Y121.642 E.01639
G1 X122.359 Y121.654 E.76512
G1 X122.331 Y120.974 E.03339
G1 X122.061 Y120.37 E.03246
G1 X121.851 Y120.094 E.01701
G1 X121.322 Y119.661 E.03353
G1 X120.822 Y119.462 E.0264
G1 X120.202 Y119.409 E.03053
G1 X119.908 Y119.437 E.01449
G1 X119.403 Y119.607 E.02614
G1 X119.176 Y119.723 E.01251
G1 X118.748 Y120.092 E.02772
G1 X118.551 Y120.342 E.01561
G1 X118.327 Y120.806 E.02528
G1 X118.242 Y121.165 E.0181
G1 X118.236 Y121.666 E.02458
G1 X117.25 Y121.646 E.04838
G1 X93.02 Y121.643 E1.18861
G1 X92.454 Y121.618 E.02779
G1 X91.954 Y121.553 E.02473
G1 X91.457 Y121.443 E.02497
G1 X90.949 Y121.29 E.02603
G1 X90.207 Y120.963 E.03978
G1 X89.688 Y120.673 E.02916
G1 X88.997 Y120.159 E.04225
G1 X88.614 Y119.801 E.02572
G1 X88.073 Y119.169 E.04081
G1 X87.772 Y118.727 E.02623
G1 X87.508 Y118.253 E.02662
G1 X87.289 Y117.765 E.02624
G1 X87.036 Y116.972 E.04083
G1 X86.93 Y116.447 E.02627
G1 X86.87 Y115.908 E.0266
G1 X86.858 Y115.371 E.02635
G1 X86.92 Y114.623 E.03682
G1 X87.038 Y114.016 E.03033
G1 X87.191 Y113.499 E.02645
G1 X87.388 Y113 E.02632
G1 X87.741 Y112.325 E.03737
G1 X88.08 Y111.821 E.0298
G1 X88.422 Y111.404 E.02646
G1 X88.797 Y111.02 E.02633
G1 X89.393 Y110.528 E.03791
G1 X89.891 Y110.202 E.0292
G1 X90.368 Y109.949 E.02649
G1 X90.862 Y109.741 E.02629
G1 X91.609 Y109.517 E.03826
G1 X92.298 Y109.398 E.0343
G1 X93.026 Y109.357 E.03577
G1 X117.614 Y109.354 E1.20617
G1 X118.226 Y109.333 E.03004
G1 X118.241 Y109.824 E.0241
G1 X118.327 Y110.195 E.01868
G1 X118.537 Y110.63 E.0237
G1 X118.746 Y110.906 E.01698
G1 X119.203 Y111.295 E.02944
G1 X119.628 Y111.47 E.02255
G1 X120.112 Y111.594 E.02451
G1 X120.67 Y111.561 E.02742
G1 X120.952 Y111.496 E.0142
G1 X121.437 Y111.258 E.0265
G1 X121.659 Y111.101 E.01334
G1 X122.024 Y110.685 E.02715
G1 X122.175 Y110.438 E.0142
G1 X122.294 Y110.141 E.0157
G1 X122.356 Y109.835 E.01532
G1 X122.358 Y109.331 E.02472
G1 X122.955 Y109.354 E.02931
G1 X137.906 Y109.357 E.73343
G1 X138.372 Y109.398 E.02295
G1 X138.822 Y109.601 E.02422
G1 X138.822 Y121.402 E.5789
G1 X138.451 Y121.574 E.02006
G1 X138.347 Y121.589 E.00515
G1 X138.347 Y121.589 F9000
G1 X138.335 Y121.955
G1 F1200
G1 X137.973 Y121.989 E.01784
G1 X123.609 Y121.993 E.70463
G1 X122.867 Y122.004 E.0364
G1 X121.891 Y122.062 E.04796
G1 X121.93 Y121.986 E.00419
G1 X122.012 Y121.656 E.01668
G1 X121.994 Y121.057 E.0294
G1 X121.748 Y120.521 E.02893
G1 X121.622 Y120.355 E.01022
G1 X121.215 Y120.002 E.02643
G1 X120.741 Y119.799 E.02529
G1 X120.179 Y119.755 E.02765
G1 X119.97 Y119.781 E.01033
G1 X119.378 Y120.005 E.03105
G1 X118.977 Y120.353 E.02605
G1 X118.858 Y120.504 E.00943
G1 X118.64 Y120.956 E.02462
G1 X118.589 Y121.172 E.01089
G1 X118.586 Y121.691 E.02546
G1 X118.704 Y122.049 E.01849
G1 X118.159 Y122.011 E.0268
G1 X117.25 Y121.993 E.0446
G1 X93.012 Y121.99 E1.189
G1 X92.424 Y121.964 E.02887
G1 X91.894 Y121.895 E.02622
G1 X91.382 Y121.781 E.02573
G1 X90.826 Y121.615 E.02846
G1 X89.956 Y121.232 E.04663
G1 X89.496 Y120.963 E.02614
G1 X88.774 Y120.426 E.04414
G1 X88.363 Y120.042 E.02759
G1 X87.797 Y119.38 E.04273
G1 X87.477 Y118.909 E.02793
G1 X87.197 Y118.408 E.02815
G1 X86.965 Y117.889 E.02789
G1 X86.699 Y117.059 E.04276
G1 X86.587 Y116.501 E.02792
G1 X86.523 Y115.931 E.02814
G1 X86.511 Y115.36 E.02802
G1 X86.575 Y114.575 E.03864
G1 X86.701 Y113.934 E.03205
G1 X86.863 Y113.386 E.02803
G1 X87.072 Y112.855 E.02799
G1 X87.443 Y112.147 E.03921
G1 X87.801 Y111.614 E.0315
G1 X88.163 Y111.172 E.02803
G1 X88.562 Y110.764 E.02799
G1 X89.186 Y110.248 E.03972
G1 X89.714 Y109.903 E.03094
G1 X90.219 Y109.635 E.02805
G1 X90.745 Y109.414 E.02799
G1 X91.53 Y109.179 E.0402
G1 X92.259 Y109.053 E.03629
G1 X93.016 Y109.01 E.03719
G1 X116.99 Y109.008 E1.17605
G1 X117.737 Y109.003 E.03665
G1 X118.694 Y108.962 E.04699
G1 X118.586 Y109.344 E.01947
G1 X118.593 Y109.888 E.02669
G1 X118.849 Y110.479 E.03159
G1 X118.962 Y110.633 E.00937
G1 X119.338 Y110.963 E.02454
G1 X119.496 Y111.058 E.00904
G1 X119.972 Y111.22 E.02467
G1 X120.173 Y111.246 E.00994
G1 X120.819 Y111.175 E.03188
G1 X121.283 Y110.947 E.02536
G1 X121.446 Y110.822 E.01008
G1 X121.853 Y110.309 E.03212
G1 X122.009 Y109.828 E.02481
G1 X122.006 Y109.28 E.02688
G1 X121.906 Y108.974 E.01579
G1 X121.945 Y108.968 E.00194
G1 X122.955 Y109.007 E.04958
G1 X137.906 Y109.01 E.73343
G1 X138.453 Y109.057 E.02693
G1 X138.861 Y109.214 E.02145
G1 X139.105 Y109.388 E.0147
G1 X139.169 Y109.585 E.01016
G1 X139.169 Y121.034 E.56163
G1 X139.148 Y121.541 E.02489
G1 X138.935 Y121.759 E.01495
G1 X138.457 Y121.944 E.02514
G1 X138.395 Y121.95 E.00306
G1 X138.395 Y121.95 F9000
G1 X138.381 Y122.3
;TYPE:External perimeter
G1 F1200
G1 X137.989 Y122.337 E.01932
G1 X123.182 Y122.34 E.72636
G1 X122.401 Y122.366 E.03833
G1 X121.886 Y122.413 E.02537
G1 X121.206 Y122.44 E.03338
G1 X121.58 Y121.915 E.03162
G1 X121.665 Y121.658 E.01328
G1 X121.645 Y121.106 E.0271
G1 X121.413 Y120.636 E.02571
G1 X121.031 Y120.298 E.02502
G1 X120.63 Y120.132 E.02129
G1 X120.082 Y120.109 E.02691
G1 X119.567 Y120.298 E.02691
G1 X119.162 Y120.671 E.02701
G1 X118.936 Y121.178 E.02723
G1 X118.956 Y121.771 E.02911
G1 X119.192 Y122.2 E.02402
G1 X119.414 Y122.44 E.01604
G1 X118.152 Y122.358 E.06204
G1 X117.25 Y122.34 E.04426
G1 X93.005 Y122.337 E1.18935
G1 X92.394 Y122.31 E.03
G1 X91.834 Y122.237 E.0277
G1 X91.203 Y122.097 E.03171
G1 X90.704 Y121.941 E.02565
G1 X89.798 Y121.542 E.04856
G1 X89.304 Y121.253 E.02808
G1 X88.551 Y120.693 E.04603
G1 X88.112 Y120.282 E.0295
G1 X87.521 Y119.591 E.0446
G1 X87.181 Y119.092 E.02962
G1 X86.886 Y118.564 E.02967
G1 X86.64 Y118.013 E.0296
G1 X86.363 Y117.147 E.0446
G1 X86.243 Y116.555 E.02963
G1 X86.177 Y115.954 E.02966
G1 X86.163 Y115.35 E.02964
G1 X86.231 Y114.527 E.04051
G1 X86.363 Y113.851 E.03379
G1 X86.534 Y113.273 E.02957
G1 X86.756 Y112.711 E.02964
G1 X87.144 Y111.969 E.04108
G1 X87.522 Y111.407 E.03322
G1 X87.904 Y110.94 E.0296
G1 X88.326 Y110.508 E.02963
G1 X88.98 Y109.968 E.04161
G1 X89.538 Y109.604 E.03268
G1 X90.071 Y109.322 E.02958
G1 X90.627 Y109.087 E.02961
G1 X91.45 Y108.841 E.04214
G1 X92.219 Y108.707 E.03829
G1 X93.006 Y108.663 E.03867
G1 X117.591 Y108.66 E1.20603
G1 X118.203 Y108.64 E.03004
G1 X119.391 Y108.561 E.05841
G1 X119.017 Y109.085 E.03158
G1 X118.933 Y109.342 E.01326
G1 X118.953 Y109.894 E.0271
G1 X119.204 Y110.384 E.02701
G1 X119.626 Y110.736 E.02696
G1 X120.15 Y110.9 E.02693
G1 X120.697 Y110.85 E.02695
G1 X121.163 Y110.614 E.02562
G1 X121.5 Y110.23 E.02506
G1 X121.662 Y109.822 E.02153
G1 X121.642 Y109.228 E.02916
G1 X121.406 Y108.801 E.02393
G1 X121.184 Y108.561 E.01604
G1 X122.955 Y108.66 E.08701
G1 X137.984 Y108.663 E.73725
G1 X138.533 Y108.716 E.02706
G1 X139.122 Y108.942 E.03095
G1 X139.29 Y109.089 E.01095
G1 X139.482 Y109.336 E.01535
G1 X139.516 Y109.585 E.01233
G1 X139.516 Y121.034 E.56163
G1 X139.496 Y121.568 E.02621
G1 X139.374 Y121.844 E.0148
G1 X139.114 Y122.062 E.01664
G1 X138.537 Y122.285 E.03035
G1 X138.441 Y122.294 E.00473
G1 E-3.5 F3600
;WIPE_START
G1 F7200
G1 X138.381 Y122.3 E-.02864
G1 X137.989 Y122.337 E-.18703
G1 X135.285 Y122.338 E-1.28433
;WIPE_END
G1 X137.821 Y109.468 F9000
G1 E5 F2400
;TYPE:Solid infill
;WIDTH:0.421576
G1 F1200
G1 X138.554 Y110.201 E.05108
G1 X138.554 Y110.694 E.02429
G1 X137.484 Y109.624 E.07457
G1 X136.991 Y109.623 E.02429
G1 X138.554 Y111.187 E.10896
G1 X138.554 Y111.68 E.02429
G1 X136.498 Y109.623 E.14332
G1 X136.005 Y109.623 E.02429
G1 X138.554 Y112.173 E.17767
