; generated by PrusaSlicer 2.9.0 on 2025-01-18 at 16:37:00 UTC

; 

; external perimeters extrusion width = 0.42mm
; perimeters extrusion width = 0.44mm
; infill extrusion width = 0.44mm
; solid infill extrusion width = 0.44mm
; top infill extrusion width = 0.40mm
; first layer extrusion width = 0.42mm

M201 X500 Y500 Z100 E5000 ; sets maximum accelerations, mm/sec^2
M203 X500 Y500 Z10 E60 ; sets maximum feedrates, mm / sec
M204 S500 T1000 ; sets acceleration (S) and retract acceleration (R), mm/sec^2
M205 X8.00 Y8.00 Z0.40 E5.00 ; sets the jerk limits, mm/sec
M205 S0 T0 ; sets the minimum extruding and travel feed rate, mm/sec

; printing object Femur Bearing id:0 copy 0
; stop printing object Femur Bearing id:0 copy 0

;TYPE:Custom
G90 ; use absolute coordinates
M83 ; extruder relative mode
M104 S200 ; set temporary nozzle temp to prevent oozing during homing
M140 S60 ; set final bed temp
G4 S30 ; allow partial nozzle warmup
G28 ; home all axis
G1 Z50 F240
G1 X2.0 Y10 F3000
M104 S205 ; set final nozzle temp
M190 S60 ; wait for bed temp to stabilize
M109 S205 ; wait for nozzle temp to stabilize
G1 Z0.28 F240
G92 E0
G1 X2.0 Y140 E10 F1500 ; prime the nozzle
G1 X2.3 Y140 F5000
G92 E0
G1 X2.3 Y10 E10 F1200 ; prime the nozzle
G92 E0
G21 ; set units to millimeters
G90 ; use absolute coordinates
M83 ; use relative distances for extrusion
; Filament gcode
M107
;LAYER_CHANGE
;Z:0.34
;HEIGHT:0.34
G1 E-5 F3600
G1 Z.34 F9000
G1 X74.975 Y106.041
G1 Z.34
G1 E5 F2400
M204 S500
;TYPE:Skirt/Brim
;WIDTH:0.42
G1 F1200
G1 X76.768 Y105.202 E.09711
G1 X77.961 Y104.845 E.06109
G1 X78.98 Y104.652 E.05088
G1 X80.499 Y104.546 E.0747
G1 X150.686 Y104.552 E3.44305
G1 X151.81 Y104.658 E.05538
G1 X152.768 Y104.884 E.04829
G1 X153.821 Y105.325 E.056
G1 X154.708 Y105.892 E.05164
G1 X155.289 Y106.429 E.03881
G1 X155.898 Y107.233 E.04948
G1 X156.321 Y108.163 E.05012
G1 X156.519 Y109.211 E.05232
G1 X156.532 Y121.5 E.60284
G1 X156.483 Y122.146 E.03178
G1 X156.321 Y122.837 E.03482
G1 X155.734 Y124.022 E.06487
G1 X155.264 Y124.596 E.03639
G1 X154.69 Y125.119 E.03809
G1 X154.039 Y125.555 E.03844
G1 X153.249 Y125.939 E.04309
G1 X151.769 Y126.347 E.07531
G1 X150.499 Y126.454 E.06252
G1 X80.499 Y126.454 E3.43388
G1 X79.291 Y126.387 E.05935
G1 X77.594 Y126.062 E.08476
G1 X75.872 Y125.428 E.09002
G1 X74.513 Y124.673 E.07626
G1 X73.03 Y123.512 E.09239
G1 X71.81 Y122.17 E.08897
G1 X70.795 Y120.582 E.09245
G1 X70.09 Y118.912 E.08892
G1 X69.666 Y117.12 E.09033
G1 X69.552 Y115.873 E.06143
G1 X69.565 Y114.844 E.05048
G1 X69.873 Y112.839 E.09951
G1 X70.269 Y111.584 E.06456
G1 X70.675 Y110.655 E.04973
G1 X71.738 Y108.925 E.09961
G1 X72.381 Y108.146 E.04955
G1 X73.323 Y107.225 E.06463
G1 X74.926 Y106.076 E.09675
G1 E-3.5 F3600
;WIPE_START
G1 F7200
G1 X74.975 Y106.041 E-.0286
G1 X76.768 Y105.202 E-.9403
G1 X77.839 Y104.881 E-.5311
;WIPE_END
; printing object Femur Bearing id:0 copy 0
G1 X150.904 Y109.421 F9000
G1 E5 F2400
;TYPE:Perimeter
;WIDTH:0.42
G1 F1200
G1 X151.029 Y109.438 E.00619
G1 X151.322 Y109.601 E.01645
G1 X151.322 Y121.402 E.5789
G1 X151.27 Y121.447 E.00337
G1 X150.996 Y121.569 E.01471
G1 X150.464 Y121.643 E.02635
G1 X80.656 Y121.643 E3.42445
G1 X80.232 Y121.631 E.02081
G1 X79.708 Y121.586 E.0258
G1 X79.174 Y121.491 E.02661
G1 X78.665 Y121.358 E.02581
G1 X78.123 Y121.156 E.02837
G1 X77.62 Y120.919 E.02728
G1 X77.157 Y120.647 E.02634
G1 X76.717 Y120.333 E.02652
G1 X76.303 Y119.978 E.02675
G1 X75.919 Y119.585 E.02695
G1 X75.588 Y119.18 E.02566
G1 X75.272 Y118.715 E.02758
G1 X75.025 Y118.276 E.02471
G1 X74.761 Y117.674 E.03225
G1 X74.562 Y117.076 E.03092
G1 X74.44 Y116.419 E.03278
G1 X74.359 Y115.683 E.03632
G1 X74.379 Y114.974 E.03479
G1 X74.479 Y114.279 E.03444
G1 X74.609 Y113.756 E.02644
G1 X74.772 Y113.278 E.02477
G1 X75.067 Y112.633 E.03479
G1 X75.423 Y112.041 E.03389
G1 X75.746 Y111.609 E.02646
G1 X76.089 Y111.224 E.02529
G1 X76.612 Y110.745 E.03479
G1 X77.162 Y110.343 E.03342
G1 X77.626 Y110.071 E.02638
G1 X78.102 Y109.845 E.02585
G1 X78.77 Y109.606 E.0348
G1 X79.422 Y109.453 E.03285
G1 X79.956 Y109.382 E.02643
G1 X80.52 Y109.357 E.02769
G1 X150.414 Y109.357 E3.42867
G1 X150.844 Y109.414 E.02128
G1 X150.844 Y109.414 F9000
G1 X150.983 Y109.077
G1 F1200
G1 X151.367 Y109.209 E.01992
G1 X151.604 Y109.387 E.01454
G1 X151.669 Y109.585 E.01022
G1 X151.669 Y120.983 E.55913
G1 X151.648 Y121.541 E.02739
G1 X151.442 Y121.758 E.01468
G1 X151.077 Y121.906 E.01932
G1 X150.476 Y121.99 E.02977
G1 X80.656 Y121.99 E3.42504
G1 X80.187 Y121.976 E.02302
G1 X79.663 Y121.93 E.0258
G1 X79.099 Y121.83 E.0281
G1 X78.561 Y121.689 E.02728
G1 X77.99 Y121.476 E.0299
G1 X77.458 Y121.226 E.02884
G1 X76.969 Y120.938 E.02784
G1 X76.503 Y120.606 E.02807
G1 X76.066 Y120.232 E.02822
G1 X75.661 Y119.816 E.02848
G1 X75.31 Y119.388 E.02715
G1 X74.964 Y118.876 E.03031
G1 X74.715 Y118.433 E.02493
G1 X74.438 Y117.803 E.03376
G1 X74.225 Y117.158 E.03332
G1 X74.048 Y116.208 E.0474
G1 X74.012 Y115.69 E.02547
G1 X74.033 Y114.945 E.03656
G1 X74.138 Y114.213 E.03628
G1 X74.276 Y113.658 E.02805
G1 X74.45 Y113.15 E.02634
G1 X74.759 Y112.471 E.0366
G1 X75.135 Y111.847 E.03574
G1 X75.477 Y111.389 E.02804
G1 X75.842 Y110.98 E.02689
G1 X76.391 Y110.476 E.03656
G1 X76.971 Y110.053 E.03522
G1 X77.463 Y109.764 E.02799
G1 X77.969 Y109.524 E.02747
G1 X78.671 Y109.273 E.03657
G1 X79.359 Y109.111 E.03467
G1 X79.925 Y109.036 E.02801
G1 X80.512 Y109.01 E.02882
G1 X150.414 Y109.01 E3.42907
G1 X150.899 Y109.047 E.02386
G1 X150.927 Y109.057 E.00146
G1 X150.927 Y109.057 F9000
G1 X151.064 Y108.732
;TYPE:External perimeter
G1 F1200
G1 X151.509 Y108.892 E.0232
G1 X151.794 Y109.091 E.01705
G1 X151.982 Y109.336 E.01515
G1 X152.016 Y109.585 E.01233
G1 X152.016 Y120.983 E.55913
G1 X151.997 Y121.566 E.02861
G1 X151.876 Y121.841 E.01474
G1 X151.63 Y122.054 E.01596
G1 X151.353 Y122.177 E.01487
G1 X150.992 Y122.284 E.01847
G1 X150.488 Y122.337 E.02486
G1 X80.505 Y122.337 E3.43304
G1 X79.894 Y122.31 E.03
G1 X79.334 Y122.237 E.0277
G1 X78.703 Y122.097 E.03171
G1 X78.203 Y121.94 E.02571
G1 X77.57 Y121.678 E.03361
G1 X77.037 Y121.396 E.02958
G1 X76.529 Y121.067 E.02969
G1 X76.053 Y120.694 E.02967
G1 X75.611 Y120.281 E.02967
G1 X75.207 Y119.83 E.0297
G1 X74.855 Y119.36 E.02881
G1 X74.527 Y118.83 E.03058
G1 X74.28 Y118.341 E.02687
G1 X74.034 Y117.726 E.03249
G1 X73.887 Y117.241 E.02486
G1 X73.703 Y116.251 E.0494
G1 X73.664 Y115.697 E.02724
G1 X73.687 Y114.915 E.03838
G1 X73.797 Y114.146 E.03811
G1 X73.942 Y113.56 E.02961
G1 X74.127 Y113.021 E.02795
G1 X74.452 Y112.309 E.03839
G1 X74.846 Y111.653 E.03754
G1 X75.208 Y111.17 E.02961
G1 X75.594 Y110.736 E.02849
G1 X76.171 Y110.207 E.0384
G1 X76.78 Y109.762 E.037
G1 X77.301 Y109.457 E.02962
G1 X77.836 Y109.203 E.02905
G1 X78.573 Y108.94 E.03839
G1 X79.296 Y108.769 E.03645
G1 X79.894 Y108.69 E.02959
G1 X80.505 Y108.663 E.03
G1 X150.414 Y108.663 E3.42941
G1 X151.005 Y108.724 E.02915
G1 X151.005 Y108.724 F9000
G1 X151.211 Y110.351
;TYPE:Solid infill
;WIDTH:0.421014
G1 F1200
G1 X150.488 Y109.628 E.0503
G1 X149.992 Y109.624 E.0244
G1 X151.055 Y110.687 E.07396
G1 X151.055 Y111.179 E.02421
G1 X149.5 Y109.624 E.10819
G1 X149.007 Y109.624 E.02425
G1 X151.055 Y111.671 E.14246
G1 X151.055 Y112.163 E.02421
G1 X148.515 Y109.624 E.17669
G1 X148.023 Y109.624 E.02421
G1 X151.055 Y112.656 E.21096
G1 X151.055 Y113.148 E.02421
G1 X147.531 Y109.624 E.24519
G1 X147.039 Y109.624 E.02421
G1 X151.055 Y113.64 E.27942
G1 X151.055 Y114.132 E.02421
G1 X146.546 Y109.624 E.31369
G1 X146.054 Y109.624 E.02421
G1 X151.055 Y114.625 E.34796
G1 X151.055 Y115.117 E.02421
G1 X145.562 Y109.624 E.38219
G1 X145.07 Y109.624 E.02421
G1 X151.055 Y115.609 E.41642
G1 X151.055 Y116.101 E.02421
G1 X144.577 Y109.624 E.45069
G1 X144.085 Y109.624 E.02421
G1 X151.055 Y116.593 E.48492
G1 X151.055 Y117.086 E.02425
G1 X143.593 Y109.624 E.51919
G1 X143.101 Y109.624 E.02421
G1 X151.055 Y117.578 E.55342
G1 X151.055 Y118.07 E.02421
G1 X142.609 Y109.624 E.58765
G1 X142.116 Y109.624 E.02425
G1 X151.055 Y118.562 E.62192
G1 X151.055 Y119.055 E.02425
G1 X141.624 Y109.624 E.65618
G1 X141.132 Y109.624 E.02421
G1 X151.055 Y119.547 E.69042
G1 X151.055 Y120.039 E.02421
G1 X140.64 Y109.624 E.72465
G1 X140.148 Y109.624 E.02421
G1 X151.055 Y120.531 E.75888
G1 X151.055 Y121.023 E.02421
G1 X139.655 Y109.624 E.79315
G1 X139.163 Y109.624 E.02421
G1 X150.865 Y121.326 E.8142
G1 X150.735 Y121.357 E.00658
G1 X150.423 Y121.376 E.01538
G1 X138.671 Y109.624 E.81767
G1 X138.179 Y109.624 E.02421
G1 X149.931 Y121.376 E.81767
G1 X149.439 Y121.376 E.02421
G1 X137.686 Y109.624 E.81771
G1 X137.194 Y109.624 E.02421
G1 X148.947 Y121.376 E.81771
G1 X148.454 Y121.376 E.02425
G1 X136.702 Y109.624 E.81767
G1 X136.21 Y109.624 E.02421
G1 X147.962 Y121.376 E.81767
G1 X147.47 Y121.376 E.02421
G1 X135.718 Y109.624 E.81767
G1 X135.225 Y109.624 E.02425
G1 X146.978 Y121.376 E.81771
G1 X146.486 Y121.376 E.02421
G1 X134.733 Y109.624 E.81771
G1 X134.241 Y109.624 E.02421
G1 X145.993 Y121.376 E.81767
G1 X145.501 Y121.376 E.02421
G1 X133.749 Y109.624 E.81767
G1 X133.257 Y109.624 E.02421
G1 X145.009 Y121.376 E.81767
G1 X144.517 Y121.376 E.02421
G1 X132.764 Y109.624 E.81771
G1 X132.272 Y109.624 E.02421
G1 X144.024 Y121.376 E.81767
G1 X143.532 Y121.376 E.02421
G1 X131.78 Y109.624 E.81767
G1 X131.288 Y109.624 E.02421
G1 X143.04 Y121.376 E.81767
G1 X142.548 Y121.376 E.02421
G1 X130.795 Y109.624 E.81771
G1 X130.303 Y109.624 E.02421
G1 X142.056 Y121.376 E.81771
G1 X141.563 Y121.376 E.02425
G1 X129.811 Y109.624 E.81767
G1 X129.319 Y109.624 E.02421
G1 X141.071 Y121.376 E.81767
G1 X140.579 Y121.376 E.02421
G1 X128.827 Y109.624 E.81767
G1 X128.334 Y109.624 E.02425
G1 X140.087 Y121.376 E.81771
G1 X139.594 Y121.376 E.02425
G1 X127.842 Y109.624 E.81767
G1 X127.35 Y109.624 E.02421
G1 X139.102 Y121.376 E.81767
G1 X138.61 Y121.376 E.02421
G1 X126.858 Y109.624 E.81767
G1 X126.365 Y109.624 E.02425
G1 X138.118 Y121.376 E.81771
G1 X137.626 Y121.376 E.02421
G1 X125.873 Y109.624 E.81771
G1 X125.381 Y109.624 E.02421
G1 X137.133 Y121.376 E.81767
G1 X136.641 Y121.376 E.02421
G1 X124.889 Y109.624 E.81767
G1 X124.397 Y109.624 E.02421
G1 X136.149 Y121.376 E.81767
G1 X135.657 Y121.376 E.02421
G1 X123.904 Y109.624 E.81771
G1 X123.412 Y109.624 E.02421
G1 X135.165 Y121.376 E.81771
G1 X134.672 Y121.376 E.02425
G1 X122.92 Y109.624 E.81767
G1 X122.428 Y109.624 E.02421
G1 X134.18 Y121.376 E.81767
G1 X133.688 Y121.376 E.02421
G1 X121.936 Y109.624 E.81767
G1 X121.443 Y109.624 E.02425
G1 X133.196 Y121.376 E.81771
G1 X132.703 Y121.376 E.02425
G1 X120.951 Y109.624 E.81767
G1 X120.459 Y109.624 E.02421
G1 X132.211 Y121.376 E.81767
G1 X131.719 Y121.376 E.02421
G1 X119.967 Y109.624 E.81767
G1 X119.474 Y109.624 E.02425
G1 X131.227 Y121.376 E.81771
G1 X130.735 Y121.376 E.02421
G1 X118.982 Y109.624 E.81771
G1 X118.49 Y109.624 E.02421
G1 X130.242 Y121.376 E.81767
G1 X129.75 Y121.376 E.02421
G1 X117.998 Y109.624 E.81767
G1 X117.506 Y109.624 E.02421
G1 X129.258 Y121.376 E.81767
G1 X128.766 Y121.376 E.02421
G1 X117.013 Y109.624 E.81771
G1 X116.521 Y109.624 E.02421
G1 X128.274 Y121.376 E.81771
G1 X127.781 Y121.376 E.02425
G1 X116.029 Y109.624 E.81767
G1 X115.537 Y109.624 E.02421
G1 X127.289 Y121.376 E.81767
G1 X126.797 Y121.376 E.02421
G1 X115.045 Y109.624 E.81767
G1 X114.552 Y109.624 E.02425
G1 X126.305 Y121.376 E.81771
G1 X125.812 Y121.376 E.02425
G1 X114.06 Y109.624 E.81767
G1 X113.568 Y109.624 E.02421
G1 X125.32 Y121.376 E.81767
G1 X124.828 Y121.376 E.02421
G1 X113.076 Y109.624 E.81767
G1 X112.583 Y109.624 E.02425
G1 X124.336 Y121.376 E.81771
G1 X123.844 Y121.376 E.02421
G1 X112.091 Y109.624 E.81771
G1 X111.599 Y109.624 E.02421
G1 X123.351 Y121.376 E.81767
G1 X122.859 Y121.376 E.02421
G1 X111.107 Y109.624 E.81767
G1 X110.615 Y109.624 E.02421
G1 X122.367 Y121.376 E.81767
G1 X121.875 Y121.376 E.02421
G1 X110.122 Y109.624 E.81771
G1 X109.63 Y109.624 E.02421
G1 X121.383 Y121.376 E.81771
G1 X120.89 Y121.376 E.02425
G1 X109.138 Y109.624 E.81767
G1 X108.646 Y109.624 E.02421
G1 X120.398 Y121.376 E.81767
G1 X119.906 Y121.376 E.02421
G1 X108.154 Y109.624 E.81767
G1 X107.661 Y109.624 E.02425
G1 X119.414 Y121.376 E.81771
G1 X118.921 Y121.376 E.02425
G1 X107.169 Y109.624 E.81767
G1 X106.677 Y109.624 E.02421
G1 X118.429 Y121.376 E.81767
G1 X117.937 Y121.376 E.02421
G1 X106.185 Y109.624 E.81767
G1 X105.692 Y109.624 E.02425
G1 X117.445 Y121.376 E.81771
G1 X116.953 Y121.376 E.02421
G1 X105.2 Y109.624 E.81771
G1 X104.708 Y109.624 E.02421
G1 X116.46 Y121.376 E.81767
G1 X115.968 Y121.376 E.02421
G1 X104.216 Y109.624 E.81767
G1 X103.724 Y109.624 E.02421
G1 X115.476 Y121.376 E.81767
G1 X114.984 Y121.376 E.02421
G1 X103.231 Y109.624 E.81771
G1 X102.739 Y109.624 E.02421
G1 X114.491 Y121.376 E.81767
G1 X113.999 Y121.376 E.02421
G1 X102.247 Y109.624 E.81767
G1 X101.755 Y109.624 E.02421
G1 X113.507 Y121.376 E.81767
G1 X113.015 Y121.376 E.02421
G1 X101.262 Y109.624 E.81771
G1 X100.77 Y109.624 E.02421
G1 X112.523 Y121.376 E.81771
G1 X112.03 Y121.376 E.02425
G1 X100.278 Y109.624 E.81767
G1 X99.786 Y109.624 E.02421
G1 X111.538 Y121.376 E.81767
G1 X111.046 Y121.376 E.02421
G1 X99.294 Y109.624 E.81767
G1 X98.801 Y109.624 E.02425
G1 X110.554 Y121.376 E.81771
G1 X110.062 Y121.376 E.02421
G1 X98.309 Y109.624 E.81771
G1 X97.817 Y109.624 E.02421
G1 X109.569 Y121.376 E.81767
G1 X109.077 Y121.376 E.02421
G1 X97.325 Y109.624 E.81767
G1 X96.833 Y109.624 E.02421
G1 X108.585 Y121.376 E.81767
G1 X108.093 Y121.376 E.02421
G1 X96.34 Y109.624 E.81771
G1 X95.848 Y109.624 E.02421
G1 X107.6 Y121.376 E.81767
G1 X107.108 Y121.376 E.02421
G1 X95.356 Y109.624 E.81767
G1 X94.864 Y109.624 E.02421
G1 X106.616 Y121.376 E.81767
G1 X106.124 Y121.376 E.02421
G1 X94.371 Y109.624 E.81771
G1 X93.879 Y109.624 E.02421
G1 X105.632 Y121.376 E.81771
G1 X105.139 Y121.376 E.02425
G1 X93.387 Y109.624 E.81767
G1 X92.895 Y109.624 E.02421
G1 X104.647 Y121.376 E.81767
G1 X104.155 Y121.376 E.02421
G1 X92.403 Y109.624 E.81767
G1 X91.91 Y109.624 E.02425
G1 X103.663 Y121.376 E.81771
G1 X103.171 Y121.376 E.02421
G1 X91.418 Y109.624 E.81771
G1 X90.926 Y109.624 E.02421
G1 X102.678 Y121.376 E.81767
G1 X102.186 Y121.376 E.02421
G1 X90.434 Y109.624 E.81767
G1 X89.942 Y109.624 E.02421
G1 X101.694 Y121.376 E.81767
G1 X101.202 Y121.376 E.02421
G1 X89.449 Y109.624 E.81771
G1 X88.957 Y109.624 E.02421
G1 X100.709 Y121.376 E.81767
G1 X100.217 Y121.376 E.02421
G1 X88.465 Y109.624 E.81767
G1 X87.973 Y109.624 E.02421
G1 X99.725 Y121.376 E.81767
G1 X99.233 Y121.376 E.02421
G1 X87.48 Y109.624 E.81771
G1 X86.988 Y109.624 E.02421
G1 X98.741 Y121.376 E.81771
G1 X98.248 Y121.376 E.02425
G1 X86.496 Y109.624 E.81767
G1 X86.004 Y109.624 E.02421
G1 X97.756 Y121.376 E.81767
G1 X97.264 Y121.376 E.02421
G1 X85.512 Y109.624 E.81767
G1 X85.019 Y109.624 E.02425
G1 X96.772 Y121.376 E.81771
G1 X96.28 Y121.376 E.02421
G1 X84.527 Y109.624 E.81771
G1 X84.035 Y109.624 E.02421
G1 X95.787 Y121.376 E.81767
G1 X95.295 Y121.376 E.02421
G1 X83.543 Y109.624 E.81767
G1 X83.051 Y109.624 E.02421
G1 X94.803 Y121.376 E.81767
G1 X94.311 Y121.376 E.02421
G1 X82.558 Y109.624 E.81771
G1 X82.066 Y109.624 E.02421
G1 X93.818 Y121.376 E.81767
G1 X93.326 Y121.376 E.02421
G1 X81.574 Y109.624 E.81767
G1 X81.082 Y109.624 E.02421
G1 X92.834 Y121.376 E.81767
G1 X92.342 Y121.376 E.02421
G1 X80.592 Y109.626 E.81753
G1 X80.117 Y109.643 E.02338
G1 X91.85 Y121.376 E.81635
G1 X91.357 Y121.376 E.02425
G1 X79.67 Y109.689 E.81315
G1 X79.256 Y109.767 E.02073
G1 X90.865 Y121.376 E.80772
G1 X90.373 Y121.376 E.02421
G1 X78.857 Y109.86 E.80125
G1 X78.493 Y109.989 E.019
G1 X89.881 Y121.376 E.79231
G1 X89.388 Y121.376 E.02425
G1 X78.136 Y110.124 E.78289
G1 X77.803 Y110.283 E.01815
G1 X88.896 Y121.376 E.77182
G1 X88.404 Y121.376 E.02421
G1 X77.489 Y110.461 E.75944
G1 X77.189 Y110.654 E.01755
G1 X87.912 Y121.376 E.74604
G1 X87.42 Y121.376 E.02421
G1 X76.905 Y110.861 E.73161
G1 X76.636 Y111.085 E.01722
G1 X86.927 Y121.376 E.71602
G1 X86.435 Y121.376 E.02421
G1 X76.379 Y111.32 E.69967
G1 X76.138 Y111.571 E.01712
G1 X85.943 Y121.376 E.68221
G1 X85.451 Y121.376 E.02421
G1 X75.91 Y111.836 E.6638
G1 X75.7 Y112.117 E.01726
G1 X84.959 Y121.376 E.64422
G1 X84.466 Y121.376 E.02425
