; generated by PrusaSlicer 2.9.0 on 2025-01-29 at 17:38:37 UTC

; 

; external perimeters extrusion width = 0.42mm
; perimeters extrusion width = 0.44mm
; infill extrusion width = 0.44mm
; solid infill extrusion width = 0.44mm
; top infill extrusion width = 0.40mm
; first layer extrusion width = 0.42mm

M201 X500 Y500 Z100 E5000 ; sets maximum accelerations, mm/sec^2
M203 X500 Y500 Z10 E60 ; sets maximum feedrates, mm / sec
M204 S500 T1000 ; sets acceleration (S) and retract acceleration (R), mm/sec^2
M205 X8.00 Y8.00 Z0.40 E5.00 ; sets the jerk limits, mm/sec
M205 S0 T0 ; sets the minimum extruding and travel feed rate, mm/sec

; printing object Femur Spline id:0 copy 0
; stop printing object Femur Spline id:0 copy 0

;TYPE:Custom
G90 ; use absolute coordinates
M83 ; extruder relative mode
M104 S200 ; set temporary nozzle temp to prevent oozing during homing
M140 S60 ; set final bed temp
G4 S30 ; allow partial nozzle warmup
G28 ; home all axis
G1 Z50 F240
G1 X2.0 Y10 F3000
M104 S205 ; set final nozzle temp
M190 S60 ; wait for bed temp to stabilize
M109 S205 ; wait for nozzle temp to stabilize
G1 Z0.28 F240
G92 E0
G1 X2.0 Y140 E10 F1500 ; prime the nozzle
G1 X2.3 Y140 F5000
G92 E0
G1 X2.3 Y10 E10 F1200 ; prime the nozzle
G92 E0
G21 ; set units to millimeters
G90 ; use absolute coordinates
M83 ; use relative distances for extrusion
; Filament gcode
M107
;LAYER_CHANGE
;Z:0.34
;HEIGHT:0.34
G1 E-5 F3600
G1 Z.34 F9000
G1 X74.599 Y106.271
G1 Z.34
G1 E5 F2400
M204 S500
;TYPE:Skirt/Brim
;WIDTH:0.42
G1 F1200
G1 X75.623 Y105.691 E.05773
G1 X76.634 Y105.251 E.05409
G1 X78.639 Y104.706 E.10192
G1 X80.499 Y104.546 E.09158
G1 X148.273 Y104.543 E3.32468
G1 X151.509 Y104.613 E.15878
G1 X152.727 Y104.871 E.06108
G1 X153.821 Y105.325 E.0581
G1 X154.708 Y105.892 E.05164
G1 X155.289 Y106.429 E.03881
G1 X155.724 Y106.964 E.03383
G1 X156.196 Y107.818 E.04787
G1 X156.483 Y108.854 E.05274
G1 X156.532 Y121.5 E.62036
G1 X156.483 Y122.146 E.03178
G1 X156.321 Y122.837 E.03482
G1 X155.734 Y124.022 E.06487
G1 X155.264 Y124.596 E.03639
G1 X154.69 Y125.119 E.03809
G1 X154.039 Y125.555 E.03844
G1 X153.249 Y125.939 E.04309
G1 X151.769 Y126.347 E.07531
G1 X150.499 Y126.454 E.06252
G1 X80.499 Y126.454 E3.43388
G1 X79.291 Y126.387 E.05935
G1 X77.594 Y126.062 E.08476
G1 X75.872 Y125.428 E.09002
G1 X74.513 Y124.673 E.07626
G1 X73.03 Y123.512 E.09239
G1 X71.81 Y122.17 E.08897
G1 X70.828 Y120.644 E.08902
G1 X70.133 Y119.042 E.08566
G1 X69.688 Y117.26 E.0901
G1 X69.55 Y115.188 E.10187
G1 X69.776 Y113.265 E.09498
G1 X70.068 Y112.155 E.0563
G1 X70.468 Y111.101 E.0553
G1 X70.915 Y110.196 E.04952
G1 X71.482 Y109.281 E.0528
G1 X72.191 Y108.361 E.05698
G1 X72.96 Y107.554 E.05468
G1 X74.552 Y106.308 E.09917
G1 E-3.5 F3600
;WIPE_START
G1 F7200
G1 X74.599 Y106.271 E-.02841
G1 X75.623 Y105.691 E-.559
G1 X76.634 Y105.251 E-.52373
G1 X77.424 Y105.036 E-.38886
;WIPE_END
; printing object Femur Spline id:0 copy 0
G1 X120.938 Y115.223 F9000
G1 E5 F2400
;TYPE:Perimeter
;WIDTH:0.42
G1 F1200
G1 X120.941 Y115.113 E.0054
G1 X121.032 Y114.78 E.01693
G1 X121.342 Y114.202 E.03217
G1 X121.844 Y113.753 E.03304
G1 X122.092 Y113.606 E.01414
G1 X122.624 Y113.434 E.02743
G1 X123.186 Y113.408 E.0276
G1 X123.73 Y113.532 E.02737
G1 X124.03 Y113.67 E.0162
G1 X124.268 Y113.834 E.01418
G1 X124.739 Y114.317 E.03309
G1 X125.01 Y114.915 E.03221
G1 X125.079 Y115.254 E.01697
G1 X125.072 Y115.851 E.02929
G1 X125.009 Y116.087 E.01198
G1 X124.739 Y116.683 E.0321
G1 X124.268 Y117.166 E.03309
G1 X123.976 Y117.352 E.01698
G1 X123.354 Y117.574 E.0324
G1 X122.685 Y117.571 E.03282
G1 X122.349 Y117.491 E.01694
G1 X121.747 Y117.192 E.03297
G1 X121.291 Y116.713 E.03244
G1 X121.115 Y116.414 E.01702
G1 X120.923 Y115.838 E.02978
G1 X120.936 Y115.283 E.02723
G1 X120.936 Y115.283 F9000
G1 X121.282 Y115.269
G1 F1200
G1 X121.287 Y115.137 E.00648
G1 X121.342 Y114.937 E.01018
G1 X121.617 Y114.415 E.02894
G1 X122.068 Y114.018 E.02947
G1 X122.524 Y113.811 E.02457
G1 X123.041 Y113.743 E.02558
G1 X123.584 Y113.846 E.02711
G1 X124.026 Y114.083 E.0246
G1 X124.451 Y114.51 E.02955
G1 X124.69 Y115.05 E.02897
G1 X124.732 Y115.254 E.01022
G1 X124.727 Y115.81 E.02728
G1 X124.498 Y116.403 E.03118
G1 X124.381 Y116.574 E.01016
G1 X123.947 Y116.98 E.02915
G1 X123.391 Y117.205 E.02942
G1 X123.187 Y117.24 E.01015
G1 X122.696 Y117.224 E.0241
G1 X122.495 Y117.176 E.01014
G1 X121.955 Y116.914 E.02944
G1 X121.549 Y116.48 E.02915
G1 X121.443 Y116.301 E.01021
G1 X121.263 Y115.768 E.0276
G1 X121.279 Y115.329 E.02155
G1 X121.279 Y115.329 F9000
G1 X121.626 Y115.316
;TYPE:External perimeter
G1 F1200
G1 X121.633 Y115.16 E.00766
G1 X121.873 Y114.655 E.02743
G1 X122.292 Y114.283 E.02749
G1 X122.693 Y114.124 E.02116
G1 X123.07 Y114.093 E.01856
G1 X123.438 Y114.161 E.01836
G1 X123.785 Y114.333 E.019
G1 X124.163 Y114.703 E.02595
G1 X124.371 Y115.186 E.0258
G1 X124.384 Y115.748 E.02758
G1 X124.178 Y116.268 E.02744
G1 X123.785 Y116.667 E.02747
G1 X123.267 Y116.882 E.02751
G1 X122.708 Y116.877 E.02742
G1 X122.64 Y116.861 E.00343
G1 X122.162 Y116.636 E.02592
G1 X121.806 Y116.247 E.02587
G1 X121.609 Y115.72 E.0276
G1 X121.624 Y115.375 E.01694
G1 E-3.5 F3600
;WIPE_START
G1 F7200
G1 X121.626 Y115.316 E-.02804
G1 X121.633 Y115.16 E-.07417
G1 X121.873 Y114.655 E-.26559
G1 X122.292 Y114.283 E-.26615
G1 X122.693 Y114.124 E-.2049
G1 X123.07 Y114.093 E-.17968
G1 X123.438 Y114.161 E-.17776
G1 X123.785 Y114.333 E-.18396
G1 X123.965 Y114.51 E-.11975
;WIPE_END
G1 X103.083 Y115.5 F9000
G1 E5 F2400
;TYPE:Perimeter
G1 F1200
G1 X103.06 Y115.927 E.02098
G1 X102.89 Y116.522 E.03036
G1 X102.457 Y117.205 E.03967
G1 X102 Y117.624 E.03041
G1 X101.5 Y117.901 E.02804
G1 X100.713 Y118.088 E.03968
G1 X100.428 Y118.095 E.01398
G1 X99.861 Y118.017 E.02808
G1 X99.282 Y117.799 E.03035
G1 X98.809 Y117.477 E.02807
G1 X98.417 Y117.059 E.02811
G1 X98.127 Y116.567 E.02802
G1 X97.951 Y116.023 E.02805
G1 X97.918 Y115.492 E.0261
G1 X97.928 Y115.082 E.02012
G1 X98.151 Y114.391 E.03562
G1 X98.476 Y113.865 E.03033
G1 X98.883 Y113.462 E.0281
G1 X99.367 Y113.158 E.02804
G1 X99.907 Y112.967 E.0281
G1 X100.142 Y112.928 E.01169
G1 X100.714 Y112.913 E.02807
G1 X101.321 Y113.032 E.03034
G1 X101.84 Y113.272 E.02805
G1 X102.295 Y113.619 E.02807
G1 X102.663 Y114.058 E.0281
G1 X102.926 Y114.566 E.02806
G1 X103.071 Y115.118 E.028
G1 X103.091 Y115.355 E.01167
G1 X103.087 Y115.44 E.00417
G1 X103.087 Y115.44 F9000
G1 X102.736 Y115.5
G1 F1200
G1 X102.713 Y115.908 E.02005
G1 X102.562 Y116.41 E.02572
G1 X102.172 Y117.008 E.03502
G1 X101.78 Y117.356 E.02571
G1 X101.343 Y117.591 E.02434
G1 X100.646 Y117.747 E.03504
G1 X99.909 Y117.673 E.03634
G1 X99.421 Y117.481 E.02573
G1 X98.93 Y117.12 E.0299
G1 X98.614 Y116.737 E.02436
G1 X98.389 Y116.295 E.02433
G1 X98.265 Y115.787 E.02565
G1 X98.265 Y115.214 E.02811
G1 X98.479 Y114.504 E.03638
G1 X98.761 Y114.063 E.02568
G1 X99.21 Y113.65 E.02993
G1 X99.646 Y113.413 E.02434
G1 X100.151 Y113.275 E.02568
G1 X100.724 Y113.259 E.02812
G1 X101.236 Y113.369 E.02569
G1 X101.78 Y113.644 E.0299
G1 X102.155 Y113.969 E.02434
G1 X102.449 Y114.368 E.02431
G1 X102.649 Y114.822 E.02434
G1 X102.745 Y115.322 E.02498
G1 X102.739 Y115.44 E.0058
G1 X102.739 Y115.44 F9000
G1 X102.388 Y115.5
;TYPE:External perimeter
G1 F1200
G1 X102.367 Y115.889 E.01911
G1 X102.212 Y116.339 E.02335
G1 X101.886 Y116.81 E.0281
G1 X101.527 Y117.109 E.02292
G1 X101.141 Y117.297 E.02106
G1 X100.577 Y117.407 E.02819
G1 X99.957 Y117.33 E.03065
G1 X99.528 Y117.144 E.02294
G1 X99.192 Y116.892 E.0206
G1 X98.919 Y116.572 E.02063
G1 X98.723 Y116.201 E.02058
G1 X98.612 Y115.787 E.02103
G1 X98.612 Y115.214 E.02811
G1 X98.808 Y114.616 E.03087
G1 X99.071 Y114.232 E.02283
G1 X99.383 Y113.95 E.02063
G1 X99.749 Y113.744 E.0206
G1 X100.161 Y113.622 E.02108
G1 X100.733 Y113.606 E.02807
G1 X101.186 Y113.719 E.0229
G1 X101.559 Y113.912 E.0206
G1 X101.881 Y114.182 E.02061
G1 X102.135 Y114.516 E.02058
G1 X102.311 Y114.898 E.02063
G1 X102.398 Y115.317 E.02099
G1 X102.391 Y115.44 E.00604
G1 E-3.5 F3600
;WIPE_START
G1 F7200
G1 X102.388 Y115.5 E-.02854
G1 X102.367 Y115.889 E-.18504
G1 X102.212 Y116.339 E-.22607
G1 X101.886 Y116.81 E-.27209
G1 X101.527 Y117.109 E-.22192
G1 X101.141 Y117.297 E-.20394
G1 X100.577 Y117.407 E-.27295
G1 X100.39 Y117.384 E-.08945
;WIPE_END
G1 X83.083 Y115.5 F9000
G1 E5 F2400
;TYPE:Perimeter
G1 F1200
G1 X83.06 Y115.927 E.02098
G1 X82.89 Y116.523 E.0304
G1 X82.609 Y117.02 E.02801
G1 X82.037 Y117.592 E.03968
G1 X81.5 Y117.901 E.03039
G1 X80.951 Y118.061 E.02805
G1 X80.273 Y118.075 E.03327
G1 X79.907 Y118.033 E.01807
G1 X79.43 Y117.875 E.02465
G1 X78.969 Y117.607 E.02616
G1 X78.51 Y117.157 E.03153
G1 X78.308 Y116.903 E.01592
G1 X78.063 Y116.418 E.02666
G1 X77.929 Y115.922 E.0252
G1 X77.918 Y115.215 E.03469
G1 X78.055 Y114.61 E.03043
G1 X78.307 Y114.099 E.02795
G1 X78.449 Y113.907 E.01171
G1 X78.848 Y113.496 E.0281
G1 X79.367 Y113.158 E.03038
G1 X79.542 Y113.081 E.00938
G1 X80.09 Y112.931 E.02787
G1 X80.714 Y112.913 E.03062
G1 X81.321 Y113.032 E.03034
G1 X81.84 Y113.272 E.02805
G1 X82.295 Y113.619 E.02807
G1 X82.663 Y114.058 E.0281
G1 X82.926 Y114.566 E.02806
G1 X83.071 Y115.118 E.028
G1 X83.091 Y115.355 E.01167
G1 X83.087 Y115.44 E.00417
G1 X83.087 Y115.44 F9000
G1 X82.736 Y115.5
G1 F1200
G1 X82.713 Y115.908 E.02005
G1 X82.562 Y116.41 E.02572
G1 X82.313 Y116.839 E.02433
G1 X81.801 Y117.337 E.03504
G1 X81.343 Y117.591 E.02569
G1 X80.828 Y117.733 E.02621
G1 X80.282 Y117.729 E.02678
G1 X80.01 Y117.701 E.01341
G1 X79.512 Y117.525 E.02591
G1 X79.079 Y117.243 E.02535
G1 X78.699 Y116.853 E.02671
G1 X78.432 Y116.401 E.02575
G1 X78.276 Y115.89 E.02621
G1 X78.265 Y115.214 E.03317
G1 X78.389 Y114.705 E.0257
G1 X78.639 Y114.221 E.02672
G1 X79.097 Y113.738 E.03265
G1 X79.541 Y113.459 E.02572
G1 X79.646 Y113.413 E.00562
G1 X80.151 Y113.275 E.02568
G1 X80.724 Y113.259 E.02812
G1 X81.236 Y113.369 E.02569
G1 X81.78 Y113.644 E.0299
G1 X82.155 Y113.969 E.02434
G1 X82.449 Y114.368 E.02431
G1 X82.649 Y114.822 E.02434
G1 X82.745 Y115.322 E.02498
G1 X82.739 Y115.44 E.0058
G1 X82.739 Y115.44 F9000
G1 X82.388 Y115.5
;TYPE:External perimeter
G1 F1200
G1 X82.367 Y115.889 E.01911
G1 X82.217 Y116.332 E.02294
G1 X81.988 Y116.694 E.02101
G1 X81.566 Y117.082 E.02812
G1 X81.15 Y117.295 E.02293
G1 X80.734 Y117.394 E.02098
G1 X80.161 Y117.378 E.02812
G1 X79.686 Y117.224 E.0245
G1 X79.327 Y117.001 E.02073
G1 X78.947 Y116.611 E.02671
G1 X78.723 Y116.201 E.02292
G1 X78.612 Y115.787 E.02103
G1 X78.612 Y115.213 E.02816
G1 X78.768 Y114.707 E.02597
G1 X78.947 Y114.39 E.01786
G1 X79.348 Y113.977 E.02824
G1 X79.749 Y113.744 E.02275
G1 X80.161 Y113.622 E.02108
G1 X80.733 Y113.606 E.02807
G1 X81.186 Y113.719 E.0229
G1 X81.559 Y113.912 E.0206
G1 X81.881 Y114.182 E.02061
G1 X82.135 Y114.516 E.02058
G1 X82.311 Y114.898 E.02063
G1 X82.398 Y115.317 E.02099
G1 X82.391 Y115.44 E.00604
G1 E-3.5 F3600
;WIPE_START
G1 F7200
G1 X82.388 Y115.5 E-.02854
G1 X82.367 Y115.889 E-.18504
G1 X82.217 Y116.332 E-.22216
G1 X81.988 Y116.694 E-.20347
G1 X81.566 Y117.082 E-.2723
G1 X81.15 Y117.295 E-.222
G1 X80.734 Y117.394 E-.20312
G1 X80.39 Y117.384 E-.16337
;WIPE_END
G1 X143.693 Y109.352 F9000
G1 E5 F2400
;TYPE:Perimeter
G1 F1200
G1 X143.748 Y109.352 E.0027
G1 X143.815 Y109.38 E.00356
G1 X144.267 Y109.762 E.02903
G1 X144.791 Y110.012 E.02848
G1 X145.286 Y110.097 E.02464
G1 X145.877 Y110.044 E.02911
G1 X146.391 Y109.851 E.02693
G1 X146.623 Y109.7 E.01358
G1 X146.996 Y109.353 E.02499
G1 X150.398 Y109.356 E.16689
G1 X150.896 Y109.404 E.02454
G1 X151.322 Y109.601 E.02302
G1 X151.322 Y121.402 E.5789
G1 X151.27 Y121.447 E.00337
G1 X150.996 Y121.569 E.01471
G1 X150.464 Y121.643 E.02635
G1 X80.224 Y121.632 E3.44565
G1 X79.689 Y121.589 E.02633
G1 X79.151 Y121.493 E.02681
G1 X78.627 Y121.35 E.02664
G1 X78.117 Y121.162 E.02666
G1 X77.625 Y120.929 E.0267
G1 X77.18 Y120.668 E.02531
G1 X76.712 Y120.336 E.02815
G1 X76.294 Y119.973 E.02716
G1 X75.814 Y119.467 E.03421
G1 X75.455 Y118.99 E.02929
G1 X75.07 Y118.375 E.03559
G1 X74.788 Y117.76 E.03319
G1 X74.536 Y116.972 E.04058
G1 X74.431 Y116.455 E.02588
G1 X74.359 Y115.669 E.03872
G1 X74.37 Y115.088 E.02851
G1 X74.433 Y114.555 E.02633
G1 X74.567 Y113.928 E.03145
G1 X74.817 Y113.176 E.03887
G1 X75.046 Y112.678 E.02689
G1 X75.422 Y112.057 E.03561
G1 X75.846 Y111.49 E.03473
G1 X76.364 Y110.975 E.03583
G1 X76.743 Y110.645 E.02465
G1 X77.183 Y110.338 E.02632
G1 X77.689 Y110.041 E.02878
G1 X78.739 Y109.619 E.05551
G1 X79.376 Y109.468 E.03211
G1 X79.926 Y109.388 E.02726
G1 X80.513 Y109.357 E.02884
G1 X143.633 Y109.352 E3.09637
G1 X143.633 Y109.352 F9000
G1 X144.016 Y109.084
G1 F1200
G1 X144.059 Y109.133 E.0032
G1 X144.419 Y109.45 E.02353
G1 X144.909 Y109.686 E.02668
G1 X145.41 Y109.757 E.02482
G1 X145.963 Y109.661 E.02753
G1 X146.389 Y109.443 E.02347
G1 X146.835 Y109.006 E.03063
G1 X150.465 Y109.01 E.17807
G1 X150.98 Y109.064 E.0254
G1 X151.37 Y109.218 E.02057
G1 X151.604 Y109.387 E.01416
G1 X151.669 Y109.585 E.01022
G1 X151.669 Y120.983 E.55913
G1 X151.648 Y121.541 E.02739
G1 X151.442 Y121.758 E.01468
G1 X151.077 Y121.906 E.01932
G1 X150.476 Y121.99 E.02977
G1 X80.224 Y121.979 E3.44624
G1 X79.642 Y121.933 E.02864
G1 X79.074 Y121.832 E.0283
G1 X78.521 Y121.681 E.02812
G1 X77.982 Y121.482 E.02819
G1 X77.463 Y121.236 E.02817
G1 X76.991 Y120.96 E.02682
G1 X76.499 Y120.611 E.02959
G1 X76.113 Y120.284 E.02482
G1 X75.724 Y119.89 E.02716
G1 X75.362 Y119.466 E.02735
G1 X75.025 Y118.98 E.02901
G1 X74.762 Y118.534 E.0254
G1 X74.464 Y117.886 E.03499
G1 X74.199 Y117.059 E.0426
G1 X74.088 Y116.506 E.02767
G1 X74.012 Y115.682 E.04059
G1 X74.022 Y115.157 E.02576
G1 X74.074 Y114.58 E.02842
G1 X74.2 Y113.939 E.03205
G1 X74.453 Y113.142 E.04102
G1 X74.698 Y112.59 E.02963
G1 X74.939 Y112.152 E.02452
G1 X75.251 Y111.688 E.02743
G1 X75.588 Y111.257 E.02684
G1 X76.286 Y110.564 E.04825
G1 X76.682 Y110.251 E.02476
G1 X77.14 Y109.952 E.02683
G1 X77.627 Y109.68 E.02736
G1 X78.226 Y109.439 E.03167
G1 X78.816 Y109.237 E.03059
G1 X79.313 Y109.127 E.02497
G1 X79.893 Y109.043 E.02875
G1 X80.508 Y109.01 E.03021
G1 X143.946 Y109.005 E3.11197
G1 X143.976 Y109.039 E.00222
G1 X143.976 Y109.039 F9000
G1 X144.293 Y108.867
;TYPE:External perimeter
G1 F1200
G1 X144.526 Y109.106 E.01637
G1 X145.006 Y109.35 E.02641
G1 X145.375 Y109.409 E.01833
G1 X145.777 Y109.357 E.01988
G1 X146.128 Y109.207 E.01872
G1 X146.507 Y108.867 E.02498
G1 X146.635 Y108.658 E.01202
G1 X150.483 Y108.663 E.18877
G1 X151.063 Y108.724 E.02861
G1 X151.631 Y108.948 E.02995
G1 X151.794 Y109.091 E.01064
G1 X151.982 Y109.336 E.01515
G1 X152.016 Y109.585 E.01233
G1 X152.016 Y120.983 E.55913
G1 X151.997 Y121.566 E.02861
G1 X151.876 Y121.841 E.01474
G1 X151.63 Y122.054 E.01596
G1 X151.353 Y122.177 E.01487
G1 X150.992 Y122.284 E.01847
G1 X150.488 Y122.337 E.02486
G1 X80.107 Y122.326 E3.45256
G1 X79.595 Y122.277 E.02523
G1 X78.998 Y122.171 E.02974
G1 X78.415 Y122.012 E.02964
G1 X77.847 Y121.802 E.02971
G1 X77.301 Y121.543 E.02964
G1 X76.803 Y121.252 E.02829
G1 X76.286 Y120.885 E.0311
G1 X75.877 Y120.538 E.02631
G1 X75.477 Y120.134 E.02789
G1 X75.085 Y119.676 E.02957
G1 X74.74 Y119.177 E.02976
G1 X74.453 Y118.693 E.0276
G1 X74.14 Y118.012 E.03677
G1 X73.863 Y117.147 E.04456
G1 X73.744 Y116.556 E.02957
G1 X73.664 Y115.695 E.04242
G1 X73.677 Y115.045 E.03189
G1 X73.731 Y114.529 E.02545
G1 X73.863 Y113.853 E.03379
G1 X74.128 Y113.019 E.04293
G1 X74.387 Y112.435 E.03134
G1 X74.643 Y111.971 E.026
G1 X74.963 Y111.494 E.02818
G1 X75.33 Y111.025 E.02921
G1 X76.055 Y110.304 E.05016
G1 X76.479 Y109.969 E.02651
G1 X77.038 Y109.603 E.03278
G1 X77.48 Y109.365 E.02463
G1 X78.096 Y109.117 E.03258
G1 X78.723 Y108.903 E.0325
G1 X79.251 Y108.786 E.02653
G1 X79.86 Y108.698 E.03018
G1 X80.503 Y108.663 E.03159
G1 X144.166 Y108.658 E3.12301
G1 X144.258 Y108.819 E.0091
G1 E-3.5 F3600
;WIPE_START
G1 F7200
G1 X144.293 Y108.867 E-.02822
G1 X144.526 Y109.106 E-.15855
G1 X145.006 Y109.35 E-.25577
G1 X145.375 Y109.409 E-.1775
G1 X145.777 Y109.357 E-.19254
G1 X146.128 Y109.207 E-.18131
G1 X146.507 Y108.867 E-.24185
G1 X146.635 Y108.658 E-.11641
G1 X146.946 Y108.658 E-.14785
;WIPE_END
G1 X150.322 Y109.467 F9000
G1 E5 F2400
;TYPE:Solid infill
