; generated by PrusaSlicer 2.9.0 on 2025-01-30 at 16:54:54 UTC

; 

; external perimeters extrusion width = 0.42mm
; perimeters extrusion width = 0.44mm
; infill extrusion width = 0.44mm
; solid infill extrusion width = 0.44mm
; top infill extrusion width = 0.40mm
; first layer extrusion width = 0.42mm

M201 X500 Y500 Z100 E5000 ; sets maximum accelerations, mm/sec^2
M203 X500 Y500 Z10 E60 ; sets maximum feedrates, mm / sec
M204 S500 T1000 ; sets acceleration (S) and retract acceleration (R), mm/sec^2
M205 X8.00 Y8.00 Z0.40 E5.00 ; sets the jerk limits, mm/sec
M205 S0 T0 ; sets the minimum extruding and travel feed rate, mm/sec

; printing object insert4 id:0 copy 0
; stop printing object insert4 id:0 copy 0

;TYPE:Custom
G90 ; use absolute coordinates
M83 ; extruder relative mode
M104 S200 ; set temporary nozzle temp to prevent oozing during homing
M140 S60 ; set final bed temp
G4 S30 ; allow partial nozzle warmup
G28 ; home all axis
G1 Z50 F240
G1 X2.0 Y10 F3000
M104 S205 ; set final nozzle temp
M190 S60 ; wait for bed temp to stabilize
M109 S205 ; wait for nozzle temp to stabilize
G1 Z0.28 F240
G92 E0
G1 X2.0 Y140 E10 F1500 ; prime the nozzle
G1 X2.3 Y140 F5000
G92 E0
G1 X2.3 Y10 E10 F1200 ; prime the nozzle
G92 E0
G21 ; set units to millimeters
G90 ; use absolute coordinates
M83 ; use relative distances for extrusion
; Filament gcode
M107
;LAYER_CHANGE
;Z:0.34
;HEIGHT:0.34
G1 E-5 F3600
G1 Z.34 F9000
G1 X108.468 Y107.625
G1 Z.34
G1 E5 F2400
M204 S500
;TYPE:Skirt/Brim
;WIDTH:0.42
G1 F1200
G1 X110.5 Y106.979 E.1046
G1 X120.5 Y106.979 E.49055
G1 X122.119 Y107.374 E.08175
G1 X123.375 Y108.468 E.08171
G1 X124.021 Y110.5 E.1046
G1 X124.021 Y120.5 E.49055
G1 X123.626 Y122.119 E.08175
G1 X122.532 Y123.375 E.08171
G1 X120.5 Y124.021 E.1046
G1 X110.5 Y124.021 E.49055
G1 X108.881 Y123.626 E.08175
G1 X107.625 Y122.532 E.08171
G1 X106.979 Y120.5 E.1046
G1 X106.979 Y110.5 E.49055
G1 X107.374 Y108.881 E.08175
G1 X108.429 Y107.67 E.07879
G1 X108.701 Y107.926 F9000
G1 F1200
G1 X108.804 Y107.818 E.00732
G1 X110.5 Y107.326 E.08663
G1 X120.5 Y107.326 E.49055
G1 X122.031 Y107.72 E.07755
G1 X123.182 Y108.804 E.07756
G1 X123.674 Y110.5 E.08663
G1 X123.674 Y120.5 E.49055
G1 X123.28 Y122.031 E.07755
G1 X122.196 Y123.182 E.07756
G1 X120.5 Y123.674 E.08663
G1 X110.5 Y123.674 E.49055
G1 X108.969 Y123.28 E.07755
G1 X107.818 Y122.196 E.07756
G1 X107.326 Y120.5 E.08663
G1 X107.326 Y110.5 E.49055
G1 X107.72 Y108.969 E.07755
G1 X108.66 Y107.97 E.06729
G1 E-3.5 F3600
;WIPE_START
G1 F7200
G1 X108.701 Y107.926 E-.02857
G1 X108.804 Y107.818 E-.07089
G1 X110.5 Y107.326 E-.83881
G1 X111.683 Y107.326 E-.56173
;WIPE_END
; printing object insert4 id:0 copy 0
G1 X111.504 Y111.504 F9000
G1 E5 F2400
;TYPE:Perimeter
;WIDTH:0.42
G1 F1200
G1 X119.496 Y111.504 E.39205
G1 X119.496 Y115.5 E.19603
G1 X119.496 Y119.496 E.19603
G1 X111.504 Y119.496 E.39205
G1 X111.504 Y111.564 E.38911
G1 X111.157 Y111.157 F9000
G1 F1200
G1 X119.843 Y111.157 E.42609
G1 X119.843 Y115.5 E.21305
G1 X119.843 Y119.843 E.21305
G1 X111.157 Y119.843 E.42609
G1 X111.157 Y111.217 E.42315
G1 X110.81 Y110.81 F9000
;TYPE:External perimeter
G1 F1200
G1 X120.19 Y110.81 E.46014
G1 X120.19 Y115.5 E.23007
G1 X120.19 Y120.19 E.23007
G1 X110.81 Y120.19 E.46014
G1 X110.81 Y110.87 E.4572
G1 E-3.5 F3600
;WIPE_START
G1 F7200
G1 X110.81 Y110.81 E-.0285
G1 X113.908 Y110.81 E-1.4715
;WIPE_END
G1 X119.385 Y112.336 F9000
G1 E5 F2400
;TYPE:Solid infill
;WIDTH:0.429002
G1 F1200
G1 X118.82 Y111.771 E.04021
G1 X118.317 Y111.771 E.02531
G1 X119.229 Y112.683 E.06491
G1 X119.229 Y113.187 E.02537
G1 X117.813 Y111.771 E.10078
G1 X117.31 Y111.771 E.02531
G1 X119.229 Y113.69 E.13658
G1 X119.229 Y114.194 E.02537
G1 X116.806 Y111.771 E.17246
G1 X116.303 Y111.771 E.02531
G1 X119.229 Y114.697 E.20826
G1 X119.229 Y115.201 E.02537
G1 X115.799 Y111.771 E.24413
G1 X115.296 Y111.771 E.02531
G1 X119.229 Y115.704 E.27993
G1 X119.229 Y116.208 E.02537
G1 X114.792 Y111.771 E.3158
G1 X114.289 Y111.771 E.02531
G1 X119.229 Y116.711 E.3516
G1 X119.229 Y117.215 E.02537
G1 X113.785 Y111.771 E.38747
G1 X113.282 Y111.771 E.02531
G1 X119.229 Y117.718 E.42327
G1 X119.229 Y118.222 E.02537
G1 X112.778 Y111.771 E.45915
G1 X112.275 Y111.771 E.02531
G1 X119.229 Y118.725 E.49495
G1 X119.229 Y119.229 E.02537
G1 X111.771 Y111.771 E.53082
G1 X111.771 Y112.275 E.02537
G1 X118.725 Y119.229 E.49495
G1 X118.222 Y119.229 E.02531
G1 X111.771 Y112.778 E.45915
G1 X111.771 Y113.282 E.02537
G1 X117.718 Y119.229 E.42327
G1 X117.215 Y119.229 E.02531
G1 X111.771 Y113.785 E.38747
G1 X111.771 Y114.289 E.02537
G1 X116.711 Y119.229 E.3516
G1 X116.208 Y119.229 E.02531
G1 X111.771 Y114.792 E.3158
G1 X111.771 Y115.296 E.02537
G1 X115.704 Y119.229 E.27993
G1 X115.201 Y119.229 E.02531
G1 X111.771 Y115.799 E.24413
G1 X111.771 Y116.303 E.02537
G1 X114.697 Y119.229 E.20826
G1 X114.194 Y119.229 E.02531
G1 X111.771 Y116.806 E.17246
G1 X111.771 Y117.31 E.02537
G1 X113.69 Y119.229 E.13658
G1 X113.187 Y119.229 E.02531
G1 X111.771 Y117.813 E.10078
G1 X111.771 Y118.317 E.02537
G1 X112.683 Y119.229 E.06491
G1 X112.179 Y119.229 E.02537
G1 X111.615 Y118.664 E.04018
M106 S255
;LAYER_CHANGE
;Z:0.5
;HEIGHT:0.16
;BEFORE_LAYER_CHANGE
G92 E0
;0.5


G1 E-3.5 F3600
;WIPE_START
G1 F7200
G1 X112.179 Y119.229 E-.3792
G1 X112.683 Y119.229 E-.2394
G1 X111.771 Y118.317 E-.61264
G1 X111.771 Y117.813 E-.2394
G1 X111.815 Y117.857 E-.02936
;WIPE_END
G1 Z.5 F9000
;AFTER_LAYER_CHANGE
;0.5
M104 S200 ; set temperature
; stop printing object insert4 id:0 copy 0
G1 X106.979 Y118.664
G1 E5 F2400
;TYPE:Skirt/Brim
;WIDTH:0.42
G1 F1224
G1 X106.979 Y110.5 E.20944
G1 X107.374 Y108.881 E.04275
G1 X108.468 Y107.625 E.04273
G1 X110.5 Y106.979 E.0547
G1 X120.5 Y106.979 E.25654
G1 X122.119 Y107.374 E.04275
G1 X123.375 Y108.468 E.04273
G1 X124.021 Y110.5 E.0547
G1 X124.021 Y120.5 E.25654
G1 X123.626 Y122.119 E.04275
G1 X122.532 Y123.375 E.04273
G1 X120.5 Y124.021 E.0547
G1 X110.5 Y124.021 E.25654
G1 X108.881 Y123.626 E.04275
G1 X107.625 Y122.532 E.04273
G1 X106.979 Y120.5 E.0547
G1 X106.979 Y118.724 E.04556
G1 X106.979 Y118.724 F9000
G1 X107.326 Y118.724
G1 F1224
G1 X107.326 Y110.5 E.21098
G1 X107.72 Y108.969 E.04056
G1 X108.804 Y107.818 E.04056
G1 X110.5 Y107.326 E.0453
G1 X120.5 Y107.326 E.25654
G1 X122.031 Y107.72 E.04056
G1 X123.182 Y108.804 E.04056
G1 X123.674 Y110.5 E.0453
G1 X123.674 Y120.5 E.25654
G1 X123.28 Y122.031 E.04056
G1 X122.196 Y123.182 E.04056
G1 X120.5 Y123.674 E.0453
G1 X110.5 Y123.674 E.25654
G1 X108.969 Y123.28 E.04056
G1 X107.818 Y122.196 E.04056
G1 X107.326 Y120.5 E.0453
G1 X107.326 Y118.784 E.04402
G1 E-3.5 F3600
;WIPE_START
G1 F7200
G1 X107.326 Y118.724 E-.0285
G1 X107.326 Y115.626 E-1.4715
;WIPE_END
; printing object insert4 id:0 copy 0
G1 X111.511 Y119.489 F9000
G1 E5 F2400
;TYPE:Perimeter
;WIDTH:0.439999
G1 F1224
G1 X111.511 Y111.511 E.21528
G1 X119.489 Y111.511 E.21528
G1 X119.489 Y115.5 E.10764
G1 X119.489 Y119.489 E.10764
G1 X111.571 Y119.489 E.21367
G1 X111.571 Y119.489 F9000
G1 X111.106 Y119.894
G1 F1224
G1 X111.106 Y111.106 E.23714
G1 X119.894 Y111.106 E.23714
G1 X119.894 Y115.5 E.11857
G1 X119.894 Y119.894 E.11857
G1 X111.166 Y119.894 E.23552
G1 X111.166 Y119.894 F9000
G1 X110.71 Y120.29
;TYPE:External perimeter
;WIDTH:0.419999
G1 F1224
G1 X110.71 Y110.71 E.24577
G1 X120.29 Y110.71 E.24577
G1 X120.29 Y115.5 E.12288
G1 X120.29 Y120.29 E.12288
G1 X110.77 Y120.29 E.24423
G1 E-3.5 F3600
;WIPE_START
G1 F7200
G1 X110.71 Y120.29 E-.0285
G1 X110.71 Y117.192 E-1.4715
;WIPE_END
G1 X111.934 Y111.857 F9000
G1 E5 F2400
;TYPE:Solid infill
;WIDTH:0.538422
G1 F1224
G1 X111.889 Y111.812 E.00213
G1 X111.828 Y111.828 E.00211
G1 X111.812 Y111.889 E.00211
G1 X111.857 Y111.934 E.00213
G1 X111.917 Y111.917 E.00209
;WIDTH:0.439999
G1 X112.565 Y111.824 E.01767
G1 X111.758 Y112.638 E.03093
;WIDTH:0.407168
G1 X111.692 Y112.71 E.00242
;WIDTH:0.374336
G1 X111.621 Y112.691 E.00166
G1 X111.64 Y112.762 E.00166
G1 X111.681 Y112.751 E.00096
;WIDTH:0.439999
G1 X111.824 Y113.139 E.01116
G1 X113.139 Y111.824 E.05018
G1 X113.713 Y111.824 E.01549
G1 X111.824 Y113.713 E.07209
G1 X111.824 Y114.286 E.01546
G1 X114.286 Y111.824 E.09396
G1 X114.86 Y111.824 E.01549
G1 X111.824 Y114.86 E.11586
G1 X111.824 Y115.434 E.01549
G1 X115.434 Y111.824 E.13777
G1 X116.008 Y111.824 E.01549
G1 X111.824 Y116.008 E.15967
G1 X111.824 Y116.581 E.01546
G1 X116.581 Y111.824 E.18154
G1 X117.155 Y111.824 E.01549
G1 X111.824 Y117.155 E.20344
G1 X111.824 Y117.729 E.01549
G1 X117.729 Y111.824 E.22535
G1 X118.302 Y111.824 E.01546
G1 X111.824 Y118.302 E.24722
G1 X111.824 Y118.302 F9000
G1 X111.769 Y119.291
;WIDTH:0.374336
G1 F1224
G1 X111.728 Y119.302 E.00096
G1 X111.709 Y119.231 E.00166
G1 X111.78 Y119.25 E.00166
;WIDTH:0.407168
G1 X111.802 Y119.063 E.00467
;WIDTH:0.439999
G1 X111.824 Y118.876 E.00508
G1 X118.876 Y111.824 E.26912
G1 X119.302 Y111.728 E.01178
;WIDTH:0.374336
G1 X119.231 Y111.709 E.00166
G1 X119.25 Y111.78 E.00166
G1 X119.291 Y111.769 E.00096
;WIDTH:0.407168
G1 X119.233 Y111.933 E.00431
;WIDTH:0.439999
G1 X119.176 Y112.097 E.00469
G1 X112.097 Y119.176 E.27015
G1 X112.671 Y119.176 E.01549
G1 X119.176 Y112.671 E.24825
G1 X119.176 Y113.245 E.01549
G1 X113.245 Y119.176 E.22634
G1 X113.818 Y119.176 E.01546
G1 X119.176 Y113.818 E.20447
G1 X119.176 Y114.392 E.01549
G1 X114.392 Y119.176 E.18257
G1 X114.966 Y119.176 E.01549
G1 X119.176 Y114.966 E.16066
G1 X119.176 Y115.539 E.01546
G1 X115.539 Y119.176 E.1388
G1 X116.113 Y119.176 E.01549
G1 X119.176 Y116.113 E.11689
G1 X119.176 Y116.687 E.01549
G1 X116.687 Y119.176 E.09499
G1 X117.135 Y119.38 E.01328
;WIDTH:0.374336
G1 X117.094 Y119.391 E.00096
G1 X117.075 Y119.319 E.00168
G1 X117.146 Y119.338 E.00166
;WIDTH:0.407168
G1 X117.203 Y119.257 E.00246
;WIDTH:0.439999
G1 X117.26 Y119.176 E.00267
G1 X119.176 Y117.26 E.07312
G1 X119.176 Y119.176 E.0517
G1 X117.834 Y119.176 E.03621
G1 X119.033 Y117.977 E.04576
;LAYER_CHANGE
;Z:0.66
;HEIGHT:0.16
;BEFORE_LAYER_CHANGE
G92 E0
;0.66


G1 E-3.5 F3600
;WIPE_START
G1 F7200
G1 X117.834 Y119.176 E-.80543
G1 X119.176 Y119.176 E-.63745
G1 X119.176 Y119.056 E-.05712
;WIPE_END
G1 Z.66 F9000
;AFTER_LAYER_CHANGE
;0.66
G1 X119.489 Y119.489
G1 E5 F2400
;TYPE:Perimeter
G1 F900
G1 X111.511 Y119.489 E.21528
G1 X111.511 Y111.511 E.21528
G1 X119.489 Y111.511 E.21528
G1 X119.489 Y115.5 E.10764
G1 X119.489 Y119.429 E.10602
G1 X119.489 Y119.429 F9000
G1 X119.894 Y119.894
G1 F900
G1 X111.106 Y119.894 E.23714
G1 X111.106 Y111.106 E.23714
G1 X119.894 Y111.106 E.23714
G1 X119.894 Y115.5 E.11857
G1 X119.894 Y119.834 E.11695
G1 X119.894 Y119.834 F9000
G1 X120.29 Y120.29
;TYPE:External perimeter
;WIDTH:0.419999
G1 F900
G1 X110.71 Y120.29 E.24577
G1 X110.71 Y110.71 E.24577
G1 X120.29 Y110.71 E.24577
G1 X120.29 Y115.5 E.12288
G1 X120.29 Y120.23 E.12135
G1 E-3.5 F3600
;WIPE_START
G1 F7200
G1 X120.29 Y120.29 E-.0285
G1 X117.192 Y120.29 E-1.4715
;WIPE_END
G1 X111.857 Y119.066 F9000
G1 E5 F2400
;TYPE:Solid infill
;WIDTH:0.538422
G1 F900
G1 X111.812 Y119.111 E.00213
G1 X111.828 Y119.172 E.00211
G1 X111.889 Y119.188 E.00211
G1 X111.934 Y119.143 E.00213
G1 X111.917 Y119.083 E.00209
;WIDTH:0.439999
G1 X111.824 Y118.435 E.01767
G1 X112.565 Y119.176 E.02828
G1 X113.139 Y119.176 E.01549
G1 X111.824 Y117.861 E.05018
G1 X111.824 Y117.287 E.01549
G1 X113.713 Y119.176 E.07209
G1 X114.286 Y119.176 E.01546
G1 X111.824 Y116.714 E.09396
G1 X111.824 Y116.14 E.01549
G1 X114.86 Y119.176 E.11586
G1 X115.434 Y119.176 E.01549
G1 X111.824 Y115.566 E.13777
G1 X111.824 Y114.992 E.01549
G1 X116.008 Y119.176 E.15967
G1 X116.581 Y119.176 E.01546
G1 X111.824 Y114.419 E.18154
G1 X111.824 Y113.845 E.01549
G1 X117.155 Y119.176 E.20344
G1 X117.729 Y119.176 E.01549
G1 X111.824 Y113.271 E.22535
G1 X111.824 Y112.698 E.01546
G1 X118.302 Y119.176 E.24722
G1 X118.302 Y119.176 F9000
G1 X119.291 Y119.231
;WIDTH:0.374336
G1 F900
G1 X119.302 Y119.272 E.00096
G1 X119.231 Y119.291 E.00166
G1 X119.25 Y119.22 E.00166
;WIDTH:0.407168
G1 X119.063 Y119.198 E.00467
;WIDTH:0.439999
G1 X118.876 Y119.176 E.00508
G1 X111.824 Y112.124 E.26912
G1 X111.728 Y111.698 E.01178
;WIDTH:0.374336
G1 X111.709 Y111.769 E.00166
G1 X111.78 Y111.75 E.00166
G1 X111.769 Y111.709 E.00096
;WIDTH:0.407168
G1 X111.933 Y111.767 E.00431
;WIDTH:0.439999
G1 X112.097 Y111.824 E.00469
G1 X119.176 Y118.903 E.27015
G1 X119.176 Y118.329 E.01549
G1 X112.671 Y111.824 E.24825
G1 X113.245 Y111.824 E.01549
G1 X119.176 Y117.756 E.22636
G1 X119.176 Y117.182 E.01549
G1 X113.818 Y111.824 E.20447
G1 X114.392 Y111.824 E.01549
G1 X119.176 Y116.608 E.18257
G1 X119.176 Y116.034 E.01549
G1 X114.966 Y111.824 E.16066
G1 X115.539 Y111.824 E.01546
G1 X119.176 Y115.461 E.1388
G1 X119.176 Y114.887 E.01549
G1 X116.113 Y111.824 E.11689
G1 X116.687 Y111.824 E.01549
G1 X119.176 Y114.313 E.09499
G1 X119.338 Y113.854 E.01313
;WIDTH:0.374336
G1 X119.319 Y113.925 E.00166
G1 X119.391 Y113.906 E.00168
G1 X119.38 Y113.865 E.00096
;WIDTH:0.407168
G1 X119.278 Y113.802 E.00297
;WIDTH:0.439999
G1 X119.176 Y113.74 E.00322
G1 X117.26 Y111.824 E.07312
G1 X117.198 Y111.722 E.00322
;WIDTH:0.407168
G1 X117.135 Y111.621 E.00295
;WIDTH:0.374336
G1 X117.146 Y111.662 E.00096
G1 X117.075 Y111.681 E.00166
G1 X117.094 Y111.61 E.00166
;WIDTH:0.439999
G1 X117.834 Y111.824 E.02079
G1 X119.176 Y111.824 E.03621
G1 X119.176 Y113.166 E.03621
G1 X117.977 Y111.967 E.04576
;LAYER_CHANGE
;Z:0.82
;HEIGHT:0.16
;BEFORE_LAYER_CHANGE
G92 E0
;0.82


G1 E-3.5 F3600
;WIPE_START
G1 F7200
G1 X119.176 Y113.166 E-.80543
G1 X119.176 Y111.824 E-.63745
G1 X119.056 Y111.824 E-.05712
;WIPE_END
G1 Z.82 F9000
;AFTER_LAYER_CHANGE
;0.82
G1 X119.489 Y111.511
G1 E5 F2400
;TYPE:Perimeter
G1 F1048
G1 X119.489 Y115.5 E.10764
G1 X119.489 Y119.489 E.10764
G1 X111.511 Y119.489 E.21528
G1 X111.511 Y111.511 E.21528
G1 X119.429 Y111.511 E.21367
G1 X119.429 Y111.511 F9000
G1 X119.894 Y111.106
G1 F1048
G1 X119.894 Y115.5 E.11857
G1 X119.894 Y119.894 E.11857
G1 X111.106 Y119.894 E.23714
G1 X111.106 Y111.106 E.23714
G1 X119.834 Y111.106 E.23552
G1 X119.834 Y111.106 F9000
G1 X120.29 Y110.71
;TYPE:External perimeter
;WIDTH:0.419999
G1 F1048
G1 X120.29 Y115.5 E.12288
G1 X120.29 Y120.29 E.12288
G1 X110.71 Y120.29 E.24577
G1 X110.71 Y110.71 E.24577
G1 X120.23 Y110.71 E.24423
G1 E-3.5 F3600
;WIPE_START
G1 F7200
G1 X120.29 Y110.71 E-.0285
G1 X120.29 Y113.808 E-1.4715
;WIPE_END
G1 X113.046 Y112.259 F9000
G1 E5 F2400
;TYPE:Solid infill
;WIDTH:0.476635
G1 F1048
G1 X112.593 Y112.661 E.01782
G1 X112.248 Y113.07 E.01574
G1 X112.248 Y112.248 E.02418
G1 X112.844 Y112.255 E.01754
G1 E-3.5 F3600
;WIPE_START
G1 F7200
G1 X112.248 Y112.248 E-.28312
G1 X112.248 Y113.07 E-.39045
G1 X112.593 Y112.661 E-.25416
G1 X113.046 Y112.259 E-.28768
;WIPE_END
G1 E-.28459 F3600
G1 X111.864 Y114.931 F9000
G1 E5 F2400
;WIDTH:0.520144
G1 F1048
G1 X111.841 Y115.468 E.01737
;WIDTH:0.511144
G1 X111.859 Y116.012 E.01726
;WIDTH:0.514132
G1 X111.849 Y116.252 E.00767
;WIDTH:0.486765
G1 X111.824 Y116.634 E.01152
;WIDTH:0.439999
G1 X111.824 Y119.176 E.0686
G1 X114.32 Y119.176 E.06735
;WIDTH:0.481072
G1 X114.57 Y119.156 E.00745
;WIDTH:0.522144
G1 X114.821 Y119.135 E.00817
;WIDTH:0.530666
G1 X114.858 Y119.131 E.00123
G1 X114.603 Y119.042 E.00892
;WIDTH:0.485333
G1 X114.348 Y118.954 E.00809
;WIDTH:0.439999
G1 X113.771 Y118.704 E.01697
G1 X113.321 Y118.418 E.01439
G1 X112.92 Y118.069 E.01435
G1 X112.517 Y117.588 E.01693
G1 X112.244 Y117.131 E.01436
G1 X112.042 Y116.639 E.01435
;WIDTH:0.475798
G1 X111.952 Y116.345 E.00903
;WIDTH:0.511597
G1 X111.862 Y116.05 E.00979
G1 E-3.5 F3600
;WIPE_START
G1 F7200
G1 X111.952 Y116.345 E-.1465
G1 X112.042 Y116.639 E-.14605
G1 X112.244 Y117.131 E-.25263
G1 X112.517 Y117.588 E-.25286
G1 X112.92 Y118.069 E-.29807
G1 X113.321 Y118.418 E-.25251
G1 X113.59 Y118.589 E-.15138
;WIPE_END
G1 X114.653 Y111.851 F9000
G1 E5 F2400
;WIDTH:0.4904
G1 F1048
G1 X114.499 Y111.837 E.00469
;WIDTH:0.4652
G1 X114.345 Y111.824 E.00443
;WIDTH:0.439999
G1 X111.824 Y111.824 E.06803
G1 X111.824 Y114.343 E.06797
;WIDTH:0.480072
G1 X111.844 Y114.637 E.00874
;WIDTH:0.520144
G1 X111.864 Y114.931 E.00952
G1 X111.952 Y114.65 E.00952
;WIDTH:0.480072
G1 X112.039 Y114.369 E.00872
;WIDTH:0.439999
