; generated by PrusaSlicer 2.9.0 on 2025-01-22 at 10:29:58 UTC

; 

; external perimeters extrusion width = 0.42mm
; perimeters extrusion width = 0.44mm
; infill extrusion width = 0.44mm
; solid infill extrusion width = 0.44mm
; top infill extrusion width = 0.40mm
; first layer extrusion width = 0.42mm

M201 X500 Y500 Z100 E5000 ; sets maximum accelerations, mm/sec^2
M203 X500 Y500 Z10 E60 ; sets maximum feedrates, mm / sec
M204 S500 T1000 ; sets acceleration (S) and retract acceleration (R), mm/sec^2
M205 X8.00 Y8.00 Z0.40 E5.00 ; sets the jerk limits, mm/sec
M205 S0 T0 ; sets the minimum extruding and travel feed rate, mm/sec

; printing object nut_test_2mm id:0 copy 0
; stop printing object nut_test_2mm id:0 copy 0

;TYPE:Custom
G90 ; use absolute coordinates
M83 ; extruder relative mode
M104 S200 ; set temporary nozzle temp to prevent oozing during homing
M140 S60 ; set final bed temp
G4 S30 ; allow partial nozzle warmup
G28 ; home all axis
G1 Z50 F240
G1 X2.0 Y10 F3000
M104 S205 ; set final nozzle temp
M190 S60 ; wait for bed temp to stabilize
M109 S205 ; wait for nozzle temp to stabilize
G1 Z0.28 F240
G92 E0
G1 X2.0 Y140 E10 F1500 ; prime the nozzle
G1 X2.3 Y140 F5000
G92 E0
G1 X2.3 Y10 E10 F1200 ; prime the nozzle
G92 E0
G21 ; set units to millimeters
G90 ; use absolute coordinates
M83 ; use relative distances for extrusion
; Filament gcode
M107
;LAYER_CHANGE
;Z:0.34
;HEIGHT:0.34
G1 E-5 F3600
G1 Z.34 F9000
G1 X105.968 Y105.125
G1 Z.34
G1 E5 F2400
M204 S500
;TYPE:Skirt/Brim
;WIDTH:0.42
G1 F1200
G1 X108 Y104.479 E.1046
G1 X123 Y104.479 E.73583
G1 X124.619 Y104.874 E.08175
G1 X125.875 Y105.968 E.08171
G1 X126.521 Y108 E.1046
G1 X126.521 Y123 E.73583
G1 X126.126 Y124.619 E.08175
G1 X125.032 Y125.875 E.08171
G1 X123 Y126.521 E.1046
G1 X108 Y126.521 E.73583
G1 X106.381 Y126.126 E.08175
G1 X105.125 Y125.032 E.08171
G1 X104.479 Y123 E.1046
G1 X104.479 Y108 E.73583
G1 X104.874 Y106.381 E.08175
G1 X105.929 Y105.17 E.07879
G1 X106.201 Y105.426 F9000
G1 F1200
G1 X106.304 Y105.318 E.00732
G1 X108 Y104.826 E.08663
G1 X123 Y104.826 E.73583
G1 X124.531 Y105.22 E.07755
G1 X125.682 Y106.304 E.07756
G1 X126.174 Y108 E.08663
G1 X126.174 Y123 E.73583
G1 X125.78 Y124.531 E.07755
G1 X124.696 Y125.682 E.07756
G1 X123 Y126.174 E.08663
G1 X108 Y126.174 E.73583
G1 X106.469 Y125.78 E.07755
G1 X105.318 Y124.696 E.07756
G1 X104.826 Y123 E.08663
G1 X104.826 Y108 E.73583
G1 X105.22 Y106.469 E.07755
G1 X106.16 Y105.47 E.06729
G1 E-3.5 F3600
;WIPE_START
G1 F7200
G1 X106.201 Y105.426 E-.02857
G1 X106.304 Y105.318 E-.07089
G1 X108 Y104.826 E-.83881
G1 X109.183 Y104.826 E-.56173
;WIPE_END
; printing object nut_test_2mm id:0 copy 0
G1 X109.004 Y109.004 F9000
G1 E5 F2400
;TYPE:Perimeter
;WIDTH:0.42
G1 F1200
G1 X121.996 Y109.004 E.63733
G1 X121.996 Y115.5 E.31866
G1 X121.996 Y121.996 E.31866
G1 X109.004 Y121.996 E.63733
G1 X109.004 Y109.064 E.63438
G1 X108.657 Y108.657 F9000
G1 F1200
G1 X122.343 Y108.657 E.67137
G1 X122.343 Y115.5 E.33569
G1 X122.343 Y122.343 E.33569
G1 X108.657 Y122.343 E.67137
G1 X108.657 Y108.717 E.66843
G1 X108.31 Y108.31 F9000
;TYPE:External perimeter
G1 F1200
G1 X122.69 Y108.31 E.70542
G1 X122.69 Y115.5 E.35271
G1 X122.69 Y122.69 E.35271
G1 X108.31 Y122.69 E.70542
G1 X108.31 Y108.37 E.70247
G1 E-3.5 F3600
;WIPE_START
G1 F7200
G1 X108.31 Y108.31 E-.0285
G1 X111.408 Y108.31 E-1.4715
;WIPE_END
G1 X121.885 Y109.819 F9000
G1 E5 F2400
;TYPE:Solid infill
;WIDTH:0.4212
G1 F1200
G1 X121.337 Y109.271 E.03815
G1 X120.844 Y109.271 E.02427
G1 X121.729 Y110.156 E.06161
G1 X121.729 Y110.648 E.02422
G1 X120.352 Y109.271 E.09586
G1 X119.86 Y109.271 E.02422
G1 X121.729 Y111.14 E.13011
G1 X121.729 Y111.633 E.02427
G1 X119.367 Y109.271 E.16443
G1 X118.875 Y109.271 E.02422
G1 X121.729 Y112.125 E.19868
G1 X121.729 Y112.618 E.02427
G1 X118.382 Y109.271 E.233
G1 X117.89 Y109.271 E.02422
G1 X121.729 Y113.11 E.26725
G1 X121.729 Y113.603 E.02427
G1 X117.397 Y109.271 E.30157
G1 X116.905 Y109.271 E.02422
G1 X121.729 Y114.095 E.33582
G1 X121.729 Y114.588 E.02427
G1 X116.412 Y109.271 E.37014
G1 X115.92 Y109.271 E.02422
G1 X121.729 Y115.08 E.40439
G1 X121.729 Y115.573 E.02427
G1 X115.427 Y109.271 E.43871
G1 X114.935 Y109.271 E.02422
G1 X121.729 Y116.065 E.47296
G1 X121.729 Y116.558 E.02427
G1 X114.442 Y109.271 E.50728
G1 X113.95 Y109.271 E.02422
G1 X121.729 Y117.05 E.54153
G1 X121.729 Y117.543 E.02427
G1 X113.457 Y109.271 E.57585
G1 X112.965 Y109.271 E.02422
G1 X121.729 Y118.035 E.6101
G1 X121.729 Y118.528 E.02427
G1 X112.472 Y109.271 E.64442
G1 X111.98 Y109.271 E.02422
G1 X121.729 Y119.02 E.67867
G1 X121.729 Y119.513 E.02427
G1 X111.487 Y109.271 E.71299
G1 X110.995 Y109.271 E.02422
G1 X121.729 Y120.005 E.74724
G1 X121.729 Y120.498 E.02427
G1 X110.502 Y109.271 E.78156
G1 X110.01 Y109.271 E.02422
G1 X121.729 Y120.99 E.81581
G1 X121.729 Y121.483 E.02427
G1 X109.517 Y109.271 E.85013
G1 X109.271 Y109.271 E.01211
G1 X109.271 Y109.518 E.01216
G1 X121.482 Y121.729 E.85006
G1 X120.99 Y121.729 E.02422
G1 X109.271 Y110.01 E.81581
G1 X109.271 Y110.503 E.02427
G1 X120.497 Y121.729 E.78149
G1 X120.005 Y121.729 E.02422
G1 X109.271 Y110.995 E.74724
G1 X109.271 Y111.487 E.02422
G1 X119.513 Y121.729 E.71299
G1 X119.02 Y121.729 E.02427
G1 X109.271 Y111.98 E.67867
G1 X109.271 Y112.472 E.02422
G1 X118.528 Y121.729 E.64442
G1 X118.035 Y121.729 E.02427
G1 X109.271 Y112.965 E.6101
G1 X109.271 Y113.457 E.02422
G1 X117.543 Y121.729 E.57585
G1 X117.05 Y121.729 E.02427
G1 X109.271 Y113.95 E.54153
G1 X109.271 Y114.442 E.02422
G1 X116.558 Y121.729 E.50728
G1 X116.065 Y121.729 E.02427
G1 X109.271 Y114.935 E.47296
G1 X109.271 Y115.427 E.02422
G1 X115.573 Y121.729 E.43871
G1 X115.08 Y121.729 E.02427
G1 X109.271 Y115.92 E.40439
G1 X109.271 Y116.412 E.02422
G1 X114.588 Y121.729 E.37014
G1 X114.095 Y121.729 E.02427
G1 X109.271 Y116.905 E.33582
G1 X109.271 Y117.397 E.02422
G1 X113.603 Y121.729 E.30157
G1 X113.11 Y121.729 E.02427
G1 X109.271 Y117.89 E.26725
G1 X109.271 Y118.382 E.02422
G1 X112.618 Y121.729 E.233
G1 X112.125 Y121.729 E.02427
G1 X109.271 Y118.875 E.19868
G1 X109.271 Y119.367 E.02422
G1 X111.633 Y121.729 E.16443
G1 X111.14 Y121.729 E.02427
G1 X109.271 Y119.86 E.13011
G1 X109.271 Y120.352 E.02422
G1 X110.648 Y121.729 E.09586
G1 X110.155 Y121.729 E.02427
G1 X109.271 Y120.845 E.06154
G1 X109.271 Y121.337 E.02422
G1 X109.819 Y121.885 E.03815
M106 S255
;LAYER_CHANGE
;Z:0.5
;HEIGHT:0.16
;BEFORE_LAYER_CHANGE
G92 E0
;0.5


G1 E-3.5 F3600
;WIPE_START
G1 F7200
G1 X109.271 Y121.337 E-.36812
G1 X109.271 Y120.845 E-.2337
G1 X110.155 Y121.729 E-.59383
G1 X110.648 Y121.729 E-.23417
G1 X110.544 Y121.625 E-.07018
;WIPE_END
G1 Z.5 F9000
;AFTER_LAYER_CHANGE
;0.5
M104 S200 ; set temperature
; stop printing object nut_test_2mm id:0 copy 0
G1 X109.819 Y126.521
G1 E5 F2400
;TYPE:Skirt/Brim
;WIDTH:0.42
G1 X108 Y126.521 E.04667
G1 X106.381 Y126.126 E.04275
G1 X105.125 Y125.032 E.04273
G1 X104.479 Y123 E.0547
G1 X104.479 Y108 E.38482
G1 X104.874 Y106.381 E.04275
G1 X105.968 Y105.125 E.04273
G1 X108 Y104.479 E.0547
G1 X123 Y104.479 E.38482
G1 X124.619 Y104.874 E.04275
G1 X125.875 Y105.968 E.04273
G1 X126.521 Y108 E.0547
G1 X126.521 Y123 E.38482
G1 X126.126 Y124.619 E.04275
G1 X125.032 Y125.875 E.04273
G1 X123 Y126.521 E.0547
G1 X109.879 Y126.521 E.33661
G1 X109.879 Y126.521 F9000
G1 X109.879 Y126.174
G1 F2400
G1 X108 Y126.174 E.0482
G1 X106.469 Y125.78 E.04056
G1 X105.318 Y124.696 E.04056
G1 X104.826 Y123 E.0453
G1 X104.826 Y108 E.38482
G1 X105.22 Y106.469 E.04056
G1 X106.304 Y105.318 E.04056
G1 X108 Y104.826 E.0453
G1 X123 Y104.826 E.38482
G1 X124.531 Y105.22 E.04056
G1 X125.682 Y106.304 E.04056
G1 X126.174 Y108 E.0453
G1 X126.174 Y123 E.38482
G1 X125.78 Y124.531 E.04056
G1 X124.696 Y125.682 E.04056
G1 X123 Y126.174 E.0453
G1 X109.939 Y126.174 E.33507
G1 E-3.5 F3600
;WIPE_START
G1 F7200
G1 X109.879 Y126.174 E-.0285
G1 X108 Y126.174 E-.89253
G1 X106.82 Y125.87 E-.57897
;WIPE_END
; printing object nut_test_2mm id:0 copy 0
G1 X109.011 Y121.989 F9000
G1 E5 F2400
;TYPE:Perimeter
;WIDTH:0.439999
G1 X109.011 Y109.011 E.35021
G1 X121.989 Y109.011 E.35021
G1 X121.989 Y115.5 E.1751
G1 X121.989 Y121.989 E.1751
G1 X109.071 Y121.989 E.34859
G1 X109.071 Y121.989 F9000
G1 X108.606 Y122.394
G1 F2400
G1 X108.606 Y108.606 E.37207
G1 X122.394 Y108.606 E.37207
G1 X122.394 Y115.5 E.18603
G1 X122.394 Y122.394 E.18603
G1 X108.666 Y122.394 E.37045
G1 X108.666 Y122.394 F9000
G1 X108.21 Y122.79
;TYPE:External perimeter
;WIDTH:0.419999
G1 F1500
G1 X108.21 Y108.21 E.37404
G1 X122.79 Y108.21 E.37404
G1 X122.79 Y115.5 E.18702
G1 X122.79 Y122.79 E.18702
G1 X108.27 Y122.79 E.3725
G1 E-3.5 F3600
;WIPE_START
G1 F7200
G1 X108.21 Y122.79 E-.0285
G1 X108.21 Y119.692 E-1.4715
;WIPE_END
G1 X109.434 Y109.357 F9000
G1 E5 F2400
;TYPE:Solid infill
;WIDTH:0.538422
G1 X109.389 Y109.312 E.00213
G1 X109.328 Y109.328 E.00211
G1 X109.312 Y109.389 E.00211
G1 X109.357 Y109.434 E.00213
G1 X109.417 Y109.417 E.00209
;WIDTH:0.439999
G1 X109.324 Y110.065 E.01767
G1 X110.065 Y109.324 E.02828
G1 X110.158 Y109.252 E.00317
;WIDTH:0.407168
G1 X110.251 Y109.181 E.0029
;WIDTH:0.374336
G1 X110.21 Y109.192 E.00096
G1 X110.191 Y109.121 E.00166
G1 X110.262 Y109.14 E.00166
;WIDTH:0.439999
G1 X110.639 Y109.324 E.01132
G1 X109.324 Y110.639 E.05018
G1 X109.324 Y111.213 E.01549
G1 X111.213 Y109.324 E.07209
G1 X111.786 Y109.324 E.01546
G1 X109.324 Y111.786 E.09396
G1 X109.324 Y112.36 E.01549
G1 X112.36 Y109.324 E.11586
G1 X112.934 Y109.324 E.01549
G1 X109.324 Y112.934 E.13777
G1 X109.324 Y113.508 E.01549
G1 X113.508 Y109.324 E.15967
G1 X114.081 Y109.324 E.01546
G1 X109.324 Y114.081 E.18154
G1 X109.324 Y114.655 E.01549
G1 X114.655 Y109.324 E.20344
G1 X115.229 Y109.324 E.01549
G1 X109.324 Y115.229 E.22535
G1 X109.324 Y115.802 E.01546
G1 X115.802 Y109.324 E.24722
G1 X116.376 Y109.324 E.01549
G1 X109.324 Y116.376 E.26912
G1 X109.324 Y116.95 E.01549
G1 X116.95 Y109.324 E.29103
G1 X117.523 Y109.324 E.01546
G1 X109.324 Y117.523 E.31289
G1 X109.324 Y118.097 E.01549
G1 X118.097 Y109.324 E.3348
G1 X118.671 Y109.324 E.01549
G1 X109.324 Y118.671 E.3567
G1 X109.324 Y119.245 E.01549
G1 X119.245 Y109.324 E.37861
G1 X119.818 Y109.324 E.01546
G1 X109.324 Y119.818 E.40048
G1 X109.324 Y120.392 E.01549
G1 X120.392 Y109.324 E.42238
G1 X120.966 Y109.324 E.01549
G1 X109.324 Y120.966 E.44429
G1 X109.324 Y120.966 F9000
G1 X109.242 Y121.818
;WIDTH:0.374336
G1 F2400
G1 X109.201 Y121.829 E.00096
G1 X109.182 Y121.758 E.00166
G1 X109.253 Y121.777 E.00166
;WIDTH:0.407168
G1 X109.288 Y121.658 E.00308
;WIDTH:0.439999
G1 X109.324 Y121.539 E.00335
G1 X121.539 Y109.324 E.46615
G1 X121.676 Y109.76 E.01233
G1 X109.76 Y121.676 E.45474
G1 X110.334 Y121.676 E.01549
G1 X121.676 Y110.334 E.43284
G1 X121.676 Y110.908 E.01549
G1 X110.908 Y121.676 E.41093
G1 X111.481 Y121.676 E.01546
G1 X121.676 Y111.481 E.38906
G1 X121.676 Y112.055 E.01549
G1 X112.055 Y121.676 E.36716
G1 X112.629 Y121.676 E.01549
G1 X121.676 Y112.629 E.34525
G1 X121.676 Y113.203 E.01549
G1 X113.203 Y121.676 E.32335
G1 X113.776 Y121.676 E.01546
G1 X121.676 Y113.776 E.30148
G1 X121.676 Y114.35 E.01549
G1 X114.35 Y121.676 E.27958
G1 X114.924 Y121.676 E.01549
G1 X121.676 Y114.924 E.25767
G1 X121.676 Y115.497 E.01546
G1 X115.497 Y121.676 E.2358
G1 X116.071 Y121.676 E.01549
G1 X121.676 Y116.071 E.2139
G1 X121.676 Y116.645 E.01549
G1 X116.645 Y121.676 E.19199
G1 X117.218 Y121.676 E.01546
G1 X121.676 Y117.218 E.17013
G1 X121.676 Y117.792 E.01549
G1 X117.792 Y121.676 E.14822
G1 X118.366 Y121.676 E.01549
G1 X121.676 Y118.366 E.12632
G1 X121.676 Y118.939 E.01546
G1 X118.939 Y121.676 E.10445
G1 X119.398 Y121.838 E.01313
;WIDTH:0.374336
G1 X119.327 Y121.819 E.00166
G1 X119.346 Y121.891 E.00168
G1 X119.387 Y121.88 E.00096
;WIDTH:0.407168
G1 X119.45 Y121.778 E.00297
;WIDTH:0.439999
G1 X119.513 Y121.676 E.00324
G1 X121.676 Y119.513 E.08255
G1 X121.778 Y119.45 E.00324
;WIDTH:0.407168
G1 X121.88 Y119.387 E.00297
;WIDTH:0.374336
G1 X121.838 Y119.398 E.00098
G1 X121.819 Y119.327 E.00166
G1 X121.891 Y119.346 E.00168
;WIDTH:0.439999
G1 X121.676 Y120.087 E.02082
G1 X121.676 Y121.676 E.04288
G1 X120.087 Y121.676 E.04288
G1 X121.533 Y120.23 E.05518
G1 X121.533 Y120.23 F9000
G1 X121.274 Y121.194
;WIDTH:0.55975
G1 F2400
G1 X121.228 Y121.147 E.0023
G1 X121.164 Y121.164 E.00231
G1 X121.147 Y121.228 E.00231
G1 X121.194 Y121.274 E.0023
G1 X121.257 Y121.257 E.00228
;LAYER_CHANGE
;Z:0.66
;HEIGHT:0.16
;BEFORE_LAYER_CHANGE
G92 E0
;0.66


G1 E-3.5 F3600
;WIPE_START
G1 F7200
G1 X121.194 Y121.274 E-.031
G1 X121.147 Y121.228 E-.03124
G1 X121.164 Y121.164 E-.03145
G1 X121.228 Y121.147 E-.03145
G1 X121.274 Y121.194 E-.03124
;WIPE_END
G1 E-1.34362 F3600
G1 Z.66 F9000
;AFTER_LAYER_CHANGE
;0.66
G1 X121.989 Y121.989
G1 E5 F2400
;TYPE:Perimeter
;WIDTH:0.439999
G1 F1861
G1 X109.011 Y121.989 E.35021
G1 X109.011 Y109.011 E.35021
G1 X121.989 Y109.011 E.35021
G1 X121.989 Y115.5 E.1751
G1 X121.989 Y121.929 E.17349
G1 X121.989 Y121.929 F9000
G1 X122.394 Y122.394
G1 F1861
G1 X108.606 Y122.394 E.37207
G1 X108.606 Y108.606 E.37207
G1 X122.394 Y108.606 E.37207
G1 X122.394 Y115.5 E.18603
G1 X122.394 Y122.334 E.18441
G1 X122.394 Y122.334 F9000
G1 X122.79 Y122.79
;TYPE:External perimeter
;WIDTH:0.419999
G1 F1500
G1 X108.21 Y122.79 E.37404
G1 X108.21 Y108.21 E.37404
G1 X122.79 Y108.21 E.37404
G1 X122.79 Y115.5 E.18702
G1 X122.79 Y122.73 E.18548
G1 E-3.5 F3600
;WIPE_START
G1 F7200
G1 X122.79 Y122.79 E-.0285
G1 X119.692 Y122.79 E-1.4715
;WIPE_END
G1 X109.357 Y121.566 F9000
G1 E5 F2400
;TYPE:Solid infill
;WIDTH:0.538422
G1 F1861
G1 X109.312 Y121.611 E.00213
G1 X109.328 Y121.672 E.00211
G1 X109.389 Y121.688 E.00211
G1 X109.434 Y121.643 E.00213
G1 X109.417 Y121.583 E.00209
;WIDTH:0.439999
G1 X109.324 Y120.935 E.01767
G1 X110.065 Y121.676 E.02828
G1 X110.639 Y121.676 E.01549
G1 X109.324 Y120.361 E.05018
G1 X109.324 Y119.787 E.01549
G1 X111.213 Y121.676 E.07209
G1 X111.786 Y121.676 E.01546
G1 X109.324 Y119.214 E.09396
G1 X109.324 Y118.64 E.01549
G1 X112.36 Y121.676 E.11586
G1 X112.934 Y121.676 E.01549
G1 X109.324 Y118.066 E.13777
G1 X109.324 Y117.492 E.01549
G1 X113.508 Y121.676 E.15967
G1 X114.081 Y121.676 E.01546
G1 X109.324 Y116.919 E.18154
G1 X109.324 Y116.345 E.01549
G1 X114.655 Y121.676 E.20344
G1 X115.229 Y121.676 E.01549
G1 X109.324 Y115.771 E.22535
G1 X109.324 Y115.198 E.01546
G1 X115.802 Y121.676 E.24722
G1 X116.376 Y121.676 E.01549
G1 X109.324 Y114.624 E.26912
G1 X109.324 Y114.05 E.01549
G1 X116.95 Y121.676 E.29103
G1 X117.523 Y121.676 E.01546
G1 X109.324 Y113.477 E.31289
G1 X109.324 Y112.903 E.01549
G1 X118.097 Y121.676 E.3348
G1 X118.671 Y121.676 E.01549
G1 X109.324 Y112.329 E.3567
G1 X109.324 Y111.755 E.01549
G1 X119.245 Y121.676 E.37861
G1 X119.818 Y121.676 E.01546
G1 X109.324 Y111.182 E.40048
G1 X109.324 Y110.608 E.01549
G1 X120.392 Y121.676 E.42238
G1 X120.966 Y121.676 E.01549
G1 X109.324 Y110.034 E.44429
G1 X109.324 Y109.461 E.01546
G1 X121.539 Y121.676 E.46615
G1 X121.658 Y121.712 E.00335
;WIDTH:0.407168
G1 X121.777 Y121.747 E.00308
;WIDTH:0.374336
G1 X121.758 Y121.818 E.00166
G1 X121.829 Y121.799 E.00166
G1 X121.818 Y121.758 E.00096
;WIDTH:0.439999
G1 X121.676 Y121.24 E.01449
G1 X109.76 Y109.324 E.45474
G1 X110.334 Y109.324 E.01549
G1 X121.676 Y120.666 E.43284
G1 X121.676 Y120.092 E.01549
G1 X110.908 Y109.324 E.41093
G1 X111.481 Y109.324 E.01546
G1 X121.676 Y119.519 E.38906
G1 X121.676 Y118.945 E.01549
G1 X112.055 Y109.324 E.36716
G1 X112.629 Y109.324 E.01549
G1 X121.676 Y118.371 E.34525
G1 X121.676 Y117.797 E.01549
G1 X113.203 Y109.324 E.32335
G1 X113.776 Y109.324 E.01546
G1 X121.676 Y117.224 E.30148
G1 X121.676 Y116.65 E.01549
G1 X114.35 Y109.324 E.27958
G1 X114.924 Y109.324 E.01549
G1 X121.676 Y116.076 E.25767
G1 X121.676 Y115.503 E.01546
G1 X115.497 Y109.324 E.2358
G1 X116.071 Y109.324 E.01549
G1 X121.676 Y114.929 E.2139
G1 X121.676 Y114.355 E.01549
G1 X116.645 Y109.324 E.19199
G1 X117.218 Y109.324 E.01546
G1 X121.676 Y113.782 E.17013
G1 X121.676 Y113.208 E.01549
G1 X117.792 Y109.324 E.14822
G1 X118.366 Y109.324 E.01549
G1 X121.676 Y112.634 E.12632
G1 X121.676 Y112.061 E.01546
G1 X118.939 Y109.324 E.10445
G1 X119.346 Y109.11 E.01241
;WIDTH:0.374336
