; generated by PrusaSlicer 2.9.0 on 2025-01-22 at 10:20:11 UTC

; 

; external perimeters extrusion width = 0.42mm
; perimeters extrusion width = 0.44mm
; infill extrusion width = 0.44mm
; solid infill extrusion width = 0.44mm
; top infill extrusion width = 0.40mm
; first layer extrusion width = 0.42mm

M201 X500 Y500 Z100 E5000 ; sets maximum accelerations, mm/sec^2
M203 X500 Y500 Z10 E60 ; sets maximum feedrates, mm / sec
M204 S500 T1000 ; sets acceleration (S) and retract acceleration (R), mm/sec^2
M205 X8.00 Y8.00 Z0.40 E5.00 ; sets the jerk limits, mm/sec
M205 S0 T0 ; sets the minimum extruding and travel feed rate, mm/sec

; printing object Tests v1 id:0 copy 0
; stop printing object Tests v1 id:0 copy 0

;TYPE:Custom
G90 ; use absolute coordinates
M83 ; extruder relative mode
M104 S200 ; set temporary nozzle temp to prevent oozing during homing
M140 S60 ; set final bed temp
G4 S30 ; allow partial nozzle warmup
G28 ; home all axis
G1 Z50 F240
G1 X2.0 Y10 F3000
M104 S205 ; set final nozzle temp
M190 S60 ; wait for bed temp to stabilize
M109 S205 ; wait for nozzle temp to stabilize
G1 Z0.28 F240
G92 E0
G1 X2.0 Y140 E10 F1500 ; prime the nozzle
G1 X2.3 Y140 F5000
G92 E0
G1 X2.3 Y10 E10 F1200 ; prime the nozzle
G92 E0
G21 ; set units to millimeters
G90 ; use absolute coordinates
M83 ; use relative distances for extrusion
; Filament gcode
M107
;LAYER_CHANGE
;Z:0.34
;HEIGHT:0.34
G1 E-5 F3600
G1 Z.34 F9000
G1 X105.968 Y105.125
G1 Z.34
G1 E5 F2400
M204 S500
;TYPE:Skirt/Brim
;WIDTH:0.42
G1 F1200
G1 X108 Y104.479 E.1046
G1 X123 Y104.479 E.73583
G1 X124.619 Y104.874 E.08175
G1 X125.875 Y105.968 E.08171
G1 X126.521 Y108 E.1046
G1 X126.521 Y123 E.73583
G1 X126.126 Y124.619 E.08175
G1 X125.032 Y125.875 E.08171
G1 X123 Y126.521 E.1046
G1 X108 Y126.521 E.73583
G1 X106.381 Y126.126 E.08175
G1 X105.125 Y125.032 E.08171
G1 X104.479 Y123 E.1046
G1 X104.479 Y108 E.73583
G1 X104.874 Y106.381 E.08175
G1 X105.929 Y105.17 E.07879
G1 X106.201 Y105.426 F9000
G1 F1200
G1 X106.304 Y105.318 E.00732
G1 X108 Y104.826 E.08663
G1 X123 Y104.826 E.73583
G1 X124.531 Y105.22 E.07755
G1 X125.682 Y106.304 E.07756
G1 X126.174 Y108 E.08663
G1 X126.174 Y123 E.73583
G1 X125.78 Y124.531 E.07755
G1 X124.696 Y125.682 E.07756
G1 X123 Y126.174 E.08663
G1 X108 Y126.174 E.73583
G1 X106.469 Y125.78 E.07755
G1 X105.318 Y124.696 E.07756
G1 X104.826 Y123 E.08663
G1 X104.826 Y108 E.73583
G1 X105.22 Y106.469 E.07755
G1 X106.16 Y105.47 E.06729
G1 E-3.5 F3600
;WIPE_START
G1 F7200
G1 X106.201 Y105.426 E-.02857
G1 X106.304 Y105.318 E-.07089
G1 X108 Y104.826 E-.83881
G1 X109.183 Y104.826 E-.56173
;WIPE_END
; printing object Tests v1 id:0 copy 0
G1 X119.362 Y114.719 F9000
G1 E5 F2400
;TYPE:External perimeter
;WIDTH:0.42
G1 F1200
G1 X119.564 Y114.449 E.01654
G1 X120.049 Y114.167 E.02752
G1 X120.605 Y114.097 E.02749
G1 X120.861 Y114.14 E.01273
G1 X121.363 Y114.389 E.02749
G1 X121.728 Y114.813 E.02744
G1 X121.899 Y115.334 E.0269
G1 X121.866 Y115.837 E.02473
G1 X121.626 Y116.345 E.02756
G1 X121.308 Y116.652 E.02168
G1 X120.794 Y116.876 E.0275
G1 X120.266 Y116.891 E.02591
G1 X119.773 Y116.705 E.02585
G1 X119.36 Y116.326 E.0275
G1 X119.128 Y115.814 E.02757
G1 X119.093 Y115.43 E.01892
G1 X119.228 Y114.898 E.02692
G1 X119.326 Y114.767 E.00803
G1 E-3.5 F3600
;WIPE_START
G1 F7200
G1 X119.362 Y114.719 E-.0285
G1 X119.564 Y114.449 E-.16017
G1 X120.049 Y114.167 E-.26649
G1 X120.605 Y114.097 E-.26618
G1 X120.861 Y114.14 E-.1233
G1 X121.363 Y114.389 E-.26617
G1 X121.728 Y114.813 E-.26575
G1 X121.809 Y115.06 E-.12344
;WIPE_END
G1 X121.996 Y109.004 F9000
G1 E5 F2400
;TYPE:Perimeter
G1 F1200
G1 X121.996 Y111.239 E.10964
G1 X121.996 Y114.053 E.13804
G1 X121.601 Y113.718 E.02541
G1 X121.154 Y113.51 E.02419
G1 X120.767 Y113.414 E.01956
G1 X120.045 Y113.456 E.03548
G1 X119.715 Y113.559 E.01696
G1 X119.135 Y113.898 E.03296
G1 X118.714 Y114.406 E.03237
G1 X118.559 Y114.715 E.01696
G1 X118.411 Y115.269 E.02813
G1 X118.422 Y115.804 E.02625
G1 X118.489 Y116.086 E.01422
G1 X118.761 Y116.685 E.03227
G1 X119.233 Y117.167 E.03309
G1 X119.524 Y117.353 E.01694
G1 X120.148 Y117.575 E.03249
G1 X120.818 Y117.57 E.03287
G1 X121.154 Y117.49 E.01694
G1 X121.601 Y117.282 E.02419
G1 X121.996 Y116.966 E.02481
G1 X121.996 Y121.996 E.24675
G1 X109.004 Y121.996 E.63733
G1 X109.004 Y109.004 E.63733
G1 X121.936 Y109.004 E.63438
G1 E-3.5 F3600
;WIPE_START
G1 F7200
G1 X121.996 Y109.004 E-.0285
G1 X121.996 Y111.239 E-1.06162
G1 X121.996 Y112.102 E-.40988
;WIPE_END
G1 X122.278 Y115.142 F9000
G1 E5 F2400
;WIDTH:0.550437
G1 F1200
G1 X122.278 Y115.864 E.04873
;WIDTH:0.558033
G1 X122.274 Y115.927 E.00433
G1 E-3.5 F3600
;WIPE_START
G1 F7200
G1 X122.278 Y115.142 E-.37288
G1 X122.278 Y115.864 E-.34295
G1 X122.274 Y115.927 E-.02999
;WIPE_END
G1 E-.75418 F3600
G1 X122.343 Y122.343 F9000
G1 E5 F2400
;WIDTH:0.42
G1 F1200
G1 X108.657 Y122.343 E.67137
G1 X108.657 Y108.657 E.67137
G1 X122.343 Y108.657 E.67137
G1 X122.343 Y111.239 E.12666
G1 X122.343 Y114.37 E.15359
;WIDTH:0.463083
G1 X122.321 Y114.627 E.01422
;WIDTH:0.506167
G1 X122.3 Y114.884 E.01579
;WIDTH:0.549251
G1 X122.278 Y115.142 E.01743
G1 X122.169 Y114.935 E.01575
;WIDTH:0.506167
G1 X122.06 Y114.728 E.01433
;WIDTH:0.463083
G1 X121.95 Y114.521 E.01293
;WIDTH:0.42
G1 X121.621 Y114.156 E.02411
G1 X121.454 Y114.033 E.01017
G1 X121.008 Y113.825 E.02414
G1 X120.709 Y113.756 E.01505
G1 X120.08 Y113.801 E.03093
G1 X119.882 Y113.863 E.01018
G1 X119.361 Y114.162 E.02947
G1 X118.987 Y114.621 E.02904
G1 X118.893 Y114.806 E.01018
G1 X118.746 Y115.453 E.03255
G1 X118.809 Y115.95 E.02458
G1 X119.049 Y116.491 E.02903
G1 X119.474 Y116.918 E.02955
G1 X119.649 Y117.029 E.01017
G1 X120.207 Y117.233 E.02914
G1 X120.806 Y117.223 E.02939
G1 X121.008 Y117.175 E.01019
G1 X121.597 Y116.869 E.03256
G1 X121.936 Y116.501 E.02454
;WIDTH:0.466011
G1 X122.048 Y116.31 E.0123
;WIDTH:0.512022
G1 X122.161 Y116.119 E.01377
;WIDTH:0.558033
G1 X122.274 Y115.927 E.01528
G1 X122.297 Y116.151 E.01544
;WIDTH:0.512022
G1 X122.32 Y116.374 E.01391
;WIDTH:0.466011
G1 X122.343 Y116.598 E.01251
;WIDTH:0.42
G1 X122.343 Y122.283 E.27888
G1 X122.69 Y122.69 F9000
;TYPE:External perimeter
G1 F1200
G1 X108.31 Y122.69 E.70542
G1 X108.31 Y108.31 E.70542
G1 X122.69 Y108.31 E.70542
G1 X122.69 Y111.239 E.14368
G1 X122.69 Y122.63 E.55879
G1 E-3.5 F3600
;WIPE_START
G1 F7200
G1 X122.69 Y122.69 E-.0285
G1 X119.592 Y122.69 E-1.4715
;WIPE_END
G1 X121.181 Y109.115 F9000
G1 E5 F2400
;TYPE:Solid infill
;WIDTH:0.4212
G1 F1200
G1 X121.729 Y109.663 E.03815
G1 X121.729 Y110.156 E.02427
G1 X120.844 Y109.271 E.06161
G1 X120.352 Y109.271 E.02422
G1 X121.729 Y110.648 E.09586
G1 X121.729 Y111.14 E.02422
G1 X119.86 Y109.271 E.13011
G1 X119.367 Y109.271 E.02427
G1 X121.729 Y111.633 E.16443
G1 X121.729 Y112.125 E.02422
G1 X118.875 Y109.271 E.19868
G1 X118.382 Y109.271 E.02427
G1 X121.729 Y112.618 E.233
G1 X121.729 Y113.11 E.02422
G1 X117.89 Y109.271 E.26725
G1 X117.397 Y109.271 E.02427
G1 X121.505 Y113.379 E.28598
G1 X121.261 Y113.266 E.01324
G1 X120.983 Y113.179 E.01434
G1 X120.782 Y113.148 E.01001
G1 X116.905 Y109.271 E.2699
G1 X116.412 Y109.271 E.02427
G1 X120.302 Y113.161 E.2708
G1 X119.869 Y113.22 E.02151
G1 X115.92 Y109.271 E.27491
G1 X115.427 Y109.271 E.02427
G1 X119.518 Y113.362 E.28479
G1 X119.2 Y113.536 E.01784
G1 X114.935 Y109.271 E.29691
G1 X114.442 Y109.271 E.02427
G1 X118.914 Y113.743 E.31132
G1 X118.687 Y114.009 E.01721
G1 X113.95 Y109.271 E.3298
G1 X113.457 Y109.271 E.02427
G1 X118.474 Y114.288 E.34926
G1 X118.376 Y114.444 E.00907
G1 X118.311 Y114.617 E.0091
G1 X112.965 Y109.271 E.37216
G1 X112.472 Y109.271 E.02427
G1 X118.205 Y115.004 E.3991
G1 X118.148 Y115.223 E.01114
G1 X118.131 Y115.422 E.00983
G1 X111.98 Y109.271 E.4282
G1 X111.487 Y109.271 E.02427
G1 X118.431 Y116.214 E.48337
G1 E-3.5 F3600
;WIPE_START
G1 F7200
G1 X116.198 Y113.981 E-1.5
;WIPE_END
G1 X121.593 Y117.407 F9000
G1 E5 F2400
G1 F1200
G1 X121.729 Y117.543 E.00947
G1 X121.729 Y118.035 E.02422
G1 X121.375 Y117.681 E.02464
G1 X121.258 Y117.736 E.00636
G1 X120.999 Y117.798 E.01311
G1 X121.729 Y118.528 E.05082
G1 X121.729 Y119.02 E.02422
G1 X120.555 Y117.846 E.08173
G1 X120.33 Y117.854 E.01108
G1 X120.037 Y117.82 E.01452
G1 X121.729 Y119.513 E.11782
G1 X121.729 Y120.005 E.02422
G1 X110.995 Y109.271 E.74724
G1 X110.502 Y109.271 E.02427
G1 X121.729 Y120.498 E.78156
G1 X121.729 Y120.99 E.02422
G1 X110.01 Y109.271 E.81581
G1 X109.517 Y109.271 E.02427
G1 X121.729 Y121.483 E.85013
G1 X121.729 Y121.729 E.01211
G1 X121.482 Y121.729 E.01216
G1 X109.271 Y109.518 E.85006
G1 X109.271 Y110.01 E.02422
G1 X120.99 Y121.729 E.81581
G1 X120.497 Y121.729 E.02427
G1 X109.271 Y110.503 E.78149
G1 X109.271 Y110.995 E.02422
G1 X120.005 Y121.729 E.74724
G1 X119.513 Y121.729 E.02422
G1 X109.271 Y111.487 E.71299
G1 X109.271 Y111.98 E.02427
G1 X119.02 Y121.729 E.67867
G1 X118.528 Y121.729 E.02422
G1 X109.271 Y112.472 E.64442
G1 X109.271 Y112.965 E.02427
G1 X118.035 Y121.729 E.6101
G1 X117.543 Y121.729 E.02422
G1 X109.271 Y113.457 E.57585
G1 X109.271 Y113.95 E.02427
G1 X117.05 Y121.729 E.54153
G1 X116.558 Y121.729 E.02422
G1 X109.271 Y114.442 E.50728
G1 X109.271 Y114.935 E.02427
G1 X116.065 Y121.729 E.47296
G1 X115.573 Y121.729 E.02422
G1 X109.271 Y115.427 E.43871
G1 X109.271 Y115.92 E.02427
G1 X115.08 Y121.729 E.40439
G1 X114.588 Y121.729 E.02422
G1 X109.271 Y116.412 E.37014
G1 X109.271 Y116.905 E.02427
G1 X114.095 Y121.729 E.33582
G1 X113.603 Y121.729 E.02422
G1 X109.271 Y117.397 E.30157
G1 X109.271 Y117.89 E.02427
G1 X113.11 Y121.729 E.26725
G1 X112.618 Y121.729 E.02422
G1 X109.271 Y118.382 E.233
G1 X109.271 Y118.875 E.02427
G1 X112.125 Y121.729 E.19868
G1 X111.633 Y121.729 E.02422
G1 X109.271 Y119.367 E.16443
G1 X109.271 Y119.86 E.02427
G1 X111.14 Y121.729 E.13011
G1 X110.648 Y121.729 E.02422
G1 X109.271 Y120.352 E.09586
G1 X109.271 Y120.845 E.02427
G1 X110.155 Y121.729 E.06154
G1 X109.663 Y121.729 E.02422
G1 X109.115 Y121.181 E.03815
M106 S255
;LAYER_CHANGE
;Z:0.5
;HEIGHT:0.16
;BEFORE_LAYER_CHANGE
G92 E0
;0.5


G1 E-3.5 F3600
;WIPE_START
G1 F7200
G1 X109.663 Y121.729 E-.36812
G1 X110.155 Y121.729 E-.2337
G1 X109.271 Y120.845 E-.59383
G1 X109.271 Y120.352 E-.23417
G1 X109.375 Y120.456 E-.07018
;WIPE_END
G1 Z.5 F9000
;AFTER_LAYER_CHANGE
;0.5
M104 S200 ; set temperature
; stop printing object Tests v1 id:0 copy 0
G1 X104.479 Y121.181
G1 E5 F2400
;TYPE:Skirt/Brim
;WIDTH:0.42
G1 X104.479 Y108 E.33815
G1 X104.874 Y106.381 E.04275
G1 X105.968 Y105.125 E.04273
G1 X108 Y104.479 E.0547
G1 X123 Y104.479 E.38482
G1 X124.619 Y104.874 E.04275
G1 X125.875 Y105.968 E.04273
G1 X126.521 Y108 E.0547
G1 X126.521 Y123 E.38482
G1 X126.126 Y124.619 E.04275
G1 X125.032 Y125.875 E.04273
G1 X123 Y126.521 E.0547
G1 X108 Y126.521 E.38482
G1 X106.381 Y126.126 E.04275
G1 X105.125 Y125.032 E.04273
G1 X104.479 Y123 E.0547
G1 X104.479 Y121.241 E.04513
G1 X104.479 Y121.241 F9000
G1 X104.826 Y121.241
G1 F2400
G1 X104.826 Y108 E.33969
G1 X105.22 Y106.469 E.04056
G1 X106.304 Y105.318 E.04056
G1 X108 Y104.826 E.0453
G1 X123 Y104.826 E.38482
G1 X124.531 Y105.22 E.04056
G1 X125.682 Y106.304 E.04056
G1 X126.174 Y108 E.0453
G1 X126.174 Y123 E.38482
G1 X125.78 Y124.531 E.04056
G1 X124.696 Y125.682 E.04056
G1 X123 Y126.174 E.0453
G1 X108 Y126.174 E.38482
G1 X106.469 Y125.78 E.04056
G1 X105.318 Y124.696 E.04056
G1 X104.826 Y123 E.0453
G1 X104.826 Y121.301 E.04359
G1 E-3.5 F3600
;WIPE_START
G1 F7200
G1 X104.826 Y121.241 E-.0285
G1 X104.826 Y118.143 E-1.4715
;WIPE_END
; printing object Tests v1 id:0 copy 0
G1 X119.281 Y115.923 F9000
G1 E5 F2400
;TYPE:External perimeter
;WIDTH:0.419999
G1 F1500
G1 X119.199 Y115.625 E.00793
G1 X119.254 Y115.108 E.01334
G1 X119.505 Y114.653 E.01333
G1 X119.915 Y114.332 E.01336
G1 X120.411 Y114.196 E.01319
G1 X120.84 Y114.238 E.01106
G1 X121.306 Y114.472 E.01338
G1 X121.643 Y114.867 E.01332
G1 X121.8 Y115.351 E.01305
G1 X121.75 Y115.882 E.01368
G1 X121.501 Y116.34 E.01337
G1 X121.093 Y116.664 E.01337
G1 X120.593 Y116.803 E.01331
G1 X120.076 Y116.736 E.01337
G1 X119.627 Y116.473 E.01335
G1 X119.317 Y116.055 E.01335
G1 X119.297 Y115.981 E.00197
G1 E-3.5 F3600
;WIPE_START
G1 F7200
G1 X119.281 Y115.923 E-.02858
G1 X119.199 Y115.625 E-.14681
G1 X119.254 Y115.108 E-.24696
G1 X119.505 Y114.653 E-.24683
G1 X119.915 Y114.332 E-.24734
G1 X120.411 Y114.196 E-.2443
G1 X120.84 Y114.238 E-.20475
G1 X121.093 Y114.365 E-.13443
;WIPE_END
G1 X121.989 Y121.989 F9000
G1 E5 F2400
;TYPE:Perimeter
;WIDTH:0.439999
G1 X109.011 Y121.989 E.35021
G1 X109.011 Y109.011 E.35021
G1 X121.989 Y109.011 E.35021
G1 X121.989 Y111.238 E.0601
G1 X121.989 Y114.032 E.0754
G1 X121.582 Y113.699 E.01419
G1 X121.178 Y113.511 E.01202
G1 X120.854 Y113.424 E.00905
G1 X120.242 Y113.413 E.01652
G1 X119.796 Y113.52 E.01238
G1 X119.439 Y113.687 E.01064
G1 X118.927 Y114.091 E.0176
G1 X118.589 Y114.627 E.0171
G1 X118.459 Y115.001 E.01068
G1 X118.391 Y115.574 E.01557
G1 X118.449 Y115.918 E.00941
G1 X118.61 Y116.441 E.01477
G1 X118.999 Y116.97 E.01772
G1 X119.301 Y117.225 E.01067
G1 X119.859 Y117.512 E.01693
G1 X120.512 Y117.601 E.01778
G1 X120.906 Y117.561 E.01069
G1 X121.331 Y117.43 E.012
G1 X121.678 Y117.24 E.01068
G1 X121.989 Y116.977 E.01099
G1 X121.989 Y121.929 E.13363
G1 E-3.5 F3600
;WIPE_START
G1 F7200
G1 X121.989 Y121.989 E-.0285
G1 X118.891 Y121.989 E-1.4715
;WIPE_END
G1 X122.275 Y115.118 F9000
G1 E5 F2400
;WIDTH:0.677864
G1 F1500
G1 X122.279 Y115.841 E.03095
;WIDTH:0.678796
G1 X122.275 Y115.917 E.00326
G1 E-3.5 F3600
;WIPE_START
G1 F7200
G1 X122.275 Y115.118 E-.37952
G1 X122.279 Y115.841 E-.34343
G1 X122.275 Y115.917 E-.03615
;WIPE_END
G1 E-.7409 F3600
G1 X122.394 Y122.394 F9000
G1 E5 F2400
;WIDTH:0.439999
G1 X108.606 Y122.394 E.37207
G1 X108.606 Y108.606 E.37207
G1 X122.394 Y108.606 E.37207
G1 X122.394 Y111.238 E.07102
G1 X122.394 Y114.674 E.09272
;WIDTH:0.487572
G1 X122.371 Y114.763 E.00277
;WIDTH:0.535145
G1 X122.347 Y114.852 E.00307
;WIDTH:0.582718
G1 X122.323 Y114.94 E.00333
;WIDTH:0.630291
G1 X122.299 Y115.029 E.00365
;WIDTH:0.677864
G1 X122.275 Y115.118 E.00395
G1 X122.2 Y115.002 E.00591
;WIDTH:0.630291
G1 X122.124 Y114.885 E.00553
;WIDTH:0.582718
G1 X122.049 Y114.769 E.00504
;WIDTH:0.535145
G1 X121.973 Y114.652 E.00465
;WIDTH:0.487572
G1 X121.898 Y114.536 E.00416
;WIDTH:0.439999
G1 X121.6 Y114.206 E.012
G1 X121.411 Y114.067 E.00633
G1 X120.815 Y113.827 E.01734
G1 X120.318 Y113.812 E.01342
G1 X119.778 Y113.954 E.01507
G1 X119.322 Y114.277 E.01508
G1 X119.165 Y114.451 E.00632
G1 X118.872 Y114.999 E.01677
G1 X118.802 Y115.495 E.01352
G1 X118.818 Y115.729 E.00633
G1 X118.974 Y116.263 E.01501
G1 X119.317 Y116.718 E.01538
G1 X119.496 Y116.869 E.00632
G1 X119.986 Y117.126 E.01493
G1 X120.553 Y117.197 E.01542
G1 X120.786 Y117.174 E.00632
G1 X121.211 Y117.042 E.01201
G1 X121.416 Y116.93 E.0063
G1 X121.757 Y116.642 E.01204
G1 X121.902 Y116.458 E.00632
;WIDTH:0.487759
G1 X121.977 Y116.35 E.00397
;WIDTH:0.535518
G1 X122.051 Y116.241 E.00439
;WIDTH:0.583277
G1 X122.126 Y116.133 E.0048
;WIDTH:0.631037
G1 X122.2 Y116.025 E.0052
;WIDTH:0.678796
G1 X122.275 Y115.917 E.00564
G1 X122.296 Y115.988 E.00317
;WIDTH:0.636002
G1 X122.318 Y116.058 E.00294
;WIDTH:0.593208
G1 X122.339 Y116.129 E.00275
;WIDTH:0.550413
G1 X122.358 Y116.278 E.00516
;WIDTH:0.513609
G1 X122.376 Y116.426 E.00475
;WIDTH:0.476804
G1 X122.394 Y116.575 E.00442
;WIDTH:0.439999
G1 X122.394 Y122.334 E.15541
G1 X122.394 Y122.334 F9000
G1 X122.79 Y122.79
;TYPE:External perimeter
;WIDTH:0.419999
G1 F1500
G1 X108.21 Y122.79 E.37404
G1 X108.21 Y108.21 E.37404
G1 X122.79 Y108.21 E.37404
G1 X122.79 Y111.238 E.07768
G1 X122.79 Y122.73 E.29482
G1 E-3.5 F3600
;WIPE_START
G1 F7200
G1 X122.79 Y122.79 E-.0285
G1 X119.692 Y122.79 E-1.4715
;WIPE_END
G1 X109.434 Y109.357 F9000
G1 E5 F2400
;TYPE:Solid infill
;WIDTH:0.538422
G1 X109.389 Y109.312 E.00213
G1 X109.328 Y109.328 E.00211
G1 X109.312 Y109.389 E.00211
G1 X109.357 Y109.434 E.00213
G1 X109.417 Y109.417 E.00209
;WIDTH:0.439999
G1 X109.324 Y110.065 E.01767
G1 X110.065 Y109.324 E.02828
G1 X110.639 Y109.324 E.01549
G1 X109.324 Y110.639 E.05018
G1 X109.324 Y111.213 E.01549
G1 X111.213 Y109.324 E.07209
G1 X111.786 Y109.324 E.01546
