; generated by PrusaSlicer 2.8.1+linux-x64-GTK3 on 2024-10-28 at 09:10:49 UTC

; 

; external perimeters extrusion width = 0.45mm
; perimeters extrusion width = 0.45mm
; infill extrusion width = 0.45mm
; solid infill extrusion width = 0.45mm
; top infill extrusion width = 0.40mm
; support material extrusion width = 0.40mm
; first layer extrusion width = 0.60mm

M190 S60 ; set bed temperature and wait for it to be reached
M104 S200 ; set temperature
;TYPE:Custom
G28 ; home all axes
G1 Z5 F5000 ; lift nozzle
M109 S200 ; set temperature and wait for it to be reached
G21 ; set units to millimeters
G90 ; use absolute coordinates
M82 ; use absolute distances for extrusion
G92 E0
; Filament gcode
M107
;LAYER_CHANGE
;Z:0.3
;HEIGHT:0.3
G1 E-2 F2400
G1 Z.3 F7800
G1 X57.001 Y21.723
G1 E0 F2400
;TYPE:Skirt/Brim
;WIDTH:0.6
G1 F1800
G1 X57.517 Y20.451 E.0917
G1 X58.157 Y19.237 E.18338
G1 X58.811 Y18.234 E.26337
G1 X59.575 Y17.264 E.34586
G1 X60.522 Y16.271 E.43753
G1 X61.564 Y15.377 E.52925
G1 X62.689 Y14.591 E.62093
G1 X63.886 Y13.921 E.71257
G1 X65.145 Y13.373 E.8043
G1 X66.452 Y12.954 E.89599
G1 X67.775 Y12.67 E.98639
G1 X69.981 Y12.488 E1.13426
G1 X150.156 Y12.49 E6.49038
G1 X151.493 Y12.571 E6.57986
G1 X152.575 Y12.732 E6.65294
G1 X153.908 Y13.055 E6.74457
G1 X155.203 Y13.51 E6.83627
G1 X157.311 Y14.591 E6.99453
G1 X158.436 Y15.377 E7.08621
G1 X159.478 Y16.271 E7.17793
G1 X160.425 Y17.264 E7.2696
G1 X161.086 Y18.093 E7.34043
G1 X161.843 Y19.237 E7.43207
G1 X162.483 Y20.451 E7.52375
G1 X163.294 Y22.678 E7.68208
G1 X163.53 Y23.711 E7.75287
G1 X163.716 Y25.071 E7.84457
G1 X163.765 Y26.443 E7.93629
G1 X163.678 Y27.812 E8.02793
G1 X163.209 Y30.134 E8.18618
G1 X162.757 Y31.43 E8.27787
G1 X162.321 Y32.397 E8.34873
G1 X161.648 Y33.593 E8.44041
G1 X160.86 Y34.716 E8.53206
G1 X159.249 Y36.453 E8.69033
G1 X158.187 Y37.323 E8.78204
G1 X157.045 Y38.083 E8.87368
G1 X156.114 Y38.591 E8.94453
G1 X154.855 Y39.138 E9.03623
G1 X153.548 Y39.557 E9.12792
G1 X152.206 Y39.844 E9.2196
G1 X150 Y40.023 E9.36746
G1 X70 Y40.023 E14.71189
G1 X68.474 Y39.938 E14.81399
G1 X67.152 Y39.724 E14.90346
G1 X66.11 Y39.461 E14.97525
G1 X64.043 Y38.668 E15.12315
G1 X62.116 Y37.542 E15.27225
G1 X60.522 Y36.24 E15.40975
G1 X59.782 Y35.482 E15.48052
G1 X58.914 Y34.418 E15.57225
G1 X57.821 Y32.675 E15.70969
G1 X56.901 Y30.492 E15.86795
G1 X56.416 Y28.492 E16.00543
G1 X56.261 Y27.129 E16.09707
G1 X56.242 Y25.756 E16.1888
G1 X56.342 Y24.525 E16.27131
G1 X56.614 Y23.04 E16.37217
G1 X56.984 Y21.781 E16.45983
G1 E14.45983 F2400
G92 E0
G1 X56.984 Y21.781 F7800
G92 E0
G1 X103.351 Y24.486
G1 E2 F2400
;TYPE:Perimeter
;WIDTH:0.6
G1 F1800
G1 X103.074 Y24.397 E2.01944
G1 X102.668 Y24.171 E2.05048
G1 X102.315 Y23.869 E2.08151
G1 X102.028 Y23.503 E2.11258
G1 X101.82 Y23.088 E2.14359
G1 X101.699 Y22.64 E2.17459
G1 X101.676 Y22.12 E2.20936
G1 X101.769 Y21.593 E2.24511
G1 X101.969 Y21.108 E2.28016
G1 X102.345 Y20.611 E2.32179
G1 X102.704 Y20.316 E2.35283
G1 X103.114 Y20.097 E2.38388
G1 X103.339 Y20.051 E2.39922
;WIDTH:0.558846
G1 X103.564 Y20.005 E2.41338
;WIDTH:0.517693
G1 X104.018 Y19.974 E2.43911
;WIDTH:0.524705
G1 X104.248 Y19.985 E2.45233
;WIDTH:0.553203
G1 X104.477 Y19.996 E2.46631
;WIDTH:0.6
G1 X104.926 Y20.114 E2.49732
G1 X105.332 Y20.34 E2.52836
G1 X105.685 Y20.642 E2.55939
G1 X105.972 Y21.008 E2.59046
G1 X106.18 Y21.424 E2.62153
G1 X106.301 Y21.871 E2.65247
G1 X106.324 Y22.391 E2.68724
G1 X106.231 Y22.918 E2.72299
G1 X106.031 Y23.403 E2.75804
G1 X105.713 Y23.843 E2.79431
G1 X105.296 Y24.196 E2.83081
G1 X104.886 Y24.414 E2.86183
G1 X104.441 Y24.547 E2.89286
G1 X103.978 Y24.589 E2.92392
G1 X103.516 Y24.538 E2.95497
G1 X103.408 Y24.504 E2.96253
G1 X103.408 Y24.504 F7800
G1 X103.507 Y23.979
;TYPE:External perimeter
G1 F1800
G1 X103.046 Y23.781 E2.99605
G1 X102.725 Y23.525 E3.02348
G1 X102.428 Y23.117 E3.05719
G1 X102.242 Y22.638 E3.09152
G1 X102.204 Y22.213 E3.12003
G1 X102.296 Y21.685 E3.15583
G1 X102.479 Y21.295 E3.18461
G1 X102.7 Y21.013 E3.20855
G1 X102.972 Y20.78 E3.23248
G1 X103.284 Y20.605 E3.25638
G1 X103.626 Y20.496 E3.28036
G1 X103.982 Y20.457 E3.30428
G1 X104.339 Y20.489 E3.32823
G1 X104.682 Y20.591 E3.35214
G1 X104.998 Y20.759 E3.37605
G1 X105.275 Y20.987 E3.40002
G1 X105.501 Y21.264 E3.4239
G1 X105.668 Y21.582 E3.4479
G1 X105.768 Y21.925 E3.47177
G1 X105.796 Y22.299 E3.49683
G1 X105.704 Y22.826 E3.53257
G1 X105.521 Y23.216 E3.56135
G1 X105.301 Y23.499 E3.5853
G1 X105.028 Y23.732 E3.60928
G1 X104.716 Y23.906 E3.63315
G1 X104.374 Y24.015 E3.65713
G1 X104.018 Y24.055 E3.68106
G1 X103.566 Y23.988 E3.71159
G1 X103.193 Y23.842 F7800
G1 E1.71159 F2400
G92 E0
G1 X96.939 Y32.386 F7800
G1 E2 F2400
;TYPE:Perimeter
G1 F1800
G1 X96.886 Y32.414 E2.004
G1 X96.661 Y32.46 E2.01934
;WIDTH:0.559773
G1 X96.436 Y32.507 E2.03354
;WIDTH:0.519546
G1 X95.982 Y32.538 E2.05937
;WIDTH:0.526165
G1 X95.752 Y32.527 E2.07263
;WIDTH:0.554246
G1 X95.523 Y32.516 E2.08664
;WIDTH:0.6
G1 X95.074 Y32.397 E2.11767
G1 X94.668 Y32.171 E2.14871
G1 X94.315 Y31.869 E2.17974
G1 X94.028 Y31.503 E2.21081
G1 X93.82 Y31.088 E2.24182
G1 X93.699 Y30.64 E2.27282
G1 X93.676 Y30.12 E2.30759
G1 X93.769 Y29.593 E2.34334
G1 X93.969 Y29.108 E2.37839
G1 X94.287 Y28.668 E2.41466
G1 X94.704 Y28.316 E2.45112
G1 X95.114 Y28.097 E2.48217
G1 X95.559 Y27.965 E2.51318
G1 X96.022 Y27.923 E2.54424
G1 X96.478 Y27.972 E2.57488
G1 X96.926 Y28.114 E2.60628
G1 X97.332 Y28.34 E2.63732
G1 X97.708 Y28.669 E2.6707
G1 X97.972 Y29.008 E2.6994
G1 X98.18 Y29.424 E2.73047
G1 X98.301 Y29.871 E2.76141
G1 X98.324 Y30.391 E2.79618
G1 X98.231 Y30.918 E2.83193
G1 X98.031 Y31.403 E2.86698
G1 X97.655 Y31.9 E2.90861
G1 X97.296 Y32.196 E2.93969
G1 X96.992 Y32.358 E2.9627
G1 X96.992 Y32.358 F7800
G1 X96.733 Y31.897
;TYPE:External perimeter
G1 F1800
G1 X96.716 Y31.906 E2.96399
G1 X96.374 Y32.015 E2.98797
G1 X96.018 Y32.055 E3.0119
G1 X95.661 Y32.023 E3.03585
G1 X95.318 Y31.92 E3.05978
G1 X95.002 Y31.752 E3.08369
G1 X94.725 Y31.525 E3.10762
G1 X94.499 Y31.247 E3.13155
G1 X94.332 Y30.93 E3.15549
G1 X94.232 Y30.586 E3.17942
G1 X94.204 Y30.213 E3.20441
G1 X94.296 Y29.685 E3.24021
G1 X94.479 Y29.295 E3.26899
G1 X94.7 Y29.013 E3.29293
G1 X94.972 Y28.78 E3.31686
G1 X95.284 Y28.605 E3.34076
G1 X95.626 Y28.496 E3.36474
G1 X95.982 Y28.457 E3.38866
G1 X96.337 Y28.488 E3.41247
G1 X96.813 Y28.658 E3.44624
G1 X97.237 Y28.949 E3.48059
G1 X97.501 Y29.264 E3.50805
G1 X97.715 Y29.735 E3.54261
G1 X97.799 Y30.226 E3.57589
G1 X97.704 Y30.826 E3.61647
G1 X97.521 Y31.216 E3.64525
G1 X97.3 Y31.499 E3.66924
G1 X97.028 Y31.732 E3.69317
G1 X96.785 Y31.868 E3.71177
G1 X96.407 Y31.999 F7800
G1 E1.71177 F2400
G92 E0
G1 X67.746 Y22.41 F7800
G1 E2 F2400
;TYPE:Perimeter
G1 F1800
G1 X67.794 Y22.384 E2.00365
G1 X68.117 Y22.152 E2.03022
G1 X69.15 Y21.838 E2.10235
G1 X69.624 Y21.77 E2.13434
G1 X70.6 Y21.778 E2.19954
G1 X71.104 Y21.93 E2.23471
G1 X71.672 Y22.06 E2.27364
G1 X72.102 Y22.293 E2.30631
G1 X72.274 Y22.417 E2.32048
G1 X72.63 Y22.601 E2.34725
G1 X73.047 Y22.963 E2.38414
G1 X73.209 Y23.161 E2.40123
G1 X73.578 Y23.49 E2.43426
G1 X73.8 Y23.927 E2.46701
G1 X74.149 Y24.471 E2.51019
G1 X74.292 Y24.968 E2.54474
G1 X74.306 Y25.117 E2.55474
G1 X74.449 Y25.564 E2.58609
G1 X74.482 Y26.069 E2.6199
G1 X74.44 Y26.286 E2.63467
G1 X74.494 Y26.585 E2.65497
G1 X74.473 Y26.906 E2.67646
G1 X74.334 Y27.296 E2.70412
G1 X74.206 Y27.903 E2.74556
G1 X73.635 Y28.912 E2.82301
G1 X73.289 Y29.303 E2.85789
G1 X73.096 Y29.463 E2.87464
G1 X72.767 Y29.832 E2.90767
G1 X72.329 Y30.056 E2.94054
G1 X71.785 Y30.405 E2.98372
G1 X71.293 Y30.547 E3.01793
G1 X71.132 Y30.566 E3.02876
G1 X70.724 Y30.699 E3.05743
G1 X70.32 Y30.747 E3.08461
G1 X69.909 Y30.716 E3.11214
G1 X69.518 Y30.75 E3.13836
G1 X69.193 Y30.689 E3.16045
G1 X68.822 Y30.554 E3.18682
G1 X68.353 Y30.462 E3.21875
G1 X68.059 Y30.328 E3.24033
G1 X67.343 Y29.89 E3.2964
G1 X67.082 Y29.682 E3.3187
G1 X66.718 Y29.303 E3.35381
G1 X66.465 Y29.074 E3.37661
G1 X66.128 Y28.462 E3.42328
G1 X65.877 Y28.1 E3.45271
G1 X65.555 Y26.971 E3.53114
G1 X65.513 Y26.598 E3.55622
G1 X65.541 Y26.168 E3.58501
G1 X65.507 Y25.755 E3.61269
G1 X65.702 Y25.077 E3.65982
G1 X65.744 Y24.763 E3.68098
G1 X65.896 Y24.373 E3.70894
G1 X66.146 Y24.035 E3.73703
G1 X66.343 Y23.629 E3.76718
G1 X66.599 Y23.311 E3.79445
G1 X66.91 Y23.039 E3.82205
G1 X67.19 Y22.714 E3.85071
G1 X67.694 Y22.438 E3.8891
G1 X67.694 Y22.438 F7800
G1 X68.273 Y22.7
G1 F1800
G1 X68.361 Y22.628 E3.8967
G1 X68.801 Y22.506 E3.9272
G1 X68.998 Y22.523 E3.94041
G1 X69.155 Y22.402 E3.95365
G1 X69.651 Y22.305 E3.98741
G1 X69.865 Y22.323 E4.00176
G1 X70.018 Y22.375 E4.01256
G1 X70.368 Y22.293 E4.03658
G1 X70.809 Y22.382 E4.06664
G1 X71.063 Y22.499 E4.08532
G1 X71.244 Y22.498 E4.09741
G1 X71.578 Y22.6 E4.12074
G1 X71.817 Y22.754 E4.13973
G1 X71.927 Y22.892 E4.15152
G1 X72.161 Y22.946 E4.16756
G1 X72.475 Y23.151 E4.19261
G1 X72.683 Y23.374 E4.21298
G1 X72.755 Y23.532 E4.22458
G1 X73.009 Y23.672 E4.24396
G1 X73.247 Y23.972 E4.26954
G1 X73.389 Y24.336 E4.29564
G1 X73.561 Y24.51 E4.31198
G1 X73.748 Y24.947 E4.34373
G1 X73.742 Y25.24 E4.36331
G1 X73.886 Y25.495 E4.38287
G1 X73.951 Y25.993 E4.41642
G1 X73.874 Y26.278 E4.43614
G1 X73.96 Y26.614 E4.45931
G1 X73.899 Y26.964 E4.48304
G1 X73.754 Y27.294 E4.50712
G1 X73.749 Y27.561 E4.52496
G1 X73.626 Y27.864 E4.54681
G1 X73.409 Y28.158 E4.57122
G1 X73.359 Y28.19 E4.57519
G1 X73.306 Y28.425 E4.59128
G1 X73.083 Y28.752 E4.61772
G1 X72.799 Y28.985 E4.64226
G1 X72.723 Y29.011 E4.64763
G1 X72.585 Y29.262 E4.66677
G1 X72.44 Y29.408 E4.68052
G1 X72.177 Y29.542 E4.70024
G1 X71.92 Y29.644 E4.71871
G1 X71.779 Y29.791 E4.73232
G1 X71.468 Y29.957 E4.75587
G1 X71.173 Y30.018 E4.77599
G1 X71.015 Y29.998 E4.78663
G1 X70.825 Y30.118 E4.80164
G1 X70.32 Y30.211 E4.83594
G1 X70.053 Y30.165 E4.85404
G1 X69.978 Y30.129 E4.8596
G1 X69.698 Y30.21 E4.87907
G1 X69.355 Y30.179 E4.90208
G1 X68.937 Y30.012 E4.93215
G1 X68.682 Y30.002 E4.9492
G1 X68.327 Y29.864 E4.97464
G1 X68.165 Y29.741 E4.98823
G1 X68.072 Y29.62 E4.99843
G1 X67.756 Y29.523 E5.02051
G1 X67.446 Y29.29 E5.04642
G1 X67.271 Y29.054 E5.06605
G1 X67.245 Y28.979 E5.07135
G1 X66.983 Y28.832 E5.09142
G1 X66.82 Y28.657 E5.1074
G1 X66.611 Y28.175 E5.1425
G1 X66.447 Y28.012 E5.15795
G1 X66.303 Y27.702 E5.18078
G1 X66.242 Y27.376 E5.20294
G1 X66.267 Y27.258 E5.211
G1 X66.146 Y27.101 E5.22424
G1 X66.055 Y26.67 E5.25367
G1 X66.066 Y26.397 E5.27192
G1 X66.126 Y26.233 E5.28359
G1 X66.043 Y25.935 E5.30426
G1 X66.051 Y25.716 E5.3189
G1 X66.231 Y25.298 E5.3493
G1 X66.299 Y24.788 E5.38367
G1 X66.469 Y24.472 E5.40764
G1 X66.636 Y24.328 E5.42237
G1 X66.688 Y24.101 E5.43793
G1 X66.981 Y23.686 E5.47187
G1 X67.201 Y23.527 E5.49
G1 X67.277 Y23.5 E5.49539
G1 X67.436 Y23.223 E5.51673
G1 X67.598 Y23.076 E5.53134
G1 X68.012 Y22.913 E5.56106
G1 X68.227 Y22.738 E5.57958
G1 X68.227 Y22.738 F7800
G1 X69.161 Y23.154
;TYPE:External perimeter
G1 F1800
G1 X69.351 Y22.902 E5.60066
G1 X69.728 Y22.842 E5.62616
G1 X69.926 Y22.941 E5.64095
G1 X69.999 Y23.034 E5.64885
G1 X70.161 Y22.901 E5.66285
G1 X70.368 Y22.829 E5.67749
G1 X70.645 Y22.903 E5.69664
G1 X70.815 Y23.081 E5.71308
G1 X70.831 Y23.138 E5.71704
G1 X71.013 Y23.045 E5.73069
G1 X71.262 Y23.049 E5.74733
G1 X71.453 Y23.146 E5.76164
G1 X71.59 Y23.361 E5.77867
G1 X71.619 Y23.465 E5.78588
G1 X71.849 Y23.416 E5.80159
G1 X71.999 Y23.467 E5.81217
G1 X72.244 Y23.685 E5.83408
G1 X72.29 Y23.851 E5.84559
G1 X72.282 Y23.974 E5.85382
G1 X72.469 Y23.99 E5.86636
G1 X72.728 Y24.143 E5.88646
G1 X72.84 Y24.494 E5.91107
G1 X72.795 Y24.639 E5.92121
G1 X72.987 Y24.701 E5.93469
G1 X73.16 Y24.881 E5.95137
G1 X73.226 Y25.092 E5.96614
G1 X73.171 Y25.334 E5.98272
G1 X73.118 Y25.427 E5.98987
G1 X73.315 Y25.555 E6.00556
G1 X73.387 Y25.705 E6.01668
G1 X73.402 Y26.033 E6.03862
G1 X73.315 Y26.181 E6.05009
G1 X73.227 Y26.256 E6.05781
G1 X73.342 Y26.385 E6.06936
G1 X73.425 Y26.673 E6.08938
G1 X73.282 Y26.984 E6.11225
G1 X73.12 Y27.089 E6.12515
G1 X73.211 Y27.268 E6.13856
G1 X73.208 Y27.513 E6.15493
G1 X73.031 Y27.779 E6.17627
G1 X72.828 Y27.856 E6.19077
G1 X72.788 Y27.855 E6.19344
G1 X72.827 Y28.178 E6.21517
G1 X72.602 Y28.481 E6.24038
G1 X72.396 Y28.547 E6.25483
G1 X72.281 Y28.537 E6.26254
G1 X72.272 Y28.71 E6.27411
G1 X72.113 Y28.984 E6.29527
G1 X71.762 Y29.095 E6.31986
G1 X71.617 Y29.051 E6.32998
G1 X71.554 Y29.242 E6.34342
G1 X71.375 Y29.415 E6.36005
G1 X71.165 Y29.482 E6.37478
G1 X70.921 Y29.426 E6.3915
G1 X70.829 Y29.374 E6.39856
G1 X70.701 Y29.571 E6.41425
G1 X70.558 Y29.641 E6.42489
G1 X70.231 Y29.66 E6.44677
G1 X70.081 Y29.575 E6.45829
G1 X70 Y29.481 E6.46658
G1 X69.856 Y29.603 E6.47919
G1 X69.559 Y29.678 E6.49965
G1 X69.238 Y29.509 E6.52388
G1 X69.167 Y29.376 E6.53395
G1 X68.987 Y29.467 E6.54742
G1 X68.738 Y29.462 E6.56406
G1 X68.541 Y29.359 E6.57891
G1 X68.409 Y29.149 E6.59548
G1 X68.381 Y29.047 E6.60255
G1 X68.151 Y29.095 E6.61825
G1 X67.995 Y29.04 E6.6293
G1 X67.752 Y28.819 E6.65124
G1 X67.709 Y28.652 E6.66276
G1 X67.719 Y28.537 E6.67047
G1 X67.546 Y28.528 E6.68204
G1 X67.28 Y28.379 E6.70241
G1 X67.164 Y28.062 E6.72496
G1 X67.205 Y27.873 E6.73788
G1 X67.013 Y27.81 E6.75138
G1 X66.838 Y27.626 E6.76834
G1 X66.777 Y27.348 E6.78735
G1 X66.863 Y27.137 E6.80257
G1 X66.898 Y27.094 E6.80627
G1 X66.646 Y26.905 E6.82731
G1 X66.584 Y26.572 E6.84994
G1 X66.628 Y26.418 E6.86064
G1 X66.774 Y26.256 E6.87521
G1 X66.658 Y26.128 E6.88675
G1 X66.577 Y25.823 E6.90783
G1 X66.746 Y25.493 E6.9326
G1 X66.88 Y25.422 E6.94273
G1 X66.789 Y25.243 E6.95614
G1 X66.794 Y24.993 E6.97284
G1 X66.896 Y24.797 E6.9876
G1 X67.107 Y24.665 E7.00423
G1 X67.209 Y24.637 E7.0113
G1 X67.16 Y24.407 E7.02701
G1 X67.216 Y24.251 E7.03808
G1 X67.437 Y24.008 E7.06002
G1 X67.604 Y23.964 E7.07156
G1 X67.718 Y23.973 E7.0792
G1 X67.728 Y23.801 E7.09071
G1 X67.893 Y23.524 E7.11225
G1 X68.238 Y23.416 E7.1364
G1 X68.383 Y23.46 E7.14652
G1 X68.446 Y23.269 E7.15996
G1 X68.632 Y23.093 E7.17707
G1 X68.908 Y23.033 E7.19594
G1 X69.115 Y23.117 E7.21086
G1 X69.44 Y22.885 F7800
G1 E5.21086 F2400
G92 E0
G1 X154.316 Y27.373 F7800
G1 E2 F2400
;TYPE:Perimeter
G1 F1800
G1 X154.298 Y27.434 E2.00425
G1 X154.211 Y27.89 E2.03526
G1 X153.697 Y28.824 E2.10648
G1 X153.38 Y29.222 E2.14047
G1 X153.091 Y29.471 E2.16595
G1 X152.856 Y29.757 E2.19068
G1 X152.601 Y29.941 E2.21169
G1 X152.206 Y30.128 E2.24089
G1 X151.853 Y30.374 E2.26963
G1 X151.412 Y30.529 E2.30086
G1 X151.141 Y30.561 E2.31909
G1 X150.691 Y30.704 E2.35063
G1 X150.376 Y30.742 E2.37183
G1 X149.368 Y30.732 E2.43917
G1 X148.887 Y30.55 E2.47353
G1 X148.732 Y30.549 E2.48389
G1 X148.216 Y30.406 E2.51966
G1 X147.818 Y30.15 E2.55127
G1 X147.343 Y29.89 E2.58745
G1 X146.953 Y29.545 E2.62224
G1 X146.794 Y29.353 E2.63889
G1 X146.424 Y29.023 E2.67201
G1 X146.2 Y28.586 E2.70482
G1 X145.86 Y28.062 E2.74655
G1 X145.551 Y26.947 E2.82385
G1 X145.518 Y26.443 E2.85759
G1 X145.56 Y26.226 E2.87236
G1 X145.505 Y25.928 E2.8926
G1 X145.527 Y25.606 E2.91416
G1 X145.706 Y25.143 E2.94732
G1 X145.724 Y24.853 E2.96673
G1 X145.794 Y24.608 E2.98375
G1 X146.365 Y23.599 E3.0612
G1 X146.711 Y23.208 E3.09608
G1 X146.904 Y23.049 E3.11279
G1 X147.233 Y22.679 E3.14587
G1 X148.438 Y22.036 E3.23711
G1 X149.515 Y21.78 E3.31106
G1 X149.982 Y21.8 E3.34229
G1 X150.532 Y21.768 E3.3791
G1 X151.033 Y21.896 E3.41364
G1 X151.202 Y21.958 E3.42567
G1 X151.618 Y22.038 E3.45397
G1 X152.057 Y22.259 E3.4868
G1 X152.237 Y22.405 E3.50228
G1 X152.63 Y22.601 E3.53162
G1 X152.913 Y22.819 E3.55548
G1 X153.622 Y23.552 E3.62361
G1 X153.8 Y23.926 E3.65128
G1 X154.104 Y24.373 E3.68739
G1 X154.256 Y24.763 E3.71535
G1 X154.467 Y25.701 E3.77958
G1 X154.46 Y26.345 E3.82261
G1 X154.486 Y26.823 E3.85459
G1 X154.334 Y27.316 E3.88905
G1 X154.334 Y27.316 F7800
G1 X153.72 Y27.639
G1 F1800
G1 X153.683 Y27.764 E3.89776
G1 X153.447 Y28.117 E3.92613
G1 X153.349 Y28.184 E3.93406
G1 X153.314 Y28.405 E3.94901
G1 X153.026 Y28.819 E3.9827
G1 X152.799 Y28.985 E4.00149
G1 X152.723 Y29.011 E4.00686
G1 X152.609 Y29.231 E4.02341
G1 X152.34 Y29.473 E4.04758
G1 X151.905 Y29.664 E4.07932
G1 X151.743 Y29.819 E4.0943
G1 X151.435 Y29.969 E4.11719
G1 X151.167 Y30.018 E4.13539
G1 X151.015 Y29.998 E4.14563
G1 X150.716 Y30.155 E4.16819
G1 X150.349 Y30.207 E4.19295
