; generated by PrusaSlicer 2.8.1+linux-x64-GTK3 on 2024-10-21 at 10:44:50 UTC

; 

; external perimeters extrusion width = 0.45mm
; perimeters extrusion width = 0.45mm
; infill extrusion width = 0.45mm
; solid infill extrusion width = 0.45mm
; top infill extrusion width = 0.40mm
; support material extrusion width = 0.40mm
; first layer extrusion width = 0.60mm

M190 S60 ; set bed temperature and wait for it to be reached
M104 S200 ; set temperature
;TYPE:Custom
G28 ; home all axes
G1 Z5 F5000 ; lift nozzle
M109 S200 ; set temperature and wait for it to be reached
G21 ; set units to millimeters
G90 ; use absolute coordinates
M82 ; use absolute distances for extrusion
G92 E0
; Filament gcode
M107
;LAYER_CHANGE
;Z:0.3
;HEIGHT:0.3
G1 E-2 F2400
G1 Z.3 F7800
G1 X43.521 Y61.361
G1 E0 F2400
;TYPE:Skirt/Brim
;WIDTH:0.6
G1 F1800
G1 X44.423 Y60.725 E.07373
G1 X45.56 Y60.088 E.1608
G1 X46.889 Y59.527 E.25717
G1 X159.802 Y18.112 E8.29177
G1 X161.43 Y17.685 E8.40421
G1 X163.213 Y17.567 E8.52358
G1 X164.409 Y17.685 E8.60387
G1 X165.592 Y17.963 E8.68505
G1 X166.677 Y18.373 E8.76254
G1 X167.854 Y19.014 E8.85207
G1 X168.925 Y19.821 E8.94166
G1 X170.375 Y21.257 E9.07799
G1 X171.132 Y22.207 E9.15914
G1 X171.75 Y23.238 E9.23944
G1 X172.273 Y24.473 E9.32904
G1 X172.548 Y25.469 E9.39807
G1 X172.735 Y26.797 E9.48766
G1 X172.735 Y27.999 E9.56796
G1 X172.548 Y29.327 E9.65755
G1 X172.273 Y30.323 E9.72658
G1 X171.75 Y31.558 E9.81618
G1 X171.052 Y32.703 E9.90576
G1 X170.086 Y33.843 E10.00558
G1 X99.686 Y104.243 E16.65677
G1 X98.903 Y104.931 E16.7264
G1 X97.431 Y105.835 E16.8418
G1 X95.857 Y106.394 E16.95339
G1 X62.43 Y114.43 E19.25012
G1 X57.803 Y115.374 E19.5656
G1 X51.271 Y115.869 E20.00322
G1 X50.175 Y115.878 E20.07644
G1 X48.885 Y115.755 E20.16301
G1 X47.809 Y115.538 E20.23634
G1 X46.57 Y115.152 E20.32304
G1 X45.56 Y114.717 E20.39651
G1 X44.423 Y114.081 E20.48354
G1 X43.527 Y113.448 E20.55683
G1 X42.562 Y112.608 E20.6423
G1 X41.836 Y111.831 E20.71334
G1 X41.051 Y110.795 E20.80017
G1 X40.452 Y109.804 E20.87753
G1 X39.871 Y108.548 E20.96998
G1 X39.511 Y107.47 E21.04591
G1 X39.223 Y106.148 E21.1363
G1 X39.104 Y105.035 E21.21108
G1 X39.067 Y70.457 E23.52108
G1 X39.223 Y68.65 E23.64225
G1 X39.517 Y67.315 E23.73357
G1 X39.882 Y66.233 E23.80986
G1 X40.437 Y65.027 E23.89855
G1 X41 Y64.084 E23.97192
G1 X41.783 Y63.037 E24.05926
G1 X42.535 Y62.225 E24.1332
G1 X43.476 Y61.401 E24.21676
G1 E22.21676 F2400
G92 E0
G1 X43.476 Y61.401 F7800
G92 E0
G1 X57.352 Y101.464
G1 E2 F2400
;TYPE:Support material interface
;WIDTH:0.4
G1 F1800
G1 X57.182 Y101.293 E2.01009
G1 X56.707 Y101.293 E2.02997
G1 X57.201 Y101.788 E2.05924
G1 X57.201 Y102.262 E2.07908
G1 X56.444 Y101.505 E2.12389
G1 X56.444 Y101.98 E2.14377
G1 X57.201 Y102.737 E2.18858
G1 X57.201 Y103.212 E2.20846
G1 X56.444 Y102.455 E2.25327
G1 X56.444 Y102.929 E2.27311
G1 X57.201 Y103.686 E2.31792
G1 X57.201 Y104.161 E2.3378
G1 X56.444 Y103.404 E2.38261
G1 X56.444 Y103.657 E2.3932
G1 X56.223 Y103.657 E2.40245
G1 X56.98 Y104.414 E2.44726
G1 X56.505 Y104.414 E2.46714
G1 X55.748 Y103.657 E2.51195
G1 X55.273 Y103.657 E2.53183
G1 X56.03 Y104.414 E2.57664
G1 X55.556 Y104.414 E2.59648
G1 X54.648 Y103.506 E2.65023
G1 X54.648 Y103.506 F7800
G1 X54.445 Y103.303
G1 F1800
G1 X53.537 Y102.395 E2.70398
G1 X53.537 Y101.921 E2.72382
G1 X54.294 Y102.678 E2.76863
G1 X54.294 Y102.203 E2.78851
G1 X53.537 Y101.446 E2.83332
G1 X53.537 Y101.293 E2.83972
G1 X53.859 Y101.293 E2.8532
G1 X54.445 Y101.879 E2.88789
G1 E.88789 F2400
G92 E0
G1 X54.445 Y101.879 F7800
G1 X55.977 Y103.189
G1 E2 F2400
;TYPE:Support material
;WIDTH:0.6
G1 F1800
G1 X54.762 Y103.189 E2.08117
G1 X54.762 Y101.103 E2.22053
G1 X55.227 Y101.828 E2.27807
G1 X55.791 Y100.995 E2.34527
G1 X55.977 Y100.88 E2.35988
G1 X55.977 Y103.108 E2.50872
G1 X55.977 Y103.108 F7800
G1 X55.248 Y102.948
G1 F1800
G1 X55.248 Y102.227 E2.55689
G1 E.55689 F2400
G92 E0
G1 X55.248 Y102.227 F7800
G1 X55.232 Y104.565
G1 E2 F2400
;TYPE:Support material interface
;WIDTH:0.4
G1 F1800
G1 X53.537 Y102.87 E2.10034
G1 X53.537 Y103.344 E2.12018
G1 X54.606 Y104.414 E2.18349
G1 X54.132 Y104.414 E2.20333
G1 X53.537 Y103.819 E2.23855
G1 X53.537 Y104.294 E2.25843
G1 X53.808 Y104.565 E2.27447
G1 E.27447 F2400
G92 E0
G1 X53.808 Y104.565 F7800
G1 X51.199 Y99.115
G1 E2 F2400
;TYPE:Support material
;WIDTH:0.6
G1 F1800
G1 X52.269 Y99.345 E2.07311
G1 X52.844 Y99.601 E2.11516
G1 X52.844 Y100.572 E2.18003
G1 X53.097 Y100.825 E2.20393
G1 X53.069 Y104.882 E2.47497
G1 X57.669 Y104.882 E2.78227
G1 X57.669 Y100.88 E3.04963
G1 X63.026 Y100.88 E3.40751
G1 X63.588 Y101.665 E3.47201
G1 X64.01 Y102.747 E3.5496
G1 X64.153 Y103.899 E3.62715
G1 X64.009 Y105.051 E3.70471
G1 X63.584 Y106.133 E3.78237
G1 X62.914 Y107.067 E3.85916
G1 X62.343 Y107.557 E3.90943
G1 X61.976 Y107.846 E3.94064
G1 X60.965 Y108.335 E4.01567
G1 X59.861 Y108.56 E4.09094
G1 X59.106 Y108.547 E4.14139
G1 X58.811 Y108.765 E4.16589
G1 X57.315 Y109.126 E4.2687
G1 X56.038 Y108.76 E4.35745
G1 X55.323 Y109.092 E4.41011
G1 X54.33 Y109.269 E4.47749
G1 X53.211 Y109.13 E4.55282
G1 X53.022 Y109.037 E4.56689
G1 X52.29 Y109.367 E4.62053
G1 X51.219 Y109.602 E4.69378
G1 X50.123 Y109.611 E4.767
G1 X49.047 Y109.394 E4.84033
G1 X48.037 Y108.959 E4.9138
G1 X47.14 Y108.327 E4.9871
G1 X46.414 Y107.55 E5.05814
G1 X45.815 Y106.56 E5.13544
G1 X45.455 Y105.483 E5.2113
G1 X45.336 Y104.37 E5.28608
G1 X45.457 Y103.232 E5.36253
G1 X45.813 Y102.169 E5.43742
G1 X46.38 Y101.213 E5.51167
G1 X47.131 Y100.4 E5.58561
G1 X48.028 Y99.765 E5.65903
G1 X49.034 Y99.329 E5.73228
G1 X50.106 Y99.11 E5.80537
G1 X51.119 Y99.115 E5.87304
G1 E3.87304 F2400
G92 E0
G1 X51.119 Y99.115 F7800
G1 X63.58 Y105.484
G1 E2 F2400
G1 F1800
G1 X63.539 Y102.866 E2.17492
G1 X63.16 Y101.896 E2.24449
G1 X62.985 Y101.65 E2.26466
G1 X62.985 Y106.142 E2.56475
G1 X62.389 Y106.882 E2.62823
G1 X62.389 Y101.362 E2.997
G1 X61.794 Y101.362 E3.03675
G1 X61.794 Y107.376 E3.43852
G1 X61.199 Y107.686 E3.48334
G1 X61.199 Y101.362 E3.90582
G1 X60.604 Y101.362 E3.94557
G1 X60.604 Y107.917 E4.38348
G1 X60.009 Y108.038 E4.42404
G1 X60.009 Y101.362 E4.87003
G1 X59.414 Y101.362 E4.90978
G1 X59.414 Y108.07 E5.35791
G1 X58.951 Y108.062 E5.38885
G1 X58.819 Y108.16 E5.39983
G1 X58.819 Y101.362 E5.85397
G1 X58.224 Y101.362 E5.89372
G1 X58.224 Y108.411 E6.36463
G1 X57.628 Y108.554 E6.40558
G1 X57.628 Y105.364 E6.61869
G1 X57.033 Y105.364 E6.65844
G1 X57.033 Y108.544 E6.87088
G1 X56.438 Y108.373 E6.91224
G1 X56.438 Y105.364 E7.11326
G1 X55.843 Y105.364 E7.15301
G1 X55.843 Y108.319 E7.35042
G1 X55.248 Y108.595 E7.39424
G1 X55.248 Y105.364 E7.61009
G1 X54.653 Y105.364 E7.64984
G1 X54.653 Y108.722 E7.87417
G1 X54.058 Y108.75 E7.91396
G1 X54.058 Y105.364 E8.14016
G1 X53.462 Y105.364 E8.17998
G1 X53.462 Y108.676 E8.40124
G1 X53.031 Y108.505 E8.43222
G1 X52.867 Y108.578 E8.44421
G1 X52.867 Y105.364 E8.65892
G1 X52.587 Y105.364 E8.67763
G1 X52.587 Y100.997 E8.96937
G1 X52.362 Y100.772 E8.99063
G1 X52.362 Y99.914 E9.04795
G1 X52.272 Y99.874 E9.05453
G1 X52.272 Y108.847 E9.65397
G1 X51.677 Y109.008 E9.69515
G1 X51.677 Y99.711 E10.31624
G1 X51.082 Y99.596 E10.35672
G1 X51.082 Y109.121 E10.99304
G1 X50.487 Y109.126 E11.03279
G1 X50.487 Y99.594 E11.66958
G1 X50.154 Y99.592 E11.69183
G1 X49.892 Y99.646 E11.7097
G1 X49.892 Y109.072 E12.33941
G1 X49.297 Y108.953 E12.37995
G1 X49.297 Y99.767 E12.99362
G1 X48.701 Y99.999 E13.03635
G1 X48.701 Y108.721 E13.61903
G1 X48.106 Y108.418 E13.66364
G1 X48.106 Y100.3 E14.20597
G1 X47.511 Y100.722 E14.2547
G1 X47.511 Y107.999 E14.74084
G1 X46.916 Y107.381 E14.79815
G1 X46.916 Y101.343 E15.20152
G1 X46.321 Y102.258 E15.27443
G1 X46.321 Y106.93 E15.58654
G1 E13.58654 F2400
G92 E0
G1 X46.321 Y106.93 F7800
G1 X67.344 Y89.844
G1 E2 F2400
G1 F1800
G1 X67.652 Y90.152 E2.0291
G1 X72.666 Y90.152 E2.36406
G1 X73.963 Y92.398 E2.53733
G1 X72.666 Y94.644 E2.7106
G1 X67.652 Y94.644 E3.04556
G1 X67.344 Y94.976 E3.07581
G1 X66.488 Y94.427 E3.14375
G1 X65.717 Y93.538 E3.22236
G1 X65.227 Y92.468 E3.30098
G1 X65.058 Y91.304 E3.37956
G1 X65.223 Y90.137 E3.4583
G1 X65.71 Y89.064 E3.53702
G1 X66.842 Y87.752 E3.65278
G1 X67.344 Y87.752 E3.68632
G1 X67.344 Y89.764 E3.82073
G1 X67.344 Y89.764 F7800
G1 X73.102 Y93.408
G1 F1800
G1 X73.102 Y91.87 E3.92348
G1 X72.507 Y90.84 E4.00295
G1 X72.507 Y93.956 E4.21112
G1 X72.388 Y94.162 E4.22701
G1 X71.912 Y94.162 E4.25881
G1 X71.912 Y90.634 E4.4945
G1 X71.316 Y90.634 E4.53432
G1 X71.316 Y94.162 E4.77001
G1 X70.721 Y94.162 E4.80976
G1 X70.721 Y90.634 E5.04545
G1 X70.126 Y90.634 E5.0852
G1 X70.126 Y94.162 E5.32089
G1 X69.531 Y94.162 E5.36064
G1 X69.531 Y90.634 E5.59633
G1 X68.936 Y90.634 E5.63608
G1 X68.936 Y94.162 E5.87177
G1 X68.341 Y94.162 E5.91152
G1 X68.341 Y90.634 E6.14721
G1 X67.746 Y90.634 E6.18696
G1 X67.746 Y94.162 E6.42265
G1 X67.452 Y94.162 E6.44229
G1 X67.263 Y94.351 E6.46015
G1 X67.15 Y94.279 E6.4691
G1 X67.15 Y90.332 E6.73278
G1 X66.862 Y90.044 E6.75999
G1 X66.862 Y88.466 E6.86541
G1 X66.555 Y88.822 E6.89681
G1 X66.555 Y93.769 E7.2273
G1 X66.127 Y93.274 E7.27102
G1 X65.96 Y92.911 E7.29771
G1 X65.96 Y89.143 E7.54943
G1 E5.54943 F2400
G92 E0
G1 X65.96 Y89.143 F7800
G1 X67.344 Y79.844
G1 E2 F2400
G1 F1800
G1 X67.652 Y80.152 E2.0291
G1 X72.666 Y80.152 E2.36406
G1 X73.963 Y82.398 E2.53733
G1 X72.666 Y84.644 E2.7106
G1 X67.652 Y84.644 E3.04556
G1 X67.344 Y84.976 E3.07581
G1 X66.488 Y84.427 E3.14375
G1 X65.717 Y83.538 E3.22236
G1 X65.227 Y82.468 E3.30098
G1 X65.058 Y81.304 E3.37956
G1 X65.223 Y80.137 E3.4583
G1 X65.71 Y79.064 E3.53702
G1 X66.781 Y77.823 E3.64653
G1 X67.344 Y77.823 E3.68414
G1 X67.344 Y79.764 E3.81381
G1 X67.344 Y79.764 F7800
G1 X73.102 Y83.408
G1 F1800
G1 X73.102 Y81.87 E3.91656
G1 X72.507 Y80.84 E3.99603
G1 X72.507 Y83.956 E4.2042
G1 X72.388 Y84.162 E4.22009
G1 X71.912 Y84.162 E4.25189
G1 X71.912 Y80.634 E4.48758
G1 X71.316 Y80.634 E4.5274
G1 X71.316 Y84.162 E4.76309
G1 X70.721 Y84.162 E4.80284
G1 X70.721 Y80.634 E5.03853
G1 X70.126 Y80.634 E5.07828
G1 X70.126 Y84.162 E5.31397
G1 X69.531 Y84.162 E5.35372
G1 X69.531 Y80.634 E5.58941
G1 X68.936 Y80.634 E5.62916
G1 X68.936 Y84.162 E5.86485
G1 X68.341 Y84.162 E5.9046
G1 X68.341 Y80.634 E6.14029
G1 X67.746 Y80.634 E6.18004
G1 X67.746 Y84.162 E6.41573
G1 X67.452 Y84.162 E6.43537
G1 X67.263 Y84.351 E6.45323
G1 X67.15 Y84.279 E6.46218
G1 X67.15 Y80.332 E6.72586
G1 X66.862 Y80.044 E6.75307
G1 X66.862 Y78.466 E6.85849
G1 X66.555 Y78.822 E6.88989
G1 X66.555 Y83.769 E7.22038
G1 X66.127 Y83.274 E7.2641
G1 X65.96 Y82.911 E7.29079
G1 X65.96 Y79.143 E7.54251
G1 E5.54251 F2400
G92 E0
G1 X65.96 Y79.143 F7800
G1 X56.293 Y73.351
G1 E2 F2400
;TYPE:Support material interface
;WIDTH:0.4
G1 F1800
G1 X56.445 Y73.503 E2.009
G1 X56.92 Y73.503 E2.02888
G1 X56.444 Y73.027 E2.05706
G1 X56.444 Y72.553 E2.0769
G1 X57.201 Y73.31 E2.12171
G1 X57.201 Y72.835 E2.14159
G1 X56.444 Y72.078 E2.1864
G1 X56.444 Y71.603 E2.20628
G1 X57.201 Y72.36 E2.25109
G1 X57.201 Y71.886 E2.27093
G1 X55.698 Y70.382 E2.35994
G1 X56.173 Y70.382 E2.37982
G1 X57.201 Y71.411 E2.44071
G1 X57.201 Y70.936 E2.46059
G1 X56.647 Y70.382 E2.49339
G1 X57.122 Y70.382 E2.51327
G1 X57.352 Y70.613 E2.52692
G1 X57.352 Y70.613 F7800
G1 X56.132 Y71.29
G1 F1800
G1 X55.223 Y70.382 E2.5807
G1 X54.749 Y70.382 E2.60054
G1 X55.506 Y71.139 E2.64535
G1 X55.031 Y71.139 E2.66523
G1 X54.274 Y70.382 E2.71004
G1 X53.8 Y70.382 E2.72988
G1 X54.557 Y71.139 E2.77469
G1 X54.294 Y71.139 E2.7857
G1 X54.294 Y71.352 E2.79462
G1 X53.537 Y70.594 E2.83946
G1 X53.537 Y71.069 E2.85934
G1 X54.294 Y71.826 E2.90415
G1 X54.294 Y72.301 E2.92403
G1 X53.537 Y71.544 E2.96884
G1 X53.537 Y72.018 E2.98868
G1 X54.294 Y72.775 E3.03349
G1 X54.294 Y73.25 E3.05337
G1 X53.537 Y72.493 E3.09818
G1 X53.537 Y72.968 E3.11806
G1 X54.072 Y73.503 E3.14973
G1 X53.598 Y73.503 E3.16957
G1 X53.386 Y73.291 E3.18212
G1 E1.18212 F2400
G92 E0
G1 X53.386 Y73.291 F7800
G1 X55.977 Y73.79
G1 E2 F2400
;TYPE:Support material
;WIDTH:0.6
G1 F1800
G1 X55.725 Y73.532 E2.02409
G1 X55.316 Y72.829 E2.07842
G1 X54.762 Y73.702 E2.14749
G1 X54.762 Y71.607 E2.28745
G1 X55.977 Y71.607 E2.36862
G1 X55.977 Y73.709 E2.50904
G1 E.50904 F2400
G92 E0
G1 X55.977 Y73.709 F7800
G1 X51.219 Y65.204
G1 E2 F2400
G1 F1800
G1 X52.29 Y65.438 E2.07324
G1 X53.322 Y65.903 E2.14886
G1 X54.279 Y65.673 E2.21461
G1 X55.584 Y66.038 E2.30514
G1 X56.352 Y65.666 E2.36215
G1 X57.419 Y65.532 E2.43399
G1 X58.316 Y65.663 E2.49455
G1 X59.217 Y66.052 E2.56011
G1 X59.768 Y66.027 E2.59696
G1 X60.996 Y66.272 E2.68061
G1 X62.019 Y66.769 E2.75659
G1 X62.884 Y67.499 E2.8322
G1 X63.145 Y67.846 E2.86121
G1 X63.588 Y68.472 E2.91244
G1 X64.008 Y69.547 E2.98954
G1 X64.151 Y70.699 E3.06709
G1 X64.006 Y71.851 E3.14466
G1 X63.585 Y72.925 E3.22172
G1 X62.858 Y73.916 E3.30383
G1 X57.669 Y73.916 E3.65048
G1 X57.669 Y69.914 E3.91784
G1 X53.069 Y69.914 E4.22514
G1 X53.097 Y73.971 E4.49618
G1 X52.844 Y74.224 E4.52008
G1 X52.844 Y75.204 E4.58555
G1 X52.269 Y75.46 E4.6276
G1 X51.2 Y75.69 E4.70065
G1 X50.106 Y75.696 E4.77374
G1 X49.035 Y75.476 E4.84678
G1 X48.029 Y75.041 E4.92
G1 X47.138 Y74.41 E4.99294
G1 X46.426 Y73.649 E5.06256
G1 X45.818 Y72.652 E5.14057
G1 X45.458 Y71.581 E5.21605
G1 X45.335 Y70.457 E5.29159
G1 X45.455 Y69.32 E5.36797
G1 X45.82 Y68.238 E5.44426
G1 X46.383 Y67.294 E5.51769
G1 X47.135 Y66.482 E5.59163
G1 X48.037 Y65.846 E5.66536
G1 X49.047 Y65.411 E5.73883
G1 X50.123 Y65.195 E5.81215
G1 X51.139 Y65.203 E5.88003
G1 X51.139 Y65.203 F7800
G1 X63.58 Y72.278
G1 F1800
G1 X63.537 Y69.667 E6.05448
G1 X63.16 Y68.703 E6.12363
G1 X62.985 Y68.454 E6.14396
G1 X62.985 Y72.938 E6.44352
G1 X62.626 Y73.434 E6.48442
G1 X62.389 Y73.434 E6.50025
G1 X62.389 Y67.712 E6.88251
G1 X61.794 Y67.21 E6.93452
G1 X61.794 Y73.434 E7.35032
G1 X61.199 Y73.434 E7.39007
G1 X61.199 Y66.907 E7.82611
G1 X60.604 Y66.677 E7.86873
G1 X60.604 Y73.434 E8.32013
G1 X60.009 Y73.434 E8.35988
G1 X60.009 Y66.554 E8.8195
G1 X59.414 Y66.526 E8.85929
G1 X59.414 Y73.434 E9.32078
G1 X58.819 Y73.434 E9.36053
G1 X58.819 Y66.405 E9.83011
G1 X58.224 Y66.148 E9.87341
G1 X58.224 Y73.434 E10.36015
G1 X58.151 Y73.434 E10.36503
G1 X58.151 Y69.432 E10.63239
G1 X57.628 Y69.432 E10.66733
G1 X57.628 Y66.05 E10.89327
G1 X57.033 Y66.066 E10.93303
G1 X57.033 Y69.432 E11.1579
G1 X56.438 Y69.432 E11.19765
G1 X56.438 Y66.16 E11.41624
G1 X55.843 Y66.448 E11.4604
G1 X55.843 Y69.432 E11.65975
G1 X55.248 Y69.432 E11.6995
G1 X55.248 Y66.445 E11.89905
G1 X54.653 Y66.278 E11.94034
G1 X54.653 Y69.432 E12.15104
G1 X54.058 Y69.432 E12.19079
G1 X54.058 Y66.222 E12.40524
G1 X53.462 Y66.365 E12.44619
G1 X53.462 Y69.432 E12.65108
G1 X52.867 Y69.432 E12.69083
G1 X52.867 Y66.227 E12.90494
G1 X52.272 Y65.959 E12.94854
G1 X52.272 Y74.931 E13.54792
G1 X51.677 Y75.095 E13.58915
G1 X51.677 Y65.797 E14.21031
G1 X51.082 Y65.684 E14.25077
G1 X51.082 Y75.209 E14.88709
G1 X50.487 Y75.212 E14.92684
G1 X50.487 Y65.68 E15.56363
G1 X50.169 Y65.677 E15.58488
G1 X49.892 Y65.733 E15.60376
G1 X49.892 Y75.16 E16.23353
G1 X49.297 Y75.038 E16.27411
G1 X49.297 Y65.853 E16.88772
G1 X48.701 Y66.085 E16.93045
G1 X48.701 Y74.807 E17.51313
G1 X48.106 Y74.505 E17.55771
G1 X48.106 Y66.387 E18.10004
G1 X47.511 Y66.807 E18.14869
G1 X47.511 Y74.084 E18.63483
G1 X46.916 Y73.468 E18.69204
G1 X46.916 Y67.428 E19.09554
G1 X46.321 Y68.34 E19.16829
G1 X46.321 Y73.014 E19.48054
G1 E17.48054 F2400
G92 E0
G1 X46.321 Y73.014 F7800
G1 X115.942 Y76.61
G1 E2 F2400
;TYPE:Perimeter
;WIDTH:0.6
G1 F1800
G1 X115.754 Y76.611 E2.01256
G1 X115.242 Y76.498 E2.04759
G1 X114.687 Y76.213 E2.08927
G1 X114.334 Y75.911 E2.1203
G1 X114.048 Y75.545 E2.15133
G1 X113.84 Y75.13 E2.18234
G1 X113.718 Y74.682 E2.21336
G1 X113.696 Y74.162 E2.24813
G1 X113.788 Y73.635 E2.28387
G1 X113.856 Y73.425 E2.29862
G1 X113.973 Y73.274 E2.31138
;WIDTH:0.557413
G1 X114.091 Y73.123 E2.32316
;WIDTH:0.514826
G1 X114.208 Y72.971 E2.33394
;WIDTH:0.472239
G1 X114.326 Y72.82 E2.34369
;WIDTH:0.450708
G1 X114.761 Y72.423 E2.37207
;WIDTH:0.500472
G1 X114.885 Y72.328 E2.38057
;WIDTH:0.550236
G1 X115.009 Y72.234 E2.39
;WIDTH:0.6
G1 X115.133 Y72.14 E2.4004
G1 X115.579 Y72.007 E2.43149
G1 X116.041 Y71.965 E2.46248
G1 X116.503 Y72.016 E2.49353
G1 X117.028 Y72.199 E2.53067
