; generated by PrusaSlicer 2.8.1+linux-x64-GTK3 on 2024-10-28 at 17:21:57 UTC

; 

; external perimeters extrusion width = 0.45mm
; perimeters extrusion width = 0.45mm
; infill extrusion width = 0.45mm
; solid infill extrusion width = 0.45mm
; top infill extrusion width = 0.40mm
; support material extrusion width = 0.40mm
; first layer extrusion width = 0.60mm

M190 S60 ; set bed temperature and wait for it to be reached
M104 S200 ; set temperature
;TYPE:Custom
G28 ; home all axes
G1 Z5 F5000 ; lift nozzle
M109 S200 ; set temperature and wait for it to be reached
G21 ; set units to millimeters
G90 ; use absolute coordinates
M82 ; use absolute distances for extrusion
G92 E0
; Filament gcode
M107
;LAYER_CHANGE
;Z:0.3
;HEIGHT:0.3
G1 E-2 F2400
G1 Z.3 F7800
G1 X66.663 Y33.675
G1 E0 F2400
;TYPE:Skirt/Brim
;WIDTH:0.6
G1 F1800
G1 X67.363 Y32.29 E.10367
G1 X67.998 Y31.343 E.17984
G1 X68.678 Y30.504 E.25199
G1 X69.323 Y29.821 E.31475
G1 X70.56 Y28.765 E.4234
G1 X83.643 Y19.589 E1.49096
G1 X84.719 Y19.01 E1.57259
G1 X86.149 Y18.454 E1.67509
G1 X87.234 Y18.179 E1.74987
G1 X88.379 Y18 E1.82729
G1 X111.002 Y16.572 E3.34164
G1 X112.418 Y16.541 E3.43626
G1 X113.747 Y16.659 E3.52539
G1 X115.657 Y17.094 E3.65626
G1 X142.365 Y26.186 E5.54105
G1 X143.626 Y26.735 E5.63293
G1 X144.826 Y27.406 E5.72478
G1 X145.953 Y28.193 E5.81661
G1 X146.996 Y29.089 E5.90847
G1 X147.945 Y30.084 E6.00033
G1 X148.79 Y31.169 E6.0922
G1 X149.523 Y32.332 E6.18404
G1 X150.137 Y33.563 E6.27594
G1 X150.624 Y34.849 E6.36781
G1 X150.982 Y36.176 E6.45963
G1 X151.205 Y37.533 E6.5515
G1 X151.292 Y38.905 E6.64334
G1 X151.243 Y40.279 E6.73519
G1 X151.056 Y41.642 E6.8271
G1 X150.735 Y42.979 E6.91896
G1 X150.282 Y44.277 E7.0108
G1 X149.703 Y45.524 E7.10265
G1 X149.002 Y46.707 E7.19451
G1 X148.186 Y47.814 E7.28638
G1 X147.483 Y48.612 E7.35743
G1 X146.246 Y49.759 E7.47013
G1 X144.826 Y50.78 E7.58697
G1 X143.626 Y51.452 E7.67885
G1 X142.071 Y52.107 E7.79157
G1 X115.258 Y61.081 E9.68049
G1 X113.381 Y61.505 E9.80904
G1 X112.052 Y61.624 E9.89818
G1 X110.92 Y61.605 E9.97381
G1 X109.819 Y61.488 E10.04778
G1 X81.106 Y55.849 E12.00261
G1 X78.731 Y54.841 E12.17497
G1 X77.193 Y53.763 E12.30044
G1 X70.631 Y48.768 E12.85137
G1 X69.502 Y47.816 E12.95003
G1 X68.706 Y47 E13.02618
G1 X67.998 Y46.127 E13.10127
G1 X67.363 Y45.179 E13.1775
G1 X66.485 Y43.442 E13.30752
G1 X66.111 Y42.385 E13.38242
G1 X65.718 Y40.696 E13.49827
G1 X65.565 Y39.014 E13.6111
G1 X65.644 Y37.315 E13.72473
G1 X65.956 Y35.628 E13.83934
G1 X66.485 Y34.027 E13.95198
G1 X66.636 Y33.729 E13.9743
G1 E11.9743 F2400
G92 E0
G1 X66.636 Y33.729 F7800
G92 E0
G1 X116.508 Y47.821
G1 E2 F2400
;TYPE:Support material
G1 F1800
G1 X116.872 Y48.892 E2.07557
G1 X117.002 Y50.015 E2.15109
G1 X116.892 Y51.139 E2.22654
G1 X116.546 Y52.214 E2.30198
G1 X115.982 Y53.192 E2.3774
G1 X115.233 Y54.019 E2.45194
G1 X114.282 Y54.698 E2.53
G1 X113.269 Y55.137 E2.60376
G1 X112.159 Y55.357 E2.67936
G1 X111.027 Y55.338 E2.75499
G1 X109.923 Y55.079 E2.83075
G1 X108.897 Y54.59 E2.90668
G1 X108.031 Y53.92 E2.97983
G1 X107.258 Y52.991 E3.06057
G1 X106.94 Y52.435 E3.10336
G1 X106.736 Y51.98 E3.13667
G1 X106.441 Y50.882 E3.21262
G1 X106.388 Y49.747 E3.28853
G1 X106.459 Y49.097 E3.33221
G1 X106.746 Y48.085 E3.40248
G1 X107.241 Y47.144 E3.47351
G1 X116.101 Y47.144 E4.06541
G1 X116.467 Y47.753 E4.11288
G1 X116.467 Y47.753 F7800
G1 X115.951 Y52.763
G1 F1800
G1 X115.951 Y47.831 E4.44236
G1 X115.828 Y47.626 E4.45833
G1 X115.356 Y47.626 E4.48986
G1 X115.356 Y53.165 E4.8599
G1 X114.761 Y53.767 E4.91645
G1 X114.761 Y47.626 E5.3267
G1 X114.166 Y47.626 E5.36645
G1 X114.166 Y54.192 E5.80509
G1 X114.047 Y54.274 E5.81474
G1 X113.571 Y54.48 E5.84939
G1 X113.571 Y47.626 E6.30727
G1 X112.976 Y47.626 E6.34702
G1 X112.976 Y54.703 E6.8198
G1 X112.381 Y54.822 E6.86034
G1 X112.381 Y47.626 E7.34107
G1 X111.785 Y47.626 E7.38089
G1 X111.785 Y54.869 E7.86476
G1 X111.19 Y54.858 E7.90452
G1 X111.19 Y47.626 E8.38766
G1 X110.595 Y47.626 E8.42741
G1 X110.595 Y54.741 E8.90273
G1 X110 Y54.582 E8.94387
G1 X110 Y47.626 E9.40857
G1 X109.405 Y47.626 E9.44832
G1 X109.405 Y54.298 E9.89405
G1 X108.81 Y53.913 E9.94139
G1 X108.81 Y47.626 E10.3614
G1 X108.215 Y47.626 E10.40115
G1 X108.215 Y53.402 E10.78702
G1 X107.619 Y52.652 E10.85102
G1 X107.619 Y47.626 E11.18678
G1 X107.532 Y47.626 E11.19259
G1 X107.196 Y48.265 E11.24082
G1 X107.024 Y48.87 E11.28284
G1 X107.024 Y52.034 E11.49421
G1 E9.49421 F2400
G92 E0
G1 X107.024 Y52.034 F7800
G1 X101.747 Y44.568
G1 E2 F2400
G1 F1800
G1 X97.254 Y44.568 E2.30016
G1 X97.254 Y40.618 E2.56404
G1 X101.747 Y40.618 E2.8642
G1 X101.747 Y44.488 E3.12274
G1 X101.747 Y44.488 F7800
G1 X101.073 Y44.327
G1 F1800
G1 X101.073 Y41.1 E3.33832
G1 X100.478 Y41.1 E3.37807
G1 X100.478 Y44.086 E3.57755
G1 X99.883 Y44.086 E3.6173
G1 X99.883 Y41.1 E3.81678
G1 X99.288 Y41.1 E3.85653
G1 X99.288 Y44.086 E4.05601
G1 X98.692 Y44.086 E4.09583
G1 X98.692 Y41.1 E4.29531
G1 X98.097 Y41.1 E4.33506
G1 X98.097 Y44.327 E4.55064
G1 E2.55064 F2400
G92 E0
G1 X98.097 Y44.327 F7800
G1 X91.747 Y44.568
G1 E2 F2400
G1 F1800
G1 X87.254 Y44.568 E2.30016
G1 X87.254 Y40.618 E2.56404
G1 X91.747 Y40.618 E2.8642
G1 X91.747 Y44.488 E3.12274
G1 X91.747 Y44.488 F7800
G1 X90.956 Y44.327
G1 F1800
G1 X90.956 Y41.1 E3.33832
G1 X90.361 Y41.1 E3.37807
G1 X90.361 Y44.086 E3.57755
G1 X89.766 Y44.086 E3.6173
G1 X89.766 Y41.1 E3.81678
G1 X89.17 Y41.1 E3.8566
G1 X89.17 Y44.086 E4.05608
G1 X88.575 Y44.086 E4.09583
G1 X88.575 Y41.1 E4.29531
G1 X87.98 Y41.1 E4.33506
G1 X87.98 Y44.327 E4.55064
G1 E2.55064 F2400
G92 E0
G1 X87.98 Y44.327 F7800
G1 X91.119 Y24.566
G1 E2 F2400
G1 F1800
G1 X92.079 Y25.088 E2.073
G1 X92.925 Y25.864 E2.14969
G1 X93.553 Y26.816 E2.22588
G1 X93.94 Y27.909 E2.30334
G1 X94.048 Y29.049 E2.37984
G1 X93.877 Y30.184 E2.45652
G1 X93.521 Y31.042 E2.51858
G1 X86.232 Y31.052 E3.00553
G1 X85.336 Y31.279 E3.06728
G1 X84.887 Y31.671 E3.1071
G1 X84.76 Y32.081 E3.13577
G1 X84.764 Y46.156 E4.07606
G1 X84.91 Y46.549 E4.10407
G1 X85.282 Y46.879 E4.13729
G1 X85.923 Y47.095 E4.18248
G1 X86.59 Y47.144 E4.22716
G1 X86.353 Y48.122 E4.29439
G1 X85.323 Y49.292 E4.39853
G1 X83.92 Y49.842 E4.4992
G1 X82.314 Y49.699 E4.60691
G1 X80.989 Y48.776 E4.71479
G1 X80.262 Y47.394 E4.81911
G1 X80.273 Y45.795 E4.92593
G1 X80.327 Y45.694 E4.93358
G1 X80.138 Y45.338 E4.96051
G1 X80.138 Y44.577 E5.01135
G1 X78.695 Y44.876 E5.1098
G1 X77.57 Y44.901 E5.18497
G1 X76.46 Y44.721 E5.26009
G1 X75.401 Y44.344 E5.33519
G1 X74.428 Y43.781 E5.41029
G1 X73.573 Y43.05 E5.48544
G1 X72.865 Y42.177 E5.56053
G1 X72.353 Y41.24 E5.63186
G1 X71.985 Y40.126 E5.71024
G1 X71.885 Y39.576 E5.74759
G1 X71.833 Y38.455 E5.82256
G1 X71.985 Y37.343 E5.89754
G1 X72.139 Y36.8 E5.93525
G1 X72.353 Y36.229 E5.97599
G1 X72.865 Y35.292 E6.04732
G1 X73.545 Y34.453 E6.11947
G1 X74.468 Y33.666 E6.2005
G1 X75.401 Y33.125 E6.27255
G1 X76.46 Y32.748 E6.34765
G1 X77.571 Y32.568 E6.42284
G1 X78.695 Y32.593 E6.49795
G1 X79.796 Y32.821 E6.57306
G1 X80.409 Y33.071 E6.61729
G1 X80.11 Y31.531 E6.72209
G1 X80.552 Y30.136 E6.81985
G1 X81.257 Y29.271 E6.8944
G1 X82.236 Y28.665 E6.97132
G1 X83.451 Y28.426 E7.05404
G1 X84.704 Y28.698 E7.1397
G1 X84.871 Y27.635 E7.21159
G1 X85.218 Y26.741 E7.27566
G1 X85.763 Y25.913 E7.34188
G1 X86.612 Y25.109 E7.41999
G1 X87.688 Y24.53 E7.50162
G1 X88.773 Y24.255 E7.5764
G1 X89.955 Y24.252 E7.65536
G1 X91.041 Y24.545 E7.7305
G1 X91.041 Y24.545 F7800
G1 X93.336 Y30.801
G1 F1800
G1 X93.336 Y27.644 E7.9414
G1 X93.119 Y27.033 E7.98472
G1 X92.741 Y26.461 E8.03052
G1 X92.741 Y30.56 E8.30436
G1 X92.146 Y30.56 E8.34411
G1 X92.146 Y25.804 E8.66184
G1 X91.551 Y25.35 E8.71184
G1 X91.551 Y30.56 E9.0599
G1 X90.956 Y30.56 E9.09965
G1 X90.956 Y25.026 E9.46935
G1 X90.361 Y24.861 E9.5106
G1 X90.361 Y30.56 E9.89132
G1 X89.766 Y30.56 E9.93107
G1 X89.766 Y24.735 E10.32021
G1 X89.17 Y24.736 E10.36003
G1 X89.17 Y30.56 E10.7491
G1 X88.575 Y30.56 E10.78885
G1 X88.575 Y24.803 E11.17345
G1 X87.98 Y24.954 E11.21446
G1 X87.98 Y30.56 E11.58897
G1 X87.385 Y30.56 E11.62872
G1 X87.385 Y25.241 E11.98406
G1 X86.79 Y25.604 E12.03062
G1 X86.79 Y30.56 E12.36171
G1 X86.195 Y30.571 E12.40147
G1 X86.195 Y26.169 E12.69555
G1 X85.6 Y27.091 E12.76886
G1 X85.6 Y30.671 E13.00802
G1 X85.004 Y30.911 E13.05094
G1 X85.004 Y29.257 E13.16144
G1 X84.409 Y29.127 E13.20213
G1 X84.409 Y49.133 E14.53864
G1 X83.849 Y49.352 E14.57881
G1 X83.814 Y28.998 E15.93857
G1 X83.446 Y28.918 E15.96373
G1 X83.219 Y28.963 E15.97919
G1 X83.219 Y49.296 E17.33754
G1 X82.624 Y49.242 E17.37745
G1 X82.624 Y29.08 E18.72438
G1 X82.415 Y29.121 E18.73861
G1 X82.029 Y29.36 E18.76894
G1 X82.029 Y48.912 E20.07512
G1 X81.434 Y48.498 E20.12354
G1 X81.434 Y29.817 E21.37153
G1 X80.984 Y30.37 E21.41916
G1 X80.839 Y30.828 E21.45125
G1 X80.839 Y47.971 E22.5965
G1 X80.839 Y47.971 F7800
G1 X85.6 Y48.613
G1 F1800
G1 X85.6 Y47.515 E22.66985
G1 X85.004 Y47.275 E22.71277
G1 X85.004 Y49.158 E22.83856
G1 X85.004 Y49.158 F7800
G1 X80.243 Y44.309
G1 F1800
G1 X80.243 Y33.524 E23.55906
G1 X79.648 Y33.283 E23.60195
G1 X79.648 Y44.186 E24.33033
G1 X79.053 Y44.31 E24.37093
G1 X79.053 Y33.16 E25.11581
G1 X78.458 Y33.07 E25.15601
G1 X78.458 Y44.399 E25.91285
G1 X77.863 Y44.412 E25.95261
G1 X77.863 Y33.057 E26.71119
G1 X77.268 Y33.106 E26.75107
G1 X77.268 Y44.364 E27.50317
G1 X76.673 Y44.267 E27.54344
G1 X76.673 Y33.202 E28.28264
G1 X76.077 Y33.396 E28.32451
G1 X76.077 Y44.073 E29.03779
G1 X75.482 Y43.834 E29.08063
G1 X75.482 Y33.635 E29.76198
G1 X74.887 Y33.98 E29.80793
G1 X74.887 Y43.489 E30.44318
G1 X74.292 Y43.03 E30.49338
G1 X74.292 Y34.425 E31.06824
G1 X73.697 Y35.031 E31.12498
G1 X73.697 Y42.438 E31.61981
G1 X73.102 Y41.606 E31.68814
G1 X73.102 Y35.864 E32.07174
G1 X72.793 Y36.43 E32.11482
G1 X72.507 Y37.269 E32.17404
G1 X72.507 Y40.963 E32.42082
G1 E30.42082 F2400
G92 E0
G1 X72.507 Y40.963 F7800
G1 X101.105 Y24.567
G1 E2 F2400
G1 F1800
G1 X102.064 Y25.089 E2.07294
G1 X102.91 Y25.864 E2.14959
G1 X103.539 Y26.816 E2.22582
G1 X103.925 Y27.91 E2.30332
G1 X104.034 Y29.049 E2.37976
G1 X103.863 Y30.184 E2.45644
G1 X103.506 Y31.042 E2.51852
G1 X95.189 Y31.042 E3.07414
G1 X94.774 Y29.924 E3.15381
G1 X94.672 Y28.883 E3.22369
G1 X94.745 Y28.138 E3.2737
G1 X94.857 Y27.635 E3.30813
G1 X95.204 Y26.741 E3.3722
G1 X95.749 Y25.913 E3.43842
G1 X96.598 Y25.109 E3.51653
G1 X97.674 Y24.53 E3.59816
G1 X98.759 Y24.256 E3.67292
G1 X99.94 Y24.252 E3.75182
G1 X101.027 Y24.546 E3.82705
G1 X101.027 Y24.546 F7800
G1 X103.454 Y30.541
G1 F1800
G1 X103.451 Y28.014 E3.99587
G1 X103.105 Y27.034 E4.0653
G1 X102.858 Y26.661 E4.09519
G1 X102.858 Y30.56 E4.35566
G1 X102.263 Y30.56 E4.39541
G1 X102.263 Y25.925 E4.70505
G1 X101.668 Y25.422 E4.7571
G1 X101.668 Y30.56 E5.10035
G1 X101.073 Y30.56 E5.1401
G1 X101.073 Y25.098 E5.50499
G1 X100.478 Y24.897 E5.54695
G1 X100.478 Y30.56 E5.92527
G1 X99.883 Y30.56 E5.96502
G1 X99.883 Y24.736 E6.35409
G1 X99.288 Y24.736 E6.39384
G1 X99.288 Y30.56 E6.78291
G1 X98.692 Y30.56 E6.82273
G1 X98.692 Y24.77 E7.20953
G1 X98.097 Y24.92 E7.25052
G1 X98.097 Y30.56 E7.6273
G1 X97.502 Y30.56 E7.66705
G1 X97.502 Y25.17 E8.02713
G1 X96.907 Y25.49 E8.07226
G1 X96.907 Y30.56 E8.41096
G1 X96.312 Y30.56 E8.45071
G1 X96.312 Y26.044 E8.7524
G1 X95.717 Y26.839 E8.81874
G1 X95.717 Y30.801 E9.08342
G1 E7.08342 F2400
G92 E0
G1 X95.717 Y30.801 F7800
G1 X113.638 Y23.027
G1 E2 F2400
G1 F1800
G1 X114.676 Y23.476 E2.07555
G1 X115.579 Y24.123 E2.14976
G1 X116.358 Y24.979 E2.22708
G1 X116.918 Y25.948 E2.30185
G1 X117.264 Y27.023 E2.37729
G1 X117.375 Y28.147 E2.45274
G1 X117.246 Y29.27 E2.52826
G1 X116.882 Y30.341 E2.60383
G1 X116.462 Y31.042 E2.65842
G1 X107.625 Y31.042 E3.24878
G1 X107.117 Y30.078 E3.32158
G1 X106.832 Y29.065 E3.39188
G1 X106.754 Y27.885 E3.47088
G1 X106.92 Y26.777 E3.54573
G1 X107.109 Y26.184 E3.58731
G1 X107.668 Y25.108 E3.66831
G1 X108.322 Y24.328 E3.73631
G1 X108.719 Y23.986 E3.77132
G1 X109.302 Y23.56 E3.81956
G1 X110.293 Y23.087 E3.89292
G1 X111.397 Y22.828 E3.96868
G1 X112.529 Y22.808 E4.04432
G1 X113.56 Y23.012 E4.11453
G1 X113.56 Y23.012 F7800
G1 X116.546 Y30.432
G1 F1800
G1 X116.546 Y26.367 E4.38609
G1 X115.951 Y25.247 E4.47082
G1 X115.951 Y30.56 E4.82576
G1 X115.356 Y30.56 E4.86551
G1 X115.356 Y24.591 E5.26427
G1 X114.761 Y24.13 E5.31455
G1 X114.761 Y30.56 E5.74411
G1 X114.166 Y30.56 E5.78386
G1 X114.166 Y23.781 E6.23673
G1 X113.571 Y23.523 E6.28006
G1 X113.571 Y30.56 E6.75017
G1 X112.976 Y30.56 E6.78992
G1 X112.976 Y23.388 E7.26905
G1 X112.486 Y23.291 E7.30242
G1 X112.381 Y23.292 E7.30943
G1 X112.381 Y30.56 E7.79497
G1 X111.785 Y30.56 E7.83479
G1 X111.785 Y23.303 E8.3196
G1 X111.19 Y23.371 E8.35961
G1 X111.19 Y30.56 E8.83987
G1 X110.595 Y30.56 E8.87962
G1 X110.595 Y23.511 E9.35053
G1 X110 Y23.761 E9.39365
G1 X110 Y30.56 E9.84786
G1 X109.405 Y30.56 E9.88761
G1 X109.405 Y24.082 E10.32038
G1 X108.81 Y24.544 E10.3707
G1 X108.81 Y30.56 E10.7726
G1 X108.215 Y30.56 E10.81235
G1 X108.215 Y25.207 E11.16996
G1 X107.619 Y26.225 E11.24877
G1 X107.619 Y30.514 E11.5353
G1 E9.5353 F2400
G92 E0
G1 X107.619 Y30.514 F7800
G1 X102.478 Y45.306
G1 E2 F2400
;TYPE:External perimeter
;WIDTH:0.6
G1 F1800
G1 X102.304 Y45.393 E2.013
G1 X96.697 Y45.393 E2.38758
G1 X96.483 Y45.286 E2.40356
G1 X96.429 Y45.125 E2.4149
G1 X96.429 Y40.061 E2.7532
G1 X96.498 Y39.882 E2.76602
G1 X96.651 Y39.797 E2.77771
G1 X96.697 Y39.793 E2.78079
G1 X102.304 Y39.793 E3.15537
G1 X102.486 Y39.864 E3.16842
G1 X102.572 Y40.061 E3.18278
G1 X102.572 Y45.125 E3.52108
G1 X102.523 Y45.272 E3.53143
G1 X102.139 Y45.382 F7800
G1 E1.53143 F2400
G92 E0
G1 X92.491 Y39.878 F7800
G1 E2 F2400
G1 F1800
G1 X92.561 Y39.984 E2.00849
G1 X92.572 Y45.125 E2.35194
G1 X92.518 Y45.286 E2.36328
G1 X92.304 Y45.393 E2.37926
G1 X86.697 Y45.393 E2.75384
G1 X86.515 Y45.321 E2.76692
G1 X86.429 Y45.125 E2.78122
G1 X86.429 Y40.061 E3.11952
G1 X86.537 Y39.847 E3.13553
G1 X86.697 Y39.793 E3.14681
G1 X89.55 Y39.793 E3.33741
G1 X92.304 Y39.793 E3.52139
G1 X92.445 Y39.844 E3.53141
G1 X92.553 Y40.229 F7800
G1 E1.53141 F2400
G92 E0
G1 X138.64 Y43.399 F7800
G1 E2 F2400
;TYPE:Perimeter
G1 F1800
G1 X138.225 Y43.537 E2.02922
G1 X137.887 Y43.582 E2.052
G1 X136.868 Y43.569 E2.12008
G1 X136.388 Y43.387 E2.15437
G1 X136.231 Y43.387 E2.16486
G1 X135.717 Y43.243 E2.20052
G1 X135.319 Y42.988 E2.2321
G1 X134.871 Y42.748 E2.26605
G1 X134.454 Y42.387 E2.3029
G1 X134.292 Y42.189 E2.31999
G1 X133.923 Y41.859 E2.35306
G1 X133.701 Y41.423 E2.38575
G1 X133.351 Y40.878 E2.42902
G1 X133.215 Y40.435 E2.45998
G1 X133.194 Y40.231 E2.47368
G1 X133.052 Y39.784 E2.50501
G1 X133.019 Y39.28 E2.53875
G1 X133.061 Y39.064 E2.55345
G1 X133.006 Y38.764 E2.57383
G1 X133.028 Y38.444 E2.59526
G1 X133.166 Y38.054 E2.6229
G1 X133.29 Y37.459 E2.6635
G1 X133.866 Y36.436 E2.74193
G1 X134.211 Y36.047 E2.77667
G1 X134.404 Y35.887 E2.79342
G1 X134.733 Y35.517 E2.8265
G1 X135.171 Y35.294 E2.85933
G1 X135.716 Y34.944 E2.9026
G1 X136.206 Y34.802 E2.93668
G1 X136.37 Y34.782 E2.94772
G1 X136.776 Y34.649 E2.97626
G1 X137.181 Y34.602 E3.0035
G1 X137.54 Y34.636 E3.02759
G1 X137.967 Y34.599 E3.05622
G1 X138.339 Y34.663 E3.08144
G1 X138.704 Y34.796 E3.10739
G1 X139.118 Y34.876 E3.13556
G1 X140.097 Y35.415 E3.21022
G1 X140.501 Y35.746 E3.24511
G1 X140.719 Y36.003 E3.26762
G1 X141.063 Y36.309 E3.29838
G1 X141.373 Y36.888 E3.34226
G1 X141.634 Y37.27 E3.37317
G1 X141.787 Y37.761 E3.40753
G1 X141.807 Y37.953 E3.42043
G1 X141.949 Y38.402 E3.45189
G1 X141.984 Y38.893 E3.48477
G1 X141.96 Y39.182 E3.50414
G1 X141.985 Y39.674 E3.53705
G1 X141.799 Y40.272 E3.57889
G1 X141.761 Y40.57 E3.59896
G1 X141.589 Y40.973 E3.62823
G1 X141.135 Y41.75 E3.68835
G1 X140.891 Y42.05 E3.71418
G1 X140.59 Y42.31 E3.74075
G1 X140.31 Y42.635 E3.76941
G1 X139.707 Y42.965 E3.81533
G1 X139.293 Y43.239 E3.8485
G1 X138.829 Y43.38 E3.8809
G1 X138.7 Y43.393 E3.88956
G1 X138.7 Y43.393 F7800
G1 X138.14 Y42.993
G1 F1800
G1 X137.861 Y43.047 E3.90854
G1 X137.553 Y43.003 E3.92932
G1 X137.479 Y42.967 E3.93482
G1 X137.1 Y43.054 E3.9608
G1 X136.745 Y42.971 E3.98516
G1 X136.462 Y42.847 E4.0058
G1 X136.275 Y42.853 E4.0183
G1 X135.922 Y42.748 E4.0429
G1 X135.683 Y42.595 E4.06186
G1 X135.573 Y42.456 E4.0737
G1 X135.34 Y42.402 E4.08968
