; generated by PrusaSlicer 2.8.1+linux-x64-GTK3 on 2024-10-28 at 14:55:51 UTC

; 

; external perimeters extrusion width = 0.45mm
; perimeters extrusion width = 0.45mm
; infill extrusion width = 0.45mm
; solid infill extrusion width = 0.45mm
; top infill extrusion width = 0.40mm
; support material extrusion width = 0.40mm
; first layer extrusion width = 0.60mm

M190 S60 ; set bed temperature and wait for it to be reached
M104 S200 ; set temperature
;TYPE:Custom
G28 ; home all axes
G1 Z5 F5000 ; lift nozzle
M109 S200 ; set temperature and wait for it to be reached
G21 ; set units to millimeters
G90 ; use absolute coordinates
M82 ; use absolute distances for extrusion
G92 E0
; Filament gcode
M107
;LAYER_CHANGE
;Z:0.3
;HEIGHT:0.3
G1 E-2 F2400
G1 Z.3 F7800
G1 X65.391 Y23.005
G1 E0 F2400
;TYPE:Skirt/Brim
;WIDTH:0.6
G1 F1800
G1 X65.766 Y21.947 E.07499
G1 X66.644 Y20.21 E.20501
G1 X67.279 Y19.263 E.28118
G1 X67.988 Y18.39 E.35631
G1 X68.784 Y17.574 E.43246
G1 X69.639 Y16.844 E.50757
G1 X70.569 Y16.186 E.58368
G1 X71.542 Y15.623 E.65878
G1 X72.577 Y15.144 E.73497
G1 X74.519 Y14.523 E.87118
G1 X110.093 Y7.453 E3.2942
G1 X111.563 Y7.235 E3.39348
G1 X112.718 Y7.179 E3.47073
G1 X113.851 Y7.229 E3.54649
G1 X114.992 Y7.385 E3.62342
G1 X117.074 Y7.956 E3.76764
G1 X143.02 Y18.704 E5.64381
G1 X144.237 Y19.297 E5.73425
G1 X145.39 Y20.006 E5.82467
G1 X146.468 Y20.824 E5.91507
G1 X147.461 Y21.744 E6.0055
G1 X148.359 Y22.757 E6.09594
G1 X149.153 Y23.853 E6.18635
G1 X149.836 Y25.022 E6.2768
G1 X150.401 Y26.252 E6.36723
G1 X150.842 Y27.531 E6.45761
G1 X151.157 Y28.848 E6.54807
G1 X151.34 Y30.189 E6.63849
G1 X151.392 Y31.542 E6.72894
G1 X151.31 Y32.893 E6.81936
G1 X151.097 Y34.229 E6.90974
G1 X150.753 Y35.539 E7.00022
G1 X150.283 Y36.808 E7.09062
G1 X149.691 Y38.025 E7.18103
G1 X148.982 Y39.178 E7.27145
G1 X148.163 Y40.256 E7.36189
G1 X147.243 Y41.249 E7.45232
G1 X146.468 Y41.952 E7.52222
G1 X145.39 Y42.77 E7.61262
G1 X144.237 Y43.479 E7.70304
G1 X143.02 Y44.071 E7.79345
G1 X114.608 Y55.022 E9.82763
G1 X112.576 Y55.536 E9.96765
G1 X111.446 Y55.674 E10.0437
G1 X109.426 Y55.67 E10.17865
G1 X87.886 Y53.213 E11.62697
G1 X85.892 Y52.745 E11.7638
G1 X84.636 Y52.251 E11.85396
G1 X83.631 Y51.725 E11.92974
G1 X82.381 Y50.864 E12.03114
G1 X76.679 Y45.715 E12.54439
G1 X75.987 Y44.977 E12.61198
G1 X67.244 Y34.008 E13.54906
G1 X66.133 Y32.168 E13.69265
G1 X65.55 Y30.792 E13.79248
G1 X65.236 Y29.763 E13.86435
G1 X64.997 Y28.615 E13.94269
G1 X64.871 Y27.513 E14.01679
G1 X64.845 Y26.375 E14.09283
G1 X64.924 Y25.235 E14.16917
G1 X65.098 Y24.144 E14.24298
G1 X65.376 Y23.063 E14.31755
G1 E12.31755 F2400
G92 E0
G1 X65.376 Y23.063 F7800
G92 E0
G1 X113.575 Y13.491
G1 E2 F2400
;TYPE:Support material
G1 F1800
G1 X114.676 Y13.747 E2.07551
G1 X115.709 Y14.197 E2.15078
G1 X116.642 Y14.827 E2.22599
G1 X117.432 Y15.603 E2.29997
G1 X118.093 Y16.537 E2.37641
G1 X118.562 Y17.554 E2.45123
G1 X118.841 Y18.643 E2.52633
G1 X118.92 Y19.767 E2.6016
G1 X118.795 Y20.888 E2.67695
G1 X118.469 Y21.969 E2.75238
G1 X117.952 Y22.975 E2.82794
G1 X117.673 Y23.337 E2.85847
G1 X107.8 Y23.337 E3.51804
G1 X107.428 Y22.789 E3.56229
G1 X106.938 Y21.748 E3.63915
G1 X106.746 Y21.124 E3.68277
G1 X106.58 Y20.041 E3.75597
G1 X106.607 Y18.944 E3.82928
G1 X106.827 Y17.867 E3.90272
G1 X107.078 Y17.159 E3.9529
G1 X107.613 Y16.172 E4.0279
G1 X108.347 Y15.273 E4.10543
G1 X109.231 Y14.53 E4.18258
G1 X110.232 Y13.967 E4.2593
G1 X111.315 Y13.601 E4.33567
G1 X112.442 Y13.441 E4.41171
G1 X113.495 Y13.487 E4.48212
G1 X113.495 Y13.487 F7800
G1 X118.332 Y21.589
G1 F1800
G1 X118.332 Y18.597 E4.682
G1 X118.106 Y17.716 E4.74276
G1 X117.737 Y16.916 E4.80162
G1 X117.737 Y22.339 E5.16391
G1 X117.436 Y22.855 E5.20382
G1 X117.142 Y22.855 E5.22346
G1 X117.142 Y16.023 E5.67987
G1 X116.546 Y15.409 E5.73703
G1 X116.546 Y22.855 E6.23446
G1 X115.951 Y22.855 E6.27421
G1 X115.951 Y14.942 E6.80284
G1 X115.356 Y14.569 E6.84975
G1 X115.356 Y22.855 E7.4033
G1 X114.761 Y22.855 E7.44305
G1 X114.761 Y14.31 E8.0139
G1 X114.166 Y14.123 E8.05557
G1 X114.166 Y22.855 E8.63891
G1 X113.571 Y22.855 E8.67866
G1 X113.571 Y13.985 E9.27122
G1 X112.976 Y13.947 E9.31105
G1 X112.976 Y22.855 E9.90615
G1 X112.381 Y22.855 E9.9459
G1 X112.381 Y13.937 E10.54167
G1 X111.785 Y14.021 E10.58188
G1 X111.785 Y22.855 E11.17204
G1 X111.19 Y22.855 E11.21179
G1 X111.19 Y14.152 E11.7932
G1 X110.595 Y14.353 E11.83516
G1 X110.595 Y22.855 E12.40314
G1 X110 Y22.855 E12.44289
G1 X110 Y14.65 E12.99103
G1 X109.405 Y15.013 E13.03759
G1 X109.405 Y22.855 E13.56148
G1 X108.81 Y22.855 E13.60123
G1 X108.81 Y15.513 E14.09172
G1 X108.215 Y16.197 E14.15228
G1 X108.215 Y22.855 E14.59707
G1 X108.036 Y22.855 E14.60903
G1 X107.619 Y22.114 E14.66583
G1 X107.619 Y16.665 E15.02985
G1 E13.02985 F2400
G92 E0
G1 X107.619 Y16.665 F7800
G1 X101.746 Y29.863
G1 E2 F2400
G1 F1800
G1 X97.253 Y29.863 E2.30016
G1 X97.253 Y25.913 E2.56404
G1 X101.746 Y25.913 E2.8642
G1 X101.746 Y29.783 E3.12274
G1 X101.746 Y29.783 F7800
G1 X101.073 Y29.622
G1 F1800
G1 X101.073 Y26.395 E3.33832
G1 X100.478 Y26.395 E3.37807
G1 X100.478 Y29.381 E3.57755
G1 X99.883 Y29.381 E3.6173
G1 X99.883 Y26.395 E3.81678
G1 X99.288 Y26.395 E3.85653
G1 X99.288 Y29.381 E4.05601
G1 X98.692 Y29.381 E4.09583
G1 X98.692 Y26.395 E4.29531
G1 X98.097 Y26.395 E4.33506
G1 X98.097 Y29.622 E4.55064
G1 E2.55064 F2400
G92 E0
G1 X98.097 Y29.622 F7800
G1 X91.746 Y29.863
G1 E2 F2400
G1 F1800
G1 X87.253 Y29.863 E2.30016
G1 X87.253 Y25.913 E2.56404
G1 X91.746 Y25.913 E2.8642
G1 X91.746 Y29.783 E3.12274
G1 X91.746 Y29.783 F7800
G1 X90.956 Y29.622
G1 F1800
G1 X90.956 Y26.395 E3.33832
G1 X90.361 Y26.395 E3.37807
G1 X90.361 Y29.381 E3.57755
G1 X89.766 Y29.381 E3.6173
G1 X89.766 Y26.395 E3.81678
G1 X89.17 Y26.395 E3.8566
G1 X89.17 Y29.381 E4.05608
G1 X88.575 Y29.381 E4.09583
G1 X88.575 Y26.395 E4.29531
G1 X87.98 Y26.395 E4.33506
G1 X87.98 Y29.622 E4.55064
G1 E2.55064 F2400
G92 E0
G1 X87.98 Y29.622 F7800
G1 X77.424 Y20.496
G1 E2 F2400
G1 F1800
G1 X78.005 Y20.522 E2.03885
G1 X79.075 Y20.744 E2.11185
G1 X80.117 Y21.167 E2.18698
G1 X81.014 Y21.74 E2.25809
G1 X81.156 Y21.565 E2.27315
G1 X82.134 Y20.959 E2.35001
G1 X83.35 Y20.721 E2.43279
G1 X84.692 Y21.012 E2.52453
G1 X85.827 Y21.893 E2.62052
G1 X86.463 Y23.115 E2.71255
G1 X86.483 Y23.337 E2.72744
G1 X85.732 Y23.406 E2.77782
G1 X85.081 Y23.666 E2.82465
G1 X84.786 Y23.966 E2.85276
G1 X84.66 Y24.352 E2.87989
G1 X84.659 Y38.4 E3.81837
G1 X84.786 Y38.81 E3.84704
G1 X85.081 Y39.11 E3.87515
G1 X85.545 Y39.325 E3.90931
G1 X86.384 Y39.439 E3.96587
G1 X93.825 Y39.439 E4.46297
G1 X94.42 Y40.852 E4.56539
G1 X95.038 Y39.439 E4.66842
G1 X103.827 Y39.439 E5.25557
G1 X104.582 Y41.274 E5.38813
G1 X105.4 Y39.799 E5.50081
G1 X105.695 Y39.439 E5.5319
G1 X115.329 Y39.439 E6.1755
G1 X115.775 Y40.036 E6.22528
G1 X116.275 Y41.042 E6.30033
G1 X116.584 Y42.123 E6.37544
G1 X116.692 Y43.242 E6.45054
G1 X116.596 Y44.361 E6.52557
G1 X116.299 Y45.444 E6.60059
G1 X115.81 Y46.455 E6.67562
G1 X115.155 Y47.351 E6.74977
G1 X114.321 Y48.139 E6.82642
G1 X113.391 Y48.742 E6.90047
G1 X112.355 Y49.173 E6.97543
G1 X111.258 Y49.409 E7.05039
G1 X110.136 Y49.442 E7.12538
G1 X109.026 Y49.272 E7.2004
G1 X107.964 Y48.904 E7.27549
G1 X106.986 Y48.349 E7.35061
G1 X106.123 Y47.624 E7.42591
G1 X105.405 Y46.753 E7.50132
G1 X104.879 Y45.806 E7.57369
G1 X104.502 Y44.674 E7.6534
G1 X104.314 Y43.628 E7.7244
G1 X103.564 Y44.96 E7.82652
G1 X102.839 Y45.767 E7.89899
G1 X101.875 Y46.461 E7.97834
G1 X100.776 Y46.882 E8.05696
G1 X99.686 Y47.049 E8.13063
G1 X98.598 Y46.985 E8.20344
G1 X97.543 Y46.698 E8.27648
G1 X96.538 Y46.172 E8.35226
G1 X95.695 Y45.425 E8.42751
G1 X95.057 Y44.557 E8.49948
G1 X94.388 Y43.072 E8.60829
G1 X94.111 Y43.986 E8.67209
G1 X93.563 Y44.959 E8.74669
G1 X92.838 Y45.767 E8.81921
G1 X91.873 Y46.461 E8.89862
G1 X90.774 Y46.881 E8.97722
G1 X89.685 Y47.049 E9.05083
G1 X88.596 Y46.985 E9.12371
G1 X87.542 Y46.698 E9.19669
G1 X86.536 Y46.171 E9.27256
G1 X85.693 Y45.425 E9.34776
G1 X85.056 Y44.556 E9.41974
G1 X84.617 Y43.583 E9.49105
G1 X84.408 Y42.627 E9.55642
G1 X84.359 Y41.926 E9.60336
G1 X83.818 Y42.137 E9.64215
G1 X82.213 Y41.994 E9.7498
G1 X80.888 Y41.07 E9.85772
G1 X80.161 Y39.689 E9.96198
G1 X80.172 Y38.09 E10.0688
G1 X80.226 Y37.989 E10.07645
G1 X80.037 Y37.633 E10.10338
G1 X80.037 Y36.032 E10.21034
G1 X80.454 Y35.249 E10.2696
G1 X80.037 Y34.467 E10.32881
G1 X80.037 Y32.866 E10.43577
G1 X80.504 Y31.989 E10.50215
G1 X79.078 Y32.57 E10.60502
G1 X77.977 Y32.799 E10.68015
G1 X76.853 Y32.824 E10.75526
G1 X75.743 Y32.645 E10.83037
G1 X74.683 Y32.267 E10.90555
G1 X73.71 Y31.704 E10.98065
G1 X72.855 Y30.974 E11.05576
G1 X72.146 Y30.101 E11.13089
G1 X71.634 Y29.164 E11.20222
G1 X71.418 Y28.59 E11.24319
G1 X71.265 Y28.049 E11.28075
G1 X71.113 Y26.937 E11.35573
G1 X71.165 Y25.815 E11.43077
G1 X71.265 Y25.264 E11.46818
G1 X71.634 Y24.15 E11.54658
G1 X72.145 Y23.213 E11.61788
G1 X72.854 Y22.341 E11.69296
G1 X73.709 Y21.611 E11.76807
G1 X74.682 Y21.048 E11.84317
G1 X75.74 Y20.671 E11.9182
G1 X76.821 Y20.496 E11.99136
G1 X77.343 Y20.496 E12.02623
G1 E10.02623 F2400
G92 E0
G1 X77.343 Y20.496 F7800
G1 X115.951 Y45.609
G1 E2 F2400
G1 F1800
G1 X115.951 Y41.665 E2.26348
G1 X115.823 Y41.217 E2.29461
G1 X115.356 Y40.28 E2.36455
G1 X115.356 Y46.26 E2.76405
G1 X114.761 Y47.061 E2.83071
G1 X114.761 Y39.921 E3.3077
G1 X114.166 Y39.921 E3.34745
G1 X114.166 Y47.626 E3.86219
G1 X113.571 Y48.051 E3.91104
G1 X113.571 Y39.921 E4.45417
G1 X112.976 Y39.921 E4.49392
G1 X112.976 Y48.393 E5.0599
G1 X112.381 Y48.64 E5.10294
G1 X112.381 Y39.921 E5.68542
G1 X111.785 Y39.921 E5.72524
G1 X111.785 Y48.802 E6.31854
G1 X111.19 Y48.928 E6.35917
G1 X111.19 Y39.921 E6.96089
G1 X110.595 Y39.921 E7.00064
G1 X110.595 Y48.946 E7.60356
G1 X110 Y48.934 E7.64332
G1 X110 Y39.921 E8.24544
G1 X109.405 Y39.921 E8.28519
G1 X109.405 Y48.843 E8.88123
G1 X108.81 Y48.687 E8.92232
G1 X108.81 Y39.921 E9.50794
G1 X108.215 Y39.921 E9.54769
G1 X108.215 Y48.481 E10.11954
G1 X107.619 Y48.154 E10.16496
G1 X107.619 Y39.921 E10.71497
G1 X107.024 Y39.921 E10.75472
G1 X107.024 Y47.752 E11.27787
G1 X106.429 Y47.238 E11.3304
G1 X106.429 Y39.921 E11.81922
G1 X105.924 Y39.921 E11.85296
G1 X105.834 Y40.03 E11.8624
G1 X105.834 Y46.516 E12.2957
G1 X105.239 Y45.391 E12.38072
G1 X105.239 Y41.084 E12.66845
G1 X104.644 Y42.157 E12.75042
G1 X104.644 Y44.1 E12.88022
G1 X104.644 Y44.1 F7800
G1 X104.049 Y43.609
G1 F1800
G1 X104.049 Y41.227 E13.03935
G1 X103.551 Y39.921 E13.13273
G1 X103.454 Y39.921 E13.13921
G1 X103.454 Y44.174 E13.42333
G1 X103.17 Y44.677 E13.46192
G1 X102.858 Y45.025 E13.49314
G1 X102.858 Y39.921 E13.83411
G1 X102.263 Y39.921 E13.87386
G1 X102.263 Y45.588 E14.25245
G1 X101.668 Y46.016 E14.30141
G1 X101.668 Y39.921 E14.70859
G1 X101.073 Y39.921 E14.74834
G1 X101.073 Y46.252 E15.17129
G1 X100.478 Y46.44 E15.21298
G1 X100.478 Y39.921 E15.64848
G1 X99.883 Y39.921 E15.68823
G1 X99.883 Y46.531 E16.12981
G1 X99.288 Y46.543 E16.16957
G1 X99.288 Y39.921 E16.61196
G1 X98.692 Y39.921 E16.65178
G1 X98.676 Y46.507 E17.09176
G1 X98.097 Y46.349 E17.13185
G1 X98.097 Y39.921 E17.56128
G1 X97.502 Y39.921 E17.60103
G1 X97.502 Y46.132 E18.01596
G1 X96.907 Y45.821 E18.06081
G1 X96.907 Y39.921 E18.45496
G1 X96.312 Y39.921 E18.49471
G1 X96.312 Y45.328 E18.85593
G1 X95.717 Y44.641 E18.91665
G1 X95.717 Y39.921 E19.23197
G1 X95.344 Y39.921 E19.25689
G1 X95.122 Y40.439 E19.29454
G1 X95.122 Y43.527 E19.50084
G1 X94.527 Y42.206 E19.59763
G1 X94.527 Y41.215 E19.66383
G1 X94.527 Y41.215 F7800
G1 X93.931 Y43.748
G1 F1800
G1 X93.931 Y40.923 E19.85256
G1 X93.55 Y39.921 E19.92417
G1 X93.336 Y39.921 E19.93847
G1 X93.336 Y44.379 E20.23629
G1 X92.741 Y45.153 E20.30151
G1 X92.741 Y39.921 E20.65104
G1 X92.146 Y39.921 E20.69079
G1 X92.146 Y45.671 E21.07492
G1 X91.551 Y46.068 E21.1227
G1 X91.551 Y39.921 E21.53335
G1 X90.956 Y39.921 E21.5731
G1 X90.956 Y46.296 E21.99898
G1 X90.65 Y46.413 E22.02087
G1 X90.361 Y46.457 E22.0404
G1 X90.361 Y39.921 E22.47704
G1 X89.766 Y39.921 E22.51679
G1 X89.766 Y46.548 E22.95951
G1 X89.17 Y46.536 E22.99933
G1 X89.17 Y39.921 E23.44125
G1 X88.575 Y39.921 E23.481
G1 X88.575 Y46.48 E23.91918
G1 X87.98 Y46.318 E23.96038
G1 X87.98 Y39.921 E24.38773
G1 X87.385 Y39.921 E24.42748
G1 X87.385 Y46.072 E24.8384
G1 X86.79 Y45.752 E24.88353
G1 X86.79 Y39.921 E25.27307
G1 X86.195 Y39.914 E25.31282
G1 X86.195 Y45.225 E25.66762
G1 X85.6 Y44.483 E25.73116
G1 X85.6 Y39.834 E26.04174
G1 X85.004 Y39.626 E26.08391
G1 X85.004 Y43.099 E26.31593
G1 X84.886 Y42.558 E26.35292
G1 X84.795 Y41.239 E26.44125
G1 X84.409 Y41.389 E26.46892
G1 X84.409 Y21.444 E27.80135
G1 X83.814 Y21.315 E27.84202
G1 X83.814 Y41.621 E29.19857
G1 X83.748 Y41.647 E29.20331
G1 X83.219 Y41.599 E29.2388
G1 X83.219 Y21.238 E30.59903
G1 X82.624 Y21.354 E30.63953
G1 X82.624 Y41.546 E31.98846
G1 X82.383 Y41.525 E32.00462
G1 X82.029 Y41.278 E32.03346
G1 X82.029 Y21.592 E33.34859
G1 X81.434 Y21.988 E33.39634
G1 X81.434 Y40.863 E34.65729
G1 X81.26 Y40.742 E34.67145
G1 X80.839 Y39.941 E34.7319
G1 X80.839 Y31.874 E35.27082
G1 E33.27082 F2400
G92 E0
G1 X80.839 Y31.874 F7800
G1 X85.6 Y23.19
G1 E2 F2400
G1 F1800
G1 X85.6 Y22.5 E2.0461
G1 X85.448 Y22.209 E2.06803
G1 X85.004 Y21.865 E2.10555
G1 X85.004 Y23.428 E2.20997
G1 X85.004 Y23.428 F7800
G1 X80.839 Y31.593
G1 F1800
G1 X80.839 Y22.2 E2.83747
G1 X80.243 Y21.82 E2.88469
G1 X80.243 Y31.575 E3.53638
G1 X79.648 Y31.817 E3.57929
G1 X79.648 Y21.497 E4.26872
G1 X79.053 Y21.255 E4.31163
G1 X79.053 Y32.06 E5.03346
G1 X78.458 Y32.206 E5.07439
G1 X78.458 Y21.108 E5.8158
G1 X77.863 Y20.998 E5.85622
G1 X77.863 Y32.319 E6.61252
G1 X77.268 Y32.332 E6.65228
G1 X77.268 Y20.978 E7.41079
G1 X76.673 Y21.008 E7.45059
G1 X76.673 Y32.306 E8.20536
G1 X76.077 Y32.21 E8.24569
G1 X76.077 Y21.104 E8.98763
G1 X75.482 Y21.274 E9.02897
G1 X75.482 Y32.04 E9.7482
G1 X74.887 Y31.828 E9.7904
G1 X74.887 Y21.486 E10.4813
G1 X74.292 Y21.83 E10.52721
G1 X74.292 Y31.484 E11.17215
G1 X73.697 Y31.06 E11.22096
G1 X73.697 Y22.255 E11.80918
G1 X73.102 Y22.8 E11.86308
G1 X73.102 Y30.514 E12.37842
G1 X72.507 Y29.757 E12.44274
G1 X72.507 Y23.558 E12.85687
G1 X71.912 Y24.782 E12.94779
G1 X71.912 Y29.17 E13.24093
G1 E11.24093 F2400
G92 E0
G1 X71.912 Y29.17 F7800
G1 X102.483 Y30.603
G1 E2 F2400
;TYPE:External perimeter
;WIDTH:0.6
G1 F1800
G1 X102.349 Y30.684 E2.01046
G1 X102.303 Y30.688 E2.01354
G1 X96.696 Y30.688 E2.38812
G1 X96.524 Y30.626 E2.40033
G1 X96.439 Y30.497 E2.41065
G1 X96.428 Y30.42 E2.41585
G1 X96.428 Y25.356 E2.75415
G1 X96.482 Y25.195 E2.76549
G1 X96.696 Y25.088 E2.78147
G1 X102.303 Y25.088 E3.15605
G1 X102.517 Y25.195 E3.17203
G1 X102.571 Y25.356 E3.18337
G1 X102.571 Y30.42 E3.52167
G1 X102.522 Y30.562 E3.53171
G1 X102.139 Y30.678 F7800
G1 E1.53171 F2400
G92 E0
G1 X86.515 Y25.164 F7800
G1 E2 F2400
G1 F1800
G1 X86.696 Y25.088 E2.01311
G1 X92.303 Y25.088 E2.38769
G1 X92.517 Y25.195 E2.40367
G1 X92.571 Y25.356 E2.41501
G1 X92.571 Y30.42 E2.75331
G1 X92.502 Y30.599 E2.76613
G1 X92.349 Y30.684 E2.77782
G1 X92.303 Y30.688 E2.7809
G1 X86.696 Y30.688 E3.15548
G1 X86.535 Y30.634 E3.16682
G1 X86.428 Y30.42 E3.1828
G1 X86.428 Y25.356 E3.5211
G1 X86.487 Y25.213 E3.53143
G1 X86.869 Y25.097 F7800
G1 E1.53143 F2400
G92 E0
G1 X93.642 Y25.912 F7800
G1 E2 F2400
;TYPE:Perimeter
G1 F1800
G1 X93.642 Y25.356 E2.03714
G1 X93.601 Y25.233 E2.0458
G1 X95.398 Y25.233 E2.16585
G1 X95.357 Y25.356 E2.17451
G1 X95.357 Y30.42 E2.51281
G1 X95.413 Y30.804 E2.53873
G1 X95.547 Y31.108 E2.56092
G1 X95.838 Y31.448 E2.59082
G1 X96.246 Y31.681 E2.62221
G1 X96.696 Y31.759 E2.65272
G1 X102.303 Y31.759 E3.0273
G1 X102.534 Y31.739 E3.04279
G1 X102.806 Y31.661 E3.06169
G1 X103.21 Y31.405 E3.09364
G1 X103.471 Y31.076 E3.1217
G1 X103.602 Y30.745 E3.14548
G1 X103.642 Y30.42 E3.16736
G1 X103.642 Y25.356 E3.50566
G1 X103.601 Y25.234 E3.51426
G1 X137.415 Y25.235 E5.77322
G1 X137.914 Y25.248 E5.80657
G1 X138.509 Y25.31 E5.84653
G1 X139.105 Y25.429 E5.88713
G1 X139.693 Y25.609 E5.92821
G1 X140.309 Y25.871 E5.97293
G1 X140.92 Y26.21 E6.01961
G1 X141.735 Y26.835 E6.08822
G1 X142.141 Y27.261 E6.12753
G1 X142.56 Y27.76 E6.17106
G1 X142.884 Y28.249 E6.21025
G1 X143.194 Y28.842 E6.25495
