; generated by PrusaSlicer 2.8.1+linux-x64-GTK3 on 2024-10-28 at 17:22:46 UTC

; 

; external perimeters extrusion width = 0.45mm
; perimeters extrusion width = 0.45mm
; infill extrusion width = 0.45mm
; solid infill extrusion width = 0.45mm
; top infill extrusion width = 0.40mm
; support material extrusion width = 0.40mm
; first layer extrusion width = 0.60mm

M190 S60 ; set bed temperature and wait for it to be reached
M104 S200 ; set temperature
;TYPE:Custom
G28 ; home all axes
G1 Z5 F5000 ; lift nozzle
M109 S200 ; set temperature and wait for it to be reached
G21 ; set units to millimeters
G90 ; use absolute coordinates
M82 ; use absolute distances for extrusion
G92 E0
; Filament gcode
M107
;LAYER_CHANGE
;Z:0.3
;HEIGHT:0.3
G1 E-2 F2400
G1 Z.3 F7800
G1 X66.259 Y33.496
G1 E0 F2400
;TYPE:Skirt/Brim
;WIDTH:0.6
G1 F1800
G1 X66.647 Y32.729 E.05742
G1 X67.282 Y31.782 E.13359
G1 X67.99 Y30.91 E.20863
G1 X68.786 Y30.094 E.28478
G1 X69.641 Y29.364 E.35989
G1 X70.571 Y28.705 E.43604
G1 X71.544 Y28.143 E.51111
G1 X72.579 Y27.664 E.5873
G1 X74.53 Y27.041 E.72412
G1 X109.974 Y20.053 E3.13755
G1 X111.101 Y19.935 E3.21325
G1 X112.228 Y19.92 E3.28855
G1 X113.399 Y20.014 E3.36703
G1 X114.507 Y20.209 E3.44219
G1 X115.639 Y20.519 E3.5206
G1 X142.738 Y30.979 E5.46114
G1 X143.965 Y31.543 E5.55136
G1 X145.134 Y32.226 E5.64181
G1 X146.23 Y33.02 E5.73222
G1 X147.243 Y33.918 E5.82266
G1 X148.163 Y34.911 E5.91309
G1 X148.982 Y35.989 E6.00353
G1 X149.691 Y37.142 E6.09395
G1 X150.283 Y38.359 E6.18436
G1 X150.753 Y39.629 E6.27483
G1 X151.097 Y40.938 E6.36525
G1 X151.31 Y42.275 E6.4557
G1 X151.392 Y43.626 E6.54612
G1 X151.34 Y44.978 E6.63651
G1 X151.157 Y46.319 E6.72693
G1 X150.842 Y47.636 E6.81739
G1 X150.401 Y48.915 E6.90777
G1 X149.836 Y50.145 E6.9982
G1 X149.153 Y51.314 E7.08865
G1 X148.359 Y52.41 E7.17906
G1 X147.461 Y53.423 E7.2695
G1 X146.468 Y54.343 E7.35993
G1 X145.134 Y55.333 E7.47091
G1 X143.635 Y56.182 E7.586
G1 X142.357 Y56.727 E7.67882
G1 X113.855 Y67.531 E9.71511
G1 X111.838 Y68.035 E9.854
G1 X110.707 Y68.169 E9.93009
G1 X108.648 Y68.156 E10.06765
G1 X87.832 Y65.598 E11.46873
G1 X85.892 Y65.136 E11.60196
G1 X84.636 Y64.643 E11.6921
G1 X83.631 Y64.117 E11.76788
G1 X82.381 Y63.255 E11.86932
G1 X76.679 Y58.106 E12.38257
G1 X76.009 Y57.396 E12.44779
G1 X67.268 Y46.556 E13.37807
G1 X66.135 Y44.688 E13.52402
G1 X65.552 Y43.311 E13.62392
G1 X65.237 Y42.282 E13.69581
G1 X64.999 Y41.134 E13.77413
G1 X64.873 Y40.033 E13.84816
G1 X64.847 Y38.894 E13.92427
G1 X64.926 Y37.754 E14.00061
G1 X65.1 Y36.663 E14.07442
G1 X65.393 Y35.523 E14.15305
G1 X65.768 Y34.466 E14.22798
G1 X66.232 Y33.549 E14.29664
G1 E12.29664 F2400
G92 E0
G1 X66.232 Y33.549 F7800
G92 E0
G1 X113.422 Y26.382
G1 E2 F2400
;TYPE:Support material
G1 F1800
G1 X114.475 Y26.779 E2.07518
G1 X115.434 Y27.366 E2.1503
G1 X116.267 Y28.121 E2.22541
G1 X116.945 Y29.018 E2.30053
G1 X117.444 Y30.026 E2.37567
G1 X117.747 Y31.11 E2.45086
G1 X117.842 Y32.233 E2.52615
G1 X117.726 Y33.353 E2.60137
G1 X117.402 Y34.433 E2.6767
G1 X116.883 Y35.433 E2.75197
G1 X116.651 Y35.728 E2.77704
G1 X107.011 Y35.728 E3.42104
G1 X106.615 Y35.164 E3.46708
G1 X106.178 Y34.205 E3.53748
G1 X105.897 Y33.079 E3.61501
G1 X105.839 Y32.495 E3.65422
G1 X105.833 Y31.966 E3.68956
G1 X105.977 Y30.859 E3.76414
G1 X106.146 Y30.254 E3.8061
G1 X106.64 Y29.156 E3.88653
G1 X107.27 Y28.264 E3.95948
G1 X108.087 Y27.476 E4.03531
G1 X109.035 Y26.857 E4.11095
G1 X110.081 Y26.428 E4.18648
G1 X111.187 Y26.202 E4.26189
G1 X112.313 Y26.187 E4.33712
G1 X113.343 Y26.368 E4.40698
G1 X113.343 Y26.368 F7800
G1 X117.142 Y34.412
G1 F1800
G1 X117.142 Y30.734 E4.65269
G1 X116.992 Y30.2 E4.68974
G1 X116.546 Y29.299 E4.7569
G1 X116.546 Y35.035 E5.1401
G1 X116.417 Y35.246 E5.15662
G1 X115.951 Y35.246 E5.18775
G1 X115.951 Y28.503 E5.63822
G1 X115.356 Y27.946 E5.69267
G1 X115.356 Y35.246 E6.18035
G1 X114.761 Y35.246 E6.2201
G1 X114.761 Y27.52 E6.73624
G1 X114.262 Y27.214 E6.77534
G1 X114.166 Y27.178 E6.78219
G1 X114.166 Y35.246 E7.32118
G1 X113.571 Y35.246 E7.36093
G1 X113.571 Y26.953 E7.91495
G1 X112.976 Y26.793 E7.95611
G1 X112.976 Y35.246 E8.52082
G1 X112.381 Y35.246 E8.56057
G1 X112.381 Y26.688 E9.13229
G1 X111.785 Y26.676 E9.17211
G1 X111.785 Y35.246 E9.74463
G1 X111.19 Y35.246 E9.78438
G1 X111.19 Y26.693 E10.35577
G1 X110.595 Y26.815 E10.39635
G1 X110.595 Y35.246 E10.95959
G1 X110 Y35.246 E10.99934
G1 X110 Y26.982 E11.55142
G1 X109.405 Y27.227 E11.59441
G1 X109.405 Y35.246 E12.13012
G1 X108.81 Y35.246 E12.16987
G1 X108.81 Y27.58 E12.682
G1 X108.215 Y28.022 E12.73152
G1 X108.215 Y35.246 E13.21412
G1 X107.619 Y35.246 E13.25394
G1 X107.619 Y28.604 E13.69766
G1 X107.024 Y29.467 E13.76769
G1 X107.024 Y34.901 E14.13071
G1 X106.631 Y34.037 E14.19412
G1 X106.429 Y33.276 E14.24672
G1 X106.429 Y30.192 E14.45275
G1 E12.45275 F2400
G92 E0
G1 X106.429 Y30.192 F7800
G1 X101.746 Y42.254
G1 E2 F2400
G1 F1800
G1 X97.253 Y42.254 E2.30016
G1 X97.253 Y38.304 E2.56404
G1 X101.746 Y38.304 E2.8642
G1 X101.746 Y42.174 E3.12274
G1 X101.746 Y42.174 F7800
G1 X101.073 Y42.013
G1 F1800
G1 X101.073 Y38.786 E3.33832
G1 X100.478 Y38.786 E3.37807
G1 X100.478 Y41.772 E3.57755
G1 X99.883 Y41.772 E3.6173
G1 X99.883 Y38.786 E3.81678
G1 X99.288 Y38.786 E3.85653
G1 X99.288 Y41.772 E4.05601
G1 X98.692 Y41.772 E4.09583
G1 X98.692 Y38.786 E4.29531
G1 X98.097 Y38.786 E4.33506
G1 X98.097 Y42.013 E4.55064
G1 E2.55064 F2400
G92 E0
G1 X98.097 Y42.013 F7800
G1 X91.746 Y42.254
G1 E2 F2400
G1 F1800
G1 X87.253 Y42.254 E2.30016
G1 X87.253 Y38.304 E2.56404
G1 X91.746 Y38.304 E2.8642
G1 X91.746 Y42.174 E3.12274
G1 X91.746 Y42.174 F7800
G1 X90.956 Y42.013
G1 F1800
G1 X90.956 Y38.786 E3.33832
G1 X90.361 Y38.786 E3.37807
G1 X90.361 Y41.772 E3.57755
G1 X89.766 Y41.772 E3.6173
G1 X89.766 Y38.786 E3.81678
G1 X89.17 Y38.786 E3.8566
G1 X89.17 Y41.772 E4.05608
G1 X88.575 Y41.772 E4.09583
G1 X88.575 Y38.786 E4.29531
G1 X87.98 Y38.786 E4.33506
G1 X87.98 Y42.013 E4.55064
G1 E2.55064 F2400
G92 E0
G1 X87.98 Y42.013 F7800
G1 X77.426 Y33.016
G1 E2 F2400
G1 F1800
G1 X78.007 Y33.042 E2.03885
G1 X79.077 Y33.263 E2.11184
G1 X80.119 Y33.687 E2.18699
G1 X80.946 Y34.215 E2.25254
G1 X81.156 Y33.957 E2.27476
G1 X82.134 Y33.351 E2.35162
G1 X83.35 Y33.112 E2.43441
G1 X84.692 Y33.404 E2.52616
G1 X85.827 Y34.284 E2.6221
G1 X86.463 Y35.507 E2.71419
G1 X86.483 Y35.728 E2.72901
G1 X85.732 Y35.797 E2.77939
G1 X85.081 Y36.058 E2.82625
G1 X84.786 Y36.357 E2.85431
G1 X84.66 Y36.743 E2.88144
G1 X84.659 Y50.791 E3.81992
G1 X84.786 Y51.202 E3.84866
G1 X85.081 Y51.501 E3.87672
G1 X85.545 Y51.716 E3.91088
G1 X86.384 Y51.831 E3.96745
G1 X93.825 Y51.831 E4.46455
G1 X94.42 Y53.244 E4.56697
G1 X95.038 Y51.831 E4.67
G1 X103.827 Y51.831 E5.25715
G1 X104.318 Y52.97 E5.34001
G1 X104.686 Y52.303 E5.3909
G1 X105.072 Y51.831 E5.43163
G1 X114.547 Y51.831 E6.06461
G1 X115.074 Y52.537 E6.12347
G1 X115.572 Y53.545 E6.19858
G1 X115.879 Y54.626 E6.27365
G1 X115.985 Y55.746 E6.34881
G1 X115.887 Y56.865 E6.42385
G1 X115.588 Y57.948 E6.49891
G1 X115.097 Y58.959 E6.57399
G1 X114.44 Y59.852 E6.64805
G1 X113.603 Y60.641 E6.72489
G1 X112.671 Y61.242 E6.79898
G1 X111.634 Y61.67 E6.87393
G1 X110.535 Y61.904 E6.94899
G1 X109.413 Y61.934 E7.02397
G1 X108.303 Y61.762 E7.09901
G1 X107.241 Y61.39 E7.17418
G1 X106.265 Y60.832 E7.24929
G1 X105.404 Y60.106 E7.32453
G1 X104.689 Y59.234 E7.39986
G1 X104.168 Y58.29 E7.47189
G1 X103.779 Y57.112 E7.55477
G1 X102.839 Y58.159 E7.64877
G1 X101.875 Y58.852 E7.72808
G1 X100.776 Y59.273 E7.8067
G1 X99.686 Y59.44 E7.88037
G1 X98.598 Y59.377 E7.95318
G1 X97.543 Y59.089 E8.02624
G1 X96.538 Y58.563 E8.10202
G1 X95.695 Y57.817 E8.17722
G1 X95.057 Y56.948 E8.24924
G1 X94.388 Y55.463 E8.35805
G1 X94.111 Y56.377 E8.42185
G1 X93.563 Y57.351 E8.49651
G1 X92.838 Y58.158 E8.56898
G1 X91.873 Y58.852 E8.64839
G1 X90.774 Y59.273 E8.72701
G1 X89.685 Y59.44 E8.80061
G1 X88.596 Y59.377 E8.87348
G1 X87.542 Y59.089 E8.94647
G1 X86.536 Y58.563 E9.02231
G1 X85.693 Y57.816 E9.09756
G1 X85.056 Y56.948 E9.16949
G1 X84.617 Y55.974 E9.24086
G1 X84.408 Y55.018 E9.30623
G1 X84.359 Y54.318 E9.35311
G1 X83.818 Y54.528 E9.39188
G1 X82.213 Y54.385 E9.49953
G1 X80.888 Y53.462 E9.60741
G1 X80.161 Y52.08 E9.71173
G1 X80.172 Y50.482 E9.81849
G1 X80.226 Y50.38 E9.8262
G1 X80.037 Y50.025 E9.85307
G1 X80.037 Y48.424 E9.96003
G1 X80.454 Y47.64 E10.01935
G1 X80.037 Y46.858 E10.07856
G1 X80.037 Y45.257 E10.18552
G1 X80.416 Y44.545 E10.2394
G1 X79.08 Y45.09 E10.33579
G1 X77.979 Y45.318 E10.4109
G1 X76.855 Y45.343 E10.48601
G1 X75.745 Y45.164 E10.56112
G1 X74.686 Y44.787 E10.63622
G1 X73.712 Y44.224 E10.71138
G1 X72.857 Y43.494 E10.78649
G1 X72.148 Y42.621 E10.86162
G1 X71.636 Y41.684 E10.93295
G1 X71.42 Y41.109 E10.97398
G1 X71.266 Y40.569 E11.01149
G1 X71.115 Y39.456 E11.08653
G1 X71.167 Y38.335 E11.1615
G1 X71.267 Y37.783 E11.19898
G1 X71.636 Y36.669 E11.27738
G1 X72.148 Y35.733 E11.34865
G1 X72.856 Y34.86 E11.42374
G1 X73.711 Y34.131 E11.4988
G1 X74.683 Y33.568 E11.57384
G1 X75.742 Y33.19 E11.64896
G1 X76.823 Y33.015 E11.72212
G1 X77.346 Y33.016 E11.75706
G1 E9.75706 F2400
G92 E0
G1 X77.346 Y33.016 F7800
G1 X115.356 Y57.873
G1 E2 F2400
G1 F1800
G1 X115.356 Y54.55 E2.22199
G1 X115.12 Y53.719 E2.2797
G1 X114.761 Y52.992 E2.33387
G1 X114.761 Y58.547 E2.70497
G1 X114.166 Y59.412 E2.77511
G1 X114.166 Y52.313 E3.24936
G1 X113.571 Y52.313 E3.28911
G1 X113.571 Y60.015 E3.80365
G1 X112.976 Y60.472 E3.85377
G1 X112.976 Y52.313 E4.39884
G1 X112.381 Y52.313 E4.43859
G1 X112.381 Y60.841 E5.00831
G1 X111.785 Y61.086 E5.05136
G1 X111.785 Y52.313 E5.63744
G1 X111.19 Y52.313 E5.67719
G1 X111.19 Y61.272 E6.2757
G1 X110.595 Y61.398 E6.31633
G1 X110.595 Y52.313 E6.92326
G1 X110 Y52.313 E6.96301
G1 X110 Y61.436 E7.57248
G1 X109.405 Y61.445 E7.61223
G1 X109.405 Y52.313 E8.2223
G1 X108.81 Y52.313 E8.26205
G1 X108.81 Y61.353 E8.86597
G1 X108.215 Y61.22 E8.9067
G1 X108.215 Y52.313 E9.50174
G1 X107.619 Y52.313 E9.54156
G1 X107.619 Y61.012 E10.1227
G1 X107.024 Y60.711 E10.16725
G1 X107.024 Y52.313 E10.72828
G1 X106.429 Y52.313 E10.76803
G1 X106.429 Y60.34 E11.30428
G1 X105.834 Y59.838 E11.35629
G1 X105.834 Y52.313 E11.859
G1 X105.3 Y52.313 E11.89467
G1 X105.239 Y52.388 E11.90113
G1 X105.239 Y59.144 E12.35247
G1 X104.644 Y58.154 E12.42963
G1 X104.644 Y53.377 E12.74876
G1 X104.237 Y54.114 E12.805
G1 X104.049 Y53.619 E12.84037
G1 X104.049 Y56.29 E13.01881
G1 X104.006 Y56.138 E13.02936
G1 X103.454 Y56.753 E13.08457
G1 X103.454 Y52.313 E13.38119
G1 X102.858 Y52.313 E13.42101
G1 X102.858 Y57.416 E13.76192
G1 X102.263 Y57.979 E13.81664
G1 X102.263 Y52.313 E14.19516
G1 X101.668 Y52.313 E14.23491
G1 X101.668 Y58.407 E14.64202
G1 X101.073 Y58.643 E14.68478
G1 X101.073 Y52.313 E15.10766
G1 X100.478 Y52.313 E15.14741
G1 X100.478 Y58.831 E15.58285
G1 X99.883 Y58.922 E15.62306
G1 X99.883 Y52.313 E16.06458
G1 X99.288 Y52.313 E16.10433
G1 X99.288 Y58.934 E16.54665
G1 X98.692 Y58.9 E16.58653
G1 X98.692 Y52.313 E17.02658
G1 X98.097 Y52.313 E17.06633
G1 X98.097 Y58.741 E17.49576
G1 X97.502 Y58.524 E17.53807
G1 X97.502 Y52.313 E17.953
G1 X96.907 Y52.313 E17.99275
G1 X96.907 Y58.213 E18.3869
G1 X96.312 Y57.719 E18.43856
G1 X96.312 Y52.313 E18.79971
G1 X95.717 Y52.313 E18.83946
G1 X95.717 Y57.032 E19.15471
G1 X95.476 Y56.704 E19.1819
G1 X95.122 Y55.918 E19.23949
G1 X95.122 Y52.831 E19.44572
G1 X94.527 Y54.218 E19.54655
G1 X94.527 Y55.184 E19.61108
G1 X94.527 Y55.184 F7800
G1 X93.931 Y56.14
G1 F1800
G1 X93.931 Y53.315 E19.79981
G1 X93.55 Y52.313 E19.87142
G1 X93.336 Y52.313 E19.88572
G1 X93.336 Y56.771 E20.18354
G1 X92.741 Y57.545 E20.24876
G1 X92.741 Y52.313 E20.59829
G1 X92.146 Y52.313 E20.63804
G1 X92.146 Y58.062 E21.0221
G1 X91.551 Y58.459 E21.06988
G1 X91.551 Y52.313 E21.48047
G1 X90.956 Y52.313 E21.52022
G1 X90.956 Y58.687 E21.94604
G1 X90.65 Y58.804 E21.96793
G1 X90.361 Y58.849 E21.98747
G1 X90.361 Y52.313 E22.42411
G1 X89.766 Y52.313 E22.46386
G1 X89.766 Y58.94 E22.90658
G1 X89.17 Y58.927 E22.94641
G1 X89.17 Y52.313 E23.38826
G1 X88.575 Y52.313 E23.42801
G1 X88.575 Y58.871 E23.86612
G1 X87.98 Y58.709 E23.90732
G1 X87.98 Y52.313 E24.33461
G1 X87.385 Y52.313 E24.37436
G1 X87.385 Y58.463 E24.78521
G1 X86.79 Y58.144 E24.83031
G1 X86.79 Y52.313 E25.21985
G1 X86.195 Y52.306 E25.2596
G1 X86.195 Y57.617 E25.6144
G1 X85.6 Y56.874 E25.67799
G1 X85.6 Y52.226 E25.9885
G1 X85.004 Y52.017 E26.03069
G1 X85.004 Y55.49 E26.26271
G1 X84.886 Y54.95 E26.29964
G1 X84.795 Y53.631 E26.38797
G1 X84.409 Y53.781 E26.41564
G1 X84.409 Y33.836 E27.74807
G1 X83.814 Y33.706 E27.78876
G1 X83.814 Y54.013 E29.14538
G1 X83.748 Y54.038 E29.15009
G1 X83.219 Y53.991 E29.18557
G1 X83.219 Y33.629 E30.54586
G1 X82.624 Y33.746 E30.58637
G1 X82.624 Y53.938 E31.9353
G1 X82.383 Y53.916 E31.95147
G1 X82.029 Y53.669 E31.98031
G1 X82.029 Y33.983 E33.29544
G1 X81.434 Y34.379 E33.34319
G1 X81.434 Y53.255 E34.60421
G1 X81.26 Y53.134 E34.61837
G1 X80.839 Y52.333 E34.67882
G1 X80.839 Y44.266 E35.21774
G1 E33.21774 F2400
G92 E0
G1 X80.839 Y44.266 F7800
G1 X85.6 Y35.581
G1 E2 F2400
G1 F1800
G1 X85.6 Y34.892 E2.04603
G1 X85.448 Y34.6 E2.06802
G1 X85.004 Y34.256 E2.10554
G1 X85.004 Y35.819 E2.20996
G1 X85.004 Y35.819 F7800
G1 X80.839 Y44.113
G1 F1800
G1 X80.839 Y34.719 E2.83753
G1 X80.243 Y34.339 E2.88475
G1 X80.243 Y44.095 E3.5365
G1 X79.648 Y44.338 E3.57944
G1 X79.648 Y34.016 E4.26901
G1 X79.053 Y33.774 E4.31192
G1 X79.053 Y44.58 E5.03382
G1 X78.458 Y44.726 E5.07475
G1 X78.458 Y33.627 E5.81622
G1 X77.863 Y33.518 E5.85663
G1 X77.863 Y44.839 E6.61293
G1 X77.268 Y44.852 E6.65269
G1 X77.268 Y33.498 E7.4112
G1 X76.673 Y33.528 E7.451
G1 X76.673 Y44.826 E8.20577
G1 X76.077 Y44.73 E8.2461
G1 X76.077 Y33.624 E8.98804
G1 X75.482 Y33.795 E9.0294
G1 X75.482 Y44.559 E9.74849
G1 X74.887 Y44.347 E9.79069
G1 X74.887 Y34.007 E10.48146
G1 X74.292 Y34.351 E10.52737
G1 X74.292 Y44.003 E11.17218
G1 X73.697 Y43.578 E11.22103
G1 X73.697 Y34.776 E11.80905
G1 X73.102 Y35.322 E11.863
G1 X73.102 Y43.032 E12.37807
G1 X72.507 Y42.273 E12.4425
G1 X72.507 Y36.081 E12.85616
G1 X71.912 Y37.307 E12.9472
G1 X71.912 Y41.686 E13.23974
G1 E11.23974 F2400
G92 E0
G1 X71.912 Y41.686 F7800
G1 X110.71 Y46.602
G1 E2 F2400
;TYPE:Perimeter
;WIDTH:0.6
G1 F1800
G1 X110.176 Y46.494 E2.0364
G1 X109.658 Y46.259 E2.0744
G1 X109.195 Y45.924 E2.11258
G1 X108.808 Y45.504 E2.15073
G1 X108.512 Y45.016 E2.18886
G1 X108.318 Y44.477 E2.22713
G1 X108.235 Y43.916 E2.26502
G1 X108.248 Y43.55 E2.28949
G1 X108.341 Y43.022 E2.32531
G1 X108.586 Y42.398 E2.37009
G1 X108.909 Y41.928 E2.40819
G1 X109.32 Y41.53 E2.44641
G1 X109.799 Y41.223 E2.48442
G1 X110.33 Y41.017 E2.52247
G1 X110.897 Y40.919 E2.56091
G1 X111.468 Y40.935 E2.59907
G1 X111.731 Y40.982 E2.61692
G1 X112.272 Y41.162 E2.65501
G1 X112.767 Y41.446 E2.69313
G1 X113.196 Y41.823 E2.73128
G1 X113.542 Y42.277 E2.76941
G1 X113.791 Y42.79 E2.8075
G1 X113.934 Y43.343 E2.84566
G1 X113.964 Y43.913 E2.88379
G1 X113.881 Y44.477 E2.92187
G1 X113.688 Y45.014 E2.95999
G1 X113.392 Y45.502 E2.99812
G1 X113.005 Y45.922 E3.03627
G1 X112.543 Y46.257 E3.07439
G1 X112.024 Y46.494 E3.11251
G1 X111.599 Y46.607 E3.14189
G1 X110.833 Y46.627 E3.19308
G1 X110.768 Y46.614 E3.19751
G1 X110.768 Y46.614 F7800
G1 X110.788 Y46.082
G1 F1800
G1 X110.321 Y45.979 E3.22946
G1 X109.768 Y45.695 E3.27099
G1 X109.414 Y45.393 E3.30208
G1 X109.128 Y45.027 E3.33311
G1 X108.92 Y44.612 E3.36412
G1 X108.798 Y44.163 E3.3952
G1 X108.776 Y43.643 E3.42997
G1 X108.869 Y43.115 E3.46579
G1 X109.069 Y42.631 E3.50078
G1 X109.445 Y42.134 E3.54241
G1 X109.804 Y41.839 E3.57345
G1 X110.212 Y41.621 E3.60435
G1 X110.658 Y41.488 E3.63544
G1 X111.124 Y41.446 E3.6667
G1 X111.585 Y41.497 E3.69769
G1 X112.027 Y41.639 E3.7287
G1 X112.433 Y41.865 E3.75974
G1 X112.786 Y42.167 E3.79077
G1 X113.072 Y42.533 E3.8218
G1 X113.279 Y42.948 E3.85278
G1 X113.401 Y43.396 E3.8838
G1 X113.431 Y43.859 E3.9148
G1 X113.369 Y44.32 E3.94587
G1 X113.217 Y44.758 E3.97684
G1 X112.982 Y45.158 E4.00783
G1 X112.671 Y45.504 E4.03891
G1 X112.299 Y45.781 E4.06989
G1 X111.879 Y45.979 E4.10091
G1 X111.368 Y46.092 E4.13587
G1 X110.847 Y46.092 E4.17068
G1 X110.847 Y46.092 F7800
G1 X110.869 Y45.556
;TYPE:External perimeter
G1 F1800
