; generated by PrusaSlicer 2.8.1+linux-x64-GTK3 on 2024-10-28 at 17:23:57 UTC

; 

; external perimeters extrusion width = 0.45mm
; perimeters extrusion width = 0.45mm
; infill extrusion width = 0.45mm
; solid infill extrusion width = 0.45mm
; top infill extrusion width = 0.40mm
; support material extrusion width = 0.40mm
; first layer extrusion width = 0.60mm

M190 S60 ; set bed temperature and wait for it to be reached
M104 S200 ; set temperature
;TYPE:Custom
G28 ; home all axes
G1 Z5 F5000 ; lift nozzle
M109 S200 ; set temperature and wait for it to be reached
G21 ; set units to millimeters
G90 ; use absolute coordinates
M82 ; use absolute distances for extrusion
G92 E0
; Filament gcode
M107
;LAYER_CHANGE
;Z:0.3
;HEIGHT:0.3
G1 E-2 F2400
G1 Z.3 F7800
G1 X85.573 Y36.363
G1 E0 F2400
;TYPE:Skirt/Brim
;WIDTH:0.6
G1 F1800
G1 X94.286 Y15.86 E1.48826
G1 X95.234 Y14.074 E1.62334
G1 X96.44 Y12.487 E1.7565
G1 X97.24 Y11.669 E1.83294
G1 X98.816 Y10.42 E1.96728
G1 X99.632 Y9.927 E2.03097
G1 X101.086 Y9.229 E2.13872
G1 X102.113 Y8.867 E2.21147
G1 X103.22 Y8.586 E2.28777
G1 X104.298 Y8.416 E2.36068
G1 X105.834 Y8.339 E2.46342
G1 X107.754 Y8.502 E2.59215
G1 X108.828 Y8.729 E2.66548
G1 X109.918 Y9.064 E2.74166
G1 X114.957 Y11.37 E3.11187
G1 X116.229 Y12.047 E3.20813
G1 X118.038 Y13.354 E3.35722
G1 X118.973 Y14.262 E3.44429
G1 X119.739 Y15.178 E3.52406
G1 X120.384 Y16.111 E3.59983
G1 X120.962 Y17.133 E3.67827
G1 X121.436 Y18.188 E3.75554
G1 X122.054 Y19.993 E3.883
G1 X122.318 Y21.065 E3.95676
G1 X129.337 Y66.441 E7.02417
G1 X129.487 Y67.947 E7.12528
G1 X129.488 Y69.081 E7.20104
G1 X129.258 Y71.019 E7.33142
G1 X119.133 Y116.027 E10.41334
G1 X118.82 Y117.146 E10.49096
G1 X118.239 Y118.492 E10.5889
G1 X117.47 Y119.726 E10.68604
G1 X116.522 Y120.836 E10.78356
G1 X115.415 Y121.796 E10.88145
G1 X114.184 Y122.576 E10.97881
G1 X112.846 Y123.166 E11.0765
G1 X111.437 Y123.549 E11.17404
G1 X109.987 Y123.717 E11.27156
G1 X108.528 Y123.668 E11.36908
G1 X106.8 Y123.319 E11.48685
G1 X105.428 Y122.796 E11.58494
G1 X104.018 Y121.982 E11.69371
G1 X103.068 Y121.232 E11.77457
G1 X93.388 Y112.482 E12.64628
G1 X92.025 Y110.924 E12.78457
G1 X91.397 Y109.994 E12.85954
G1 X81.334 Y91.778 E14.24981
G1 X80.582 Y90.034 E14.37669
G1 X80.244 Y88.886 E14.45664
G1 X80.028 Y87.772 E14.53245
G1 X79.914 Y86.582 E14.61231
G1 X79.916 Y51.564 E16.9517
G1 X80.025 Y50.397 E17.03
G1 X80.235 Y49.288 E17.1054
G1 X80.568 Y48.142 E17.18513
G1 X85.55 Y36.418 E18.03614
G1 E16.03614 F2400
G92 E0
G92 E0
G1 X100.656 Y97.49 F7800
G1 E2 F2400
;TYPE:Support material
G1 F1800
G1 X101.395 Y97.802 E2.05359
G1 X102.18 Y97.962 E2.10711
G1 X104.759 Y97.983 E2.27941
G1 X105.562 Y98.475 E2.34232
G1 X105.562 Y108.541 E3.01478
G1 X104.844 Y108.999 E3.07167
G1 X103.803 Y109.422 E3.14674
G1 X102.703 Y109.649 E3.22177
G1 X101.581 Y109.674 E3.29674
G1 X100.473 Y109.495 E3.37172
G1 X99.416 Y109.119 E3.44667
G1 X98.445 Y108.559 E3.52155
G1 X97.591 Y107.832 E3.59647
G1 X96.883 Y106.963 E3.67135
G1 X96.369 Y106.028 E3.74263
G1 X95.998 Y104.915 E3.82101
G1 X95.843 Y103.804 E3.89595
G1 X95.843 Y103.225 E3.93463
G1 X95.996 Y102.111 E4.00975
G1 X96.368 Y100.991 E4.08859
G1 X96.884 Y100.05 E4.16028
G1 X97.596 Y99.179 E4.23543
G1 X98.453 Y98.451 E4.31055
G1 X99.428 Y97.891 E4.38566
G1 X100.577 Y97.502 E4.4667
G1 X100.577 Y97.502 F7800
G1 X104.968 Y108.634
G1 F1800
G1 X104.968 Y98.667 E5.13255
G1 X104.654 Y98.465 E5.15749
G1 X104.373 Y98.465 E5.17626
G1 X104.373 Y108.67 E5.85801
G1 X103.778 Y108.912 E5.90092
G1 X103.778 Y98.465 E6.59884
G1 X103.182 Y98.465 E6.63866
G1 X103.182 Y109.058 E7.34633
G1 X102.587 Y109.17 E7.38678
G1 X102.587 Y98.465 E8.10193
G1 X101.992 Y98.425 E8.14177
G1 X101.992 Y109.183 E8.86046
G1 X101.397 Y109.156 E8.90025
G1 X101.397 Y98.304 E9.62522
G1 X100.802 Y98.096 E9.66733
G1 X100.802 Y109.06 E10.39978
G1 X100.207 Y108.889 E10.44114
G1 X100.207 Y98.127 E11.1601
G1 X99.612 Y98.341 E11.20234
G1 X99.612 Y108.675 E11.89271
G1 X99.016 Y108.332 E11.93865
G1 X99.016 Y98.683 E12.58326
G1 X98.421 Y99.11 E12.63219
G1 X98.421 Y107.906 E13.21981
G1 X97.826 Y107.357 E13.27389
G1 X97.826 Y99.659 E13.78816
G1 X97.231 Y100.42 E13.85269
G1 X97.231 Y106.596 E14.26528
G1 X96.636 Y105.368 E14.35644
G1 X96.636 Y101.003 E14.64805
G1 E12.64805 F2400
G92 E0
G1 X96.636 Y101.003 F7800
G1 X91.562 Y82.276
G1 E2 F2400
G1 F1800
G1 X91.87 Y82.583 E2.02905
G1 X101.87 Y82.583 E2.6971
G1 X103.454 Y84.167 E2.84675
G1 X103.591 Y84.622 E2.87849
G1 X103.719 Y85.743 E2.95387
G1 X103.643 Y86.866 E3.02906
G1 X103.368 Y87.953 E3.10397
G1 X102.894 Y88.989 E3.18008
G1 X102.207 Y89.951 E3.25905
G1 X101.407 Y90.11 E3.31354
G1 X100.668 Y90.42 E3.36708
G1 X99.845 Y91.012 E3.43481
G1 X99.157 Y91.854 E3.50745
G1 X98.35 Y92.032 E3.56266
G1 X97.242 Y92.078 E3.63674
G1 X96.147 Y91.931 E3.71055
G1 X95.066 Y91.586 E3.78636
G1 X94.679 Y91.371 E3.81594
G1 X93.521 Y91.778 E3.89794
G1 X92.405 Y91.945 E3.97332
G1 X91.276 Y91.897 E4.04881
G1 X90.176 Y91.636 E4.12434
G1 X89.145 Y91.17 E4.19993
G1 X88.22 Y90.517 E4.27557
G1 X87.436 Y89.7 E4.35122
G1 X86.821 Y88.748 E4.42694
G1 X86.398 Y87.696 E4.50269
G1 X86.182 Y86.582 E4.5785
G1 X86.183 Y85.448 E4.65426
G1 X86.399 Y84.335 E4.73
G1 X86.822 Y83.284 E4.80569
G1 X87.437 Y82.332 E4.88141
G1 X88.222 Y81.515 E4.9571
G1 X89.147 Y80.863 E5.0327
G1 X90.177 Y80.398 E5.1082
G1 X91.562 Y80.125 E5.20251
G1 X91.562 Y82.195 E5.3408
G1 X91.562 Y82.195 F7800
G1 X103.182 Y87.705
G1 F1800
G1 X103.182 Y85.291 E5.50207
G1 X103.117 Y84.72 E5.54046
G1 X103.027 Y84.422 E5.56126
G1 X102.587 Y83.982 E5.60283
G1 X102.587 Y88.507 E5.90512
G1 X101.992 Y89.44 E5.97905
G1 X101.992 Y83.387 E6.38342
G1 X101.67 Y83.065 E6.41384
G1 X101.397 Y83.065 E6.43208
G1 X101.397 Y89.612 E6.86946
G1 X100.802 Y89.82 E6.91157
G1 X100.802 Y83.065 E7.36284
G1 X100.207 Y83.065 E7.40259
G1 X100.207 Y90.132 E7.8747
G1 X99.612 Y90.574 E7.92422
G1 X99.612 Y83.065 E8.42586
G1 X99.016 Y83.065 E8.46568
G1 X99.016 Y91.21 E9.00981
G1 X98.86 Y91.426 E9.02761
G1 X98.421 Y91.523 E9.05764
G1 X98.421 Y83.065 E9.62268
G1 X97.826 Y83.065 E9.66243
G1 X97.826 Y91.571 E10.23068
G1 X97.231 Y91.59 E10.27045
G1 X97.231 Y83.065 E10.83997
G1 X96.636 Y83.065 E10.87972
G1 X96.636 Y91.51 E11.44389
G1 X96.041 Y91.391 E11.48443
G1 X96.041 Y83.065 E12.04065
G1 X95.446 Y83.065 E12.0804
G1 X95.446 Y91.201 E12.62393
G1 X95.259 Y91.142 E12.63703
G1 X94.851 Y90.915 E12.66822
G1 X94.851 Y83.065 E13.19264
G1 X94.255 Y83.065 E13.23246
G1 X94.255 Y91.008 E13.7631
G1 X93.66 Y91.218 E13.80525
G1 X93.66 Y83.065 E14.34991
G1 X93.065 Y83.065 E14.38966
G1 X93.065 Y91.359 E14.94374
G1 X92.47 Y91.448 E14.98393
G1 X92.47 Y83.065 E15.54396
G1 X91.875 Y83.065 E15.58371
G1 X91.875 Y91.44 E16.14321
G1 X91.28 Y91.402 E16.18304
G1 X91.28 Y82.675 E16.76605
G1 X91.08 Y82.475 E16.78495
G1 X91.08 Y80.679 E16.90493
G1 X90.685 Y80.773 E16.93206
G1 X90.685 Y91.261 E17.63272
G1 X90.089 Y91.068 E17.67457
G1 X90.089 Y80.967 E18.34937
G1 X89.494 Y81.235 E18.39297
G1 X89.494 Y90.799 E19.0319
G1 X88.899 Y90.407 E19.0795
G1 X88.899 Y81.627 E19.66605
G1 X88.304 Y82.126 E19.71793
G1 X88.304 Y89.909 E20.23788
G1 X87.709 Y89.235 E20.29794
G1 X87.709 Y82.8 E20.72783
G1 X87.114 Y83.85 E20.80846
G1 X87.114 Y88.757 E21.13627
G1 E19.13627 F2400
G92 E0
G1 X87.114 Y88.757 F7800
G1 X117.745 Y62.378
G1 E2 F2400
G1 F1800
G1 X118.851 Y62.604 E2.07541
G1 X119.896 Y63.026 E2.1507
G1 X120.847 Y63.632 E2.22603
G1 X121.671 Y64.4 E2.30128
G1 X122.343 Y65.304 E2.37653
G1 X122.839 Y66.315 E2.45176
G1 X123.143 Y67.399 E2.52697
G1 X123.246 Y68.519 E2.60211
G1 X123.192 Y69.118 E2.64229
G1 X123.143 Y69.643 E2.67752
G1 X122.839 Y70.725 E2.7526
G1 X122.344 Y71.736 E2.8278
G1 X121.673 Y72.641 E2.90306
G1 X120.848 Y73.409 E2.97836
G1 X119.898 Y74.015 E3.05364
G1 X118.852 Y74.438 E3.12902
G1 X117.747 Y74.664 E3.20437
G1 X116.619 Y74.686 E3.27974
G1 X115.505 Y74.502 E3.35517
G1 X114.444 Y74.118 E3.43055
G1 X113.612 Y73.632 E3.49492
G1 X113.612 Y63.411 E4.17774
G1 X114.443 Y62.924 E4.24209
G1 X115.504 Y62.541 E4.31745
G1 X116.617 Y62.356 E4.39282
G1 X117.665 Y62.376 E4.46284
G1 X117.665 Y62.376 F7800
G1 X122.227 Y71.428
G1 F1800
G1 X122.227 Y66.162 E4.81464
G1 X121.93 Y65.556 E4.85972
G1 X121.631 Y65.155 E4.89314
G1 X121.631 Y71.887 E5.34287
G1 X121.036 Y72.575 E5.40364
G1 X121.036 Y64.467 E5.9453
G1 X120.441 Y63.945 E5.99818
G1 X120.441 Y73.097 E6.60958
G1 X119.846 Y73.476 E6.65671
G1 X119.846 Y63.566 E7.31875
G1 X119.251 Y63.286 E7.36268
G1 X119.251 Y73.757 E8.0622
G1 X118.656 Y73.986 E8.10479
G1 X118.656 Y63.056 E8.83497
G1 X118.061 Y62.934 E8.87555
G1 X118.061 Y74.108 E9.62203
G1 X117.466 Y74.188 E9.66214
G1 X117.466 Y62.855 E10.41925
G1 X116.87 Y62.843 E10.45907
G1 X116.87 Y74.199 E11.21771
G1 X116.275 Y74.141 E11.25765
G1 X116.275 Y62.902 E12.00848
G1 X115.68 Y63 E12.04876
G1 X115.68 Y74.042 E12.78643
G1 X115.085 Y73.837 E12.82847
G1 X115.085 Y63.205 E13.53875
G1 X114.49 Y63.455 E13.58187
G1 X114.49 Y73.866 E14.27738
G1 E12.27738 F2400
G92 E0
G1 X92.884 Y46.253 F7800
G1 E2 F2400
G1 F1800
G1 X93.498 Y46.342 E2.04145
G1 X94.568 Y46.713 E2.11711
G1 X95.27 Y47.12 E2.17132
G1 X96.171 Y46.819 E2.23478
G1 X96.704 Y46.736 E2.27082
G1 X97.351 Y46.671 E2.31426
G1 X98.431 Y46.755 E2.38663
G1 X99.502 Y47.06 E2.46102
G1 X100.491 Y47.571 E2.53539
G1 X101.359 Y48.268 E2.60976
G1 X102.071 Y49.122 E2.68404
G1 X102.599 Y50.101 E2.75835
G1 X102.923 Y51.165 E2.83265
G1 X103.03 Y52.273 E2.90701
G1 X102.915 Y53.38 E2.98136
G1 X102.582 Y54.442 E3.05571
G1 X102.365 Y54.838 E3.08588
G1 X101.87 Y55.333 E3.13265
G1 X91.87 Y55.333 E3.8007
G1 X91.562 Y55.641 E3.8298
G1 X91.562 Y57.999 E3.98733
G1 X90.16 Y57.72 E4.08283
G1 X89.136 Y57.254 E4.15799
G1 X88.218 Y56.604 E4.23313
G1 X87.439 Y55.791 E4.30835
G1 X86.827 Y54.845 E4.38362
G1 X86.404 Y53.8 E4.45893
G1 X86.187 Y52.693 E4.53429
G1 X86.184 Y51.564 E4.60971
G1 X86.394 Y50.454 E4.68518
G1 X86.811 Y49.404 E4.76066
G1 X87.419 Y48.451 E4.83618
G1 X88.198 Y47.631 E4.91174
G1 X89.119 Y46.973 E4.98736
G1 X90.148 Y46.502 E5.06296
G1 X91.247 Y46.234 E5.13853
G1 X92.378 Y46.18 E5.21417
G1 X92.805 Y46.242 E5.243
G1 X92.805 Y46.242 F7800
G1 X101.992 Y54.87
G1 F1800
G1 X101.992 Y49.992 E5.56888
G1 X101.669 Y49.394 E5.61428
G1 X101.397 Y49.067 E5.64269
G1 X101.397 Y54.851 E6.02909
G1 X100.802 Y54.851 E6.06884
G1 X100.802 Y48.439 E6.4972
G1 X100.207 Y47.967 E6.54794
G1 X100.207 Y54.851 E7.00783
G1 X99.612 Y54.851 E7.04758
G1 X99.612 Y47.659 E7.52804
G1 X99.016 Y47.423 E7.57086
G1 X99.016 Y54.851 E8.06709
G1 X98.421 Y54.851 E8.10684
G1 X98.421 Y47.253 E8.61443
G1 X97.826 Y47.191 E8.65439
G1 X97.826 Y54.851 E9.16612
G1 X97.231 Y54.851 E9.20587
G1 X97.231 Y47.167 E9.7192
G1 X96.636 Y47.234 E9.7592
G1 X96.636 Y54.851 E10.26806
G1 X96.041 Y54.851 E10.30781
G1 X96.041 Y47.371 E10.80751
G1 X95.446 Y47.57 E10.84942
G1 X95.446 Y54.851 E11.33583
G1 X94.851 Y54.851 E11.37558
G1 X94.851 Y47.434 E11.87108
G1 X94.255 Y47.115 E11.91624
G1 X94.255 Y54.851 E12.43305
G1 X93.66 Y54.851 E12.4728
G1 X93.66 Y46.908 E13.00344
G1 X93.065 Y46.766 E13.04431
G1 X93.065 Y54.851 E13.58443
G1 X92.47 Y54.851 E13.62418
G1 X92.47 Y46.68 E14.17005
G1 X92.355 Y46.664 E14.17781
G1 X91.875 Y46.687 E14.20991
G1 X91.875 Y54.851 E14.75531
G1 X91.67 Y54.851 E14.76901
G1 X91.28 Y55.241 E14.80586
G1 X91.28 Y46.722 E15.37498
G1 X90.685 Y46.867 E15.41589
G1 X90.685 Y57.351 E16.11628
G1 X90.089 Y57.159 E16.15811
G1 X90.089 Y47.058 E16.83291
G1 X89.494 Y47.331 E16.87664
G1 X89.494 Y56.888 E17.5151
G1 X88.899 Y56.496 E17.5627
G1 X88.899 Y47.722 E18.14885
G1 X88.304 Y48.219 E18.20064
G1 X88.304 Y55.997 E18.72025
G1 X87.709 Y55.321 E18.78041
G1 X87.709 Y48.893 E19.20984
G1 X87.114 Y49.947 E19.2907
G1 X87.114 Y54.845 E19.61791
G1 E17.61791 F2400
G92 E0
G1 X87.114 Y54.845 F7800
G1 X102.194 Y27.656
G1 E2 F2400
G1 F1800
G1 X102.781 Y27.683 E2.03926
G1 X103.851 Y27.907 E2.11229
G1 X104.89 Y28.332 E2.18728
G1 X105.562 Y28.763 E2.24061
G1 X105.562 Y38.872 E2.91595
G1 X104.886 Y39.305 E2.96958
G1 X103.846 Y39.729 E3.04461
G1 X102.866 Y39.933 E3.11148
G1 X101.626 Y39.984 E3.19439
G1 X100.518 Y39.807 E3.26935
G1 X99.46 Y39.433 E3.34432
G1 X98.488 Y38.874 E3.41923
G1 X97.632 Y38.148 E3.49421
G1 X96.922 Y37.28 E3.56913
G1 X96.406 Y36.342 E3.64065
G1 X96.033 Y35.226 E3.71926
G1 X95.878 Y34.114 E3.79427
G1 X95.877 Y33.525 E3.83362
G1 X96.032 Y32.412 E3.90869
G1 X96.405 Y31.294 E3.98743
G1 X96.922 Y30.354 E4.0591
G1 X97.634 Y29.485 E4.13415
G1 X98.49 Y28.759 E4.20913
G1 X99.463 Y28.2 E4.2841
G1 X100.522 Y27.826 E4.35913
G1 X101.601 Y27.655 E4.43211
G1 X102.114 Y27.656 E4.46638
G1 X102.114 Y27.656 F7800
G1 X104.968 Y38.966
G1 F1800
G1 X104.968 Y28.954 E5.13524
G1 X104.373 Y28.641 E5.18015
G1 X104.373 Y38.993 E5.87172
G1 X103.778 Y39.236 E5.91466
G1 X103.778 Y28.398 E6.6387
G1 X103.182 Y28.26 E6.67957
G1 X103.182 Y39.375 E7.42211
G1 X102.587 Y39.451 E7.46218
G1 X102.587 Y28.157 E8.21668
G1 X101.992 Y28.138 E8.25645
G1 X101.992 Y39.492 E9.01496
G1 X101.397 Y39.46 E9.05477
G1 X101.397 Y28.175 E9.80867
G1 X100.802 Y28.27 E9.84892
G1 X100.802 Y39.365 E10.59013
G1 X100.207 Y39.186 E10.63164
G1 X100.207 Y28.449 E11.34893
G1 X99.612 Y28.671 E11.39136
G1 X99.612 Y38.964 E12.07899
G1 X99.016 Y38.622 E12.1249
G1 X99.016 Y29.012 E12.7669
G1 X98.421 Y29.449 E12.81622
G1 X98.421 Y38.186 E13.3999
G1 X97.826 Y37.624 E13.45458
G1 X97.826 Y30.011 E13.96317
G1 X97.231 Y30.793 E14.02881
G1 X97.231 Y36.841 E14.43285
G1 X96.636 Y35.583 E14.52582
G1 X96.636 Y31.374 E14.807
G1 E12.807 F2400
G92 E0
G1 X96.636 Y31.374 F7800
G1 X105.83 Y14.607
G1 E2 F2400
G1 F1800
G1 X106.462 Y14.635 E2.04226
G1 X107.536 Y14.862 E2.11559
G1 X108.576 Y15.289 E2.1907
G1 X109.521 Y15.897 E2.26577
G1 X110.199 Y16.535 E2.32796
G1 X111.277 Y16.701 E2.40083
G1 X112.282 Y17.038 E2.47164
G1 X113.248 Y17.561 E2.54503
G1 X114.163 Y18.28 E2.62277
G1 X114.929 Y19.197 E2.70259
G1 X115.506 Y20.219 E2.78099
G1 X116.124 Y22.023 E2.90838
G1 X115.889 Y22.749 E2.95936
G1 X115.864 Y23.716 E3.02398
G1 X115.647 Y24.825 E3.09947
G1 X115.248 Y25.882 E3.17495
G1 X114.309 Y27.479 E3.29871
G1 X113.612 Y27.289 E3.34697
G1 X113.612 Y24.34 E3.54398
G1 X112.699 Y24.22 E3.6055
G1 X112.31 Y25.387 E3.68768
G1 X111.664 Y26.226 E3.75842
G1 X111.178 Y26.59 E3.79898
G1 X110.63 Y26.851 E3.83953
G1 X109.587 Y27.033 E3.91026
G1 X108.544 Y26.851 E3.98099
G1 X107.997 Y26.59 E4.02148
G1 X107.511 Y26.226 E4.06204
G1 X106.865 Y25.387 E4.13278
G1 X106.476 Y24.22 E4.21496
G1 X105.562 Y24.34 E4.27654
G1 X105.562 Y26.929 E4.4495
G1 X105.286 Y26.929 E4.46794
G1 X104.138 Y26.742 E4.54564
G1 X103.109 Y26.372 E4.61869
G1 X102.183 Y25.834 E4.69023
G1 X101.745 Y25.486 E4.7276
G1 X101.266 Y25.052 E4.77078
G1 X100.585 Y24.213 E4.84297
G1 X100.076 Y23.282 E4.91385
G1 X99.866 Y22.725 E4.95362
G1 X99.707 Y22.177 E4.99174
G1 X99.552 Y21.069 E5.06648
G1 X99.6 Y19.951 E5.14124
G1 X99.701 Y19.387 E5.17952
G1 X100.052 Y18.316 E5.25481
G1 X100.291 Y17.832 E5.29087
G1 X100.619 Y17.281 E5.33371
G1 X101.3 Y16.444 E5.4058
G1 X102.124 Y15.744 E5.47803
G1 X102.606 Y15.445 E5.51592
G1 X103.172 Y15.139 E5.5589
G1 X104.199 Y14.777 E5.63165
G1 X105.277 Y14.606 E5.70457
G1 X105.75 Y14.607 E5.73617
G1 X105.75 Y14.607 F7800
G1 X115.085 Y25.631
G1 F1800
G1 X115.065 Y20.417 E6.0845
G1 X114.49 Y19.424 E6.16116
G1 X114.49 Y26.22 E6.61517
G1 X114.094 Y26.893 E6.66734
G1 X114.094 Y23.917 E6.86615
G1 X113.895 Y23.891 E6.87956
G1 X113.895 Y18.711 E7.22561
G1 X113.3 Y18.215 E7.27736
G1 X113.3 Y23.813 E7.65134
G1 X112.705 Y23.735 E7.69143
G1 X112.705 Y17.815 E8.08692
G1 X112.109 Y17.493 E8.13218
G1 X112.109 Y24.559 E8.60423
G1 X111.883 Y25.163 E8.64731
G1 X111.514 Y25.692 E8.6904
G1 X111.514 Y17.289 E9.25177
G1 X110.919 Y17.128 E9.29295
G1 X110.919 Y26.182 E9.89781
G1 X110.324 Y26.443 E9.94122
G1 X110.324 Y17.038 E10.56952
G1 X109.982 Y16.992 E10.59257
G1 X109.729 Y16.754 E10.61577
G1 X109.729 Y26.547 E11.27
G1 X109.134 Y26.51 E11.30983
G1 X109.134 Y16.222 E11.99712
G1 X108.539 Y15.838 E12.04443
G1 X108.539 Y26.328 E12.74522
G1 X107.943 Y25.963 E12.79191
G1 X107.943 Y15.55 E13.48755
G1 X107.348 Y15.315 E13.53029
G1 X107.348 Y25.265 E14.195
G1 X107.139 Y24.811 E14.22839
G1 X106.832 Y23.687 E14.30623
