; generated by PrusaSlicer 2.8.1+linux-x64-GTK3 on 2024-10-28 at 17:24:39 UTC

; 

; external perimeters extrusion width = 0.45mm
; perimeters extrusion width = 0.45mm
; infill extrusion width = 0.45mm
; solid infill extrusion width = 0.45mm
; top infill extrusion width = 0.40mm
; support material extrusion width = 0.40mm
; first layer extrusion width = 0.60mm

M190 S60 ; set bed temperature and wait for it to be reached
M104 S200 ; set temperature
;TYPE:Custom
G28 ; home all axes
G1 Z5 F5000 ; lift nozzle
M109 S200 ; set temperature and wait for it to be reached
G21 ; set units to millimeters
G90 ; use absolute coordinates
M82 ; use absolute distances for extrusion
G92 E0
; Filament gcode
M107
;LAYER_CHANGE
;Z:0.3
;HEIGHT:0.3
G1 E-2 F2400
G1 Z.3 F7800
G1 X71.078 Y49.574
G1 E0 F2400
;TYPE:Skirt/Brim
;WIDTH:0.6
G1 F1800
G1 X98.253 Y10.611 E3.1735
G1 X99.834 Y9.038 E3.32249
G1 X101.866 Y8.118 E3.4715
G1 X103.394 Y7.929 E3.57436
G1 X116.606 Y7.929 E4.45699
G1 X118.801 Y8.325 E4.606
G1 X120.718 Y9.466 E4.75503
G1 X121.811 Y10.704 E4.86536
G1 X166.298 Y76.989 E10.19842
G1 X167.288 Y78.957 E10.34559
G1 X167.79 Y80.668 E10.46471
G1 X167.959 Y81.842 E10.54395
G1 X167.959 Y83.626 E10.66313
G1 X167.79 Y84.799 E10.7423
G1 X167.288 Y86.511 E10.86149
G1 X166.795 Y87.589 E10.94068
G1 X165.831 Y89.09 E11.05985
G1 X165.055 Y89.985 E11.13899
G1 X163.728 Y91.14 E11.25652
G1 X155.165 Y96.692 E11.93829
G1 X153.362 Y97.595 E12.073
G1 X152.261 Y97.983 E12.15099
G1 X142.72 Y100.372 E12.80806
G1 X141.619 Y100.601 E12.88319
G1 X140.486 Y100.729 E12.95936
G1 X139.361 Y100.754 E13.03453
G1 X79.633 Y100.755 E17.02468
G1 X78.633 Y100.675 E17.0917
G1 X76.757 Y100.322 E17.21923
G1 X65.999 Y97.163 E17.96827
G1 X64.65 Y96.589 E18.06621
G1 X56.277 Y91.794 E18.7108
G1 X54.644 Y90.704 E18.84196
G1 X53.692 Y89.837 E18.92798
G1 X52.979 Y89.037 E18.99957
G1 X52.08 Y87.728 E19.10566
G1 X51.581 Y86.756 E19.17865
G1 X51.088 Y85.462 E19.27116
G1 X50.755 Y84.01 E19.37068
G1 X50.626 Y82.412 E19.47778
G1 X50.66 Y81.434 E19.54316
G1 X50.852 Y80.095 E19.63353
G1 X51.081 Y79.202 E19.69512
G1 X51.573 Y77.903 E19.78792
G1 X52.074 Y76.922 E19.86151
G1 X52.513 Y76.191 E19.91847
G1 X71.043 Y49.623 E22.08241
G1 E20.08241 F2400
G92 E0
G1 X71.043 Y49.623 F7800
G92 E0
G1 X71.203 Y84.631
G1 E2 F2400
;TYPE:Support material
G1 F1800
G1 X71.431 Y84.721 E2.01638
G1 X72.661 Y84.721 E2.09855
G1 X72.998 Y85.11 E2.13293
G1 X73.49 Y86.188 E2.21209
G1 X73.582 Y86.827 E2.25522
G1 X74.067 Y86.86 E2.2877
G1 X74.416 Y85.816 E2.36124
G1 X75.055 Y84.721 E2.44594
G1 X85.053 Y84.721 E3.11386
G1 X85.34 Y85.108 E3.14605
G1 X85.835 Y86.118 E3.22119
G1 X86.138 Y87.201 E3.29632
G1 X86.24 Y88.321 E3.37145
G1 X86.138 Y89.442 E3.44665
G1 X85.835 Y90.525 E3.52178
G1 X85.34 Y91.535 E3.59692
G1 X84.68 Y92.425 E3.67094
G1 X83.834 Y93.214 E3.74822
G1 X82.9 Y93.811 E3.82227
G1 X81.858 Y94.235 E3.89742
G1 X80.757 Y94.463 E3.97253
G1 X79.633 Y94.488 E4.04764
G1 X78.523 Y94.308 E4.12276
G1 X77.464 Y93.931 E4.19786
G1 X76.49 Y93.367 E4.27305
G1 X75.635 Y92.637 E4.34816
G1 X74.927 Y91.764 E4.42325
G1 X74.416 Y90.827 E4.49455
G1 X74.201 Y90.256 E4.53531
G1 X73.904 Y88.701 E4.64107
G1 X73.45 Y88.624 E4.67183
G1 X72.998 Y89.613 E4.74447
G1 X72.222 Y90.508 E4.82361
G1 X71.225 Y91.149 E4.90279
G1 X70.087 Y91.483 E4.98202
G1 X68.902 Y91.483 E5.06118
G1 X67.765 Y91.149 E5.14035
G1 X66.768 Y90.508 E5.21953
G1 X65.992 Y89.613 E5.29867
G1 X65.499 Y88.535 E5.37786
G1 X65.33 Y87.361 E5.4571
G1 X65.451 Y86.521 E5.5138
G1 X67.542 Y87.728 E5.67509
G1 X67.962 Y87.615 E5.70415
G1 X70.065 Y83.974 E5.98505
G1 X71.133 Y84.591 E6.06745
G1 E4.06745 F2400
G92 E0
G1 X71.133 Y84.591 F7800
G1 X85.6 Y90.456
G1 E2 F2400
G1 F1800
G1 X85.6 Y87.066 E2.22647
G1 X85.382 Y86.291 E2.28025
G1 X85.004 Y85.52 E2.33761
G1 X85.004 Y91.123 E2.71192
G1 X84.409 Y91.98 E2.78162
G1 X84.409 Y85.204 E3.23429
G1 X83.814 Y85.204 E3.27404
G1 X83.814 Y92.58 E3.7668
G1 X83.219 Y93.035 E3.81684
G1 X83.219 Y85.204 E4.33999
G1 X82.624 Y85.204 E4.37974
G1 X82.624 Y93.403 E4.92748
G1 X82.029 Y93.645 E4.97039
G1 X82.029 Y85.204 E5.53429
G1 X81.434 Y85.204 E5.57404
G1 X81.434 Y93.831 E6.15037
G1 X80.839 Y93.954 E6.19096
G1 X80.839 Y85.204 E6.77551
G1 X80.243 Y85.204 E6.81533
G1 X80.243 Y93.992 E7.40242
G1 X79.648 Y94.002 E7.44217
G1 X79.648 Y85.204 E8.02992
G1 X79.053 Y85.204 E8.06967
G1 X79.053 Y93.906 E8.65101
G1 X78.458 Y93.773 E8.69174
G1 X78.458 Y85.204 E9.2642
G1 X77.863 Y85.204 E9.30395
G1 X77.863 Y93.561 E9.86224
G1 X77.268 Y93.26 E9.90679
G1 X77.268 Y85.204 E10.44497
G1 X76.673 Y85.204 E10.48472
G1 X76.673 Y92.889 E10.99812
G1 X76.077 Y92.381 E11.05044
G1 X76.077 Y85.204 E11.5299
G1 X75.482 Y85.204 E11.56965
G1 X75.482 Y91.683 E12.00248
G1 X74.887 Y90.685 E12.0801
G1 X74.887 Y85.958 E12.39589
G1 X74.424 Y87.367 E12.49497
G1 X74.292 Y87.358 E12.50381
G1 X74.292 Y88.278 E12.56527
G1 X73.697 Y88.177 E12.60559
G1 X73.697 Y87.318 E12.66298
G1 X73.161 Y87.282 E12.69887
G1 X73.102 Y86.873 E12.72648
G1 X73.102 Y88.225 E12.8168
G1 X72.507 Y89.444 E12.90742
G1 X72.507 Y85.279 E13.18566
G1 X72.441 Y85.204 E13.19233
G1 X71.912 Y85.204 E13.22767
G1 X71.912 Y90.13 E13.55675
G1 X71.316 Y90.517 E13.60422
G1 X71.316 Y85.19 E13.96009
G1 X70.721 Y84.91 E14.00402
G1 X70.721 Y90.795 E14.39717
G1 X70.126 Y90.969 E14.43858
G1 X70.126 Y84.832 E14.84856
G1 X69.531 Y85.863 E14.92808
G1 X69.531 Y91.001 E15.27133
G1 X68.936 Y90.991 E15.31108
G1 X68.936 Y86.893 E15.58485
G1 X68.341 Y87.924 E15.66437
G1 X68.341 Y90.816 E15.85757
G1 X67.746 Y90.564 E15.90074
G1 X67.746 Y88.172 E16.06054
G1 X67.474 Y88.245 E16.07935
G1 X67.15 Y88.058 E16.10434
G1 X67.15 Y90.181 E16.24617
G1 X66.555 Y89.527 E16.30524
G1 X66.555 Y87.715 E16.42629
G1 X65.96 Y87.371 E16.4722
G1 X65.96 Y88.964 E16.57862
G1 E14.57862 F2400
G92 E0
G1 X65.96 Y88.964 F7800
G1 X62.058 Y77.907
G1 E2 F2400
G1 F1800
G1 X62.729 Y78.037 E2.04566
G1 X63.748 Y78.508 E2.12065
G1 X64.629 Y79.232 E2.19683
G1 X64.969 Y79.7 E2.23547
G1 X64.546 Y80.433 E2.29201
G1 X64.659 Y80.853 E2.32107
G1 X64.825 Y80.949 E2.33388
G1 X62.723 Y84.59 E2.61474
G1 X62.836 Y85.01 E2.6438
G1 X64.165 Y85.778 E2.74634
G1 X63.712 Y86.143 E2.7852
G1 X62.702 Y86.602 E2.85931
G1 X61.53 Y86.805 E2.93877
G1 X60.431 Y86.716 E3.01243
G1 X59.392 Y86.355 E3.08591
G1 X58.799 Y85.982 E3.13271
G1 X58.369 Y85.664 E3.16844
G1 X57.656 Y84.864 E3.24003
G1 X57.156 Y83.892 E3.31305
G1 X56.962 Y83.142 E3.3648
G1 X56.89 Y82.628 E3.39947
G1 X56.924 Y81.65 E3.46485
G1 X57.153 Y80.757 E3.52644
G1 X57.654 Y79.776 E3.60003
G1 X58.363 Y78.982 E3.67114
G1 X58.766 Y78.678 E3.70486
G1 X59.399 Y78.278 E3.75488
G1 X60.45 Y77.915 E3.82916
G1 X61.55 Y77.83 E3.90287
G1 X61.979 Y77.895 E3.93186
G1 X61.979 Y77.895 F7800
G1 X64.175 Y81.594
G1 F1800
G1 X64.175 Y79.483 E4.07289
G1 X63.58 Y78.994 E4.12434
G1 X63.58 Y82.142 E4.33464
G1 X62.985 Y83.173 E4.41416
G1 X62.985 Y78.686 E4.71392
G1 X62.389 Y78.463 E4.75643
G1 X62.389 Y86.171 E5.27137
G1 X61.794 Y86.277 E5.31175
G1 X61.794 Y78.355 E5.84098
G1 X61.199 Y78.341 E5.88074
G1 X61.199 Y86.294 E6.41204
G1 X60.604 Y86.246 E6.45192
G1 X60.604 Y78.387 E6.97694
G1 X60.009 Y78.577 E7.01867
G1 X60.009 Y86.059 E7.51851
G1 X59.414 Y85.799 E7.56189
G1 X59.414 Y78.839 E8.02686
G1 X58.819 Y79.242 E8.07487
G1 X58.819 Y85.396 E8.48599
G1 X58.224 Y84.777 E8.54335
G1 X58.224 Y79.862 E8.8717
G1 X58.055 Y80.051 E8.88864
G1 X57.628 Y80.886 E8.95129
G1 X57.628 Y84.284 E9.17829
G1 X57.628 Y84.284 F7800
G1 X62.985 Y86.209
G1 F1800
G1 X62.985 Y85.375 E9.23401
G1 E7.23401 F2400
G92 E0
G1 X62.985 Y85.375 F7800
G1 X151.397 Y86.506
G1 E2 F2400
G1 F1800
G1 X152.038 Y87.615 E2.08557
G1 X152.458 Y87.728 E2.11463
G1 X153.776 Y86.967 E2.2163
G1 X153.858 Y87.604 E2.25921
G1 X153.724 Y88.724 E2.33457
G1 X153.309 Y89.782 E2.41049
G1 X152.633 Y90.713 E2.48735
G1 X151.755 Y91.434 E2.56325
G1 X150.736 Y91.904 E2.63822
G1 X150.061 Y92.035 E2.68416
G1 X149.555 Y92.11 E2.71833
G1 X148.455 Y92.025 E2.79204
G1 X147.405 Y91.662 E2.86626
G1 X146.771 Y91.261 E2.91638
G1 X146.368 Y90.956 E2.95014
G1 X145.624 Y90.12 E3.0249
G1 X144.931 Y91.535 E3.13016
G1 X144.271 Y92.425 E3.20418
G1 X143.425 Y93.214 E3.28146
G1 X142.491 Y93.811 E3.35551
G1 X141.449 Y94.235 E3.43066
G1 X140.348 Y94.463 E3.50577
G1 X139.224 Y94.488 E3.58088
G1 X138.114 Y94.308 E3.656
G1 X137.054 Y93.931 E3.73116
G1 X136.081 Y93.367 E3.80629
G1 X135.226 Y92.637 E3.8814
G1 X134.518 Y91.764 E3.95649
G1 X134.006 Y90.827 E4.02782
G1 X133.638 Y89.713 E4.1062
G1 X133.538 Y89.163 E4.14355
G1 X133.486 Y88.042 E4.21852
G1 X133.638 Y86.93 E4.2935
G1 X134.006 Y85.816 E4.37188
G1 X134.645 Y84.721 E4.45658
G1 X144.644 Y84.721 E5.12457
G1 X144.931 Y85.108 E5.15676
G1 X145.281 Y85.823 E5.20994
G1 X145.662 Y85.08 E5.26572
G1 X145.981 Y84.721 E5.2978
G1 X148.569 Y84.721 E5.47069
G1 X149.935 Y83.974 E5.5747
G1 X151.357 Y86.437 E5.7647
G1 X151.357 Y86.437 F7800
G1 X152.85 Y90.007
G1 F1800
G1 X152.85 Y88.058 E5.8949
G1 X152.526 Y88.245 E5.91989
G1 X152.254 Y88.172 E5.9387
G1 X152.254 Y90.4 E6.08754
G1 X151.659 Y90.888 E6.13895
G1 X151.659 Y87.924 E6.33696
G1 X151.064 Y86.893 E6.41648
G1 X151.064 Y91.221 E6.70561
G1 X150.469 Y91.465 E6.74857
G1 X150.469 Y85.863 E7.12281
G1 X149.874 Y84.832 E7.20233
G1 X149.874 Y91.575 E7.6528
G1 X149.279 Y91.605 E7.6926
G1 X149.279 Y84.91 E8.13986
G1 X148.684 Y85.19 E8.18379
G1 X148.684 Y91.559 E8.60927
G1 X148.088 Y91.388 E8.65069
G1 X148.088 Y85.204 E9.06381
G1 X147.493 Y85.204 E9.10356
G1 X147.493 Y91.147 E9.50058
G1 X147.046 Y90.864 E9.53592
G1 X146.898 Y90.752 E9.54832
G1 X146.898 Y85.204 E9.91896
G1 X146.303 Y85.204 E9.95871
G1 X146.303 Y90.158 E10.28966
G1 X145.708 Y89.49 E10.34942
G1 X145.708 Y86.046 E10.5795
G1 X145.271 Y86.899 E10.64353
G1 X145.113 Y86.576 E10.66755
G1 X145.113 Y90.067 E10.90077
G1 X144.518 Y91.282 E10.99115
G1 X144.518 Y85.361 E11.3867
G1 X144.401 Y85.204 E11.39978
G1 X143.923 Y85.204 E11.43171
G1 X143.923 Y92.085 E11.8914
G1 X143.327 Y92.651 E11.94631
G1 X143.327 Y85.204 E12.44381
G1 X142.732 Y85.204 E12.48356
G1 X142.732 Y93.085 E13.01005
G1 X142.137 Y93.435 E13.05617
G1 X142.137 Y85.204 E13.60605
G1 X141.542 Y85.204 E13.6458
G1 X141.542 Y93.677 E14.21184
G1 X140.947 Y93.847 E14.25318
G1 X140.947 Y85.204 E14.83058
G1 X140.352 Y85.204 E14.87033
G1 X140.352 Y93.97 E15.45595
G1 X139.757 Y93.994 E15.49573
G1 X139.757 Y85.204 E16.08295
G1 X139.161 Y85.204 E16.12277
G1 X139.161 Y93.989 E16.70966
G1 X138.566 Y93.893 E16.74992
G1 X138.566 Y85.204 E17.33039
G1 X137.971 Y85.204 E17.37014
G1 X137.971 Y93.746 E17.94079
G1 X137.376 Y93.534 E17.98299
G1 X137.376 Y85.204 E18.53948
G1 X136.781 Y85.204 E18.57923
G1 X136.781 Y93.215 E19.11441
G1 X136.186 Y92.823 E19.16201
G1 X136.186 Y85.204 E19.671
G1 X135.591 Y85.204 E19.71075
G1 X135.591 Y92.314 E20.18574
G1 X134.996 Y91.588 E20.24845
G1 X134.996 Y85.204 E20.67494
G1 X134.89 Y85.204 E20.68202
G1 X134.4 Y86.138 E20.75248
G1 X134.4 Y91.046 E21.08036
G1 E19.08036 F2400
G92 E0
G1 X134.4 Y91.046 F7800
G1 X158.813 Y78.797
G1 E2 F2400
G1 F1800
G1 X159.321 Y78.946 E2.03537
G1 X160.318 Y79.587 E2.11455
G1 X161.094 Y80.482 E2.19369
G1 X161.586 Y81.56 E2.27285
G1 X161.755 Y82.734 E2.35209
G1 X161.586 Y83.907 E2.43126
G1 X161.094 Y84.985 E2.51042
G1 X160.318 Y85.881 E2.58961
G1 X159.321 Y86.522 E2.66879
G1 X158.183 Y86.856 E2.74802
G1 X156.998 Y86.856 E2.82718
G1 X154.99 Y86.266 E2.967
G1 X157.164 Y85.01 E3.13473
G1 X157.277 Y84.59 E3.16379
G1 X155.175 Y80.949 E3.44465
G1 X155.341 Y80.853 E3.45746
G1 X155.454 Y80.433 E3.48652
G1 X154.938 Y79.539 E3.55548
G1 X155.861 Y78.946 E3.62877
G1 X156.998 Y78.612 E3.70794
G1 X158.183 Y78.612 E3.7871
G1 X158.736 Y78.774 E3.8256
G1 X158.736 Y78.774 F7800
G1 X161.181 Y84.213
G1 F1800
G1 X161.181 Y82.132 E3.96462
G1 X161.119 Y81.698 E3.99391
G1 X160.586 Y80.633 E4.07347
G1 X160.586 Y84.835 E4.35419
G1 X159.991 Y85.518 E4.4147
G1 X159.991 Y79.95 E4.78667
G1 X159.396 Y79.567 E4.83394
G1 X159.396 Y85.9 E5.25702
G1 X158.801 Y86.172 E5.30073
G1 X158.801 Y79.296 E5.76008
G1 X158.206 Y79.121 E5.80151
G1 X158.206 Y86.347 E6.28425
G1 X157.611 Y86.373 E6.32404
G1 X157.611 Y79.094 E6.81032
G1 X157.015 Y79.109 E6.85015
G1 X157.015 Y83.173 E7.12165
G1 X156.42 Y82.142 E7.20117
G1 X156.42 Y79.284 E7.3921
G1 X155.825 Y79.542 E7.43543
G1 X155.825 Y81.594 E7.57251
G1 E5.57251 F2400
G92 E0
G1 X155.825 Y81.594 F7800
G1 X157.015 Y86.609
G1 E2 F2400
G1 F1800
G1 X157.015 Y85.653 E2.06387
G1 X156.42 Y85.997 E2.10978
G1 X156.42 Y86.435 E2.13904
G1 E.13904 F2400
G92 E0
G1 X156.42 Y86.435 F7800
G1 X123.369 Y29.606
G1 E2 F2400
;TYPE:Perimeter
;WIDTH:0.6
G1 F1800
G1 X123.236 Y29.991 E2.02721
G1 X122.962 Y30.433 E2.06195
G1 X122.588 Y30.816 E2.09771
G1 X122.15 Y31.104 E2.13273
G1 X121.642 Y31.287 E2.1688
G1 X121.096 Y31.344 E2.20547
G1 X120.634 Y31.294 E2.23651
G1 X120.192 Y31.153 E2.2675
G1 X119.786 Y30.927 E2.29854
G1 X119.441 Y30.618 E2.32948
;WIDTH:0.577998
G1 X119.242 Y30.292 E2.35395
;WIDTH:0.540293
G1 X119.043 Y29.967 E2.37657
;WIDTH:0.551294
G1 X118.93 Y29.681 E2.39525
;WIDTH:0.6
G1 X118.817 Y29.395 E2.41579
G1 X118.794 Y28.876 E2.4505
G1 X118.887 Y28.349 E2.48625
G1 X118.954 Y28.139 E2.50098
G1 X119.17 Y27.727 E2.53206
G1 X119.463 Y27.367 E2.56307
G1 X119.822 Y27.071 E2.59415
G1 X120.232 Y26.853 E2.62517
G1 X120.677 Y26.72 E2.6562
G1 X121.14 Y26.678 E2.68726
G1 X121.602 Y26.729 E2.71831
G1 X122.044 Y26.87 E2.7493
G1 X122.45 Y27.096 E2.78034
G1 X122.795 Y27.405 E2.81128
;WIDTH:0.577997
G1 X122.994 Y27.73 E2.83569
;WIDTH:0.540293
G1 X123.193 Y28.055 E2.85831
;WIDTH:0.551295
G1 X123.306 Y28.341 E2.87699
;WIDTH:0.6
G1 X123.419 Y28.628 E2.8976
G1 X123.45 Y29.091 E2.9286
G1 X123.388 Y29.549 E2.95948
G1 X123.388 Y29.549 F7800
G1 X122.854 Y29.461
;TYPE:External perimeter
G1 F1800
G1 X122.765 Y29.735 E2.97873
G1 X122.576 Y30.061 E3.0039
G1 X122.204 Y30.442 E3.03947
G1 X121.834 Y30.662 E3.06823
G1 X121.492 Y30.771 E3.09221
G1 X121.136 Y30.81 E3.11613
G1 X120.779 Y30.778 E3.14008
G1 X120.436 Y30.676 E3.16399
G1 X120.12 Y30.508 E3.1879
G1 X119.843 Y30.28 E3.21187
G1 X119.617 Y30.003 E3.23575
G1 X119.45 Y29.685 E3.25975
G1 X119.35 Y29.342 E3.28362
G1 X119.322 Y28.968 E3.30868
G1 X119.437 Y28.371 E3.3493
G1 X119.597 Y28.051 E3.3732
G1 X119.818 Y27.768 E3.39719
G1 X120.222 Y27.459 E3.43117
G1 X120.692 Y27.263 E3.46519
G1 X121.1 Y27.212 E3.49266
G1 X121.457 Y27.244 E3.51661
G1 X121.8 Y27.346 E3.54052
G1 X122.116 Y27.515 E3.56446
G1 X122.393 Y27.742 E3.58839
G1 X122.619 Y28.02 E3.61232
G1 X122.786 Y28.337 E3.63626
G1 X122.887 Y28.681 E3.66021
G1 X122.917 Y29.038 E3.68414
G1 X122.876 Y29.394 E3.70808
G1 X122.873 Y29.404 E3.70878
G1 X122.73 Y29.777 F7800
G1 E1.70878 F2400
G92 E0
G1 X134.62 Y50.986 F7800
G1 E2 F2400
;TYPE:Perimeter
G1 F1800
G1 X134.677 Y50.969 E2.00397
G1 X135.14 Y50.927 E2.03503
G1 X135.602 Y50.977 E2.06607
G1 X136.044 Y51.119 E2.09708
G1 X136.45 Y51.345 E2.12812
G1 X136.795 Y51.654 E2.15906
;WIDTH:0.577997
G1 X136.994 Y51.979 E2.18347
;WIDTH:0.540292
G1 X137.193 Y52.304 E2.20609
;WIDTH:0.551294
G1 X137.306 Y52.59 E2.22477
;WIDTH:0.6
G1 X137.419 Y52.876 E2.24531
G1 X137.442 Y53.399 E2.28028
G1 X137.349 Y53.923 E2.31583
G1 X137.149 Y54.408 E2.35088
G1 X136.827 Y54.852 E2.38752
G1 X136.414 Y55.2 E2.4236
G1 X136.004 Y55.418 E2.45462
G1 X135.559 Y55.551 E2.48565
G1 X135.096 Y55.593 E2.51671
G1 X134.634 Y55.542 E2.54776
G1 X134.192 Y55.401 E2.57875
G1 X133.786 Y55.175 E2.60979
G1 X133.622 Y55.014 E2.62514
;WIDTH:0.566377
G1 X133.458 Y54.852 E2.63957
;WIDTH:0.532754
G1 X133.191 Y54.483 E2.66618
;WIDTH:0.539492
G1 X133.024 Y54.14 E2.68879
;WIDTH:0.580201
G1 X132.858 Y53.797 E2.71331
;WIDTH:0.6
G1 X132.786 Y53.344 E2.74395
G1 X132.887 Y52.597 E2.79431
G1 X133.087 Y52.112 E2.82936
G1 X133.409 Y51.668 E2.866
G1 X133.822 Y51.32 E2.90208
G1 X134.232 Y51.102 E2.9331
G1 X134.562 Y51.003 E2.95612
G1 X134.562 Y51.003 F7800
G1 X134.729 Y51.525
;TYPE:External perimeter
G1 F1800
G1 X135.047 Y51.462 E2.97778
G1 X135.457 Y51.493 E3.00525
G1 X135.8 Y51.595 E3.02916
G1 X136.116 Y51.763 E3.05307
G1 X136.393 Y51.991 E3.07704
G1 X136.619 Y52.269 E3.10097
G1 X136.786 Y52.586 E3.12491
G1 X136.887 Y52.93 E3.14886
G1 X136.914 Y53.306 E3.17404
