; generated by PrusaSlicer 2.8.1+linux-x64-GTK3 on 2024-10-22 at 09:26:38 UTC

; 

; external perimeters extrusion width = 0.45mm
; perimeters extrusion width = 0.45mm
; infill extrusion width = 0.45mm
; solid infill extrusion width = 0.45mm
; top infill extrusion width = 0.40mm
; support material extrusion width = 0.40mm
; first layer extrusion width = 0.60mm

M190 S60 ; set bed temperature and wait for it to be reached
M104 S200 ; set temperature
;TYPE:Custom
G28 ; home all axes
G1 Z5 F5000 ; lift nozzle
M109 S200 ; set temperature and wait for it to be reached
G21 ; set units to millimeters
G90 ; use absolute coordinates
M82 ; use absolute distances for extrusion
G92 E0
; Filament gcode
M107
;LAYER_CHANGE
;Z:0.3
;HEIGHT:0.3
G1 E-2 F2400
G1 Z.3 F7800
G1 X92.668 Y21.538
G1 E0 F2400
;TYPE:Skirt/Brim
;WIDTH:0.6
G1 F1800
G1 X93.127 Y19.983 E.10831
G1 X94.048 Y17.971 E.25614
G1 X95.118 Y16.36 E.38534
G1 X96.584 Y14.752 E.53071
G1 X97.357 Y14.085 E.59892
G1 X99.163 Y12.871 E.7443
G1 X100.196 Y12.349 E.82162
G1 X102.246 Y11.619 E.967
G1 X104.358 Y11.234 E1.11042
G1 X105.813 Y11.172 E1.20771
G1 X107.604 Y11.305 E1.32769
G1 X109.702 Y11.782 E1.47142
G1 X111.718 Y12.601 E1.61679
G1 X112.728 Y13.167 E1.69414
G1 X114.479 Y14.46 E1.83955
G1 X115.997 Y16.02 E1.98496
G1 X116.616 Y16.831 E2.05312
G1 X117.611 Y18.466 E2.18098
G1 X122.971 Y29.611 E3.00716
G1 X123.335 Y30.555 E3.07475
G1 X123.597 Y31.565 E3.14446
G1 X127.1 Y49.309 E4.35273
G1 X127.292 Y51.167 E4.47752
G1 X127.292 Y52.187 E4.54566
G1 X127.032 Y54.348 E4.69107
G1 X126.438 Y56.404 E4.83404
G1 X125.947 Y57.541 E4.91678
G1 X124.861 Y59.376 E5.05923
G1 X123.466 Y61.047 E5.20465
G1 X121.819 Y62.47 E5.35006
G1 X119.98 Y63.596 E5.49412
G1 X118.546 Y64.214 E5.59844
G1 X116.938 Y64.699 E5.71064
G1 X114.808 Y65.013 E5.85447
G1 X112.632 Y64.977 E5.99986
G1 X110.491 Y64.589 E6.14522
G1 X108.609 Y63.934 E6.27834
G1 X107.216 Y63.23 E6.38261
G1 X105.602 Y62.122 E6.5134
G1 X104.017 Y60.63 E6.65882
G1 X102.696 Y58.901 E6.80418
G1 X101.611 Y56.847 E6.95937
G1 X96.67 Y45.671 E7.7757
G1 X92.621 Y27.32 E9.03113
G1 X92.4 Y25.897 E9.12733
G1 X92.333 Y24.224 E9.23919
G1 X92.459 Y22.675 E9.34301
G1 X92.657 Y21.597 E9.41623
G1 E7.41623 F2400
G92 E0
G1 X92.657 Y21.597 F7800
G92 E0
G1 X105.813 Y17.44
G1 E2 F2400
;TYPE:Support material
G1 F1800
G1 X106.451 Y17.466 E2.04266
G1 X107.565 Y17.674 E2.11837
G1 X108.653 Y18.068 E2.19567
G1 X109.662 Y18.634 E2.27296
G1 X110.567 Y19.357 E2.35034
G1 X111.342 Y20.217 E2.42768
G1 X111.963 Y21.184 E2.50445
G1 X112.428 Y22.26 E2.58276
G1 X112.706 Y23.377 E2.65966
G1 X112.8 Y24.53 E2.73694
G1 X112.706 Y25.684 E2.81429
G1 X112.428 Y26.801 E2.89119
G1 X111.963 Y27.876 E2.96944
G1 X111.342 Y28.844 E3.04627
G1 X110.567 Y29.703 E3.12356
G1 X110.095 Y30.08 E3.16392
G1 X104.733 Y30.114 E3.52214
G1 X103.685 Y30.458 E3.59583
G1 X102.895 Y31.051 E3.66182
G1 X101.955 Y30.571 E3.73233
G1 X101.052 Y29.912 E3.80701
G1 X100.24 Y29.087 E3.88434
G1 X99.573 Y28.141 E3.96167
G1 X99.088 Y27.142 E4.03586
G1 X98.744 Y25.984 E4.11656
G1 X98.601 Y24.836 E4.19385
G1 X98.744 Y23.077 E4.31175
G1 X99.072 Y21.968 E4.38901
G1 X99.598 Y20.883 E4.46956
G1 X100.24 Y19.973 E4.54396
G1 X101.052 Y19.149 E4.62124
G1 X101.986 Y18.467 E4.6985
G1 X103.02 Y17.945 E4.77588
G1 X104.124 Y17.599 E4.85317
G1 X105.733 Y17.44 E4.96118
G1 X105.733 Y17.44 F7800
G1 X111.785 Y27.681
G1 F1800
G1 X111.785 Y21.982 E5.3419
G1 X111.537 Y21.413 E5.38337
G1 X111.19 Y20.873 E5.42625
G1 X111.19 Y28.187 E5.91486
G1 X110.595 Y28.952 E5.9796
G1 X110.595 Y20.108 E6.57043
G1 X110 Y19.521 E6.62627
G1 X110 Y29.539 E7.29553
G1 X109.926 Y29.598 E7.30185
G1 X109.405 Y29.598 E7.33666
G1 X109.405 Y19.046 E8.04159
G1 X108.81 Y18.709 E8.08727
G1 X108.81 Y29.598 E8.81471
G1 X108.215 Y29.598 E8.85446
G1 X108.215 Y18.422 E9.60108
G1 X107.619 Y18.206 E9.64343
G1 X107.619 Y29.598 E10.40448
G1 X107.024 Y29.598 E10.44423
G1 X107.024 Y18.063 E11.21483
G1 X106.429 Y17.952 E11.25526
G1 X106.429 Y29.598 E12.03328
G1 X105.834 Y29.598 E12.07303
G1 X105.834 Y17.923 E12.85298
G1 X105.239 Y17.927 E12.89273
G1 X105.239 Y29.598 E13.67242
G1 X104.644 Y29.64 E13.71227
G1 X104.644 Y18.012 E14.48908
G1 X104.049 Y18.127 E14.52956
G1 X104.049 Y29.782 E15.30818
G1 X103.454 Y30.035 E15.35137
G1 X103.454 Y18.314 E16.1344
G1 X102.858 Y18.567 E16.17765
G1 X102.858 Y30.431 E16.97023
G1 X102.806 Y30.475 E16.97478
G1 X102.263 Y30.19 E17.01575
G1 X102.263 Y18.867 E17.77219
G1 X101.668 Y19.296 E17.82119
G1 X101.668 Y29.765 E18.52058
G1 X101.073 Y29.246 E18.57333
G1 X101.073 Y19.814 E19.20344
G1 X100.478 Y20.472 E19.2627
G1 X100.478 Y28.588 E19.80489
G1 X99.883 Y27.676 E19.87764
G1 X99.883 Y21.378 E20.29838
G1 X99.522 Y22.141 E20.35477
G1 X99.288 Y22.895 E20.40751
G1 X99.288 Y26.978 E20.68028
G1 E18.68028 F2400
G92 E0
G1 X99.288 Y26.978 F7800
G1 X117.907 Y45.781
G1 E2 F2400
G1 F1800
G1 X118.811 Y46.504 E2.07733
G1 X119.586 Y47.363 E2.15462
G1 X120.207 Y48.331 E2.23145
G1 X120.672 Y49.407 E2.30976
G1 X120.951 Y50.523 E2.38661
G1 X121.045 Y51.677 E2.46396
G1 X120.951 Y52.831 E2.54131
G1 X120.672 Y53.947 E2.61816
G1 X120.207 Y55.023 E2.69647
G1 X119.586 Y55.991 E2.7733
G1 X118.811 Y56.85 E2.85059
G1 X117.907 Y57.573 E2.92792
G1 X116.914 Y58.129 E3.00395
G1 X116.323 Y58.353 E3.04617
G1 X115.786 Y58.538 E3.08411
G1 X114.671 Y58.746 E3.15988
G1 X113.514 Y58.771 E3.23719
G1 X112.368 Y58.609 E3.31451
G1 X111.296 Y58.272 E3.38958
G1 X110.199 Y57.718 E3.47168
G1 X109.296 Y57.058 E3.5464
G1 X108.484 Y56.234 E3.62368
G1 X107.817 Y55.288 E3.70101
G1 X107.333 Y54.288 E3.77523
G1 X106.989 Y53.13 E3.85593
G1 X106.846 Y51.983 E3.93315
G1 X106.989 Y50.223 E4.05111
G1 X107.316 Y49.114 E4.12835
G1 X107.842 Y48.03 E4.20884
G1 X108.484 Y47.12 E4.28324
G1 X109.523 Y46.13 E4.37911
G1 X115.122 Y46.114 E4.75316
G1 X116.173 Y45.823 E4.82601
G1 X116.993 Y45.269 E4.89212
G1 X117.837 Y45.742 E4.95675
G1 X117.837 Y45.742 F7800
G1 X120.117 Y54.628
G1 F1800
G1 X120.117 Y49.334 E5.31042
G1 X119.522 Y48.156 E5.39859
G1 X119.522 Y55.198 E5.86903
G1 X118.927 Y56.002 E5.93585
G1 X118.927 Y47.352 E6.51372
G1 X118.332 Y46.738 E6.57084
G1 X118.332 Y56.616 E7.23074
G1 X117.737 Y57.092 E7.28164
G1 X117.737 Y46.262 E8.00514
G1 X117.142 Y45.905 E8.0515
G1 X117.142 Y57.449 E8.8227
G1 X116.546 Y57.753 E8.8674
G1 X116.546 Y46.175 E9.64087
G1 X115.951 Y46.428 E9.68406
G1 X115.951 Y57.971 E10.45519
G1 X115.356 Y58.128 E10.4963
G1 X115.356 Y46.57 E11.26844
G1 X114.761 Y46.612 E11.30829
G1 X114.761 Y58.239 E12.08504
G1 X114.166 Y58.275 E12.12486
G1 X114.166 Y46.612 E12.90401
G1 X113.571 Y46.612 E12.94376
G1 X113.571 Y58.288 E13.72378
G1 X112.976 Y58.208 E13.76389
G1 X112.976 Y46.612 E14.53857
G1 X112.381 Y46.612 E14.57832
G1 X112.381 Y58.107 E15.34625
G1 X111.785 Y57.92 E15.38798
G1 X111.785 Y46.612 E16.14342
G1 X111.19 Y46.612 E16.18317
G1 X111.19 Y57.688 E16.92311
G1 X110.595 Y57.384 E16.96775
G1 X110.595 Y46.612 E17.68738
G1 X110 Y46.612 E17.72713
G1 X110 Y56.975 E18.41943
G1 X109.405 Y56.482 E18.47105
G1 X109.405 Y46.872 E19.11305
G1 X108.81 Y47.495 E19.1706
G1 X108.81 Y55.859 E19.72936
G1 X108.215 Y55.002 E19.79906
G1 X108.215 Y48.358 E20.24292
G1 X107.619 Y49.729 E20.34279
G1 X107.619 Y54.327 E20.64996
G1 E18.64996 F2400
G92 E0
G1 X107.619 Y54.327 F7800
G1 X115.991 Y43.345
G1 E2 F2400
;TYPE:Perimeter
;WIDTH:0.640418
G1 F1800
G1 X115.964 Y43.402 E2.00453
;WIDTH:0.657369
G1 X115.674 Y43.771 E2.03924
G1 X115.306 Y44.062 E2.07394
;WIDTH:0.639951
G1 X115.095 Y44.159 E2.09061
;WIDTH:0.610848
G1 X114.883 Y44.255 E2.10647
;WIDTH:0.581745
G1 X114.659 Y44.305 E2.12128
;WIDTH:0.549829
G1 X114.436 Y44.356 E2.13513
;WIDTH:0.517914
G1 X113.982 Y44.387 E2.16087
;WIDTH:0.524901
G1 X113.752 Y44.376 E2.1741
;WIDTH:0.553347
G1 X113.523 Y44.365 E2.18808
;WIDTH:0.6
G1 X113.074 Y44.247 E2.21909
G1 X112.668 Y44.021 E2.25013
G1 X112.315 Y43.719 E2.28116
G1 X112.028 Y43.353 E2.31223
G1 X111.82 Y42.937 E2.3433
G1 X111.699 Y42.489 E2.3743
G1 X111.676 Y41.97 E2.40901
G1 X111.769 Y41.443 E2.44476
G1 X111.969 Y40.958 E2.47981
G1 X112.289 Y40.515 E2.51632
G1 X112.671 Y40.185 E2.55004
G1 X113.114 Y39.947 E2.58364
G1 X113.559 Y39.814 E2.61467
G1 X114.022 Y39.772 E2.64573
G1 X114.484 Y39.823 E2.67678
G1 X114.926 Y39.964 E2.70777
G1 X115.332 Y40.19 E2.73881
G1 X115.685 Y40.492 E2.76984
G1 X115.972 Y40.858 E2.80091
G1 X116.18 Y41.273 E2.83192
G1 X116.219 Y41.499 E2.84724
;WIDTH:0.55638
G1 X116.258 Y41.725 E2.86131
;WIDTH:0.51276
G1 X116.276 Y42.232 E2.88968
;WIDTH:0.548807
G1 X116.206 Y42.764 E2.9221
;WIDTH:0.576045
G1 X116.163 Y42.918 E2.9323
;WIDTH:0.603284
G1 X116.12 Y43.072 E2.94305
;WIDTH:0.640418
G1 X116.016 Y43.291 E2.96047
G1 X116.016 Y43.291 F7800
G1 X115.529 Y43.048
;TYPE:External perimeter
;WIDTH:0.6
G1 F1800
G1 X115.521 Y43.066 E2.96179
G1 X115.208 Y43.43 E2.99386
G1 X114.774 Y43.728 E3.02903
G1 X114.374 Y43.865 E3.05728
G1 X114.018 Y43.904 E3.0812
G1 X113.661 Y43.872 E3.10515
G1 X113.318 Y43.77 E3.12906
G1 X113.002 Y43.602 E3.15297
G1 X112.725 Y43.374 E3.17694
G1 X112.499 Y43.096 E3.20087
G1 X112.332 Y42.779 E3.22481
G1 X112.232 Y42.436 E3.24868
G1 X112.204 Y42.062 E3.27374
G1 X112.296 Y41.535 E3.30948
G1 X112.479 Y41.144 E3.33832
G1 X112.7 Y40.862 E3.36226
G1 X112.972 Y40.629 E3.38619
G1 X113.284 Y40.455 E3.41006
G1 X113.626 Y40.346 E3.43404
G1 X113.982 Y40.306 E3.45797
G1 X114.339 Y40.338 E3.48192
G1 X114.682 Y40.44 E3.50583
G1 X114.998 Y40.609 E3.52977
G1 X115.275 Y40.836 E3.5537
G1 X115.501 Y41.114 E3.57763
G1 X115.668 Y41.431 E3.60157
G1 X115.768 Y41.775 E3.6255
G1 X115.796 Y42.148 E3.65049
G1 X115.704 Y42.676 E3.68629
G1 X115.555 Y42.994 E3.70975
G1 X115.309 Y43.309 F7800
G1 E1.70975 F2400
G92 E0
G1 X104.215 Y32.58 F7800
G1 E2 F2400
;TYPE:Perimeter
;WIDTH:0.657372
G1 F1800
G1 X104.326 Y32.439 E2.01327
G1 X104.694 Y32.149 E2.04792
;WIDTH:0.637704
G1 X104.922 Y32.046 E2.06581
;WIDTH:0.609942
G1 X105.15 Y31.944 E2.08281
;WIDTH:0.582181
G1 X105.357 Y31.899 E2.09649
;WIDTH:0.550862
G1 X105.564 Y31.854 E2.10934
;WIDTH:0.519544
G1 X106.018 Y31.823 E2.13517
;WIDTH:0.52616
G1 X106.248 Y31.834 E2.14843
;WIDTH:0.554242
G1 X106.477 Y31.845 E2.16244
;WIDTH:0.6
G1 X106.926 Y31.964 E2.19347
G1 X107.332 Y32.19 E2.22451
G1 X107.685 Y32.492 E2.25554
G1 X107.972 Y32.858 E2.28661
G1 X108.18 Y33.273 E2.31762
G1 X108.301 Y33.721 E2.34862
G1 X108.324 Y34.24 E2.38333
G1 X108.231 Y34.768 E2.41915
G1 X108.031 Y35.253 E2.4542
G1 X107.711 Y35.696 E2.49071
G1 X107.329 Y36.025 E2.52439
G1 X106.886 Y36.264 E2.55802
G1 X106.441 Y36.396 E2.58903
G1 X105.978 Y36.438 E2.62009
G1 X105.516 Y36.388 E2.65113
G1 X105.074 Y36.247 E2.68212
G1 X104.668 Y36.021 E2.71316
G1 X104.315 Y35.719 E2.74419
G1 X104.028 Y35.353 E2.77526
G1 X103.82 Y34.937 E2.80633
G1 X103.787 Y34.686 E2.82324
;WIDTH:0.565787
G1 X103.753 Y34.435 E2.83908
;WIDTH:0.531574
G1 X103.719 Y34.184 E2.85384
;WIDTH:0.523033
G1 X103.757 Y33.815 E2.87506
;WIDTH:0.548705
G1 X103.794 Y33.447 E2.8974
;WIDTH:0.575994
G1 X103.837 Y33.293 E2.9076
;WIDTH:0.603283
G1 X103.88 Y33.138 E2.91841
;WIDTH:0.640419
G1 X104.036 Y32.809 E2.94457
;WIDTH:0.657372
G1 X104.178 Y32.627 E2.96164
G1 X104.178 Y32.627 F7800
G1 X104.642 Y32.956
;TYPE:External perimeter
;WIDTH:0.6
G1 F1800
G1 X104.802 Y32.772 E2.97793
G1 X105.236 Y32.477 E3.01299
G1 X105.626 Y32.346 E3.04047
G1 X105.982 Y32.306 E3.0644
G1 X106.339 Y32.338 E3.08835
G1 X106.682 Y32.44 E3.11226
G1 X106.998 Y32.609 E3.1362
G1 X107.275 Y32.836 E3.16013
G1 X107.501 Y33.114 E3.18406
G1 X107.668 Y33.431 E3.208
G1 X107.768 Y33.775 E3.23193
G1 X107.796 Y34.148 E3.25692
G1 X107.704 Y34.675 E3.29266
G1 X107.521 Y35.066 E3.3215
G1 X107.3 Y35.348 E3.34544
G1 X107.028 Y35.581 E3.36937
G1 X106.716 Y35.756 E3.39327
G1 X106.374 Y35.865 E3.41725
G1 X106.018 Y35.904 E3.44117
G1 X105.661 Y35.872 E3.46512
G1 X105.318 Y35.77 E3.48903
G1 X105.002 Y35.602 E3.51294
G1 X104.725 Y35.374 E3.53691
G1 X104.499 Y35.096 E3.56084
G1 X104.332 Y34.779 E3.58478
G1 X104.232 Y34.436 E3.60865
G1 X104.204 Y34.062 E3.63371
G1 X104.296 Y33.535 E3.66945
G1 X104.364 Y33.371 E3.68131
G1 X104.479 Y33.144 E3.69831
G1 X104.603 Y33.002 E3.7109
G1 X104.89 Y32.724 F7800
G1 E1.7109 F2400
G92 E0
G1 X112.563 Y39.635 F7800
G1 E2 F2400
;TYPE:Perimeter
G1 F1800
G1 X112.326 Y39.772 E2.01829
G1 X111.898 Y40.149 E2.05639
G1 X111.587 Y40.551 E2.09034
G1 X111.354 Y41 E2.12413
G1 X111.241 Y41.35 E2.1487
G1 X111.149 Y41.878 E2.1845
G1 X111.135 Y42.243 E2.2089
G1 X111.218 Y42.804 E2.24679
G1 X111.412 Y43.341 E2.28493
G1 X111.708 Y43.829 E2.32306
G1 X112.076 Y44.231 E2.35947
G1 X105.249 Y44.231 E2.81555
G1 X104.941 Y44.205 E2.8362
G1 X104.453 Y43.994 E2.87172
G1 X104.193 Y43.752 E2.89545
G1 X103.951 Y43.334 E2.92772
G1 X103.874 Y42.97 E2.95258
G1 X103.874 Y36.027 E3.41641
G1 X104.095 Y36.249 E3.43734
G1 X104.558 Y36.584 E3.47552
G1 X105.077 Y36.821 E3.51364
G1 X105.634 Y36.95 E3.55184
G1 X106.205 Y36.966 E3.59
G1 X106.676 Y36.895 E3.62182
G1 X107.181 Y36.722 E3.65748
G1 X107.674 Y36.438 E3.69549
G1 X108.102 Y36.061 E3.73359
G1 X108.413 Y35.659 E3.76754
G1 X108.646 Y35.21 E3.80133
G1 X108.759 Y34.86 E3.8259
G1 X108.851 Y34.333 E3.86164
G1 X108.865 Y33.968 E3.88604
G1 X108.782 Y33.407 E3.92393
G1 X108.588 Y32.87 E3.96207
G1 X108.292 Y32.381 E4.00026
G1 X107.92 Y31.976 E4.037
G1 X114.666 Y31.977 E4.48767
G1 X115.178 Y32.045 E4.52217
G1 X115.549 Y32.213 E4.54938
G1 X115.896 Y32.573 E4.58278
G1 X116.084 Y33.017 E4.61499
G1 X116.129 Y33.408 E4.64128
G1 X116.126 Y40.184 E5.09395
G1 X115.905 Y39.961 E5.11492
G1 X115.442 Y39.626 E5.1531
G1 X114.923 Y39.39 E5.19119
G1 X114.366 Y39.261 E5.22939
G1 X113.795 Y39.245 E5.26755
G1 X113.324 Y39.315 E5.29936
G1 X112.819 Y39.488 E5.33502
G1 X112.615 Y39.605 E5.35073
G1 E3.35073 F2400
G92 E0
G1 X112.615 Y39.605 F7800
G1 X115.863 Y44.374
G1 E2 F2400
;WIDTH:0.661209
G1 F1800
G1 X115.547 Y44.583 E2.0282
;WIDTH:0.639951
G1 X115.275 Y44.669 E2.04868
;WIDTH:0.610848
G1 X115.004 Y44.756 E2.06808
;WIDTH:0.581745
G1 X114.734 Y44.782 E2.08558
;WIDTH:0.549829
G1 X114.464 Y44.807 E2.102
;WIDTH:0.517914
G1 X113.661 Y44.812 E2.14742
;WIDTH:0.553935
G1 X113.41 Y44.789 E2.16281
;WIDTH:0.6
G1 X113.159 Y44.766 E2.17965
G1 X105.249 Y44.766 E2.70808
G1 X104.837 Y44.732 E2.7357
G1 X104.406 Y44.57 E2.76646
G1 X104.013 Y44.326 E2.79736
G1 X103.66 Y43.947 E2.83196
G1 X103.446 Y43.522 E2.86375
G1 X103.339 Y42.997 E2.89954
G1 X103.339 Y35.01 E3.43311
G1 X103.317 Y34.759 E3.44994
;WIDTH:0.556268
G1 X103.295 Y34.507 E3.46546
;WIDTH:0.512537
G1 X103.29 Y33.941 E3.4971
;WIDTH:0.5442
G1 X103.319 Y33.515 E3.52265
;WIDTH:0.586191
G1 X103.348 Y33.09 E3.55037
;WIDTH:0.613104
G1 X103.438 Y32.822 E3.56972
;WIDTH:0.640016
G1 X103.527 Y32.553 E3.59006
;WIDTH:0.65765
G1 X103.815 Y32.112 E3.62903
G1 X104.201 Y31.776 E3.6669
;WIDTH:0.650343
G1 X104.638 Y31.547 E3.70296
;WIDTH:0.623565
G1 X105.036 Y31.441 E3.73169
;WIDTH:0.582181
G1 X105.286 Y31.421 E3.74789
;WIDTH:0.550862
G1 X105.536 Y31.401 E3.76311
;WIDTH:0.519544
G1 X106.339 Y31.396 E3.8087
;WIDTH:0.554746
G1 X106.59 Y31.418 E3.82411
;WIDTH:0.6
G1 X106.842 Y31.441 E3.84101
G1 X114.666 Y31.441 E4.3637
G1 X114.985 Y31.463 E4.38506
G1 X115.512 Y31.586 E4.42121
G1 X115.932 Y31.833 E4.45376
G1 X116.345 Y32.273 E4.49407
G1 X116.449 Y32.478 E4.50943
G1 X116.604 Y32.887 E4.53865
G1 X116.664 Y33.408 E4.57369
G1 X116.662 Y41.201 E5.0943
G1 X116.683 Y41.452 E5.11113
;WIDTH:0.55638
G1 X116.705 Y41.703 E5.12659
;WIDTH:0.51276
G1 X116.71 Y42.27 E5.1583
;WIDTH:0.544263
G1 X116.681 Y42.695 E5.1838
;WIDTH:0.58619
G1 X116.652 Y43.12 E5.21152
;WIDTH:0.613102
G1 X116.562 Y43.389 E5.23093
;WIDTH:0.640016
G1 X116.473 Y43.657 E5.2512
;WIDTH:0.653189
G1 X116.268 Y43.984 E5.27954
;WIDTH:0.661209
G1 X115.991 Y44.289 E5.31021
G1 X115.913 Y44.341 E5.31719
G1 X115.913 Y44.341 F7800
G1 X116.207 Y44.816
;TYPE:External perimeter
;WIDTH:0.6
G1 F1800
G1 X115.941 Y45 E5.3388
G1 X115.459 Y45.205 E5.37379
G1 X114.911 Y45.302 E5.41097
G1 X105.249 Y45.302 E6.05644
G1 X104.941 Y45.284 E6.07705
G1 X104.398 Y45.166 E6.11417
G1 X103.865 Y44.897 E6.15406
G1 X103.504 Y44.601 E6.18525
G1 X103.208 Y44.241 E6.21639
G1 X102.941 Y43.71 E6.2561
G1 X102.803 Y43.023 E6.30291
G1 X102.803 Y33.405 E6.94544
