; generated by PrusaSlicer 2.8.1+linux-x64-GTK3 on 2024-10-05 at 10:18:00 UTC

; 

; external perimeters extrusion width = 0.45mm
; perimeters extrusion width = 0.45mm
; infill extrusion width = 0.45mm
; solid infill extrusion width = 0.45mm
; top infill extrusion width = 0.40mm
; first layer extrusion width = 0.70mm

M190 S60 ; set bed temperature and wait for it to be reached
M104 S200 ; set temperature
;TYPE:Custom
G28 ; home all axes
G1 Z5 F5000 ; lift nozzle
M109 S200 ; set temperature and wait for it to be reached
G21 ; set units to millimeters
G90 ; use absolute coordinates
M82 ; use absolute distances for extrusion
G92 E0
; Filament gcode
M107
;LAYER_CHANGE
;Z:0.35
;HEIGHT:0.35
G1 E-2 F2400
G1 Z.35 F7800
G1 X91.728 Y87.311
G1 E0 F2400
;TYPE:Skirt/Brim
;WIDTH:0.7
G1 F1800
G1 X92.395 Y86.654 E.08513
G1 X93.457 Y85.795 E.20933
G1 X94.714 Y85.02 E.34361
G1 X96.68 Y84.205 E.53713
G1 X98.118 Y83.864 E.67151
G1 X98.936 Y83.757 E.74652
G1 X101.064 Y83.757 E.94002
G1 X102.522 Y83.992 E1.07431
G1 X103.938 Y84.415 E1.20869
G1 X105.286 Y85.019 E1.34301
G1 X106.543 Y85.795 E1.47733
G1 X107.689 Y86.728 E1.6117
G1 X108.703 Y87.802 E1.74601
G1 X109.568 Y88.999 E1.8803
G1 X110.269 Y90.3 E2.01468
G1 X110.585 Y91.062 E2.08969
G1 X111.008 Y92.478 E2.22407
G1 X111.253 Y94.071 E2.37062
G1 X111.286 Y105.413 E3.40195
G1 X111.008 Y107.522 E3.59538
G1 X110.718 Y108.546 E3.69215
G1 X110.269 Y109.7 E3.80475
G1 X109.205 Y111.543 E3.99826
G1 X108.272 Y112.688 E4.13256
G1 X107.688 Y113.272 E4.20766
G1 X106 Y114.567 E4.40112
G1 X105.071 Y115.086 E4.49788
G1 X103.938 Y115.585 E4.61045
G1 X101.882 Y116.135 E4.80397
G1 X101.064 Y116.243 E4.879
G1 X99.587 Y116.286 E5.01336
G1 X98.118 Y116.135 E5.14764
G1 X96.68 Y115.794 E5.28202
G1 X95.3 Y115.269 E5.41628
G1 X94 Y114.567 E5.55062
G1 X92.802 Y113.702 E5.68498
G1 X91.728 Y112.688 E5.81929
G1 X90.795 Y111.543 E5.95359
G1 X90.02 Y110.285 E6.08794
G1 X89.206 Y108.32 E6.28134
G1 X88.992 Y107.522 E6.35647
G1 X88.757 Y106.071 E6.49013
G1 X88.7 Y105 E6.58765
G1 X88.714 Y94.587 E7.5345
G1 X88.992 Y92.478 E7.72793
G1 X89.241 Y91.575 E7.8131
G1 X89.731 Y90.3 E7.9373
G1 X90.795 Y88.457 E8.13081
G1 X91.69 Y87.358 E8.25969
G1 E6.25969 F2400
G92 E0
G1 X91.69 Y87.358 F7800
G92 E0
G1 X97.132 Y95.75
G1 E2 F2400
;TYPE:Perimeter
;WIDTH:0.688414
G1 F1800
G1 X97.121 Y95.658 E2.00827
;WIDTH:0.654835
G1 X97.094 Y95.42 E2.02848
;WIDTH:0.621256
G1 X97.067 Y95.182 E2.04752
;WIDTH:0.587678
G1 X97.093 Y94.615 E2.08985
;WIDTH:0.584482
G1 X97.2 Y94.123 E2.12717
;WIDTH:0.579085
G1 X97.396 Y93.643 E2.16519
;WIDTH:0.587102
G1 X97.68 Y93.213 E2.20358
G1 X98.021 Y92.831 E2.24173
;WIDTH:0.580923
G1 X98.485 Y92.486 E2.28429
G1 X99.008 Y92.235 E2.32699
;WIDTH:0.588556
G1 X99.614 Y92.1 E2.37338
G1 X100.088 Y92.065 E2.40889
;WIDTH:0.585983
G1 X100.774 Y92.174 E2.46053
G1 X101.208 Y92.326 E2.49471
;WIDTH:0.579472
G1 X101.65 Y92.569 E2.53173
;WIDTH:0.579335
G1 X102.079 Y92.921 E2.57245
G1 X102.482 Y93.442 E2.62078
;WIDTH:0.583835
G1 X102.707 Y93.87 E2.65657
G1 X102.868 Y94.363 E2.69496
;WIDTH:0.577589
G1 X102.936 Y94.901 E2.73461
;WIDTH:0.608843
G1 X102.902 Y95.527 E2.7833
;WIDTH:0.648624
G1 X102.876 Y95.711 E2.79881
;WIDTH:0.688406
G1 X102.851 Y95.896 E2.81547
;WIDTH:0.7
G1 X102.734 Y96.223 E2.84705
G1 X102.531 Y96.595 E2.88558
G1 X102.018 Y97.216 E2.95882
G1 X101.542 Y97.567 E3.0126
G1 X101.236 Y97.728 E3.04404
G1 X100.791 Y97.881 E3.08683
G1 X100.281 Y97.974 E3.13397
G1 X100 Y98 E3.15963
G1 X99.209 Y97.881 E3.23236
G1 X98.764 Y97.728 E3.27515
G1 X98.184 Y97.384 E3.33647
G1 X97.724 Y96.942 E3.39448
G1 X97.469 Y96.595 E3.43364
G1 X97.266 Y96.223 E3.47217
G1 X97.149 Y95.896 E3.50375
;WIDTH:0.688414
G1 X97.139 Y95.81 E3.51148
G1 X97.139 Y95.81 F7800
G1 X97.715 Y95.602
;WIDTH:0.7
G1 F1800
G1 X97.632 Y95.113 E3.55658
G1 X97.673 Y94.543 E3.60854
G1 X97.851 Y93.999 E3.66059
G1 X98.138 Y93.55 E3.70905
G1 X98.382 Y93.264 E3.74323
G1 X98.787 Y92.966 E3.78895
G1 X99.189 Y92.768 E3.8297
G1 X99.718 Y92.66 E3.87879
G1 X100.051 Y92.628 E3.90921
G1 X100.674 Y92.733 E3.96666
G1 X100.945 Y92.826 E3.99271
G1 X101.416 Y93.096 E4.04208
G1 X101.772 Y93.429 E4.08641
G1 X102.094 Y93.88 E4.1368
G1 X102.284 Y94.355 E4.18332
G1 X102.368 Y94.887 E4.23229
G1 X102.327 Y95.457 E4.28425
G1 X102.149 Y96.001 E4.3363
G1 X101.772 Y96.571 E4.39844
G1 X101.416 Y96.904 E4.44277
G1 X100.945 Y97.174 E4.49214
G1 X100.678 Y97.266 E4.51782
G1 X100.169 Y97.36 E4.56489
G1 X99.831 Y97.36 E4.59562
G1 X99.322 Y97.266 E4.64269
G1 X98.748 Y97.014 E4.69969
G1 X98.382 Y96.736 E4.74148
G1 X97.972 Y96.224 E4.80112
G1 X97.728 Y95.676 E4.85567
G1 X97.725 Y95.661 E4.85706
G1 X97.725 Y95.661 F7800
G1 X98.317 Y95.448
;TYPE:External perimeter
G1 F1800
G1 X98.294 Y95.382 E4.86342
G1 X98.252 Y94.962 E4.9018
G1 X98.312 Y94.545 E4.94011
G1 X98.475 Y94.146 E4.9793
G1 X98.782 Y93.744 E5.02529
G1 X99.078 Y93.519 E5.0591
G1 X99.439 Y93.347 E5.09546
G1 X99.933 Y93.256 E5.14113
G1 X100.565 Y93.348 E5.1992
G1 X101.016 Y93.576 E5.24515
G1 X101.269 Y93.799 E5.27582
G1 X101.565 Y94.22 E5.32262
G1 X101.706 Y94.618 E5.36101
G1 X101.748 Y95.038 E5.39939
G1 X101.688 Y95.455 E5.4377
G1 X101.525 Y95.854 E5.47689
G1 X101.218 Y96.256 E5.52288
G1 X100.961 Y96.46 E5.55272
G1 X100.566 Y96.652 E5.59266
G1 X100.056 Y96.745 E5.6398
G1 X99.434 Y96.652 E5.69699
G1 X98.984 Y96.424 E5.74286
G1 X98.731 Y96.201 E5.77353
G1 X98.435 Y95.78 E5.82033
G1 X98.337 Y95.504 E5.84696
G1 X98.271 Y95.11 F7800
G1 E3.84696 F2400
G92 E0
G1 X99.492 Y98.552 F7800
G1 E2 F2400
;TYPE:Perimeter
G1 F1800
G1 X100 Y98.625 E2.04667
G1 X100.393 Y98.589 E2.08255
G1 X100.903 Y98.496 E2.12969
G1 X101.526 Y98.281 E2.18962
G1 X101.833 Y98.12 E2.22114
G1 X102.418 Y97.696 E2.28684
G1 X102.763 Y97.329 E2.33264
G1 X102.762 Y104.834 E3.01507
G1 X102.699 Y105.537 E3.07925
G1 X102.548 Y106.055 E3.12831
G1 X102.288 Y106.529 E3.17747
G1 X101.95 Y106.95 E3.22656
G1 X101.529 Y107.288 E3.27565
G1 X101.055 Y107.548 E3.32481
G1 X100.537 Y107.699 E3.37387
G1 X100 Y107.758 E3.42299
G1 X99.463 Y107.699 E3.47211
G1 X98.945 Y107.548 E3.52117
G1 X98.471 Y107.288 E3.57033
G1 X98.05 Y106.95 E3.61942
G1 X97.712 Y106.529 E3.66851
G1 X97.452 Y106.055 E3.71767
G1 X97.301 Y105.534 E3.76699
G1 X97.237 Y104.926 E3.82258
G1 X97.237 Y97.33 E4.51328
G1 X97.783 Y97.864 E4.58272
G1 X98.474 Y98.281 E4.65611
G1 X99.097 Y98.496 E4.71604
G1 X99.432 Y98.544 E4.74681
G1 E2.74681 F2400
G92 E0
G1 X99.432 Y98.544 F7800
G1 X100.009 Y91.581
G1 E2 F2400
;WIDTH:0.583575
G1 F1800
G1 X100.315 Y91.578 E2.02264
;WIDTH:0.58593
G1 X100.906 Y91.681 E2.06723
G1 X101.437 Y91.876 E2.10928
;WIDTH:0.579472
G1 X101.928 Y92.153 E2.15065
;WIDTH:0.577495
G1 X102.338 Y92.478 E2.1889
;WIDTH:0.586369
G1 X102.731 Y92.91 E2.23235
G1 X103.068 Y93.446 E2.27945
;WIDTH:0.57854
G1 X103.295 Y94.011 E2.32405
;WIDTH:0.584504
G1 X103.413 Y94.551 E2.36502
G1 X103.447 Y95.059 E2.40276
;WIDTH:0.615812
G1 X103.43 Y95.654 E2.44959
;WIDTH:0.657906
G1 X103.409 Y95.998 E2.47882
;WIDTH:0.7
G1 X103.388 Y96.343 E2.51025
G1 X103.387 Y104.834 E3.28233
G1 X103.38 Y105.058 E3.30271
G1 X103.312 Y105.659 E3.35771
G1 X103.126 Y106.295 E3.41796
G1 X102.807 Y106.876 E3.47823
G1 X102.393 Y107.393 E3.53846
G1 X101.876 Y107.807 E3.59869
G1 X101.295 Y108.126 E3.65896
G1 X100.659 Y108.312 E3.71921
G1 X100 Y108.384 E3.77949
G1 X99.341 Y108.312 E3.83977
G1 X98.705 Y108.126 E3.90002
G1 X98.124 Y107.807 E3.96029
G1 X97.607 Y107.393 E4.02052
G1 X97.193 Y106.876 E4.08075
G1 X96.874 Y106.295 E4.14102
G1 X96.688 Y105.656 E4.20154
G1 X96.612 Y104.947 E4.26638
G1 X96.613 Y96.343 E5.04874
G1 X96.59 Y95.951 E5.08445
;WIDTH:0.654325
G1 X96.567 Y95.559 E5.11755
;WIDTH:0.608651
G1 X96.554 Y95.042 E5.1577
;WIDTH:0.584482
G1 X96.591 Y94.534 E5.19545
G1 X96.726 Y93.953 E5.23966
;WIDTH:0.579085
G1 X96.954 Y93.415 E5.28251
;WIDTH:0.587102
G1 X97.281 Y92.893 E5.3284
G1 X97.662 Y92.478 E5.37037
;WIDTH:0.577496
G1 X98.072 Y92.153 E5.40862
;WIDTH:0.579196
G1 X98.603 Y91.857 E5.45321
;WIDTH:0.585928
G1 X99.126 Y91.673 E5.49442
G1 X99.658 Y91.583 E5.53453
;WIDTH:0.583575
G1 X99.949 Y91.581 E5.55606
G1 X99.949 Y91.581 F7800
G1 X100.046 Y91.012
;WIDTH:0.7
G1 F1800
G1 X100.523 Y91.024 E5.59945
G1 X101.038 Y91.126 E5.64719
G1 X101.535 Y91.295 E5.69492
G1 X102.005 Y91.527 E5.74258
G1 X102.441 Y91.818 E5.79024
G1 X102.836 Y92.164 E5.83799
G1 X103.175 Y92.552 E5.88484
G1 X103.493 Y93.048 E5.93841
G1 X103.722 Y93.516 E5.98579
G1 X103.884 Y94.015 E6.0335
G1 X103.98 Y94.53 E6.08114
G1 X104.013 Y95.059 E6.12934
G1 X104.012 Y104.968 E7.03036
G1 X103.976 Y105.523 E7.08093
G1 X103.873 Y106.038 E7.12869
G1 X103.705 Y106.535 E7.17639
G1 X103.473 Y107.005 E7.22405
G1 X103.181 Y107.441 E7.27177
G1 X102.835 Y107.835 E7.31945
G1 X102.441 Y108.181 E7.36713
G1 X102.005 Y108.473 E7.41485
G1 X101.535 Y108.705 E7.46251
G1 X101.038 Y108.873 E7.51021
G1 X100.523 Y108.976 E7.55797
G1 X100 Y109.01 E7.60563
G1 X99.477 Y108.976 E7.65329
G1 X98.962 Y108.873 E7.70105
G1 X98.465 Y108.705 E7.74875
G1 X97.995 Y108.473 E7.79641
G1 X97.559 Y108.181 E7.84413
G1 X97.165 Y107.835 E7.89181
G1 X96.819 Y107.441 E7.93949
G1 X96.527 Y107.005 E7.98721
G1 X96.295 Y106.535 E8.03487
G1 X96.127 Y106.038 E8.08257
G1 X96.024 Y105.523 E8.13033
G1 X95.987 Y104.968 E8.18091
G1 X95.988 Y95.032 E9.08439
G1 X96.021 Y94.53 E9.13014
G1 X96.116 Y94.015 E9.17776
G1 X96.272 Y93.533 E9.22383
G1 X96.456 Y93.157 E9.26189
G1 X96.788 Y92.604 E9.32054
G1 X97.129 Y92.205 E9.36827
G1 X97.518 Y91.854 E9.41591
G1 X97.95 Y91.557 E9.46358
G1 X98.417 Y91.319 E9.51124
G1 X98.911 Y91.144 E9.55889
G1 X99.407 Y91.038 E9.60501
G1 X99.871 Y91.007 E9.6473
G1 X99.986 Y91.01 E9.65776
G1 X99.986 Y91.01 F7800
G1 X100.087 Y90.38
;TYPE:External perimeter
G1 F1800
G1 X100.199 Y90.377 E9.66795
G1 X100.699 Y90.422 E9.7136
G1 X101.29 Y90.552 E9.76862
G1 X101.963 Y90.809 E9.83413
G1 X102.434 Y91.062 E9.88275
G1 X102.894 Y91.384 E9.93381
G1 X103.417 Y91.88 E9.99935
G1 X103.735 Y92.267 E10.0449
G1 X104.099 Y92.851 E10.10747
G1 X104.314 Y93.315 E10.15397
G1 X104.497 Y93.893 E10.2091
G1 X104.603 Y94.489 E10.26414
G1 X104.638 Y95.059 E10.31607
G1 X104.637 Y104.989 E11.219
G1 X104.597 Y105.605 E11.27513
G1 X104.478 Y106.2 E11.3303
G1 X104.283 Y106.774 E11.38542
G1 X104.015 Y107.318 E11.44056
G1 X103.678 Y107.822 E11.49569
G1 X103.278 Y108.278 E11.55085
G1 X102.822 Y108.678 E11.60601
G1 X102.318 Y109.015 E11.66114
G1 X101.774 Y109.283 E11.71628
G1 X101.2 Y109.478 E11.7714
G1 X100.605 Y109.597 E11.82657
G1 X100 Y109.636 E11.8817
G1 X99.395 Y109.597 E11.93683
G1 X98.8 Y109.478 E11.992
G1 X98.226 Y109.283 E12.04712
G1 X97.682 Y109.015 E12.10226
G1 X97.178 Y108.678 E12.15739
G1 X96.722 Y108.278 E12.21255
G1 X96.322 Y107.822 E12.26771
G1 X95.985 Y107.318 E12.32284
G1 X95.717 Y106.774 E12.37798
G1 X95.522 Y106.2 E12.4331
G1 X95.403 Y105.605 E12.48827
G1 X95.362 Y104.988 E12.5445
G1 X95.363 Y95.212 E13.43343
G1 X95.384 Y94.694 E13.48057
G1 X95.449 Y94.163 E13.52921
G1 X95.599 Y93.571 E13.58474
G1 X95.809 Y93.048 E13.63599
G1 X96.089 Y92.525 E13.68993
G1 X96.384 Y92.106 E13.73653
G1 X96.793 Y91.659 E13.79162
G1 X97.258 Y91.268 E13.84686
G1 X97.767 Y90.943 E13.90177
G1 X98.315 Y90.686 E13.95681
G1 X98.893 Y90.503 E14.01194
G1 X99.603 Y90.394 E14.07726
G1 X100.027 Y90.382 E14.11583
G1 X100.427 Y90.4 F7800
G1 E12.11583 F2400
G92 E0
G1 X101.816 Y98.341 F7800
G1 E2 F2400
;TYPE:Solid infill
;WIDTH:0.711719
G1 F1800
G1 X102.294 Y98.818 E2.06256
G1 X102.294 Y99.719 E2.14602
G1 X101.394 Y98.819 E2.26392
G1 X100.999 Y98.955 E2.30262
G1 X100.687 Y99.012 E2.332
G1 X102.294 Y100.619 E2.54253
G1 X102.294 Y101.519 E2.6259
G1 X99.856 Y99.081 E2.94529
G1 X99.529 Y99.051 E2.97571
G1 X99.001 Y98.955 E3.02542
G1 X98.739 Y98.864 E3.05111
G1 X102.294 Y102.419 E3.51683
G1 X102.294 Y103.32 E3.60029
G1 X97.706 Y98.732 E4.20134
G1 X97.706 Y99.632 E4.28471
G1 X102.294 Y104.22 E4.88576
G1 X102.281 Y105.107 E4.96794
G1 X97.706 Y100.532 E5.56729
G1 X97.706 Y101.433 E5.65075
G1 X102.123 Y105.849 E6.22934
G1 X101.981 Y106.144 E6.25967
G1 X101.792 Y106.419 E6.29058
G1 X97.706 Y102.333 E6.82587
G1 X97.706 Y103.233 E6.90924
G1 X101.33 Y106.857 E7.384
G1 X101.144 Y106.981 E7.40471
G1 X100.876 Y107.114 E7.43243
G1 X100.734 Y107.162 E7.44632
G1 X97.706 Y104.133 E7.84307
G1 X97.714 Y105.042 E7.92728
G1 X99.957 Y107.285 E8.22113
G1 X99.701 Y107.268 E8.2449
G1 X99.408 Y107.21 E8.27257
G1 X99.124 Y107.114 E8.30034
G1 X98.856 Y106.981 E8.32806
G1 X98.607 Y106.815 E8.35578
G1 X98.441 Y106.67 E8.3762
G1 X97.56 Y105.788 E8.49168
;LAYER_CHANGE
;Z:0.65
;HEIGHT:0.3
G1 Z.65 F7800
G1 E6.49168 F2400
G92 E0
G1 X97.56 Y105.788 Z.65 F7800
G1 X97.326 Y95.702
G1 E2 F2400
;TYPE:Perimeter
;WIDTH:0.45
G1 F900
G1 X97.228 Y95.163 E2.02635
G1 X97.253 Y94.633 E2.05187
G1 X97.347 Y94.179 E2.07417
G1 X97.531 Y93.718 E2.09804
G1 X97.899 Y93.188 E2.12907
G1 X98.323 Y92.784 E2.15724
G1 X98.864 Y92.466 E2.18742
G1 X99.256 Y92.332 E2.20734
G1 X99.858 Y92.224 E2.23676
G1 X100.261 Y92.231 E2.25615
G1 X100.831 Y92.35 E2.28416
G1 X101.135 Y92.466 E2.29981
G1 X101.677 Y92.784 E2.33003
G1 X102.101 Y93.188 E2.3582
G1 X102.469 Y93.718 E2.38923
G1 X102.669 Y94.223 E2.41535
G1 X102.772 Y94.837 E2.44529
G1 X102.772 Y95.163 E2.46097
G1 X102.653 Y95.821 E2.49313
G1 X102.355 Y96.466 E2.5273
G1 X101.878 Y97.049 E2.56353
G1 X101.44 Y97.374 E2.58976
G1 X101.135 Y97.534 E2.60633
G1 X100.751 Y97.667 E2.62588
G1 X100.243 Y97.76 E2.65072
G1 X99.757 Y97.76 E2.67409
G1 X99.249 Y97.667 E2.69893
G1 X98.865 Y97.534 E2.71848
G1 X98.323 Y97.216 E2.7487
G1 X97.899 Y96.812 E2.77687
G1 X97.645 Y96.466 E2.79751
G1 X97.347 Y95.821 E2.83168
G1 X97.336 Y95.761 E2.83461
G1 X97.336 Y95.761 F7800
G1 X97.695 Y95.607
G1 F900
G1 X97.611 Y95.116 E2.85857
G1 X97.652 Y94.541 E2.8863
G1 X97.83 Y93.992 E2.91406
G1 X98.113 Y93.549 E2.93934
G1 X98.369 Y93.247 E2.95838
G1 X98.774 Y92.949 E2.98256
G1 X99.181 Y92.748 E3.00439
G1 X99.741 Y92.629 E3.03193
G1 X100.236 Y92.616 E3.05575
G1 X100.739 Y92.725 E3.0805
G1 X101.223 Y92.947 E3.10611
G1 X101.631 Y93.247 E3.13047
G1 X102.045 Y93.762 E3.16225
G1 X102.292 Y94.315 E3.19138
G1 X102.389 Y94.884 E3.21914
G1 X102.348 Y95.459 E3.24687
G1 X102.17 Y96.008 E3.27463
G1 X101.79 Y96.584 E3.30782
G1 X101.43 Y96.92 E3.3315
G1 X100.956 Y97.193 E3.35781
G1 X100.681 Y97.288 E3.3718
G1 X100.173 Y97.381 E3.39664
G1 X99.827 Y97.381 E3.41328
G1 X99.319 Y97.288 E3.43812
G1 X98.739 Y97.033 E3.46859
G1 X98.369 Y96.753 E3.49091
G1 X97.955 Y96.238 E3.52269
G1 X97.708 Y95.685 E3.55182
G1 X97.705 Y95.666 E3.55275
G1 X97.705 Y95.666 F7800
G1 X98.069 Y95.511
G1 F900
G1 X98.035 Y95.413 E3.55774
G1 X97.993 Y94.93 E3.58106
G1 X98.068 Y94.452 E3.60433
G1 X98.266 Y93.991 E3.62846
G1 X98.577 Y93.579 E3.65329
G1 X98.953 Y93.29 E3.6761
G1 X99.406 Y93.088 E3.69996
G1 X99.908 Y92.994 E3.72452
G1 X100.211 Y93.001 E3.7391
G1 X100.742 Y93.132 E3.7654
G1 X101.184 Y93.377 E3.78971
G1 X101.479 Y93.645 E3.80888
G1 X101.783 Y94.07 E3.83401
G1 X101.958 Y94.544 E3.85831
G1 X102.007 Y95.07 E3.88372
G1 X101.932 Y95.548 E3.90699
G1 X101.734 Y96.009 E3.93112
G1 X101.384 Y96.457 E3.95846
G1 X101.082 Y96.691 E3.97684
G1 X100.612 Y96.908 E4.00174
G1 X100.104 Y97.001 E4.02658
G1 X99.896 Y97.001 E4.03658
G1 X99.388 Y96.908 E4.06142
G1 X98.918 Y96.691 E4.08632
G1 X98.521 Y96.355 E4.11134
G1 X98.191 Y95.871 E4.13951
G1 X98.088 Y95.568 E4.1549
G1 X98.088 Y95.568 F7800
G1 X98.436 Y95.417
;TYPE:External perimeter
G1 F900
G1 X98.418 Y95.366 E4.1575
G1 X98.376 Y94.977 E4.17632
G1 X98.429 Y94.589 E4.19515
G1 X98.577 Y94.22 E4.21427
G1 X98.863 Y93.84 E4.23714
G1 X99.133 Y93.632 E4.25353
G1 X99.481 Y93.467 E4.27205
G1 X99.952 Y93.378 E4.2951
G1 X100.186 Y93.386 E4.30636
G1 X100.598 Y93.49 E4.3268
G1 X100.938 Y93.674 E4.34539
G1 X101.169 Y93.874 E4.36009
G1 X101.481 Y94.35 E4.38746
G1 X101.599 Y94.773 E4.40858
G1 X101.624 Y95.023 E4.42066
G1 X101.571 Y95.411 E4.43949
G1 X101.423 Y95.78 E4.45861
G1 X101.137 Y96.16 E4.48148
G1 X100.903 Y96.35 E4.49598
G1 X100.543 Y96.529 E4.51532
G1 X100.035 Y96.622 E4.54016
G1 X99.457 Y96.529 E4.56832
G1 X99.063 Y96.327 E4.58962
G1 X98.831 Y96.126 E4.60438
G1 X98.552 Y95.735 E4.62748
G1 X98.457 Y95.473 E4.64088
G1 X98.391 Y95.079 F7800
G1 E2.64088 F2400
G92 E0
