; generated by PrusaSlicer 2.8.1+linux-x64-GTK3 on 2024-10-05 at 12:52:08 UTC

; 

; external perimeters extrusion width = 0.45mm
; perimeters extrusion width = 0.45mm
; infill extrusion width = 0.45mm
; solid infill extrusion width = 0.45mm
; top infill extrusion width = 0.40mm
; first layer extrusion width = 0.70mm

M190 S60 ; set bed temperature and wait for it to be reached
M104 S200 ; set temperature
;TYPE:Custom
G28 ; home all axes
G1 Z5 F5000 ; lift nozzle
M109 S200 ; set temperature and wait for it to be reached
G21 ; set units to millimeters
G90 ; use absolute coordinates
M82 ; use absolute distances for extrusion
G92 E0
; Filament gcode
M107
;LAYER_CHANGE
;Z:0.35
;HEIGHT:0.35
G1 E-2 F2400
G1 Z.35 F7800
G1 X91.466 Y87.631
G1 E0 F2400
;TYPE:Skirt/Brim
;WIDTH:0.7
G1 F1800
G1 X92.631 Y86.466 E.14981
G1 X93.664 Y85.673 E.26823
G1 X95.091 Y84.849 E.41807
G1 X96.294 Y84.351 E.53646
G1 X97.885 Y83.924 E.68625
G1 X99.176 Y83.754 E.80465
G1 X101.043 Y83.783 E.97444
G1 X102.115 Y83.924 E1.07276
G1 X103.706 Y84.351 E1.22255
G1 X104.909 Y84.849 E1.34094
G1 X106.336 Y85.673 E1.49078
G1 X107.369 Y86.466 E1.6092
G1 X108.534 Y87.631 E1.75901
G1 X109.327 Y88.664 E1.87743
G1 X110.151 Y90.091 E2.02727
G1 X110.649 Y91.294 E2.14566
G1 X111.076 Y92.885 E2.29545
G1 X111.246 Y94.176 E2.41385
G1 X111.3 Y105 E3.39808
G1 X111.076 Y107.115 E3.59147
G1 X110.649 Y108.706 E3.74126
G1 X110.151 Y109.909 E3.85965
G1 X109.327 Y111.336 E4.00949
G1 X108.534 Y112.369 E4.12791
G1 X107.369 Y113.534 E4.27772
G1 X106.336 Y114.327 E4.39614
G1 X104.909 Y115.151 E4.54598
G1 X103.706 Y115.649 E4.66437
G1 X101.895 Y116.105 E4.83418
G1 X100.824 Y116.246 E4.93241
G1 X99.176 Y116.246 E5.08226
G1 X97.885 Y116.076 E5.20066
G1 X96.294 Y115.649 E5.35045
G1 X95.091 Y115.151 E5.46884
G1 X93.664 Y114.327 E5.61868
G1 X92.631 Y113.534 E5.7371
G1 X91.466 Y112.369 E5.88691
G1 X90.673 Y111.336 E6.00533
G1 X89.849 Y109.909 E6.15517
G1 X89.351 Y108.706 E6.27356
G1 X88.924 Y107.115 E6.42335
G1 X88.754 Y105.824 E6.54175
G1 X88.7 Y95 E7.52598
G1 X88.924 Y92.885 E7.71937
G1 X89.351 Y91.294 E7.86916
G1 X89.849 Y90.091 E7.98755
G1 X90.673 Y88.664 E8.13739
G1 X91.429 Y87.678 E8.25037
G1 E6.25037 F2400
G92 E0
G1 X91.429 Y87.678 F7800
G92 E0
G1 X97.98 Y92.69
G1 E2 F2400
;TYPE:Perimeter
;WIDTH:0.473766
G1 F1800
G1 X98.41 Y92.361 E2.03141
;WIDTH:0.472137
G1 X98.762 Y92.183 E2.0542
;WIDTH:0.47339
G1 X99.232 Y92.012 E2.08319
;WIDTH:0.476586
G1 X100.013 Y91.917 E2.12915
;WIDTH:0.477774
G1 X100.809 Y92.026 E2.17623
G1 X101.213 Y92.173 E2.20142
;WIDTH:0.462808
G1 X101.824 Y92.516 E2.24095
;WIDTH:0.470261
G1 X102.26 Y92.907 E2.27462
;WIDTH:0.479997
G1 X102.668 Y93.465 E2.31535
G1 X102.895 Y93.957 E2.34727
;WIDTH:0.464718
G1 X103.054 Y94.588 E2.38416
;WIDTH:0.487714
G1 X103.081 Y95.111 E2.4156
;WIDTH:0.536094
G1 X103.077 Y95.37 E2.43298
;WIDTH:0.584474
G1 X103.074 Y95.629 E2.45218
;WIDTH:0.622982
G1 X103.052 Y95.778 E2.46419
;WIDTH:0.661491
G1 X103.03 Y95.926 E2.47696
;WIDTH:0.7
G1 X103.009 Y96.075 E2.49064
G1 X102.839 Y96.465 E2.52933
G1 X102.607 Y96.847 E2.56997
G1 X102.339 Y97.177 E2.60863
G1 X102.012 Y97.482 E2.64929
G1 X101.665 Y97.727 E2.68791
G1 X101.268 Y97.933 E2.72858
G1 X100.867 Y98.075 E2.76726
G1 X100.077 Y98.198 E2.83996
G1 X99.56 Y98.164 E2.88707
G1 X99.143 Y98.078 E2.92579
G1 X98.722 Y97.928 E2.96643
G1 X98.345 Y97.733 E3.00502
G1 X97.98 Y97.475 E3.04566
G1 X97.669 Y97.185 E3.08433
G1 X97.387 Y96.838 E3.12499
G1 X97.166 Y96.475 E3.16363
G1 X96.988 Y96.065 E3.20427
G1 X96.974 Y95.895 E3.21978
;WIDTH:0.657699
G1 X96.96 Y95.725 E3.23424
;WIDTH:0.615398
G1 X96.946 Y95.554 E3.24773
;WIDTH:0.573097
G1 X96.932 Y95.384 E3.26009
;WIDTH:0.530796
G1 X96.918 Y95.214 E3.2714
;WIDTH:0.488496
G1 X96.927 Y94.824 E3.29487
;WIDTH:0.47292
G1 X97.017 Y94.198 E3.33148
G1 X97.272 Y93.572 E3.37061
;WIDTH:0.468535
G1 X97.478 Y93.236 E3.39317
;WIDTH:0.473766
G1 X97.822 Y92.812 E3.42484
G1 X97.932 Y92.727 E3.4329
G1 X97.932 Y92.727 F7800
G1 X98.295 Y93.078
;WIDTH:0.7
G1 F1800
G1 X98.34 Y93.036 E3.4385
G1 X98.887 Y92.678 E3.49794
G1 X99.373 Y92.504 E3.54488
G1 X100.048 Y92.429 E3.60664
G1 X100.704 Y92.529 E3.66698
G1 X100.98 Y92.622 E3.69346
G1 X101.516 Y92.916 E3.74905
G1 X101.912 Y93.28 E3.79796
G1 X102.228 Y93.733 E3.84818
G1 X102.407 Y94.094 E3.88482
G1 X102.554 Y94.654 E3.93747
G1 X102.562 Y95.223 E3.98921
G1 X102.527 Y95.476 E4.01243
G1 X102.305 Y96.14 E4.07609
G1 X101.912 Y96.72 E4.1398
G1 X101.377 Y97.172 E4.20349
G1 X100.74 Y97.463 E4.26717
G1 X100.091 Y97.573 E4.32702
G1 X99.352 Y97.489 E4.39465
G1 X98.705 Y97.222 E4.45829
G1 X98.153 Y96.79 E4.52203
G1 X97.739 Y96.226 E4.58565
G1 X97.497 Y95.604 E4.64634
G1 X97.425 Y95.068 E4.69552
G1 X97.491 Y94.435 E4.75339
G1 X97.561 Y94.184 E4.77708
G1 X97.776 Y93.698 E4.8254
G1 X98.153 Y93.21 E4.88147
G1 X98.251 Y93.119 E4.89363
G1 X98.251 Y93.119 F7800
G1 X98.685 Y93.559
;TYPE:External perimeter
G1 F1800
G1 X98.69 Y93.553 E4.89434
G1 X99.126 Y93.255 E4.94236
G1 X99.626 Y93.084 E4.99041
G1 X100.153 Y93.054 E5.03841
G1 X100.669 Y93.166 E5.08642
G1 X101.136 Y93.412 E5.13442
G1 X101.52 Y93.775 E5.18247
G1 X101.793 Y94.227 E5.23049
G1 X101.935 Y94.736 E5.27854
G1 X101.933 Y95.277 E5.32773
G1 X101.771 Y95.816 E5.37891
G1 X101.486 Y96.263 E5.42711
G1 X101.09 Y96.617 E5.47541
G1 X100.613 Y96.851 E5.52372
G1 X100.105 Y96.949 E5.57076
G1 X99.562 Y96.9 E5.62034
G1 X99.065 Y96.712 E5.66866
G1 X98.638 Y96.396 E5.71696
G1 X98.312 Y95.977 E5.76523
G1 X98.113 Y95.496 E5.81256
G1 X98.051 Y94.972 E5.86054
G1 X98.132 Y94.438 E5.90965
G1 X98.351 Y93.958 E5.95762
G1 X98.647 Y93.605 E5.99951
G1 X98.968 Y93.366 F7800
G1 E3.99951 F2400
G92 E0
G1 X97.35 Y105.71 F7800
G1 E2 F2400
;TYPE:Perimeter
G1 F1800
G1 X97.237 Y104.854 E2.07851
G1 X97.237 Y97.629 E2.73548
G1 X97.619 Y97.985 E2.78296
G1 X97.984 Y98.243 E2.8236
G1 X98.513 Y98.517 E2.87777
G1 X98.934 Y98.667 E2.91841
G1 X99.517 Y98.788 E2.97255
G1 X99.963 Y98.818 E3.0132
G1 X100.557 Y98.778 E3.06733
G1 X100.994 Y98.687 E3.10792
G1 X101.555 Y98.487 E3.16208
G1 X101.952 Y98.282 E3.20271
G1 X102.439 Y97.938 E3.25693
G1 X102.763 Y97.636 E3.2972
G1 X102.763 Y104.854 E3.95353
G1 X102.65 Y105.71 E4.03204
G1 X102.376 Y106.372 E4.09719
G1 X101.94 Y106.94 E4.1623
G1 X101.372 Y107.376 E4.22741
G1 X100.71 Y107.65 E4.29256
G1 X100 Y107.743 E4.35767
G1 X99.29 Y107.65 E4.42278
G1 X98.628 Y107.376 E4.48793
G1 X98.06 Y106.94 E4.55304
G1 X97.624 Y106.372 E4.61815
G1 X97.373 Y105.765 E4.67788
G1 X97.373 Y105.765 F7800
G1 X96.741 Y105.873
G1 F1800
G1 X96.613 Y104.895 E4.76757
G1 X96.613 Y96.143 E5.56339
G1 X96.59 Y96.041 E5.5729
;WIDTH:0.655816
G1 X96.568 Y95.939 E5.58172
;WIDTH:0.611632
G1 X96.546 Y95.838 E5.58979
;WIDTH:0.567448
G1 X96.524 Y95.736 E5.59727
;WIDTH:0.523264
G1 X96.507 Y95.242 E5.6295
;WIDTH:0.488496
G1 X96.539 Y94.773 E5.65778
;WIDTH:0.47292
G1 X96.627 Y94.123 E5.69575
G1 X96.737 Y93.83 E5.71387
;WIDTH:0.473237
G1 X96.995 Y93.235 E5.75144
G1 X97.448 Y92.643 E5.79462
;WIDTH:0.47023
G1 X97.766 Y92.349 E5.81952
;WIDTH:0.472137
G1 X98.175 Y92.041 E5.8491
G1 X98.545 Y91.853 E5.87308
;WIDTH:0.474254
G1 X99.038 Y91.656 E5.90392
G1 X99.428 Y91.581 E5.92699
;WIDTH:0.476586
G1 X99.973 Y91.517 E5.95905
G1 X100.35 Y91.552 E5.98117
;WIDTH:0.477774
G1 X100.876 Y91.63 E6.01233
G1 X101.248 Y91.767 E6.03556
;WIDTH:0.478727
G1 X101.718 Y91.972 E6.06568
G1 X102.058 Y92.211 E6.09009
;WIDTH:0.479468
G1 X102.48 Y92.557 E6.1222
G1 X102.826 Y92.995 E6.15504
;WIDTH:0.468553
G1 X103.09 Y93.417 E6.18354
;WIDTH:0.480314
G1 X103.355 Y94.074 E6.22531
G1 X103.435 Y94.538 E6.25307
;WIDTH:0.487714
G1 X103.494 Y95.111 E6.28765
;WIDTH:0.500305
G1 X103.487 Y95.513 E6.31253
;WIDTH:0.550228
G1 X103.462 Y95.666 E6.32325
;WIDTH:0.600152
G1 X103.437 Y95.82 E6.33517
;WIDTH:0.650076
G1 X103.412 Y95.973 E6.34814
;WIDTH:0.7
G1 X103.387 Y96.127 E6.36233
G1 X103.387 Y104.895 E7.1596
G1 X103.259 Y105.873 E7.24929
G1 X102.922 Y106.687 E7.3294
G1 X102.386 Y107.386 E7.4095
G1 X101.687 Y107.922 E7.4896
G1 X100.873 Y108.259 E7.56971
G1 X100 Y108.374 E7.64978
G1 X99.127 Y108.259 E7.72985
G1 X98.313 Y107.922 E7.80996
G1 X97.614 Y107.386 E7.89006
G1 X97.078 Y106.687 E7.97016
G1 X96.764 Y105.929 E8.04476
G1 X96.764 Y105.929 F7800
G1 X96.133 Y106.036
G1 F1800
G1 X95.988 Y104.936 E8.14565
G1 X95.988 Y95.064 E9.04331
G1 X96.133 Y93.964 E9.1442
G1 X96.533 Y92.998 E9.23927
G1 X97.169 Y92.169 E9.33428
G1 X97.998 Y91.533 E9.42929
G1 X98.964 Y91.133 E9.52436
G1 X100 Y90.996 E9.61938
G1 X101.036 Y91.133 E9.7144
G1 X102.002 Y91.533 E9.80947
G1 X102.831 Y92.169 E9.90448
G1 X103.467 Y92.998 E9.99949
G1 X103.867 Y93.964 E10.09456
G1 X104.012 Y95.111 E10.19969
G1 X104.012 Y104.936 E11.09307
G1 X103.867 Y106.036 E11.19396
G1 X103.467 Y107.002 E11.28903
G1 X102.831 Y107.831 E11.38404
G1 X102.002 Y108.467 E11.47905
G1 X101.036 Y108.867 E11.57412
G1 X100 Y109.004 E11.66914
G1 X98.964 Y108.867 E11.76416
G1 X97.998 Y108.467 E11.85923
G1 X97.169 Y107.831 E11.95424
G1 X96.533 Y107.002 E12.04925
G1 X96.155 Y106.092 E12.13885
G1 X96.155 Y106.092 F7800
G1 X95.524 Y106.199
;TYPE:External perimeter
G1 F1800
G1 X95.363 Y104.977 E12.25093
G1 X95.363 Y95.023 E13.15604
G1 X95.524 Y93.801 E13.26812
G1 X95.987 Y92.683 E13.37815
G1 X96.723 Y91.723 E13.48814
G1 X97.683 Y90.987 E13.59813
G1 X98.801 Y90.524 E13.70816
G1 X100 Y90.366 E13.81813
G1 X101.199 Y90.524 E13.9281
G1 X102.317 Y90.987 E14.03813
G1 X103.277 Y91.723 E14.14812
G1 X104.013 Y92.683 E14.25811
G1 X104.476 Y93.801 E14.36814
G1 X104.637 Y95.111 E14.48815
G1 X104.637 Y104.977 E15.38526
G1 X104.476 Y106.199 E15.49734
G1 X104.013 Y107.317 E15.60737
G1 X103.277 Y108.277 E15.71736
G1 X102.317 Y109.013 E15.82735
G1 X101.199 Y109.476 E15.93738
G1 X100 Y109.634 E16.04735
G1 X98.801 Y109.476 E16.15732
G1 X97.683 Y109.013 E16.26735
G1 X96.723 Y108.277 E16.37734
G1 X95.987 Y107.317 E16.48733
G1 X95.547 Y106.255 E16.59186
G1 X95.481 Y105.86 F7800
G1 E14.59186 F2400
G92 E0
G1 X101.767 Y98.589 F7800
G1 E2 F2400
;TYPE:Solid infill
;WIDTH:0.744615
G1 F1800
G1 X102.294 Y99.116 E2.07261
G1 X102.294 Y100.062 E2.16477
G1 X101.303 Y99.071 E2.3013
G1 X101.1 Y99.144 E2.32232
G1 X100.533 Y99.248 E2.37848
G1 X102.294 Y101.009 E2.6211
G1 X102.294 Y101.956 E2.71336
G1 X99.601 Y99.263 E3.08439
G1 X99.475 Y99.255 E3.09669
G1 X98.787 Y99.112 E3.16515
G1 X98.346 Y98.955 E3.21075
G1 X102.294 Y102.903 E3.75469
G1 X102.294 Y103.85 E3.84695
G1 X97.706 Y99.262 E4.47906
G1 X97.706 Y100.209 E4.57132
G1 X102.294 Y104.796 E5.20336
G1 X102.177 Y105.627 E5.28512
G1 X97.706 Y101.156 E5.90111
G1 X97.706 Y102.102 E5.99327
G1 X101.868 Y106.264 E6.56669
G1 X101.606 Y106.606 E6.60866
G1 X101.411 Y106.755 E6.63257
G1 X97.706 Y103.049 E7.1431
G1 X97.706 Y103.996 E7.23536
G1 X100.811 Y107.101 E7.66315
G1 X100.588 Y107.193 E7.68665
G1 X100.03 Y107.267 E7.74149
G1 X97.724 Y104.961 E8.0592
G1 X97.807 Y105.588 E8.12082
G1 X98.034 Y106.135 E8.17852
G1 X98.303 Y106.487 E8.22168
G1 X99.245 Y107.428 E8.3514
;LAYER_CHANGE
;Z:0.65
;HEIGHT:0.3
G1 Z.65 F7800
G1 E6.3514 F2400
G92 E0
G1 X99.245 Y107.428 Z.65 F7800
G1 X97.468 Y93.355
G1 E2 F2400
;TYPE:Perimeter
;WIDTH:0.562523
G1 F900
G1 X97.62 Y93.115 E2.01765
;WIDTH:0.557158
G1 X98.099 Y92.639 E2.05915
;WIDTH:0.572627
G1 X98.473 Y92.378 E2.08806
G1 X99.166 Y92.08 E2.13588
;WIDTH:0.568348
G1 X99.706 Y91.979 E2.17041
;WIDTH:0.556943
G1 X100.342 Y91.989 E2.20949
;WIDTH:0.563173
G1 X100.883 Y92.094 E2.24377
G1 X101.412 Y92.314 E2.27941
;WIDTH:0.561849
G1 X101.938 Y92.669 E2.31878
;WIDTH:0.564141
G1 X102.206 Y92.917 E2.34154
;WIDTH:0.567161
G1 X102.632 Y93.474 E2.38551
G1 X102.862 Y94.001 E2.42157
;WIDTH:0.560952
G1 X102.964 Y94.351 E2.44415
;WIDTH:0.568983
G1 X103.038 Y94.982 E2.48414
;WIDTH:0.594283
G1 X103.02 Y95.468 E2.51628
G1 X102.946 Y95.65 E2.52927
;WIDTH:0.546188
G1 X102.873 Y95.833 E2.54111
;WIDTH:0.498094
G1 X102.799 Y96.015 E2.55174
;WIDTH:0.45
G1 X102.653 Y96.353 E2.56945
G1 X102.421 Y96.733 E2.59086
G1 X102.189 Y97.018 E2.60853
G1 X101.864 Y97.322 E2.62993
G1 X101.564 Y97.534 E2.6476
G1 X101.168 Y97.739 E2.66905
G1 X100.822 Y97.862 E2.68671
G1 X100.081 Y97.98 E2.7228
G1 X99.66 Y97.958 E2.74308
G1 X99.319 Y97.894 E2.75977
G1 X98.831 Y97.735 E2.78446
G1 X98.469 Y97.554 E2.80393
G1 X98.105 Y97.297 E2.82536
G1 X97.607 Y96.771 E2.8602
G1 X97.42 Y96.477 E2.87696
G1 X97.203 Y96.011 E2.90168
;WIDTH:0.490913
G1 X97.154 Y95.922 E2.90708
;WIDTH:0.531826
G1 X97.106 Y95.832 E2.91303
;WIDTH:0.572739
G1 X97.058 Y95.742 E2.9195
;WIDTH:0.613653
G1 X97.01 Y95.653 E2.92643
G1 X96.957 Y95.105 E2.96415
;WIDTH:0.576599
G1 X96.991 Y94.595 E2.9968
;WIDTH:0.558667
G1 X97.149 Y93.97 E3.03654
;WIDTH:0.562523
G1 X97.299 Y93.618 E3.06031
G1 X97.435 Y93.405 E3.07601
G1 X97.435 Y93.405 F7800
G1 X97.838 Y93.588
;WIDTH:0.45
G1 F900
G1 X97.967 Y93.381 E3.08774
G1 X98.399 Y92.96 E3.11675
G1 X98.679 Y92.775 E3.13289
G1 X99.257 Y92.516 E3.16335
G1 X99.764 Y92.413 E3.18823
G1 X100.318 Y92.427 E3.21488
G1 X100.916 Y92.569 E3.24444
G1 X101.377 Y92.804 E3.26933
G1 X101.82 Y93.147 E3.29628
G1 X102.145 Y93.542 E3.32088
G1 X102.281 Y93.767 E3.33352
G1 X102.508 Y94.32 E3.36227
G1 X102.594 Y94.966 E3.39361
G1 X102.548 Y95.482 E3.41853
G1 X102.323 Y96.152 E3.45252
G1 X101.926 Y96.736 E3.48648
G1 X101.386 Y97.192 E3.52047
G1 X100.743 Y97.484 E3.55444
G1 X100.089 Y97.595 E3.58634
G1 X99.438 Y97.527 E3.61782
G1 X98.95 Y97.368 E3.64251
G1 X98.692 Y97.239 E3.65638
G1 X98.143 Y96.812 E3.68983
G1 X97.769 Y96.314 E3.71978
G1 X97.552 Y95.848 E3.7445
G1 X97.416 Y95.212 E3.77578
G1 X97.425 Y94.652 E3.80272
G1 X97.572 Y94.089 E3.83071
G1 X97.677 Y93.848 E3.84335
G1 X97.807 Y93.639 E3.85519
G1 X97.807 Y93.639 F7800
G1 X98.164 Y93.793
G1 F900
G1 X98.273 Y93.616 E3.86519
G1 X98.662 Y93.242 E3.89114
G1 X99.186 Y92.946 E3.92009
G1 X99.772 Y92.803 E3.9491
G1 X100.296 Y92.812 E3.97431
G1 X100.795 Y92.937 E3.99905
G1 X101.151 Y93.116 E4.01821
G1 X101.564 Y93.439 E4.04343
G1 X101.904 Y93.873 E4.06995
G1 X102.109 Y94.338 E4.09439
G1 X102.202 Y94.845 E4.11918
G1 X102.177 Y95.378 E4.14484
G1 X101.994 Y95.952 E4.17382
G1 X101.663 Y96.454 E4.20274
G1 X101.209 Y96.849 E4.23168
G1 X100.665 Y97.107 E4.26064
G1 X100.098 Y97.209 E4.28835
G1 X99.557 Y97.16 E4.31448
G1 X99.069 Y97.002 E4.33915
G1 X98.55 Y96.667 E4.36886
G1 X98.199 Y96.277 E4.3941
G1 X97.901 Y95.685 E4.42598
G1 X97.798 Y95.155 E4.45195
G1 X97.823 Y94.622 E4.47761
G1 X97.966 Y94.127 E4.50239
G1 X98.006 Y94.048 E4.50665
G1 X98.132 Y93.844 E4.51818
G1 X98.132 Y93.844 F7800
G1 X98.492 Y94
;TYPE:External perimeter
G1 F900
G1 X98.6 Y93.827 E4.52799
G1 X99.033 Y93.46 E4.55529
G1 X99.448 Y93.264 E4.57736
G1 X99.918 Y93.177 E4.60035
G1 X100.31 Y93.203 E4.61925
G1 X100.63 Y93.285 E4.63514
G1 X100.924 Y93.428 E4.65086
G1 X101.265 Y93.683 E4.67134
G1 X101.574 Y94.074 E4.69531
G1 X101.765 Y94.531 E4.71913
G1 X101.819 Y95.058 E4.74461
G1 X101.805 Y95.274 E4.75502
G1 X101.664 Y95.751 E4.77894
G1 X101.4 Y96.173 E4.80288
G1 X101.031 Y96.507 E4.82682
G1 X100.587 Y96.729 E4.8507
G1 X100.1 Y96.824 E4.87456
G1 X99.676 Y96.793 E4.89501
G1 X99.188 Y96.635 E4.91968
G1 X98.772 Y96.352 E4.94388
G1 X98.468 Y95.988 E4.96669
G1 X98.251 Y95.522 E4.99141
G1 X98.177 Y95.062 E5.01382
G1 X98.195 Y94.726 E5.03
G1 X98.336 Y94.249 E5.05392
G1 X98.46 Y94.051 E5.06516
G1 X98.715 Y93.743 F7800
G1 E3.06516 F2400
G92 E0
G1 X96.517 Y105.933 F7800
G1 E2 F2400
;TYPE:Perimeter
G1 F3600
G1 X96.382 Y104.909 E2.04968
G1 X96.382 Y96.193 E2.46889
;WIDTH:0.491763
G1 X96.403 Y96.079 E2.47507
;WIDTH:0.533527
G1 X96.424 Y95.964 E2.48191
;WIDTH:0.57529
G1 X96.445 Y95.85 E2.4893
;WIDTH:0.617054
G1 X96.465 Y95.736 E2.49728
G1 X96.45 Y95.318 E2.52611
;WIDTH:0.585627
G1 X96.489 Y94.686 E2.56728
;WIDTH:0.574226
G1 X96.59 Y94.052 E2.6081
G1 X96.856 Y93.393 E2.65329
;WIDTH:0.562523
G1 X97.126 Y92.961 E2.68494
;WIDTH:0.57337
G1 X97.521 Y92.474 E2.72475
G1 X98.141 Y91.993 E2.77457
;WIDTH:0.566174
G1 X98.6 Y91.768 E2.80656
;WIDTH:0.571672
G1 X99.116 Y91.572 E2.84148
G1 X99.949 Y91.46 E2.89466
;WIDTH:0.568692
G1 X100.388 Y91.499 E2.92238
;WIDTH:0.570444
G1 X100.885 Y91.571 E2.95408
G1 X101.271 Y91.713 E2.98004
;WIDTH:0.568304
G1 X101.8 Y91.949 E3.01645
G1 X102.233 Y92.274 E3.05048
;WIDTH:0.564141
