; generated by PrusaSlicer 2.8.1+linux-x64-GTK3 on 2024-10-17 at 07:22:48 UTC

; 

; external perimeters extrusion width = 0.45mm
; perimeters extrusion width = 0.45mm
; infill extrusion width = 0.45mm
; solid infill extrusion width = 0.45mm
; top infill extrusion width = 0.40mm
; support material extrusion width = 0.40mm
; first layer extrusion width = 0.60mm

M190 S60 ; set bed temperature and wait for it to be reached
M104 S200 ; set temperature
;TYPE:Custom
G28 ; home all axes
G1 Z5 F5000 ; lift nozzle
M109 S200 ; set temperature and wait for it to be reached
G21 ; set units to millimeters
G90 ; use absolute coordinates
M82 ; use absolute distances for extrusion
G92 E0
; Filament gcode
M107
;LAYER_CHANGE
;Z:0.3
;HEIGHT:0.3
G1 E-2 F2400
G1 Z.3 F7800
G1 X79.694 Y88.384
G1 E0 F2400
;TYPE:Skirt/Brim
;WIDTH:0.6
G1 F1800
G1 X80.549 Y87.655 E.07506
G1 X81.48 Y86.997 E.15122
G1 X82.453 Y86.435 E.22629
G1 X83.488 Y85.956 E.30248
G1 X84.547 Y85.58 E.37755
G1 X85.652 Y85.297 E.45375
G1 X87.729 Y85.043 E.59354
G1 X97.726 Y85.044 E1.26139
G1 X99.874 Y85.145 E1.40505
G1 X129.611 Y89.779 E3.41562
G1 X135.564 Y91.358 E3.82706
G1 X137.57 Y92.037 E3.96854
G1 X139.198 Y92.885 E4.09117
G1 X139.905 Y93.397 E4.14949
G1 X140.831 Y94.219 E4.23221
G1 X141.825 Y95.308 E4.33071
G1 X145.106 Y99.258 E4.67375
G1 X146.143 Y100.597 E4.78689
G1 X147.035 Y102.18 E4.90828
G1 X147.342 Y102.976 E4.96528
G1 X147.676 Y104.199 E5.04998
G1 X148.608 Y111.189 E5.52108
G1 X148.6 Y112.806 E5.62911
G1 X148.446 Y113.952 E5.70636
G1 X148.023 Y115.519 E5.81479
G1 X147.514 Y116.717 E5.90175
G1 X146.988 Y117.682 E5.97517
G1 X144.819 Y120.905 E6.2347
G1 X140.965 Y125.475 E6.63407
G1 X139.957 Y126.416 E6.72619
G1 X139.043 Y127.097 E6.80234
G1 X137.695 Y127.863 E6.90592
G1 X135.601 Y128.615 E7.05456
G1 X130.953 Y129.722 E7.37376
G1 X128.569 Y130.012 E7.5342
G1 X124.113 Y130.14 E7.83201
G1 X116.859 Y130.093 E8.31663
G1 X109.743 Y129.717 E8.79268
G1 X81.531 Y126.209 E10.69191
G1 X80.195 Y125.908 E10.7834
G1 X79.213 Y125.506 E10.85429
G1 X78.287 Y124.956 E10.92624
G1 X77.464 Y124.286 E10.99714
G1 X76.5 Y123.17 E11.09566
G1 X75.8 Y121.929 E11.19084
G1 X75.357 Y120.576 E11.28595
G1 X75.186 Y119.161 E11.38117
G1 X75.202 Y100.489 E12.62856
G1 X76.001 Y94.961 E13.0017
G1 X76.453 Y93.34 E13.11412
G1 X77.039 Y91.957 E13.21446
G1 X77.552 Y91.019 E13.28588
G1 X78.188 Y90.072 E13.36209
G1 X78.897 Y89.2 E13.43717
G1 X79.652 Y88.427 E13.50936
G1 E11.50936 F2400
G92 E0
G1 X79.652 Y88.427 F7800
G92 E0
G1 X88.326 Y91.312
G1 E2 F2400
;TYPE:Support material
G1 F1800
G1 X88.912 Y91.338 E2.03919
G1 X89.982 Y91.56 E2.11219
G1 X91.023 Y91.984 E2.18728
G1 X91.971 Y92.59 E2.26245
G1 X92.792 Y93.357 E2.33751
G1 X93.174 Y93.873 E2.3804
G1 X93.758 Y93.154 E2.44228
G1 X94.613 Y92.425 E2.51734
G1 X95.587 Y91.862 E2.5925
G1 X96.646 Y91.486 E2.66757
G1 X97.726 Y91.312 E2.74065
G1 X98.325 Y91.312 E2.78067
G1 X98.909 Y91.338 E2.81972
G1 X99.98 Y91.56 E2.89279
G1 X101.021 Y91.984 E2.96788
G1 X101.968 Y92.59 E3.04299
G1 X102.79 Y93.357 E3.1181
G1 X103.459 Y94.261 E3.19323
G1 X103.954 Y95.271 E3.26837
G1 X104.258 Y96.354 E3.34352
G1 X104.324 Y97.085 E3.39255
G1 X105.211 Y96.384 E3.46808
G1 X106.192 Y95.898 E3.54122
G1 X107.291 Y95.687 E3.61598
G1 X108.559 Y95.781 E3.70092
G1 X109.701 Y96.197 E3.78212
G1 X110.771 Y95.78 E3.85884
G1 X112.508 Y95.764 E3.97489
G1 X113.359 Y96.014 E4.03414
G1 X114.55 Y96.646 E4.12421
G1 X115.142 Y96.38 E4.16757
G1 X116.237 Y96.208 E4.24162
G1 X117.478 Y96.337 E4.32497
G1 X118.403 Y96.702 E4.3914
G1 X119.448 Y96.085 E4.47247
G1 X120.182 Y95.852 E4.52392
G1 X121.791 Y95.806 E4.63145
G1 X122.701 Y96.062 E4.6946
G1 X123.716 Y96.574 E4.77055
G1 X124.211 Y97.055 E4.81666
G1 X125.165 Y96.384 E4.89458
G1 X125.938 Y96.073 E4.95024
G1 X126.715 Y95.871 E5.00387
G1 X128.646 Y95.972 E5.13305
G1 X130.018 Y96.743 E5.23819
G1 X130.837 Y97.561 E5.31552
G1 X131.071 Y97.947 E5.34568
G1 X131.974 Y97.588 E5.4106
G1 X132.848 Y97.404 E5.47027
G1 X133.919 Y97.406 E5.54182
G1 X135.52 Y97.96 E5.655
G1 X136.227 Y98.472 E5.71332
G1 X137.006 Y99.315 E5.79
G1 X137.512 Y100.355 E5.86726
G1 X137.762 Y101.418 E5.94021
G1 X137.745 Y102.035 E5.98144
G1 X138.452 Y102.192 E6.02982
G1 X139.25 Y102.502 E6.08701
G1 X140.15 Y103.095 E6.15901
G1 X141.187 Y104.435 E6.2722
G1 X141.494 Y105.231 E6.3292
G1 X141.692 Y106.417 E6.40953
G1 X141.522 Y107.614 E6.4903
G1 X141.027 Y108.77 E6.57431
G1 X141.775 Y109.727 E6.65545
G1 X142.236 Y110.821 E6.73476
G1 X142.388 Y111.969 E6.81212
G1 X142.234 Y113.115 E6.88937
G1 X141.77 Y114.21 E6.96882
G1 X141.06 Y115.114 E7.04561
G1 X140.405 Y115.601 E7.10014
G1 X140.36 Y115.934 E7.12259
G1 X139.893 Y117.03 E7.20218
G1 X139.183 Y117.932 E7.27887
G1 X138.268 Y118.611 E7.35499
G1 X137.444 Y118.94 E7.41426
G1 X137.384 Y119.392 E7.44472
G1 X136.92 Y120.486 E7.52411
G1 X136.212 Y121.39 E7.60082
G1 X135.297 Y122.072 E7.67706
G1 X134.148 Y122.518 E7.7594
G1 X133.036 Y122.639 E7.83413
G1 X131.721 Y122.379 E7.92368
G1 X130.65 Y123.178 E8.01295
G1 X129.501 Y123.625 E8.09531
G1 X128.389 Y123.747 E8.17004
G1 X127.278 Y123.572 E8.24518
G1 X126.23 Y123.099 E8.32199
G1 X125.257 Y123.573 E8.39429
G1 X123.934 Y123.875 E8.48495
G1 X121.976 Y123.421 E8.61923
G1 X120.709 Y122.542 E8.72225
G1 X120.218 Y122.979 E8.76616
G1 X119.337 Y123.49 E8.8342
G1 X118.623 Y123.73 E8.88452
G1 X116.903 Y123.825 E8.9996
G1 X115.744 Y123.466 E9.08066
G1 X115.078 Y123.091 E9.13172
G1 X114.275 Y122.434 E9.20103
G1 X113.893 Y122.757 E9.23445
G1 X112.999 Y123.237 E9.30224
G1 X112.146 Y123.498 E9.36183
G1 X110.517 Y123.497 E9.47066
G1 X109.788 Y123.283 E9.52142
G1 X109.053 Y122.94 E9.57561
G1 X108.726 Y122.704 E9.60255
G1 X107.833 Y122.969 E9.66478
G1 X106.672 Y122.972 E9.74234
G1 X105.555 Y122.648 E9.82004
G1 X104.572 Y122.02 E9.89797
G1 X102.224 Y119.325 E10.13676
G1 X103.127 Y119.325 E10.19709
G1 X103.127 Y120.217 E10.25668
G1 X103.434 Y120.525 E10.28573
G1 X105.869 Y120.525 E10.4484
G1 X106.177 Y120.217 E10.4775
G1 X106.177 Y115.022 E10.82455
G1 X106.671 Y114.878 E10.85893
G1 X107.836 Y114.882 E10.93676
G1 X109.075 Y115.248 E11.02307
G1 X110.375 Y114.705 E11.11719
G1 X112.121 Y114.688 E11.23384
G1 X112.972 Y114.938 E11.29309
G1 X114.002 Y115.488 E11.3711
G1 X114.575 Y116.059 E11.42514
G1 X115.134 Y115.645 E11.47161
G1 X116.162 Y115.064 E11.5505
G1 X118.14 Y114.933 E11.68293
G1 X119.118 Y115.191 E11.7505
G1 X120.129 Y115.694 E11.82594
G1 X120.675 Y116.205 E11.8759
G1 X121.058 Y115.848 E11.91088
G1 X121.831 Y115.318 E11.97349
G1 X123.374 Y114.898 E12.08032
G1 X123.434 Y114.476 E12.1088
G1 X122.819 Y114.157 E12.15508
G1 X121.98 Y113.466 E12.22769
G1 X121.341 Y112.565 E12.30148
G1 X120.916 Y111.384 E12.38533
G1 X120.828 Y110.225 E12.46298
G1 X120.927 Y109.465 E12.51418
G1 X121.305 Y108.428 E12.58792
G1 X121.927 Y107.549 E12.65986
G1 X122.921 Y106.715 E12.74654
G1 X123.581 Y106.419 E12.79486
G1 X123.647 Y105.593 E12.85022
G1 X123.799 Y104.978 E12.89254
G1 X124.226 Y104.06 E12.96018
G1 X123.907 Y103.763 E12.9893
G1 X122.826 Y104.363 E13.07189
G1 X122.044 Y104.614 E13.12676
G1 X120.321 Y104.657 E13.2419
G1 X119.253 Y104.304 E13.31704
G1 X118.95 Y104.127 E13.34048
G1 X118.553 Y104.423 E13.37356
G1 X117.404 Y104.87 E13.45592
G1 X116.293 Y104.992 E13.53059
G1 X115.182 Y104.817 E13.60573
G1 X114.508 Y104.538 E13.65446
G1 X113.792 Y104.098 E13.7106
G1 X113.392 Y104.313 E13.74094
G1 X112.542 Y104.574 E13.80034
G1 X110.904 Y104.573 E13.90977
G1 X110.175 Y104.359 E13.96053
G1 X109.36 Y103.977 E14.02066
G1 X108.47 Y104.286 E14.0836
G1 X107.351 Y104.375 E14.15859
G1 X106.257 Y104.165 E14.23301
G1 X106.177 Y104.129 E14.23887
G1 X106.177 Y99.783 E14.52921
G1 X105.869 Y99.475 E14.55831
G1 X103.434 Y99.475 E14.72098
G1 X103.127 Y99.783 E14.75003
G1 X103.127 Y101.135 E14.84035
G1 X102.799 Y101.576 E14.87707
G1 X101.955 Y102.365 E14.95425
G1 X101.02 Y102.962 E15.02836
G1 X99.979 Y103.386 E15.10345
G1 X98.878 Y103.614 E15.17856
G1 X97.755 Y103.64 E15.2536
G1 X96.645 Y103.461 E15.32871
G1 X95.586 Y103.084 E15.40381
G1 X94.613 Y102.521 E15.47891
G1 X93.758 Y101.792 E15.55397
G1 X93.174 Y101.073 E15.61585
G1 X92.801 Y101.576 E15.65768
G1 X91.957 Y102.365 E15.73486
G1 X91.022 Y102.962 E15.80897
G1 X89.981 Y103.386 E15.88406
G1 X88.88 Y103.614 E15.95917
G1 X87.756 Y103.639 E16.03428
G1 X86.647 Y103.46 E16.10933
G1 X85.588 Y103.083 E16.18443
G1 X84.615 Y102.521 E16.2595
G1 X83.977 Y101.976 E16.31556
G1 X83.977 Y99.783 E16.46206
G1 X83.669 Y99.475 E16.49116
G1 X82.35 Y99.479 E16.57928
G1 X82.068 Y98.312 E16.65949
G1 X82.016 Y97.191 E16.73446
G1 X82.068 Y96.635 E16.77177
G1 X82.169 Y96.078 E16.80959
G1 X82.538 Y94.964 E16.88799
G1 X83.051 Y94.026 E16.95941
G1 X83.76 Y93.154 E17.03449
G1 X84.616 Y92.424 E17.10965
G1 X85.589 Y91.862 E17.18472
G1 X86.648 Y91.485 E17.25982
G1 X87.728 Y91.311 E17.3329
G1 X88.245 Y91.312 E17.36744
G1 E15.36744 F2400
G92 E0
G1 X88.245 Y91.312 F7800
G1 X141.542 Y114.109
G1 E2 F2400
G1 F1800
G1 X141.542 Y110.404 E2.24751
G1 X141.357 Y109.976 E2.27866
G1 X140.947 Y109.451 E2.32316
G1 X140.947 Y114.477 E2.65892
G1 X140.721 Y114.765 E2.68338
G1 X140.352 Y115.04 E2.71412
G1 X140.352 Y104.164 E3.4407
G1 X139.757 Y103.413 E3.50471
G1 X139.757 Y116.129 E4.35421
G1 X139.477 Y116.78 E4.40155
G1 X139.161 Y117.18 E4.4356
G1 X139.161 Y103.021 E5.3815
G1 X138.566 Y102.753 E5.4251
G1 X138.566 Y117.79 E6.42965
G1 X137.971 Y118.212 E6.47838
G1 X137.971 Y102.579 E7.52275
G1 X137.376 Y102.447 E7.56347
G1 X137.376 Y118.453 E8.63276
G1 X137.006 Y118.583 E8.65896
G1 X136.914 Y119.265 E8.70493
G1 X136.781 Y119.587 E8.7282
G1 X136.781 Y99.954 E10.03979
G1 X136.604 Y99.59 E10.06683
G1 X136.186 Y99.138 E10.10796
G1 X136.186 Y120.641 E11.54448
G1 X135.872 Y121.042 E11.5785
G1 X135.591 Y121.252 E11.60194
G1 X135.591 Y98.606 E13.11482
G1 X135.304 Y98.399 E13.13846
G1 X134.996 Y98.307 E13.15993
G1 X134.996 Y121.675 E14.72104
G1 X134.4 Y121.916 E14.76399
G1 X134.4 Y98.089 E16.35576
G1 X133.805 Y97.888 E16.39772
G1 X133.805 Y122.07 E18.01321
G1 X133.21 Y122.135 E18.0532
G1 X133.21 Y97.887 E19.6731
G1 X132.615 Y97.946 E19.71304
G1 X132.615 Y122.085 E21.32566
G1 X132.02 Y121.982 E21.366
G1 X132.02 Y98.089 E22.96218
G1 X131.425 Y98.325 E23.00494
G1 X131.425 Y121.999 E24.58649
G1 X130.83 Y122.443 E24.63609
G1 X130.83 Y98.481 E26.23688
G1 X130.455 Y97.86 E26.28534
G1 X130.234 Y97.64 E26.30617
G1 X130.234 Y122.829 E27.98893
G1 X129.639 Y123.064 E28.03167
G1 X129.639 Y97.083 E29.76734
G1 X129.044 Y96.748 E29.81296
G1 X129.044 Y123.19 E31.57943
G1 X128.449 Y123.256 E31.61942
G1 X128.449 Y96.451 E33.41014
G1 X127.854 Y96.444 E33.44989
G1 X127.854 Y123.175 E35.23567
G1 X127.259 Y123.043 E35.27639
G1 X127.259 Y96.375 E37.05796
G1 X126.664 Y96.383 E37.09771
G1 X126.664 Y122.781 E38.86124
G1 X126.221 Y122.552 E38.89456
G1 X126.069 Y122.637 E38.90619
G1 X126.069 Y96.54 E40.64961
G1 X125.473 Y96.779 E40.69251
G1 X125.473 Y122.95 E42.44087
G1 X124.878 Y123.165 E42.48313
G1 X124.878 Y97.175 E44.2194
G1 X124.283 Y97.593 E44.26798
G1 X124.283 Y103.455 E44.65959
G1 X123.979 Y103.172 E44.68734
G1 X123.688 Y103.333 E44.70956
G1 X123.688 Y97.219 E45.11801
G1 X123.433 Y96.972 E45.14173
G1 X123.093 Y96.8 E45.16718
G1 X123.093 Y103.664 E45.62573
G1 X122.498 Y103.962 E45.67019
G1 X122.498 Y96.505 E46.16836
G1 X121.903 Y96.338 E46.20965
G1 X121.903 Y104.13 E46.7302
G1 X121.308 Y104.133 E46.76995
G1 X121.308 Y96.311 E47.2925
G1 X120.712 Y96.347 E47.33239
G1 X120.712 Y104.165 E47.85467
G1 X120.393 Y104.173 E47.87599
G1 X120.117 Y104.082 E47.8954
G1 X120.117 Y96.378 E48.41007
G1 X119.522 Y96.59 E48.45227
G1 X119.522 Y103.885 E48.93962
G1 X118.927 Y103.556 E48.98504
G1 X118.927 Y96.915 E49.42869
G1 X118.474 Y97.248 E49.46625
G1 X118.332 Y97.192 E49.47645
G1 X118.332 Y103.987 E49.93039
G1 X117.737 Y104.24 E49.97358
G1 X117.737 Y96.957 E50.46012
G1 X117.142 Y96.779 E50.50161
G1 X117.142 Y104.414 E51.01167
G1 X116.546 Y104.479 E51.05172
G1 X116.546 Y96.712 E51.5706
G1 X115.951 Y96.741 E51.6104
G1 X115.951 Y104.45 E52.1254
G1 X115.356 Y104.357 E52.16563
G1 X115.356 Y96.835 E52.66814
G1 X114.761 Y97.08 E52.71113
G1 X114.761 Y104.121 E53.18151
G1 X114.166 Y103.781 E53.22729
G1 X114.166 Y96.988 E53.6811
G1 X113.571 Y96.672 E53.72611
G1 X113.571 Y103.669 E54.19355
G1 X112.976 Y103.936 E54.23712
G1 X112.976 Y96.404 E54.7403
G1 X112.442 Y96.247 E54.77748
G1 X112.381 Y96.248 E54.78156
G1 X112.381 Y104.084 E55.30505
G1 X111.785 Y104.079 E55.34487
G1 X111.785 Y96.257 E55.86742
G1 X111.19 Y96.264 E55.90717
G1 X111.19 Y104.087 E56.42979
G1 X110.595 Y103.98 E56.47018
G1 X110.595 Y96.355 E56.97957
G1 X110 Y96.583 E57.02214
G1 X110 Y103.745 E57.5006
G1 X109.405 Y103.466 E57.5445
G1 X109.405 Y96.602 E58.00305
G1 X108.81 Y96.385 E58.04536
G1 X108.81 Y103.671 E58.5321
G1 X108.215 Y103.823 E58.57313
G1 X108.215 Y96.23 E59.08038
G1 X107.619 Y96.181 E59.12033
G1 X107.619 Y103.87 E59.634
G1 X107.024 Y103.821 E59.67388
G1 X107.024 Y96.229 E60.18107
G1 X106.429 Y96.344 E60.22155
G1 X106.429 Y99.353 E60.42257
G1 X106.069 Y98.993 E60.45658
G1 X105.834 Y98.993 E60.47228
G1 X105.834 Y96.614 E60.63121
G1 X105.239 Y96.977 E60.67777
G1 X105.239 Y98.993 E60.81245
G1 X104.644 Y98.993 E60.8522
G1 X104.644 Y97.447 E60.95548
G1 X104.049 Y97.918 E61.00618
G1 X104.049 Y98.993 E61.078
G1 X103.454 Y98.993 E61.11775
G1 X103.454 Y95.345 E61.36146
G1 X102.858 Y94.259 E61.44422
G1 X102.858 Y99.369 E61.7856
G1 X102.644 Y99.583 E61.80582
G1 X102.644 Y100.976 E61.89888
G1 X102.263 Y101.422 E61.93807
G1 X102.263 Y93.525 E62.46563
G1 X101.668 Y92.97 E62.51999
G1 X101.668 Y101.974 E63.12151
G1 X101.073 Y102.357 E63.16878
G1 X101.073 Y92.59 E63.82127
G1 X100.478 Y92.284 E63.86597
G1 X100.478 Y102.663 E64.55934
G1 X99.883 Y102.905 E64.60225
G1 X99.883 Y92.041 E65.32802
G1 X99.288 Y91.909 E65.36874
G1 X99.288 Y103.037 E66.11215
G1 X98.692 Y103.136 E66.15251
G1 X98.692 Y91.811 E66.90908
G1 X98.097 Y91.794 E66.94885
G1 X98.097 Y103.15 E67.70749
G1 X97.788 Y103.157 E67.72814
G1 X97.502 Y103.111 E67.74749
G1 X97.502 Y91.836 E68.50072
G1 X96.907 Y91.932 E68.54098
G1 X96.907 Y103.015 E69.28138
G1 X96.312 Y102.83 E69.32301
G1 X96.312 Y92.116 E70.03876
G1 X95.717 Y92.344 E70.08133
G1 X95.717 Y102.603 E70.76669
G1 X95.122 Y102.259 E70.8126
G1 X95.122 Y92.688 E71.45199
G1 X94.527 Y93.132 E71.50159
G1 X94.527 Y101.814 E72.08159
G1 X93.931 Y101.241 E72.13682
G1 X93.931 Y93.705 E72.64027
G1 X93.336 Y94.437 E72.70329
G1 X93.336 Y100.509 E73.10893
G1 X93.156 Y100.288 E73.12797
G1 X92.741 Y100.848 E73.17453
G1 X92.741 Y94.098 E73.62547
G1 X92.146 Y93.413 E73.68608
G1 X92.146 Y101.536 E74.22874
G1 X91.551 Y102.052 E74.28135
G1 X91.551 Y92.894 E74.89315
G1 X90.956 Y92.513 E74.94035
G1 X90.956 Y102.432 E75.60299
G1 X90.361 Y102.711 E75.64689
G1 X90.361 Y92.235 E76.34674
G1 X89.766 Y92.008 E76.38928
G1 X89.766 Y102.938 E77.11946
G1 X89.17 Y103.062 E77.16013
G1 X89.17 Y91.884 E77.90688
G1 X88.575 Y91.805 E77.94698
G1 X88.575 Y103.139 E78.70415
G1 X87.98 Y103.152 E78.74391
G1 X87.98 Y91.793 E79.50275
G1 X87.767 Y91.793 E79.51698
G1 X87.385 Y91.855 E79.54283
G1 X87.385 Y103.091 E80.29346
G1 X86.79 Y102.995 E80.33372
G1 X86.79 Y91.951 E81.07152
G1 X86.195 Y92.158 E81.11361
G1 X86.195 Y102.788 E81.82375
G1 X85.6 Y102.533 E81.867
G1 X85.6 Y92.412 E82.54314
G1 X85.004 Y92.756 E82.58911
G1 X85.004 Y102.189 E83.21929
G1 X84.459 Y101.754 E83.26587
G1 X84.409 Y93.234 E83.83506
G1 X83.814 Y93.852 E83.89237
G1 X83.814 Y98.993 E84.23582
G1 X83.219 Y98.993 E84.27557
G1 X83.219 Y94.724 E84.56076
G1 X82.978 Y95.165 E84.59433
G1 X82.624 Y96.271 E84.67191
G1 X82.624 Y99.234 E84.86985
G1 E82.86985 F2400
G92 E0
G1 X140.947 Y108.434 F7800
G1 E2 F2400
G1 F1800
G1 X140.947 Y104.524 E2.26121
G1 X140.947 Y104.524 F7800
G1 X124.283 Y123.548
G1 F1800
G1 X124.283 Y105.08 E3.49497
G1 X124.053 Y106.226 E3.57306
G1 X124.08 Y106.723 E3.60631
G1 X123.688 Y106.899 E3.63502
G1 X123.688 Y114.065 E4.11375
G1 X123.093 Y113.756 E4.15854
G1 X123.093 Y107.192 E4.59705
G1 X122.498 Y107.674 E4.64821
G1 X122.498 Y113.268 E5.02192
G1 X121.903 Y112.523 E5.08562
G1 X121.903 Y108.001 E5.38771
G1 E3.38771 F2400
G92 E0
G1 X121.903 Y108.001 F7800
G1 X123.688 Y123.559
G1 E2 F2400
G1 F1800
