; generated by PrusaSlicer 2.8.1+linux-x64-GTK3 on 2024-10-14 at 09:50:43 UTC

; 

; external perimeters extrusion width = 0.45mm
; perimeters extrusion width = 0.45mm
; infill extrusion width = 0.45mm
; solid infill extrusion width = 0.45mm
; top infill extrusion width = 0.40mm
; support material extrusion width = 0.40mm
; first layer extrusion width = 0.60mm

M190 S60 ; set bed temperature and wait for it to be reached
M104 S200 ; set temperature
;TYPE:Custom
G28 ; home all axes
G1 Z5 F5000 ; lift nozzle
M109 S200 ; set temperature and wait for it to be reached
G21 ; set units to millimeters
G90 ; use absolute coordinates
M82 ; use absolute distances for extrusion
G92 E0
; Filament gcode
M107
;LAYER_CHANGE
;Z:0.3
;HEIGHT:0.3
G1 E-2 F2400
G1 Z.3 F7800
G1 X97.04 Y60.975
G1 E0 F2400
;TYPE:Skirt/Brim
;WIDTH:0.6
G1 F1800
G1 X98.003 Y59.729 E.1052
G1 X99.085 Y58.586 E.21035
G1 X100.276 Y57.556 E.31554
G1 X101.563 Y56.649 E.42072
G1 X102.934 Y55.876 E.52587
G1 X104.376 Y55.242 E.6311
G1 X105.873 Y54.756 E.73625
G1 X107.412 Y54.421 E.84147
G1 X108.976 Y54.24 E.94665
G1 X110.55 Y54.217 E1.05181
G1 X111.809 Y54.311 E1.13615
G1 X113.362 Y54.569 E1.24132
G1 X115.624 Y55.242 E1.39898
G1 X116.939 Y55.815 E1.49481
G1 X118.031 Y56.402 E1.57763
G1 X119.092 Y57.087 E1.662
G1 X120.332 Y58.056 E1.76713
G1 X121.47 Y59.144 E1.87231
G1 X122.96 Y60.975 E2.03001
G1 X123.794 Y62.31 E2.13517
G1 X124.491 Y63.722 E2.24037
G1 X125.265 Y65.952 E2.39806
G1 X125.592 Y67.492 E2.50323
G1 X125.794 Y70 E2.67132
G1 X125.794 Y150 E8.01575
G1 X125.729 Y151.417 E8.11051
G1 X125.51 Y152.976 E8.21568
G1 X125.137 Y154.506 E8.32089
G1 X124.613 Y155.99 E8.42603
G1 X123.944 Y157.415 E8.5312
G1 X123.136 Y158.767 E8.63642
G1 X122.198 Y160.031 E8.74157
G1 X121.139 Y161.196 E8.84675
G1 X119.968 Y162.249 E8.95196
G1 X118.699 Y163.181 E9.05714
G1 X117.344 Y163.982 E9.16229
G1 X115.915 Y164.643 E9.26747
G1 X114.428 Y165.16 E9.37264
G1 X112.896 Y165.525 E9.47785
G1 X111.336 Y165.736 E9.58302
G1 X109.762 Y165.791 E9.68824
G1 X108.664 Y165.736 E9.76168
G1 X107.104 Y165.525 E9.86685
G1 X105.873 Y165.244 E9.9512
G1 X104.376 Y164.758 E10.05635
G1 X102.934 Y164.124 E10.16158
G1 X101.969 Y163.598 E10.235
G1 X100.908 Y162.913 E10.31937
G1 X99.668 Y161.944 E10.4245
G1 X98.861 Y161.196 E10.49801
G1 X97.802 Y160.031 E10.60319
G1 X96.864 Y158.767 E10.70834
G1 X96.206 Y157.69 E10.79266
G1 X95.509 Y156.278 E10.89786
G1 X95.107 Y155.254 E10.97135
G1 X94.735 Y154.048 E11.05566
G1 X94.407 Y152.508 E11.16085
G1 X94.206 Y150 E11.32894
G1 X94.206 Y70 E16.67337
G1 X94.302 Y68.272 E16.78899
G1 X94.552 Y66.718 E16.89414
G1 X94.955 Y65.196 E16.99932
G1 X95.509 Y63.722 E17.10452
G1 X96.206 Y62.31 E17.20972
G1 X97.008 Y61.026 E17.31086
G1 E15.31086 F2400
G92 E0
G1 X97.008 Y61.026 F7800
G92 E0
G1 X115.062 Y111.276
G1 E2 F2400
;TYPE:Support material
G1 F1800
G1 X115.904 Y111.446 E2.05739
G1 X116.728 Y111.978 E2.12291
G1 X117.28 Y112.789 E2.18845
G1 X117.475 Y113.75 E2.25396
G1 X117.28 Y114.711 E2.31947
G1 X116.728 Y115.522 E2.38501
G1 X115.904 Y116.054 E2.45053
G1 X114.938 Y116.224 E2.51606
G1 X114.096 Y116.054 E2.57345
G1 X113.272 Y115.522 E2.63897
G1 X112.719 Y114.711 E2.70455
G1 X112.525 Y113.75 E2.77005
G1 X112.719 Y112.789 E2.83555
G1 X113.272 Y111.978 E2.90113
G1 X114.096 Y111.446 E2.96665
G1 X114.981 Y111.276 E3.02685
G1 X114.981 Y111.276 F7800
G1 X116.546 Y115.361
G1 F1800
G1 X116.546 Y112.494 E3.21838
G1 X115.951 Y112 E3.27004
G1 X115.951 Y115.5 E3.50386
G1 X115.356 Y115.71 E3.54601
G1 X115.356 Y111.79 E3.80789
G1 X114.95 Y111.758 E3.8351
G1 X114.761 Y111.772 E3.84776
G1 X114.761 Y115.728 E4.11204
G1 X114.166 Y115.559 E4.15336
G1 X114.166 Y111.941 E4.39506
G1 X113.571 Y112.362 E4.44375
G1 X113.571 Y115.466 E4.65111
G1 E2.65111 F2400
G92 E0
G1 X113.571 Y115.466 F7800
G1 X105.062 Y123.776
G1 E2 F2400
G1 F1800
G1 X105.904 Y123.946 E2.05739
G1 X106.728 Y124.478 E2.12291
G1 X107.28 Y125.289 E2.18845
G1 X107.475 Y126.25 E2.25396
G1 X107.28 Y127.211 E2.31947
G1 X106.728 Y128.022 E2.38501
G1 X105.904 Y128.554 E2.45053
G1 X104.938 Y128.724 E2.51606
G1 X103.982 Y128.506 E2.58157
G1 X103.272 Y128.022 E2.63897
G1 X102.719 Y127.211 E2.70455
G1 X102.525 Y126.25 E2.77005
G1 X102.719 Y125.289 E2.83555
G1 X103.272 Y124.478 E2.90113
G1 X104.096 Y123.946 E2.96665
G1 X104.981 Y123.776 E3.02685
G1 X104.981 Y123.776 F7800
G1 X106.429 Y127.966
G1 F1800
G1 X106.429 Y124.862 E3.23421
G1 X105.834 Y124.441 E3.2829
G1 X105.834 Y128.059 E3.5246
G1 X105.239 Y128.228 E3.56592
G1 X105.239 Y124.272 E3.8302
G1 X105.05 Y124.258 E3.84286
G1 X104.644 Y124.29 E3.87007
G1 X104.644 Y128.21 E4.13195
G1 X104.049 Y128 E4.1741
G1 X104.049 Y124.5 E4.40792
G1 X103.454 Y124.994 E4.45958
G1 X103.454 Y127.861 E4.65111
G1 E2.65111 F2400
G92 E0
G1 X103.454 Y127.861 F7800
G1 X111.74 Y114.069
G1 E2 F2400
;TYPE:External perimeter
;WIDTH:0.6
G1 F1800
G1 X111.702 Y113.783 E2.01927
G1 X111.761 Y113.122 E2.0636
G1 X111.95 Y112.493 E2.10748
G1 X112.259 Y111.914 E2.15132
G1 X112.678 Y111.407 E2.19526
G1 X113.188 Y110.993 E2.23914
G1 X113.77 Y110.689 E2.28301
G1 X114.401 Y110.506 E2.3269
G1 X115.056 Y110.452 E2.37081
G1 X115.708 Y110.528 E2.41466
G1 X116.332 Y110.732 E2.45852
G1 X116.904 Y111.056 E2.50244
G1 X117.4 Y111.487 E2.54634
G1 X117.801 Y112.007 E2.59021
G1 X118.091 Y112.597 E2.63413
G1 X118.258 Y113.232 E2.67799
G1 X118.28 Y114.105 E2.73633
G1 X118.16 Y114.697 E2.77668
G1 X117.91 Y115.304 E2.82054
G1 X117.544 Y115.85 E2.86445
G1 X117.078 Y116.312 E2.90829
G1 X116.529 Y116.673 E2.95218
G1 X115.919 Y116.918 E2.9961
G1 X115.273 Y117.037 E3.03998
G1 X114.616 Y117.026 E3.08388
G1 X113.975 Y116.885 E3.12773
G1 X113.374 Y116.62 E3.17161
G1 X112.837 Y116.241 E3.21552
G1 X112.387 Y115.763 E3.25938
G1 X112.04 Y115.205 E3.30328
G1 X111.81 Y114.589 E3.34721
G1 X111.748 Y114.129 E3.37822
G1 X111.717 Y113.73 F7800
G1 E1.37822 F2400
G92 E0
G1 X107.799 Y127.968 F7800
G1 E2 F2400
G1 F1800
G1 X107.544 Y128.35 E2.03068
G1 X107.077 Y128.812 E2.07457
G1 X106.529 Y129.173 E2.11841
G1 X105.919 Y129.418 E2.16233
G1 X105.273 Y129.537 E2.20621
G1 X104.616 Y129.526 E2.25011
G1 X103.975 Y129.385 E2.29396
G1 X103.374 Y129.12 E2.33784
G1 X102.837 Y128.741 E2.38175
G1 X102.387 Y128.263 E2.42561
G1 X102.04 Y127.705 E2.46951
G1 X101.81 Y127.089 E2.51344
G1 X101.702 Y126.283 E2.56777
G1 X101.761 Y125.622 E2.6121
G1 X101.95 Y124.993 E2.65598
G1 X102.259 Y124.414 E2.69982
G1 X102.678 Y123.907 E2.74376
G1 X103.188 Y123.493 E2.78764
G1 X103.77 Y123.189 E2.83151
G1 X104.401 Y123.006 E2.8754
G1 X105.056 Y122.952 E2.91931
G1 X105.708 Y123.028 E2.96316
G1 X106.332 Y123.232 E3.00702
G1 X106.904 Y123.556 E3.05094
G1 X107.4 Y123.987 E3.09484
G1 X107.801 Y124.507 E3.13871
G1 X108.091 Y125.097 E3.18263
G1 X108.258 Y125.732 E3.22649
G1 X108.296 Y126.388 E3.27039
G1 X108.203 Y127.038 E3.31426
G1 X107.912 Y127.798 E3.36863
G1 X107.832 Y127.919 E3.37832
G1 X107.61 Y128.251 F7800
G1 E1.37832 F2400
G92 E0
G1 X118.153 Y150 F7800
G1 E2 F2400
;TYPE:Perimeter
G1 F1800
G1 X118.113 Y150.812 E2.05431
G1 X117.992 Y151.616 E2.10863
G1 X117.791 Y152.403 E2.16289
G1 X117.513 Y153.167 E2.2172
G1 X117.16 Y153.899 E2.27149
G1 X116.737 Y154.593 E2.32579
G1 X116.246 Y155.241 E2.3801
G1 X115.693 Y155.837 E2.43442
G1 X115.083 Y156.375 E2.48876
G1 X114.424 Y156.849 E2.54299
G1 X113.72 Y157.255 E2.59728
G1 X112.979 Y157.59 E2.65161
G1 X112.208 Y157.849 E2.70595
G1 X111.416 Y158.029 E2.76021
G1 X110.609 Y158.131 E2.81455
G1 X109.797 Y158.151 E2.86881
G1 X108.986 Y158.09 E2.92314
G1 X108.202 Y157.952 E2.97632
G1 X107.006 Y157.583 E3.05994
G1 X106.295 Y157.262 E3.11206
G1 X105.227 Y156.61 E3.19565
G1 X104.605 Y156.113 E3.24884
G1 X104.023 Y155.546 E3.30312
G1 X103.501 Y154.923 E3.35742
G1 X103.052 Y154.265 E3.41064
G1 X102.481 Y153.151 E3.49427
G1 X102.209 Y152.403 E3.54744
G1 X102.008 Y151.616 E3.6017
G1 X101.887 Y150.812 E3.65602
G1 X101.845 Y149.966 E3.71261
G1 X101.845 Y129.254 E5.09628
G1 X102.212 Y129.611 E5.13048
G1 X102.933 Y130.097 E5.18857
G1 X103.736 Y130.43 E5.24664
G1 X104.589 Y130.597 E5.30471
G1 X105.459 Y130.592 E5.36283
G1 X106.31 Y130.415 E5.4209
G1 X107.11 Y130.073 E5.47902
G1 X107.825 Y129.579 E5.53708
G1 X108.429 Y128.953 E5.59519
G1 X108.77 Y128.454 E5.63557
G1 X108.91 Y128.189 E5.65559
G1 X109.185 Y127.487 E5.70596
G1 X109.263 Y127.198 E5.72596
G1 X109.366 Y126.334 E5.78409
G1 X109.296 Y125.468 E5.84213
G1 X109.056 Y124.632 E5.90024
G1 X108.655 Y123.86 E5.95836
G1 X108.109 Y123.184 E6.01641
G1 X107.44 Y122.628 E6.07452
G1 X106.674 Y122.217 E6.13259
G1 X105.841 Y121.965 E6.19073
G1 X104.976 Y121.883 E6.24878
G1 X104.111 Y121.975 E6.30689
G1 X103.281 Y122.236 E6.36502
G1 X102.52 Y122.656 E6.42309
G1 X101.845 Y123.233 E6.48241
G1 X101.845 Y70.034 E10.03639
G1 X101.887 Y69.188 E10.09298
G1 X102.008 Y68.384 E10.1473
G1 X102.209 Y67.597 E10.20156
G1 X102.487 Y66.833 E10.25587
G1 X102.84 Y66.101 E10.31016
G1 X103.263 Y65.407 E10.36446
G1 X103.754 Y64.759 E10.41877
G1 X104.307 Y64.163 E10.47309
G1 X104.916 Y63.625 E10.52738
G1 X105.576 Y63.151 E10.58166
G1 X106.28 Y62.745 E10.63595
G1 X107.021 Y62.41 E10.69028
G1 X107.792 Y62.151 E10.74462
G1 X108.584 Y61.971 E10.79888
G1 X109.385 Y61.87 E10.85281
G1 X110.333 Y61.856 E10.91615
G1 X111.011 Y61.909 E10.96158
G1 X111.814 Y62.051 E11.01606
G1 X112.597 Y62.271 E11.07039
G1 X113.362 Y62.572 E11.12531
G1 X113.819 Y62.798 E11.15937
G1 X114.421 Y63.149 E11.20592
G1 X115.083 Y63.625 E11.26039
G1 X115.681 Y64.152 E11.31364
G1 X116.509 Y65.091 E11.39727
G1 X116.957 Y65.749 E11.45045
G1 X117.338 Y66.448 E11.50363
G1 X117.795 Y67.613 E11.58723
G1 X117.904 Y68.042 E11.6168
G1 X118.055 Y68.806 E11.66883
G1 X118.135 Y69.641 E11.72487
G1 X118.155 Y70.238 E11.76478
G1 X118.155 Y110.733 E14.47006
G1 X117.44 Y110.128 E14.53263
G1 X116.674 Y109.717 E14.5907
G1 X115.841 Y109.465 E14.64884
G1 X114.976 Y109.383 E14.70689
G1 X114.111 Y109.475 E14.765
G1 X113.281 Y109.736 E14.82313
G1 X112.52 Y110.156 E14.8812
G1 X111.857 Y110.719 E14.93931
G1 X111.319 Y111.401 E14.99734
G1 X110.926 Y112.177 E15.05545
G1 X110.695 Y113.016 E15.11359
G1 X110.635 Y113.617 E15.15394
G1 X110.639 Y113.916 E15.17392
G1 X110.733 Y114.664 E15.22428
G1 X110.803 Y114.956 E15.24434
G1 X111.125 Y115.764 E15.30245
G1 X111.601 Y116.492 E15.36056
G1 X112.212 Y117.111 E15.41866
G1 X112.933 Y117.597 E15.47675
G1 X113.736 Y117.93 E15.53482
G1 X114.59 Y118.097 E15.59295
G1 X115.459 Y118.092 E15.651
G1 X116.31 Y117.915 E15.70907
G1 X117.11 Y117.573 E15.76719
G1 X117.617 Y117.246 E15.80749
G1 X118.155 Y116.758 E15.85601
G1 X118.155 Y149.94 E18.07275
G1 X118.69 Y150 F7800
G1 F1800
G1 X118.646 Y150.865 E18.13061
G1 X118.517 Y151.722 E18.18851
G1 X118.304 Y152.561 E18.24634
G1 X118.007 Y153.375 E18.30423
G1 X117.631 Y154.156 E18.36214
G1 X117.18 Y154.895 E18.41998
G1 X116.657 Y155.586 E18.47787
G1 X116.067 Y156.221 E18.53578
G1 X115.418 Y156.794 E18.59362
G1 X114.715 Y157.3 E18.65148
G1 X113.964 Y157.733 E18.70939
G1 X113.175 Y158.089 E18.76722
G1 X112.353 Y158.365 E18.82515
G1 X111.509 Y158.558 E18.88299
G1 X110.649 Y158.665 E18.94089
G1 X109.783 Y158.687 E18.99876
G1 X108.919 Y158.622 E19.05664
G1 X108.076 Y158.473 E19.11383
G1 X106.816 Y158.085 E19.20191
G1 X106.044 Y157.737 E19.25848
G1 X104.92 Y157.049 E19.34652
G1 X104.25 Y156.515 E19.40376
G1 X103.63 Y155.91 E19.46163
G1 X103.073 Y155.247 E19.51948
G1 X102.591 Y154.539 E19.5767
G1 X101.989 Y153.366 E19.66478
G1 X101.696 Y152.561 E19.72201
G1 X101.483 Y151.722 E19.77984
G1 X101.353 Y150.865 E19.83775
G1 X101.309 Y149.979 E19.89701
G1 X101.309 Y127.876 E21.37361
G1 X101.29 Y127.133 E21.42326
;WIDTH:0.574302
G1 X101.318 Y127.268 E21.43203
;WIDTH:0.6
G1 X101.582 Y127.985 E21.48307
G1 X101.994 Y128.627 E21.53403
G1 X102.525 Y129.176 E21.58505
G1 X103.153 Y129.608 E21.63597
G1 X103.855 Y129.908 E21.68697
G1 X104.603 Y130.062 E21.73799
G1 X105.366 Y130.065 E21.78896
G1 X106.115 Y129.917 E21.83996
G1 X106.819 Y129.623 E21.89093
G1 X107.451 Y129.196 E21.94188
G1 X107.987 Y128.652 E21.9929
G1 X108.411 Y127.993 E22.04525
G1 X108.733 Y127.118 E22.10754
G1 X108.831 Y126.361 E22.15853
G1 X108.777 Y125.6 E22.2095
G1 X108.573 Y124.864 E22.26052
G1 X108.228 Y124.184 E22.31146
G1 X107.754 Y123.585 E22.36249
G1 X107.172 Y123.092 E22.41345
G1 X106.503 Y122.725 E22.46443
G1 X105.775 Y122.497 E22.51539
G1 X105.016 Y122.418 E22.56637
G1 X104.256 Y122.49 E22.61737
G1 X103.526 Y122.712 E22.66834
G1 X102.854 Y123.075 E22.71936
G1 X102.267 Y123.563 E22.77036
G1 X101.789 Y124.158 E22.82135
G1 X101.5 Y124.688 E22.86168
G1 X101.309 Y125.253 E22.90152
G1 X101.309 Y70.021 E26.59131
G1 X101.353 Y69.135 E26.65057
G1 X101.483 Y68.278 E26.70848
G1 X101.696 Y67.439 E26.76631
G1 X101.993 Y66.625 E26.8242
G1 X102.369 Y65.844 E26.88211
G1 X102.82 Y65.105 E26.93995
G1 X103.343 Y64.414 E26.99784
G1 X103.933 Y63.779 E27.05575
G1 X104.582 Y63.206 E27.11359
G1 X105.285 Y62.7 E27.17145
G1 X106.036 Y62.267 E27.22936
G1 X106.825 Y61.911 E27.28719
G1 X107.646 Y61.635 E27.34505
G1 X108.491 Y61.442 E27.40295
G1 X109.347 Y61.335 E27.46058
G1 X110.35 Y61.32 E27.52759
G1 X111.079 Y61.377 E27.57644
G1 X111.934 Y61.528 E27.63444
G1 X112.768 Y61.763 E27.69233
G1 X113.579 Y62.081 E27.75053
G1 X114.073 Y62.326 E27.78737
G1 X114.713 Y62.699 E27.83686
G1 X115.418 Y63.206 E27.89487
G1 X116.06 Y63.773 E27.95209
G1 X116.932 Y64.761 E28.04012
G1 X117.415 Y65.469 E28.09738
G1 X117.824 Y66.221 E28.15457
G1 X118.306 Y67.448 E28.24264
G1 X118.423 Y67.909 E28.27441
G1 X118.585 Y68.727 E28.33012
G1 X118.67 Y69.614 E28.38965
G1 X118.691 Y70.238 E28.43136
G1 X118.691 Y112.507 E31.25516
G1 X118.713 Y112.809 E31.27539
;WIDTH:0.55619
G1 X118.734 Y113.111 E31.29396
G1 X118.654 Y112.738 E31.31736
;WIDTH:0.6
G1 X118.573 Y112.364 E31.34292
G1 X118.228 Y111.684 E31.39386
G1 X117.754 Y111.085 E31.44489
G1 X117.172 Y110.592 E31.49585
G1 X116.503 Y110.225 E31.54683
G1 X115.775 Y109.997 E31.59779
G1 X115.016 Y109.918 E31.64877
G1 X114.256 Y109.99 E31.69977
G1 X113.526 Y110.212 E31.75074
G1 X112.854 Y110.575 E31.80176
G1 X112.267 Y111.063 E31.85276
G1 X111.789 Y111.658 E31.90375
G1 X111.438 Y112.335 E31.95469
G1 X111.228 Y113.069 E32.00569
G1 X111.171 Y113.85 E32.058
G1 X111.306 Y114.773 E32.12032
G1 X111.582 Y115.485 E32.17133
G1 X111.994 Y116.127 E32.22229
G1 X112.525 Y116.676 E32.27331
G1 X113.153 Y117.108 E32.32423
G1 X113.855 Y117.408 E32.37523
G1 X114.603 Y117.562 E32.42625
G1 X115.366 Y117.565 E32.47722
G1 X116.115 Y117.417 E32.52822
G1 X116.819 Y117.123 E32.57919
G1 X117.451 Y116.696 E32.63014
G1 X117.987 Y116.152 E32.68116
G1 X118.403 Y115.512 E32.73215
G1 X118.688 Y114.804 E32.78314
G1 X118.691 Y149.94 E35.13041
G1 E33.13041 F2400
G92 E0
G1 X118.691 Y149.94 F7800
G1 X101.29 Y127.133
G1 E2 F2400
;WIDTH:0.560457
G1 F1800
G1 X101.265 Y126.737 E2.02455
;WIDTH:0.510587
G1 X101.24 Y126.341 E2.04663
;WIDTH:0.489835
G1 X101.254 Y125.957 E2.06702
;WIDTH:0.518953
G1 X101.269 Y125.573 E2.08881
G1 E.08881 F2400
G92 E0
G1 X101.269 Y125.573 F7800
G1 X118.734 Y113.111
G1 E2 F2400
;WIDTH:0.512381
G1 F1800
G1 X118.756 Y114.033 E2.05153
;WIDTH:0.481227
G1 X118.75 Y114.18 E2.05918
G1 E.05918 F2400
G92 E0
G1 X119.226 Y150 F7800
G1 E2 F2400
;TYPE:External perimeter
;WIDTH:0.6
G1 F1800
G1 X119.18 Y150.919 E2.06147
G1 X119.043 Y151.828 E2.12288
G1 X118.816 Y152.719 E2.1843
G1 X118.501 Y153.584 E2.2458
G1 X118.102 Y154.412 E2.3072
G1 X117.623 Y155.197 E2.36863
G1 X117.067 Y155.93 E2.43009
G1 X116.442 Y156.605 E2.49155
G1 X115.752 Y157.213 E2.55299
G1 X115.005 Y157.75 E2.61445
G1 X114.209 Y158.21 E2.67587
G1 X113.371 Y158.588 E2.73728
G1 X112.499 Y158.881 E2.79873
G1 X111.602 Y159.086 E2.8602
G1 X110.689 Y159.2 E2.92167
G1 X109.77 Y159.223 E2.98308
G1 X108.853 Y159.154 E3.04451
G1 X107.95 Y158.995 E3.10576
G1 X106.626 Y158.587 E3.19831
G1 X105.794 Y158.211 E3.2593
G1 X104.612 Y157.489 E3.35183
G1 X103.895 Y156.917 E3.4131
G1 X103.237 Y156.275 E3.47451
G1 X102.646 Y155.571 E3.53592
G1 X102.129 Y154.813 E3.59722
G1 X101.497 Y153.581 E3.68972
G1 X101.184 Y152.719 E3.75099
G1 X100.957 Y151.828 E3.81241
G1 X100.82 Y150.919 E3.87382
G1 X100.774 Y149.993 E3.93576
G1 X100.774 Y70.007 E9.27925
G1 X100.82 Y69.081 E9.34119
