; generated by PrusaSlicer 2.8.1+linux-x64-GTK3 on 2024-10-16 at 11:28:11 UTC

; 

; external perimeters extrusion width = 0.45mm
; perimeters extrusion width = 0.45mm
; infill extrusion width = 0.45mm
; solid infill extrusion width = 0.45mm
; top infill extrusion width = 0.40mm
; support material extrusion width = 0.40mm
; first layer extrusion width = 0.60mm

M190 S60 ; set bed temperature and wait for it to be reached
M104 S200 ; set temperature
;TYPE:Custom
G28 ; home all axes
G1 Z5 F5000 ; lift nozzle
M109 S200 ; set temperature and wait for it to be reached
G21 ; set units to millimeters
G90 ; use absolute coordinates
M82 ; use absolute distances for extrusion
G92 E0
; Filament gcode
M107
;LAYER_CHANGE
;Z:0.3
;HEIGHT:0.3
G1 E-2 F2400
G1 Z.3 F7800
G1 X97.04 Y60.975
G1 E0 F2400
;TYPE:Skirt/Brim
;WIDTH:0.6
G1 F1800
G1 X98.003 Y59.729 E.1052
G1 X99.085 Y58.586 E.21035
G1 X100.276 Y57.556 E.31554
G1 X101.563 Y56.649 E.42072
G1 X102.935 Y55.876 E.52592
G1 X104.376 Y55.242 E.63109
G1 X105.873 Y54.756 E.73624
G1 X107.412 Y54.421 E.84146
G1 X108.976 Y54.24 E.94664
G1 X110.55 Y54.217 E1.0518
G1 X111.809 Y54.311 E1.13614
G1 X113.362 Y54.569 E1.24131
G1 X115.624 Y55.242 E1.39897
G1 X116.764 Y55.73 E1.48181
G1 X118.031 Y56.402 E1.57762
G1 X119.092 Y57.087 E1.66199
G1 X120.332 Y58.056 E1.76712
G1 X121.47 Y59.144 E1.8723
G1 X122.96 Y60.975 E2.03
G1 X123.794 Y62.31 E2.13516
G1 X124.491 Y63.722 E2.24036
G1 X125.265 Y65.952 E2.39805
G1 X125.593 Y67.492 E2.50324
G1 X125.794 Y70 E2.67133
G1 X125.794 Y150 E8.01576
G1 X125.729 Y151.417 E8.11052
G1 X125.51 Y152.976 E8.21569
G1 X125.137 Y154.506 E8.3209
G1 X124.613 Y155.99 E8.42604
G1 X123.944 Y157.415 E8.53121
G1 X123.136 Y158.767 E8.63643
G1 X122.198 Y160.031 E8.74158
G1 X121.139 Y161.196 E8.84676
G1 X119.968 Y162.249 E8.95197
G1 X118.699 Y163.181 E9.05715
G1 X117.344 Y163.982 E9.1623
G1 X115.915 Y164.643 E9.26748
G1 X114.428 Y165.16 E9.37265
G1 X112.896 Y165.525 E9.47786
G1 X111.336 Y165.736 E9.58303
G1 X109.763 Y165.791 E9.68818
G1 X108.664 Y165.736 E9.76169
G1 X107.104 Y165.525 E9.86686
G1 X105.873 Y165.244 E9.95121
G1 X104.376 Y164.758 E10.05636
G1 X102.935 Y164.124 E10.16153
G1 X101.969 Y163.598 E10.23501
G1 X100.908 Y162.913 E10.31938
G1 X99.668 Y161.944 E10.42451
G1 X98.861 Y161.196 E10.49802
G1 X97.802 Y160.031 E10.6032
G1 X97.04 Y159.025 E10.68751
G1 X96.206 Y157.69 E10.79267
G1 X95.509 Y156.278 E10.89787
G1 X95.107 Y155.254 E10.97136
G1 X94.735 Y154.048 E11.05567
G1 X94.408 Y152.508 E11.16084
G1 X94.206 Y150 E11.32893
G1 X94.206 Y70 E16.67336
G1 X94.302 Y68.272 E16.78898
G1 X94.552 Y66.718 E16.89413
G1 X94.956 Y65.196 E16.99933
G1 X95.509 Y63.722 E17.1045
G1 X96.206 Y62.31 E17.2097
G1 X97.008 Y61.026 E17.31084
G1 E15.31084 F2400
G92 E0
G1 X97.008 Y61.026 F7800
G92 E0
G1 X115.185 Y115.032
G1 E2 F2400
;TYPE:Support material
G1 F1800
G1 X116.129 Y115.298 E2.06552
G1 X116.896 Y115.909 E2.13103
G1 X117.365 Y116.771 E2.19659
G1 X117.463 Y117.746 E2.26205
G1 X117.173 Y118.684 E2.32764
G1 X116.638 Y119.356 E2.38502
G1 X115.788 Y119.846 E2.45056
G1 X114.815 Y119.968 E2.51607
G1 X113.871 Y119.702 E2.58159
G1 X113.104 Y119.091 E2.6471
G1 X112.674 Y118.346 E2.70457
G1 X112.528 Y117.377 E2.77004
G1 X112.77 Y116.426 E2.8356
G1 X113.363 Y115.644 E2.90116
G1 X114.212 Y115.154 E2.96665
G1 X115.105 Y115.028 E3.0269
G1 X115.105 Y115.028 F7800
G1 X116.546 Y119.111
G1 F1800
G1 X116.546 Y116.244 E3.21843
G1 X115.951 Y115.75 E3.27009
G1 X115.951 Y119.25 E3.50391
G1 X115.356 Y119.46 E3.54606
G1 X115.356 Y115.54 E3.80794
G1 X114.95 Y115.508 E3.83515
G1 X114.761 Y115.522 E3.84781
G1 X114.761 Y119.478 E4.11209
G1 X114.166 Y119.309 E4.15341
G1 X114.166 Y115.691 E4.39511
G1 X113.571 Y116.112 E4.4438
G1 X113.571 Y119.216 E4.65116
G1 E2.65116 F2400
G92 E0
G1 X113.571 Y119.216 F7800
G1 X105.185 Y120.032
G1 E2 F2400
G1 F1800
G1 X106.129 Y120.298 E2.06552
G1 X106.896 Y120.909 E2.13103
G1 X107.365 Y121.771 E2.19659
G1 X107.463 Y122.746 E2.26205
G1 X107.173 Y123.684 E2.32764
G1 X106.638 Y124.356 E2.38502
G1 X105.788 Y124.846 E2.45056
G1 X104.815 Y124.968 E2.51607
G1 X103.871 Y124.702 E2.58159
G1 X103.186 Y124.183 E2.639
G1 X102.674 Y123.346 E2.70455
G1 X102.528 Y122.377 E2.77002
G1 X102.77 Y121.426 E2.83558
G1 X103.363 Y120.644 E2.90114
G1 X104.212 Y120.154 E2.96663
G1 X105.105 Y120.028 E3.02688
G1 X105.105 Y120.028 F7800
G1 X106.429 Y124.216
G1 F1800
G1 X106.429 Y121.112 E3.23424
G1 X105.834 Y120.691 E3.28293
G1 X105.834 Y124.309 E3.52463
G1 X105.239 Y124.478 E3.56595
G1 X105.239 Y120.522 E3.83023
G1 X105.05 Y120.508 E3.84289
G1 X104.644 Y120.54 E3.8701
G1 X104.644 Y124.46 E4.13198
G1 X104.049 Y124.25 E4.17413
G1 X104.049 Y120.75 E4.40795
G1 X103.454 Y121.244 E4.45961
G1 X103.454 Y124.111 E4.65114
G1 E2.65114 F2400
G92 E0
G1 X103.454 Y124.111 F7800
G1 X117.966 Y118.937
G1 E2 F2400
;TYPE:External perimeter
;WIDTH:0.6
G1 F1800
G1 X117.646 Y119.471 E2.04159
G1 X117.203 Y119.956 E2.08547
G1 X116.672 Y120.343 E2.12937
G1 X116.076 Y120.618 E2.17322
G1 X115.437 Y120.77 E2.2171
G1 X114.78 Y120.791 E2.26101
G1 X114.132 Y120.683 E2.3049
G1 X113.519 Y120.448 E2.34876
G1 X112.964 Y120.096 E2.39267
G1 X112.49 Y119.641 E2.43656
G1 X112.116 Y119.101 E2.48044
G1 X111.856 Y118.498 E2.52431
G1 X111.72 Y117.855 E2.56822
G1 X111.734 Y117.042 E2.62254
G1 X111.891 Y116.397 E2.66689
G1 X112.171 Y115.803 E2.71076
G1 X112.564 Y115.276 E2.75468
G1 X113.053 Y114.837 E2.79858
G1 X113.619 Y114.504 E2.84245
G1 X114.24 Y114.29 E2.88633
G1 X114.891 Y114.203 E2.93021
G1 X115.599 Y114.256 E2.97764
G1 X116.18 Y114.42 E3.01797
G1 X116.767 Y114.715 E3.06186
G1 X117.284 Y115.12 E3.10573
G1 X117.711 Y115.62 E3.14966
G1 X118.03 Y116.195 E3.19359
G1 X118.256 Y116.976 E3.24791
G1 X118.296 Y117.638 E3.29222
G1 X118.203 Y118.288 E3.33609
G1 X117.992 Y118.883 E3.37826
G1 X117.79 Y119.228 F7800
G1 E1.37826 F2400
G92 E0
G1 X106.211 Y119.434 F7800
G1 E2 F2400
G1 F1800
G1 X106.898 Y119.803 E2.0521
G1 X107.4 Y120.237 E2.09643
G1 X107.801 Y120.757 E2.1403
G1 X108.091 Y121.347 E2.18422
G1 X108.258 Y121.982 E2.22808
G1 X108.296 Y122.638 E2.27198
G1 X108.203 Y123.288 E2.31585
G1 X107.984 Y123.907 E2.35971
G1 X107.646 Y124.471 E2.40364
G1 X107.203 Y124.956 E2.44752
G1 X106.672 Y125.343 E2.49142
G1 X106.025 Y125.635 E2.53884
G1 X105.437 Y125.77 E2.57914
G1 X104.78 Y125.791 E2.62305
G1 X104.132 Y125.683 E2.66694
G1 X103.519 Y125.448 E2.7108
G1 X102.964 Y125.096 E2.75471
G1 X102.49 Y124.641 E2.7986
G1 X102.116 Y124.101 E2.84248
G1 X101.856 Y123.498 E2.88635
G1 X101.72 Y122.855 E2.93026
G1 X101.734 Y122.042 E2.98458
G1 X101.891 Y121.397 E3.02893
G1 X102.171 Y120.803 E3.0728
G1 X102.564 Y120.276 E3.11672
G1 X103.053 Y119.837 E3.16062
G1 X103.619 Y119.504 E3.20449
G1 X104.24 Y119.29 E3.24837
G1 X104.891 Y119.203 E3.29225
G1 X105.547 Y119.247 E3.33617
G1 X106.156 Y119.413 E3.37834
G1 X106.511 Y119.596 F7800
G1 E1.37834 F2400
G92 E0
G1 X112.234 Y153.859 F7800
G1 E2 F2400
;TYPE:Perimeter
G1 F1800
G1 X112.206 Y153.873 E2.00209
G1 X111.823 Y154.133 E2.03302
G1 X111.337 Y154.269 E2.06673
G1 X111.166 Y154.289 E2.07823
G1 X110.763 Y154.437 E2.10691
G1 X110.176 Y154.481 E2.14623
G1 X109.918 Y154.458 E2.16353
G1 X109.499 Y154.493 E2.19162
G1 X109.054 Y154.38 E2.22229
G1 X108.821 Y154.298 E2.23879
G1 X108.445 Y154.238 E2.26423
G1 X108.094 Y154.07 E2.29023
G1 X107.343 Y153.635 E2.34821
G1 X106.956 Y153.293 E2.38271
G1 X106.789 Y153.093 E2.40012
G1 X106.458 Y152.81 E2.42921
G1 X106.233 Y152.428 E2.45883
G1 X106.128 Y152.206 E2.47524
G1 X105.896 Y151.883 E2.50181
G1 X105.769 Y151.507 E2.52832
G1 X105.551 Y150.691 E2.58475
G1 X105.519 Y150.176 E2.61922
G1 X105.542 Y149.916 E2.63666
G1 X105.504 Y149.599 E2.65799
G1 X105.597 Y149.108 E2.69137
G1 X105.702 Y148.822 E2.71172
G1 X105.804 Y148.328 E2.74542
G1 X106.058 Y147.872 E2.78029
G1 X106.148 Y147.766 E2.78958
G1 X106.365 Y147.343 E2.82134
G1 X106.698 Y146.964 E2.85504
G1 X106.881 Y146.84 E2.86981
G1 X107.017 Y146.633 E2.88636
G1 X107.309 Y146.369 E2.91266
G1 X107.67 Y146.2 E2.93929
G1 X108.128 Y145.891 E2.9762
G1 X109.002 Y145.63 E3.03714
G1 X109.515 Y145.524 E3.07214
G1 X110.035 Y145.544 E3.1069
G1 X110.451 Y145.505 E3.13481
G1 X110.944 Y145.604 E3.1684
G1 X111.224 Y145.704 E3.18826
G1 X111.588 Y145.772 E3.213
G1 X111.907 Y145.93 E3.23678
G1 X112.79 Y146.462 E3.30565
G1 X113.11 Y146.793 E3.33641
G1 X113.161 Y146.882 E3.34326
G1 X113.372 Y147.021 E3.36014
G1 X113.575 Y147.231 E3.37965
G1 X113.8 Y147.671 E3.41266
G1 X114.128 Y148.167 E3.45239
G1 X114.449 Y149.309 E3.53164
G1 X114.481 Y149.824 E3.56611
G1 X114.458 Y150.083 E3.58348
G1 X114.493 Y150.498 E3.6113
G1 X114.38 Y150.947 E3.64223
G1 X114.298 Y151.178 E3.65861
G1 X114.217 Y151.618 E3.6885
G1 X113.984 Y152.075 E3.72277
G1 X113.824 Y152.317 E3.74215
G1 X113.654 Y152.63 E3.76595
G1 X113.296 Y153.044 E3.80251
G1 X113.094 Y153.212 E3.82006
G1 X112.799 Y153.551 E3.85008
G1 X112.428 Y153.766 E3.87873
G1 X112.288 Y153.833 E3.8891
G1 X112.288 Y153.833 F7800
G1 X111.57 Y153.639
G1 F1800
G1 X111.252 Y153.74 E3.91139
G1 X111.004 Y153.74 E3.92796
G1 X110.946 Y153.8 E3.93353
G1 X110.621 Y153.918 E3.95663
G1 X110.184 Y153.942 E3.98587
G1 X109.977 Y153.874 E4.00043
G1 X109.661 Y153.958 E4.02227
G1 X109.354 Y153.922 E4.04292
G1 X108.937 Y153.756 E4.0729
G1 X108.603 Y153.727 E4.0953
G1 X108.2 Y153.496 E4.12633
G1 X108.006 Y153.361 E4.14212
G1 X107.739 Y153.257 E4.16126
G1 X107.359 Y152.939 E4.19436
G1 X107.245 Y152.723 E4.21068
G1 X106.946 Y152.546 E4.23389
G1 X106.746 Y152.266 E4.25688
G1 X106.611 Y151.92 E4.28169
G1 X106.447 Y151.757 E4.29714
G1 X106.299 Y151.427 E4.3213
G1 X106.244 Y151.066 E4.3457
G1 X106.257 Y151.007 E4.34974
G1 X106.135 Y150.819 E4.36471
G1 X106.049 Y150.349 E4.39663
G1 X106.091 Y150.049 E4.41687
G1 X106.126 Y149.977 E4.42222
G1 X106.043 Y149.68 E4.44282
G1 X106.051 Y149.46 E4.45753
G1 X106.231 Y149.042 E4.48793
G1 X106.299 Y148.533 E4.52224
G1 X106.47 Y148.215 E4.54636
G1 X106.635 Y148.072 E4.56095
G1 X106.704 Y147.811 E4.57899
G1 X107.029 Y147.385 E4.61479
G1 X107.277 Y147.245 E4.63382
G1 X107.431 Y146.973 E4.6547
G1 X107.714 Y146.755 E4.67856
G1 X108.081 Y146.611 E4.7049
G1 X108.271 Y146.427 E4.72257
G1 X108.597 Y146.294 E4.74609
G1 X108.927 Y146.241 E4.76842
G1 X108.995 Y146.257 E4.77309
G1 X109.226 Y146.118 E4.7911
G1 X109.726 Y146.049 E4.82482
G1 X110.018 Y146.12 E4.8449
G1 X110.336 Y146.038 E4.86684
G1 X110.776 Y146.113 E4.89666
G1 X111.063 Y146.243 E4.91771
G1 X111.417 Y146.28 E4.94149
G1 X111.833 Y146.529 E4.97388
G1 X111.934 Y146.641 E4.98396
G1 X112.186 Y146.702 E5.00128
G1 X112.613 Y147.022 E5.03693
G1 X112.755 Y147.276 E5.05637
G1 X113.029 Y147.433 E5.07747
G1 X113.255 Y147.735 E5.10267
G1 X113.389 Y148.08 E5.1274
G1 X113.558 Y148.25 E5.14341
G1 X113.697 Y148.554 E5.16574
G1 X113.759 Y148.909 E5.18981
G1 X113.739 Y148.996 E5.19577
G1 X113.869 Y149.189 E5.21132
G1 X113.952 Y149.691 E5.24531
G1 X113.909 Y149.951 E5.26292
G1 X113.874 Y150.023 E5.26827
G1 X113.955 Y150.301 E5.28761
G1 X113.931 Y150.618 E5.30885
G1 X113.757 Y151.063 E5.34077
G1 X113.742 Y151.339 E5.35924
G1 X113.582 Y151.716 E5.3866
G1 X113.365 Y151.929 E5.40691
G1 X113.301 Y152.179 E5.42415
G1 X113.044 Y152.549 E5.45425
G1 X112.8 Y152.728 E5.47447
G1 X112.724 Y152.755 E5.47986
G1 X112.572 Y153.023 E5.50044
G1 X112.326 Y153.226 E5.52175
G1 X111.905 Y153.408 E5.55239
G1 X111.682 Y153.603 E5.57218
G1 X111.627 Y153.621 E5.57605
G1 X111.627 Y153.621 F7800
G1 X110.839 Y153.102
;TYPE:External perimeter
G1 F1800
G1 X110.659 Y153.347 E5.59636
G1 X110.316 Y153.416 E5.61973
G1 X110.162 Y153.372 E5.63043
G1 X110 Y153.226 E5.645
G1 X109.872 Y153.342 E5.65654
G1 X109.567 Y153.423 E5.67762
G1 X109.238 Y153.254 E5.70233
G1 X109.167 Y153.12 E5.71246
G1 X108.987 Y153.211 E5.72593
G1 X108.73 Y153.203 E5.74311
G1 X108.477 Y153.031 E5.76355
G1 X108.4 Y152.828 E5.77805
G1 X108.4 Y152.788 E5.78072
G1 X108.077 Y152.827 E5.80245
G1 X107.776 Y152.602 E5.82756
G1 X107.709 Y152.396 E5.84203
G1 X107.719 Y152.281 E5.84974
G1 X107.546 Y152.272 E5.86131
G1 X107.269 Y152.108 E5.88282
G1 X107.16 Y151.762 E5.90705
G1 X107.205 Y151.617 E5.91719
G1 X107.014 Y151.554 E5.93063
G1 X106.838 Y151.37 E5.94764
G1 X106.78 Y151.067 E5.96825
G1 X106.869 Y150.868 E5.98281
G1 X106.898 Y150.84 E5.9855
G1 X106.641 Y150.64 E6.00726
G1 X106.587 Y150.267 E6.03244
G1 X106.685 Y150.074 E6.0469
G1 X106.774 Y150 E6.05463
G1 X106.658 Y149.871 E6.06622
G1 X106.578 Y149.562 E6.08754
G1 X106.746 Y149.238 E6.11192
G1 X106.88 Y149.167 E6.12205
G1 X106.789 Y148.987 E6.13552
G1 X106.794 Y148.738 E6.15216
G1 X106.897 Y148.541 E6.16701
G1 X107.105 Y148.41 E6.18343
G1 X107.209 Y148.381 E6.19064
G1 X107.161 Y148.15 E6.2064
G1 X107.216 Y147.995 E6.21739
G1 X107.438 Y147.752 E6.23938
G1 X107.604 Y147.709 E6.25084
G1 X107.719 Y147.719 E6.25855
G1 X107.728 Y147.547 E6.27006
G1 X107.872 Y147.285 E6.29003
G1 X108.194 Y147.164 E6.31301
G1 X108.383 Y147.205 E6.32593
G1 X108.446 Y147.013 E6.33943
G1 X108.608 Y146.848 E6.35488
G1 X108.924 Y146.777 E6.37652
G1 X109.161 Y146.898 E6.3943
G1 X109.337 Y146.655 E6.41434
G1 X109.702 Y146.584 E6.43918
G1 X109.926 Y146.685 E6.4556
G1 X109.999 Y146.779 E6.46355
G1 X110.162 Y146.645 E6.47765
G1 X110.384 Y146.574 E6.49322
G1 X110.652 Y146.652 E6.51187
G1 X110.815 Y146.826 E6.5278
G1 X110.831 Y146.882 E6.53169
G1 X111.013 Y146.789 E6.54534
G1 X111.245 Y146.787 E6.56084
G1 X111.523 Y146.969 E6.58304
G1 X111.6 Y147.173 E6.59761
G1 X111.6 Y147.212 E6.60022
G1 X111.923 Y147.173 E6.62195
G1 X112.224 Y147.395 E6.64694
G1 X112.29 Y147.596 E6.66107
G1 X112.281 Y147.72 E6.66938
G1 X112.469 Y147.734 E6.68197
G1 X112.728 Y147.887 E6.70207
G1 X112.84 Y148.238 E6.72668
G1 X112.795 Y148.383 E6.73682
G1 X112.987 Y148.446 E6.75032
G1 X113.156 Y148.616 E6.76633
G1 X113.223 Y148.918 E6.787
G1 X113.137 Y149.119 E6.80161
G1 X113.102 Y149.161 E6.80526
G1 X113.349 Y149.343 E6.82576
G1 X113.416 Y149.71 E6.85068
G1 X113.315 Y149.926 E6.86661
G1 X113.226 Y150 E6.87434
G1 X113.342 Y150.129 E6.88593
G1 X113.422 Y150.441 E6.90745
G1 X113.254 Y150.762 E6.93165
G1 X113.12 Y150.833 E6.94178
G1 X113.211 Y151.013 E6.95525
G1 X113.206 Y151.262 E6.97189
G1 X113.099 Y151.464 E6.98716
G1 X112.791 Y151.619 E7.01019
G1 X112.83 Y151.915 E7.03014
G1 X112.618 Y152.215 E7.05468
G1 X112.404 Y152.29 E7.06983
G1 X112.281 Y152.282 E7.07806
G1 X112.265 Y152.47 E7.09066
G1 X112.106 Y152.733 E7.11119
G1 X111.762 Y152.84 E7.13526
G1 X111.617 Y152.795 E7.1454
G1 X111.554 Y152.987 E7.1589
G1 X111.382 Y153.156 E7.17501
G1 X111.08 Y153.223 E7.19568
G1 X110.885 Y153.139 E7.20986
G1 X110.559 Y153.371 F7800
G1 E5.20986 F2400
G92 E0
G1 X114.299 Y68.768 F7800
G1 E2 F2400
;TYPE:Perimeter
G1 F1800
G1 X114.419 Y69.154 E2.027
G1 X114.486 Y69.624 E2.05872
G1 X114.483 Y70.587 E2.12305
G1 X114.334 Y71.04 E2.15491
G1 X114.196 Y71.672 E2.19813
G1 X113.942 Y72.128 E2.233
G1 X113.852 Y72.234 E2.24229
G1 X113.635 Y72.657 E2.27405
G1 X113.302 Y73.036 E2.30775
G1 X113.119 Y73.16 E2.32252
G1 X112.983 Y73.367 E2.33907
G1 X112.691 Y73.631 E2.36537
G1 X112.33 Y73.8 E2.392
G1 X111.869 Y74.111 E2.42915
G1 X111.53 Y74.226 E2.45306
G1 X110.692 Y74.449 E2.51099
G1 X110.174 Y74.481 E2.54566
G1 X109.889 Y74.465 E2.56473
G1 X109.437 Y74.487 E2.59496
G1 X108.822 Y74.298 E2.63794
G1 X108.454 Y74.241 E2.66282
G1 X107.971 Y74.017 E2.69839
G1 X107.763 Y73.851 E2.71617
G1 X107.343 Y73.635 E2.74772
G1 X106.964 Y73.302 E2.78142
G1 X106.839 Y73.119 E2.79623
G1 X106.632 Y72.982 E2.81281
G1 X106.427 Y72.771 E2.83246
G1 X106.2 Y72.329 E2.86565
G1 X105.865 Y71.819 E2.90641
G1 X105.56 Y70.747 E2.98087
G1 X105.516 Y70.213 E3.01666
G1 X105.542 Y69.916 E3.03658
G1 X105.507 Y69.502 E3.06434
G1 X105.62 Y69.053 E3.09527
G1 X105.702 Y68.822 E3.11165
G1 X105.783 Y68.382 E3.14154
G1 X106.016 Y67.926 E3.17575
G1 X106.176 Y67.683 E3.19519
G1 X106.365 Y67.343 E3.22118
G1 X106.707 Y66.956 E3.25568
G1 X106.907 Y66.789 E3.27309
G1 X107.201 Y66.449 E3.30312
G1 X107.572 Y66.233 E3.3318
G1 X107.794 Y66.128 E3.34821
G1 X108.177 Y65.867 E3.37917
G1 X109.186 Y65.573 E3.44938
G1 X109.67 Y65.513 E3.48196
G1 X110.114 Y65.526 E3.51163
G1 X110.543 Y65.514 E3.5403
G1 X111.045 Y65.645 E3.57496
G1 X111.19 Y65.702 E3.58537
