; generated by PrusaSlicer 2.8.1+linux-x64-GTK3 on 2024-10-18 at 10:23:25 UTC

; 

; external perimeters extrusion width = 0.45mm
; perimeters extrusion width = 0.45mm
; infill extrusion width = 0.45mm
; solid infill extrusion width = 0.45mm
; top infill extrusion width = 0.40mm
; support material extrusion width = 0.40mm
; first layer extrusion width = 0.60mm

M190 S60 ; set bed temperature and wait for it to be reached
M104 S200 ; set temperature
;TYPE:Custom
G28 ; home all axes
G1 Z5 F5000 ; lift nozzle
M109 S200 ; set temperature and wait for it to be reached
G21 ; set units to millimeters
G90 ; use absolute coordinates
M82 ; use absolute distances for extrusion
G92 E0
; Filament gcode
M107
;LAYER_CHANGE
;Z:0.3
;HEIGHT:0.3
G1 E-2 F2400
G1 Z.3 F7800
G1 X97.04 Y60.975
G1 E0 F2400
;TYPE:Skirt/Brim
;WIDTH:0.6
G1 F1800
G1 X98.003 Y59.729 E.1052
G1 X99.085 Y58.586 E.21035
G1 X100.276 Y57.556 E.31554
G1 X101.563 Y56.649 E.42072
G1 X102.935 Y55.876 E.52592
G1 X104.376 Y55.242 E.63109
G1 X105.873 Y54.756 E.73624
G1 X107.412 Y54.421 E.84146
G1 X108.976 Y54.24 E.94664
G1 X110.55 Y54.217 E1.0518
G1 X111.809 Y54.311 E1.13614
G1 X113.362 Y54.569 E1.24131
G1 X115.624 Y55.242 E1.39897
G1 X116.764 Y55.73 E1.48181
G1 X118.031 Y56.402 E1.57762
G1 X119.092 Y57.087 E1.66199
G1 X120.332 Y58.056 E1.76712
G1 X121.47 Y59.144 E1.8723
G1 X122.96 Y60.975 E2.03
G1 X123.794 Y62.31 E2.13516
G1 X124.491 Y63.722 E2.24036
G1 X125.265 Y65.952 E2.39805
G1 X125.593 Y67.492 E2.50324
G1 X125.794 Y70 E2.67133
G1 X125.794 Y150 E8.01576
G1 X125.729 Y151.417 E8.11052
G1 X125.51 Y152.976 E8.21569
G1 X125.137 Y154.506 E8.3209
G1 X124.613 Y155.99 E8.42604
G1 X123.944 Y157.415 E8.53121
G1 X123.136 Y158.767 E8.63643
G1 X122.198 Y160.031 E8.74158
G1 X121.139 Y161.196 E8.84676
G1 X119.968 Y162.249 E8.95197
G1 X118.699 Y163.181 E9.05715
G1 X117.344 Y163.982 E9.1623
G1 X115.915 Y164.643 E9.26748
G1 X114.428 Y165.16 E9.37265
G1 X112.896 Y165.525 E9.47786
G1 X111.336 Y165.736 E9.58303
G1 X109.763 Y165.791 E9.68818
G1 X108.664 Y165.736 E9.76169
G1 X107.104 Y165.525 E9.86686
G1 X105.873 Y165.244 E9.95121
G1 X104.376 Y164.758 E10.05636
G1 X102.935 Y164.124 E10.16153
G1 X101.969 Y163.598 E10.23501
G1 X100.908 Y162.913 E10.31938
G1 X99.668 Y161.944 E10.42451
G1 X98.861 Y161.196 E10.49802
G1 X97.802 Y160.031 E10.6032
G1 X97.04 Y159.025 E10.68751
G1 X96.206 Y157.69 E10.79267
G1 X95.509 Y156.278 E10.89787
G1 X95.107 Y155.254 E10.97136
G1 X94.735 Y154.048 E11.05567
G1 X94.408 Y152.508 E11.16084
G1 X94.206 Y150 E11.32893
G1 X94.206 Y70 E16.67336
G1 X94.302 Y68.272 E16.78898
G1 X94.552 Y66.718 E16.89413
G1 X94.956 Y65.196 E16.99933
G1 X95.509 Y63.722 E17.1045
G1 X96.206 Y62.31 E17.2097
G1 X97.008 Y61.026 E17.31084
G1 E15.31084 F2400
G92 E0
G1 X97.008 Y61.026 F7800
G92 E0
G1 X115.185 Y115.032
G1 E2 F2400
;TYPE:Support material
G1 F1800
G1 X116.129 Y115.298 E2.06552
G1 X116.814 Y115.817 E2.12293
G1 X117.326 Y116.654 E2.18848
G1 X117.472 Y117.623 E2.25395
G1 X117.23 Y118.574 E2.31951
G1 X116.638 Y119.356 E2.38503
G1 X115.788 Y119.846 E2.45057
G1 X114.815 Y119.968 E2.51608
G1 X113.871 Y119.702 E2.5816
G1 X113.186 Y119.183 E2.63901
G1 X112.674 Y118.346 E2.70456
G1 X112.528 Y117.377 E2.77003
G1 X112.77 Y116.426 E2.83559
G1 X113.362 Y115.644 E2.90111
G1 X114.212 Y115.154 E2.96665
G1 X115.105 Y115.028 E3.0269
G1 X115.105 Y115.028 F7800
G1 X116.546 Y119.111
G1 F1800
G1 X116.546 Y116.244 E3.21843
G1 X115.951 Y115.75 E3.27009
G1 X115.951 Y119.25 E3.50391
G1 X115.356 Y119.46 E3.54606
G1 X115.356 Y115.54 E3.80794
G1 X114.95 Y115.508 E3.83515
G1 X114.761 Y115.522 E3.84781
G1 X114.761 Y119.478 E4.11209
G1 X114.166 Y119.309 E4.15341
G1 X114.166 Y115.691 E4.39511
G1 X113.571 Y116.112 E4.4438
G1 X113.571 Y119.216 E4.65116
G1 E2.65116 F2400
G92 E0
G1 X113.571 Y119.216 F7800
G1 X105.185 Y120.032
G1 E2 F2400
G1 F1800
G1 X106.129 Y120.298 E2.06552
G1 X106.896 Y120.909 E2.13103
G1 X107.365 Y121.771 E2.19659
G1 X107.463 Y122.746 E2.26205
G1 X107.23 Y123.574 E2.31951
G1 X106.638 Y124.356 E2.38503
G1 X105.788 Y124.846 E2.45057
G1 X104.815 Y124.968 E2.51608
G1 X103.871 Y124.702 E2.5816
G1 X103.104 Y124.091 E2.64711
G1 X102.635 Y123.229 E2.71267
G1 X102.528 Y122.377 E2.77004
G1 X102.77 Y121.426 E2.8356
G1 X103.362 Y120.644 E2.90112
G1 X104.212 Y120.154 E2.96666
G1 X105.105 Y120.028 E3.02691
G1 X105.105 Y120.028 F7800
G1 X106.429 Y124.216
G1 F1800
G1 X106.429 Y121.112 E3.23427
G1 X105.834 Y120.691 E3.28296
G1 X105.834 Y124.309 E3.52466
G1 X105.239 Y124.478 E3.56598
G1 X105.239 Y120.522 E3.83026
G1 X105.05 Y120.508 E3.84292
G1 X104.644 Y120.54 E3.87013
G1 X104.644 Y124.46 E4.13201
G1 X104.049 Y124.25 E4.17416
G1 X104.049 Y120.75 E4.40798
G1 X103.454 Y121.244 E4.45964
G1 X103.454 Y124.111 E4.65117
G1 E2.65117 F2400
G92 E0
G1 X103.454 Y124.111 F7800
G1 X111.729 Y117.166
G1 E2 F2400
;TYPE:External perimeter
;WIDTH:0.6
G1 F1800
G1 X111.734 Y117.035 E2.00876
G1 X111.891 Y116.397 E2.05265
G1 X112.199 Y115.757 E2.1001
G1 X112.564 Y115.276 E2.14044
G1 X113.053 Y114.837 E2.18434
G1 X113.619 Y114.504 E2.22821
G1 X114.24 Y114.29 E2.27209
G1 X114.891 Y114.203 E2.31597
G1 X115.547 Y114.247 E2.35989
G1 X116.18 Y114.42 E2.40373
G1 X116.767 Y114.715 E2.44762
G1 X117.284 Y115.12 E2.49149
G1 X117.711 Y115.62 E2.53542
G1 X118.029 Y116.194 E2.57926
G1 X118.228 Y116.82 E2.62314
G1 X118.299 Y117.473 E2.66702
G1 X118.239 Y118.128 E2.71096
G1 X118.05 Y118.757 E2.75484
G1 X117.74 Y119.337 E2.79877
G1 X117.207 Y119.951 E2.85309
G1 X116.672 Y120.343 E2.8974
G1 X116.076 Y120.618 E2.94125
G1 X115.437 Y120.77 E2.98513
G1 X114.78 Y120.791 E3.02904
G1 X114.132 Y120.683 E3.07293
G1 X113.519 Y120.448 E3.11679
G1 X112.964 Y120.096 E3.1607
G1 X112.49 Y119.641 E3.20459
G1 X112.116 Y119.101 E3.24847
G1 X111.812 Y118.346 E3.30284
G1 X111.707 Y117.691 E3.34716
G1 X111.726 Y117.225 E3.37832
G1 X111.789 Y116.83 F7800
G1 E1.37832 F2400
G92 E0
G1 X108.281 Y122.671 F7800
G1 E2 F2400
G1 F1800
G1 X108.239 Y123.128 E2.03066
G1 X108.05 Y123.757 E2.07454
G1 X107.74 Y124.337 E2.11847
G1 X107.207 Y124.951 E2.17279
G1 X106.672 Y125.343 E2.2171
G1 X106.025 Y125.635 E2.26452
G1 X105.437 Y125.77 E2.30482
G1 X104.78 Y125.791 E2.34873
G1 X104.132 Y125.683 E2.39262
G1 X103.519 Y125.448 E2.43648
G1 X102.964 Y125.096 E2.48039
G1 X102.49 Y124.641 E2.52428
G1 X102.116 Y124.101 E2.56816
G1 X101.812 Y123.346 E2.62253
G1 X101.707 Y122.691 E2.66685
G1 X101.734 Y122.035 E2.71071
G1 X101.891 Y121.397 E2.7546
G1 X102.171 Y120.803 E2.79847
G1 X102.564 Y120.276 E2.84239
G1 X103.053 Y119.837 E2.88629
G1 X103.619 Y119.504 E2.93016
G1 X104.24 Y119.29 E2.97404
G1 X104.944 Y119.202 E3.02144
G1 X105.547 Y119.247 E3.06184
G1 X106.18 Y119.42 E3.10568
G1 X106.767 Y119.715 E3.14957
G1 X107.284 Y120.12 E3.19344
G1 X107.711 Y120.62 E3.23737
G1 X108.029 Y121.194 E3.28121
G1 X108.228 Y121.82 E3.32509
G1 X108.299 Y122.473 E3.36897
G1 X108.286 Y122.611 E3.37823
G1 X108.249 Y123.009 F7800
G1 E1.37823 F2400
G92 E0
G1 X112.249 Y153.852 F7800
G1 E2 F2400
;TYPE:Perimeter
G1 F1800
G1 X112.206 Y153.873 E2.0032
G1 X111.823 Y154.133 E2.03413
G1 X110.814 Y154.427 E2.10434
G1 X110.343 Y154.487 E2.13606
G1 X109.435 Y154.486 E2.19672
G1 X108.821 Y154.298 E2.23962
G1 X108.445 Y154.238 E2.26506
G1 X108.094 Y154.07 E2.29106
G1 X107.343 Y153.635 E2.34904
G1 X106.956 Y153.293 E2.38354
G1 X106.789 Y153.093 E2.40095
G1 X106.458 Y152.81 E2.43004
G1 X106.233 Y152.428 E2.45966
G1 X106.128 Y152.206 E2.47607
G1 X105.896 Y151.883 E2.50264
G1 X105.769 Y151.507 E2.52915
G1 X105.551 Y150.691 E2.58558
G1 X105.519 Y150.176 E2.62005
G1 X105.542 Y149.916 E2.63749
G1 X105.504 Y149.599 E2.65882
G1 X105.597 Y149.108 E2.6922
G1 X105.706 Y148.887 E2.70866
G1 X105.714 Y148.659 E2.7239
G1 X105.85 Y148.217 E2.75479
G1 X106.058 Y147.872 E2.7817
G1 X106.148 Y147.766 E2.79099
G1 X106.365 Y147.343 E2.82275
G1 X106.698 Y146.964 E2.85645
G1 X106.881 Y146.84 E2.87122
G1 X107.017 Y146.633 E2.88777
G1 X107.309 Y146.369 E2.91407
G1 X107.67 Y146.2 E2.9407
G1 X108.128 Y145.891 E2.97761
G1 X109.002 Y145.63 E3.03855
G1 X109.515 Y145.524 E3.07355
G1 X110.035 Y145.544 E3.10831
G1 X110.451 Y145.505 E3.13622
G1 X110.944 Y145.604 E3.16981
G1 X111.224 Y145.704 E3.18967
G1 X111.588 Y145.772 E3.21441
G1 X111.907 Y145.93 E3.23819
G1 X112.79 Y146.462 E3.30706
G1 X113.11 Y146.793 E3.33782
G1 X113.161 Y146.882 E3.34467
G1 X113.372 Y147.021 E3.36155
G1 X113.575 Y147.231 E3.38106
G1 X113.8 Y147.671 E3.41407
G1 X114.128 Y148.167 E3.4538
G1 X114.449 Y149.309 E3.53305
G1 X114.481 Y149.824 E3.56752
G1 X114.458 Y150.083 E3.58489
G1 X114.493 Y150.498 E3.61271
G1 X114.38 Y150.947 E3.64364
G1 X114.298 Y151.178 E3.66002
G1 X114.217 Y151.618 E3.68991
G1 X113.984 Y152.075 E3.72418
G1 X113.824 Y152.317 E3.74356
G1 X113.654 Y152.63 E3.76736
G1 X113.296 Y153.044 E3.80392
G1 X113.094 Y153.212 E3.82147
G1 X112.799 Y153.551 E3.85149
G1 X112.428 Y153.766 E3.88014
G1 X112.303 Y153.826 E3.8894
G1 X112.303 Y153.826 F7800
G1 X111.57 Y153.639
G1 F1800
G1 X111.252 Y153.74 E3.91169
G1 X111.004 Y153.74 E3.92826
G1 X110.813 Y153.868 E3.94362
G1 X110.329 Y153.952 E3.97644
G1 X110.048 Y153.908 E3.99544
G1 X109.977 Y153.874 E4.0007
G1 X109.661 Y153.958 E4.02254
G1 X109.354 Y153.922 E4.04319
G1 X108.937 Y153.756 E4.07317
G1 X108.603 Y153.727 E4.09557
G1 X108.2 Y153.496 E4.1266
G1 X108.006 Y153.361 E4.14239
G1 X107.739 Y153.257 E4.16153
G1 X107.359 Y152.939 E4.19463
G1 X107.245 Y152.723 E4.21095
G1 X106.946 Y152.546 E4.23416
G1 X106.746 Y152.266 E4.25715
G1 X106.611 Y151.92 E4.28196
G1 X106.447 Y151.757 E4.29741
G1 X106.299 Y151.427 E4.32157
G1 X106.244 Y151.066 E4.34597
G1 X106.257 Y151.007 E4.35001
G1 X106.135 Y150.819 E4.36498
G1 X106.049 Y150.349 E4.3969
G1 X106.091 Y150.049 E4.41714
G1 X106.126 Y149.977 E4.42249
G1 X106.043 Y149.68 E4.44309
G1 X106.051 Y149.46 E4.4578
G1 X106.252 Y149.008 E4.49085
G1 X106.245 Y148.731 E4.50936
G1 X106.345 Y148.422 E4.53106
G1 X106.516 Y148.164 E4.55174
G1 X106.635 Y148.072 E4.56179
G1 X106.704 Y147.811 E4.57983
G1 X107.029 Y147.385 E4.61563
G1 X107.277 Y147.245 E4.63466
G1 X107.431 Y146.973 E4.65554
G1 X107.714 Y146.755 E4.6794
G1 X108.081 Y146.611 E4.70574
G1 X108.271 Y146.427 E4.72341
G1 X108.597 Y146.294 E4.74693
G1 X108.927 Y146.241 E4.76926
G1 X108.995 Y146.257 E4.77393
G1 X109.226 Y146.118 E4.79194
G1 X109.726 Y146.049 E4.82566
G1 X110.018 Y146.12 E4.84574
G1 X110.336 Y146.038 E4.86768
G1 X110.776 Y146.113 E4.8975
G1 X111.063 Y146.243 E4.91855
G1 X111.417 Y146.28 E4.94233
G1 X111.833 Y146.529 E4.97472
G1 X111.934 Y146.641 E4.9848
G1 X112.186 Y146.702 E5.00212
G1 X112.613 Y147.022 E5.03777
G1 X112.755 Y147.276 E5.05721
G1 X113.029 Y147.433 E5.07831
G1 X113.255 Y147.735 E5.10351
G1 X113.389 Y148.08 E5.12824
G1 X113.558 Y148.25 E5.14425
G1 X113.697 Y148.554 E5.16658
G1 X113.759 Y148.909 E5.19065
G1 X113.739 Y148.996 E5.19661
G1 X113.869 Y149.189 E5.21216
G1 X113.952 Y149.691 E5.24615
G1 X113.909 Y149.951 E5.26376
G1 X113.874 Y150.023 E5.26911
G1 X113.955 Y150.301 E5.28845
G1 X113.931 Y150.618 E5.30969
G1 X113.757 Y151.063 E5.34161
G1 X113.742 Y151.339 E5.36008
G1 X113.582 Y151.716 E5.38744
G1 X113.365 Y151.929 E5.40775
G1 X113.301 Y152.179 E5.42499
G1 X113.044 Y152.549 E5.45509
G1 X112.8 Y152.728 E5.47531
G1 X112.724 Y152.755 E5.4807
G1 X112.572 Y153.023 E5.50128
G1 X112.326 Y153.226 E5.52259
G1 X111.905 Y153.408 E5.55323
G1 X111.682 Y153.603 E5.57302
G1 X111.627 Y153.621 E5.57689
G1 X111.627 Y153.621 F7800
G1 X110.839 Y153.102
;TYPE:External perimeter
G1 F1800
G1 X110.659 Y153.347 E5.5972
G1 X110.316 Y153.416 E5.62057
G1 X110.162 Y153.372 E5.63127
G1 X110 Y153.226 E5.64584
G1 X109.872 Y153.342 E5.65738
G1 X109.567 Y153.423 E5.67846
G1 X109.238 Y153.254 E5.70317
G1 X109.167 Y153.12 E5.7133
G1 X108.987 Y153.211 E5.72677
G1 X108.73 Y153.203 E5.74395
G1 X108.477 Y153.031 E5.76439
G1 X108.4 Y152.828 E5.77889
G1 X108.4 Y152.788 E5.78156
G1 X108.077 Y152.827 E5.80329
G1 X107.776 Y152.602 E5.8284
G1 X107.709 Y152.396 E5.84287
G1 X107.719 Y152.281 E5.85058
G1 X107.546 Y152.272 E5.86215
G1 X107.269 Y152.108 E5.88366
G1 X107.16 Y151.762 E5.90789
G1 X107.205 Y151.617 E5.91803
G1 X107.014 Y151.554 E5.93147
G1 X106.838 Y151.37 E5.94848
G1 X106.78 Y151.067 E5.96909
G1 X106.869 Y150.868 E5.98365
G1 X106.898 Y150.84 E5.98634
G1 X106.641 Y150.64 E6.0081
G1 X106.587 Y150.267 E6.03328
G1 X106.685 Y150.074 E6.04774
G1 X106.774 Y150 E6.05547
G1 X106.658 Y149.871 E6.06706
G1 X106.578 Y149.562 E6.08838
G1 X106.746 Y149.238 E6.11276
G1 X106.88 Y149.167 E6.12289
G1 X106.789 Y148.987 E6.13636
G1 X106.794 Y148.738 E6.153
G1 X106.897 Y148.541 E6.16785
G1 X107.105 Y148.41 E6.18427
G1 X107.209 Y148.381 E6.19148
G1 X107.161 Y148.15 E6.20724
G1 X107.216 Y147.995 E6.21823
G1 X107.438 Y147.752 E6.24022
G1 X107.604 Y147.709 E6.25168
G1 X107.719 Y147.719 E6.25939
G1 X107.728 Y147.547 E6.2709
G1 X107.872 Y147.285 E6.29087
G1 X108.194 Y147.164 E6.31385
G1 X108.383 Y147.205 E6.32677
G1 X108.446 Y147.013 E6.34027
G1 X108.608 Y146.848 E6.35572
G1 X108.924 Y146.777 E6.37736
G1 X109.161 Y146.898 E6.39514
G1 X109.337 Y146.655 E6.41518
G1 X109.702 Y146.584 E6.44002
G1 X109.926 Y146.685 E6.45644
G1 X109.999 Y146.779 E6.46439
G1 X110.162 Y146.645 E6.47849
G1 X110.384 Y146.574 E6.49406
G1 X110.652 Y146.652 E6.51271
G1 X110.815 Y146.826 E6.52864
G1 X110.831 Y146.882 E6.53253
G1 X111.013 Y146.789 E6.54618
G1 X111.245 Y146.787 E6.56168
G1 X111.523 Y146.969 E6.58388
G1 X111.6 Y147.173 E6.59845
G1 X111.6 Y147.212 E6.60106
G1 X111.923 Y147.173 E6.62279
G1 X112.224 Y147.395 E6.64778
G1 X112.29 Y147.596 E6.66191
G1 X112.281 Y147.72 E6.67022
G1 X112.469 Y147.734 E6.68281
G1 X112.728 Y147.887 E6.70291
G1 X112.84 Y148.238 E6.72752
G1 X112.795 Y148.383 E6.73766
G1 X112.987 Y148.446 E6.75116
G1 X113.156 Y148.616 E6.76717
G1 X113.223 Y148.918 E6.78784
G1 X113.137 Y149.119 E6.80245
G1 X113.102 Y149.161 E6.8061
G1 X113.349 Y149.343 E6.8266
G1 X113.416 Y149.71 E6.85152
G1 X113.315 Y149.926 E6.86745
G1 X113.226 Y150 E6.87518
G1 X113.342 Y150.129 E6.88677
G1 X113.422 Y150.441 E6.90829
G1 X113.254 Y150.762 E6.93249
G1 X113.12 Y150.833 E6.94262
G1 X113.211 Y151.013 E6.95609
G1 X113.206 Y151.262 E6.97273
G1 X113.099 Y151.464 E6.988
G1 X112.791 Y151.619 E7.01103
G1 X112.83 Y151.915 E7.03098
G1 X112.618 Y152.215 E7.05552
G1 X112.404 Y152.29 E7.07067
G1 X112.281 Y152.282 E7.0789
G1 X112.265 Y152.47 E7.0915
G1 X112.106 Y152.733 E7.11203
G1 X111.762 Y152.84 E7.1361
G1 X111.617 Y152.795 E7.14624
G1 X111.554 Y152.987 E7.15974
G1 X111.382 Y153.156 E7.17585
G1 X111.08 Y153.223 E7.19652
G1 X110.885 Y153.139 E7.2107
G1 X110.559 Y153.371 F7800
G1 E5.2107 F2400
G92 E0
G1 X114.299 Y68.768 F7800
G1 E2 F2400
;TYPE:Perimeter
G1 F1800
G1 X114.419 Y69.154 E2.027
G1 X114.486 Y69.624 E2.05872
G1 X114.483 Y70.587 E2.12305
G1 X114.334 Y71.04 E2.15491
G1 X114.196 Y71.672 E2.19813
G1 X113.942 Y72.128 E2.233
G1 X113.852 Y72.234 E2.24229
G1 X113.635 Y72.657 E2.27405
G1 X113.302 Y73.036 E2.30775
G1 X113.119 Y73.16 E2.32252
G1 X112.983 Y73.367 E2.33907
G1 X112.691 Y73.631 E2.36537
G1 X112.33 Y73.8 E2.392
G1 X111.869 Y74.111 E2.42915
G1 X111.53 Y74.226 E2.45306
G1 X110.692 Y74.449 E2.51099
G1 X110.174 Y74.481 E2.54566
G1 X109.889 Y74.465 E2.56473
G1 X109.437 Y74.487 E2.59496
G1 X108.822 Y74.298 E2.63794
G1 X108.454 Y74.241 E2.66282
G1 X107.971 Y74.017 E2.69839
G1 X107.763 Y73.851 E2.71617
G1 X107.343 Y73.635 E2.74772
G1 X106.964 Y73.302 E2.78142
G1 X106.839 Y73.119 E2.79623
G1 X106.632 Y72.982 E2.81281
G1 X106.427 Y72.771 E2.83246
G1 X106.2 Y72.329 E2.86565
G1 X105.865 Y71.819 E2.90641
G1 X105.56 Y70.747 E2.98087
G1 X105.516 Y70.213 E3.01666
G1 X105.542 Y69.916 E3.03658
G1 X105.507 Y69.502 E3.06434
G1 X105.62 Y69.053 E3.09527
G1 X105.702 Y68.822 E3.11165
G1 X105.783 Y68.382 E3.14154
G1 X106.016 Y67.926 E3.17575
G1 X106.176 Y67.683 E3.19519
G1 X106.365 Y67.343 E3.22118
G1 X106.707 Y66.956 E3.25568
G1 X106.907 Y66.789 E3.27309
G1 X107.201 Y66.449 E3.30312
G1 X107.572 Y66.233 E3.3318
G1 X107.794 Y66.128 E3.34821
G1 X108.177 Y65.867 E3.37917
G1 X109.186 Y65.573 E3.44938
G1 X109.67 Y65.513 E3.48196
G1 X110.114 Y65.526 E3.51163
G1 X110.543 Y65.514 E3.5403
G1 X111.045 Y65.645 E3.57496
G1 X111.19 Y65.702 E3.58537
