; generated by PrusaSlicer 2.8.1+linux-x64-GTK3 on 2024-10-14 at 10:53:56 UTC

; 

; external perimeters extrusion width = 0.45mm
; perimeters extrusion width = 0.45mm
; infill extrusion width = 0.45mm
; solid infill extrusion width = 0.45mm
; top infill extrusion width = 0.40mm
; support material extrusion width = 0.40mm
; first layer extrusion width = 0.60mm

M190 S60 ; set bed temperature and wait for it to be reached
M104 S200 ; set temperature
;TYPE:Custom
G28 ; home all axes
G1 Z5 F5000 ; lift nozzle
M109 S200 ; set temperature and wait for it to be reached
G21 ; set units to millimeters
G90 ; use absolute coordinates
M82 ; use absolute distances for extrusion
G92 E0
; Filament gcode
M107
;LAYER_CHANGE
;Z:0.3
;HEIGHT:0.3
G1 E-2 F2400
G1 Z.3 F7800
G1 X97.04 Y60.975
G1 E0 F2400
;TYPE:Skirt/Brim
;WIDTH:0.6
G1 F1800
G1 X98.003 Y59.729 E.1052
G1 X99.085 Y58.586 E.21035
G1 X100.276 Y57.556 E.31554
G1 X101.563 Y56.649 E.42072
G1 X102.934 Y55.876 E.52587
G1 X104.376 Y55.242 E.6311
G1 X105.873 Y54.756 E.73625
G1 X107.412 Y54.421 E.84147
G1 X108.976 Y54.24 E.94665
G1 X110.55 Y54.217 E1.05181
G1 X112.896 Y54.475 E1.20948
G1 X114.428 Y54.84 E1.31469
G1 X115.624 Y55.242 E1.39898
G1 X117.065 Y55.876 E1.50415
G1 X119.092 Y57.087 E1.66189
G1 X120.332 Y58.056 E1.76702
G1 X121.236 Y58.904 E1.84982
G1 X122.198 Y59.969 E1.9457
G1 X122.96 Y60.975 E2.03001
G1 X123.794 Y62.31 E2.13517
G1 X124.296 Y63.289 E2.20867
G1 X124.893 Y64.746 E2.31386
G1 X125.265 Y65.952 E2.39817
G1 X125.592 Y67.492 E2.50334
G1 X125.794 Y70 E2.67143
G1 X125.794 Y150 E8.01586
G1 X125.729 Y151.417 E8.11062
G1 X125.51 Y152.976 E8.21579
G1 X125.137 Y154.505 E8.32093
G1 X124.613 Y155.99 E8.42613
G1 X123.944 Y157.415 E8.5313
G1 X123.136 Y158.767 E8.63652
G1 X122.198 Y160.031 E8.74167
G1 X121.139 Y161.196 E8.84685
G1 X119.968 Y162.249 E8.95206
G1 X118.699 Y163.181 E9.05724
G1 X117.344 Y163.982 E9.16239
G1 X115.915 Y164.643 E9.26757
G1 X114.428 Y165.16 E9.37274
G1 X112.896 Y165.525 E9.47795
G1 X111.336 Y165.736 E9.58312
G1 X109.763 Y165.791 E9.68827
G1 X108.525 Y165.722 E9.7711
G1 X107.104 Y165.525 E9.86694
G1 X105.873 Y165.244 E9.95129
G1 X104.376 Y164.758 E10.05644
G1 X102.935 Y164.124 E10.16161
G1 X101.969 Y163.598 E10.23509
G1 X100.908 Y162.913 E10.31946
G1 X99.668 Y161.944 E10.42459
G1 X98.861 Y161.196 E10.4981
G1 X97.802 Y160.031 E10.60328
G1 X97.04 Y159.025 E10.68759
G1 X96.206 Y157.69 E10.79275
G1 X95.509 Y156.278 E10.89795
G1 X95.107 Y155.254 E10.97144
G1 X94.735 Y154.048 E11.05575
G1 X94.408 Y152.508 E11.16092
G1 X94.206 Y150 E11.32901
G1 X94.206 Y70 E16.67344
G1 X94.302 Y68.272 E16.78906
G1 X94.552 Y66.718 E16.89421
G1 X94.955 Y65.196 E16.99939
G1 X95.509 Y63.722 E17.10459
G1 X96.206 Y62.31 E17.20979
G1 X97.008 Y61.026 E17.31093
G1 E15.31093 F2400
G92 E0
G1 X97.008 Y61.026 F7800
G92 E0
G1 X117.376 Y124.878
G1 E2 F2400
;TYPE:Support material
G1 F1800
G1 X117.376 Y127.622 E2.18331
G1 X115 Y128.994 E2.3666
G1 X112.624 Y127.622 E2.54989
G1 X112.624 Y124.878 E2.7332
G1 X115 Y123.506 E2.91649
G1 X117.307 Y124.838 E3.09445
G1 X117.307 Y124.838 F7800
G1 X116.546 Y127.823
G1 F1800
G1 X116.546 Y124.956 E3.28598
G1 X115.951 Y124.612 E3.33189
G1 X115.951 Y127.888 E3.55074
G1 X115.356 Y128.232 E3.59665
G1 X115.356 Y124.268 E3.86147
G1 X115 Y124.063 E3.88891
G1 X114.761 Y124.201 E3.90735
G1 X114.761 Y128.299 E4.18112
G1 X114.166 Y127.956 E4.227
G1 X114.166 Y124.544 E4.45494
G1 X113.571 Y124.888 E4.50085
G1 X113.571 Y127.89 E4.7014
G1 E2.7014 F2400
G92 E0
G1 X113.571 Y127.89 F7800
G1 X107.376 Y112.378
G1 E2 F2400
G1 F1800
G1 X107.376 Y115.122 E2.18331
G1 X105 Y116.494 E2.3666
G1 X102.624 Y115.122 E2.54989
G1 X102.624 Y112.378 E2.7332
G1 X105 Y111.006 E2.91649
G1 X107.307 Y112.338 E3.09445
G1 X107.307 Y112.338 F7800
G1 X106.429 Y115.39
G1 F1800
G1 X106.429 Y112.388 E3.295
G1 X105.834 Y112.044 E3.34091
G1 X105.834 Y115.456 E3.56885
G1 X105.239 Y115.799 E3.61473
G1 X105.239 Y111.701 E3.8885
G1 X105 Y111.563 E3.90694
G1 X104.644 Y111.768 E3.93438
G1 X104.644 Y115.732 E4.1992
G1 X104.049 Y115.388 E4.24511
G1 X104.049 Y112.112 E4.46396
G1 X103.454 Y112.456 E4.50987
G1 X103.454 Y115.323 E4.7014
G1 E2.7014 F2400
G92 E0
G1 X103.454 Y115.323 F7800
G1 X101.866 Y111.94
G1 E2 F2400
;TYPE:External perimeter
;WIDTH:0.6
G1 F1800
G1 X101.933 Y111.824 E2.00895
G1 X104.866 Y110.131 E2.23519
G1 X105.038 Y110.098 E2.24689
G1 X105.387 Y110.277 E2.27309
G1 X108.067 Y111.824 E2.47982
G1 X108.19 Y111.981 E2.49314
G1 X108.201 Y112.056 E2.4982
G1 X108.201 Y115.444 E2.72454
G1 X108.133 Y115.622 E2.73727
G1 X107.221 Y116.164 E2.80814
G1 X105.134 Y117.369 E2.96913
G1 X104.98 Y117.404 E2.97968
G1 X104.866 Y117.369 E2.98765
G1 X101.933 Y115.676 E3.21389
G1 X101.799 Y115.444 E3.23179
G1 X101.799 Y112.056 E3.45813
G1 X101.836 Y111.992 E3.46307
G1 X102.13 Y111.722 F7800
G1 E1.46307 F2400
G92 E0
G1 X111.842 Y124.425 F7800
G1 E2 F2400
G1 F1800
G1 X111.933 Y124.324 E2.00908
G1 X114.866 Y122.631 E2.23532
G1 X115.02 Y122.596 E2.24587
G1 X115.134 Y122.631 E2.25384
G1 X118.067 Y124.324 E2.48008
G1 X118.201 Y124.556 E2.49798
G1 X118.201 Y127.944 E2.72432
G1 X118.067 Y128.176 E2.74222
G1 X115.134 Y129.869 E2.96846
G1 X114.962 Y129.902 E2.98016
G1 X114.613 Y129.723 E3.00636
G1 X111.933 Y128.176 E3.21309
G1 X111.81 Y128.019 E3.22641
G1 X111.799 Y124.556 E3.45776
G1 X111.816 Y124.477 E3.46316
G1 X112.125 Y124.223 F7800
G1 E1.46316 F2400
G92 E0
G1 X117.779 Y152.435 F7800
G1 E2 F2400
;TYPE:Perimeter
G1 F1800
G1 X117.513 Y153.167 E2.05203
G1 X117.16 Y153.899 E2.10632
G1 X116.737 Y154.593 E2.16062
G1 X116.246 Y155.241 E2.21493
G1 X115.693 Y155.837 E2.26925
G1 X115.084 Y156.375 E2.32354
G1 X114.424 Y156.849 E2.37782
G1 X113.72 Y157.255 E2.43211
G1 X112.979 Y157.59 E2.48644
G1 X112.208 Y157.849 E2.54078
G1 X111.416 Y158.029 E2.59504
G1 X110.609 Y158.131 E2.64938
G1 X109.797 Y158.151 E2.70364
G1 X108.986 Y158.09 E2.75797
G1 X108.202 Y157.952 E2.81115
G1 X107.006 Y157.583 E2.89477
G1 X106.28 Y157.255 E2.94799
G1 X105.576 Y156.849 E3.00228
G1 X104.909 Y156.369 E3.05718
G1 X104.522 Y156.037 E3.09124
G1 X104.025 Y155.548 E3.13782
G1 X103.501 Y154.923 E3.19231
G1 X103.043 Y154.251 E3.24664
G1 X102.654 Y153.538 E3.3009
G1 X102.338 Y152.789 E3.35521
G1 X102.099 Y152.012 E3.40952
G1 X101.941 Y151.231 E3.46275
G1 X101.845 Y149.949 E3.54863
G1 X101.845 Y116.862 E5.75902
G1 X104.33 Y118.297 E5.95072
G1 X104.628 Y118.424 E5.97236
G1 X104.898 Y118.472 E5.99068
G1 X105.32 Y118.438 E6.01896
G1 X105.67 Y118.297 E6.04417
G1 X108.78 Y116.481 E6.28476
G1 X109.059 Y116.169 E6.31272
G1 X109.217 Y115.826 E6.33795
G1 X109.272 Y115.444 E6.36373
G1 X109.272 Y112.056 E6.59007
G1 X109.259 Y111.864 E6.60293
G1 X109.153 Y111.503 E6.62806
G1 X108.964 Y111.201 E6.65186
G1 X108.603 Y110.897 E6.68339
G1 X105.922 Y109.349 E6.89021
G1 X105.388 Y109.081 E6.93012
G1 X104.948 Y109.025 E6.95975
G1 X104.657 Y109.068 E6.9794
G1 X104.33 Y109.203 E7.00303
G1 X101.845 Y110.638 E7.19473
G1 X101.845 Y70.034 E9.90729
G1 X101.887 Y69.188 E9.96388
G1 X102.008 Y68.384 E10.0182
G1 X102.209 Y67.597 E10.07246
G1 X102.487 Y66.833 E10.12677
G1 X102.84 Y66.101 E10.18106
G1 X103.263 Y65.407 E10.23536
G1 X103.754 Y64.759 E10.28967
G1 X104.307 Y64.163 E10.34399
G1 X104.916 Y63.625 E10.39828
G1 X105.576 Y63.151 E10.45256
G1 X106.28 Y62.745 E10.50685
G1 X107.021 Y62.41 E10.56118
G1 X107.792 Y62.151 E10.61552
G1 X108.584 Y61.971 E10.66978
G1 X109.378 Y61.871 E10.72324
G1 X110.258 Y61.866 E10.78203
G1 X111.005 Y61.908 E10.83201
G1 X111.814 Y62.051 E10.88689
G1 X112.597 Y62.271 E10.94122
G1 X113.362 Y62.572 E10.99614
G1 X113.819 Y62.798 E11.0302
G1 X114.421 Y63.149 E11.07675
G1 X115.084 Y63.625 E11.13127
G1 X115.681 Y64.152 E11.18447
G1 X116.509 Y65.091 E11.2681
G1 X116.758 Y65.456 E11.29762
G1 X117.161 Y66.123 E11.34968
G1 X117.508 Y66.847 E11.40332
G1 X117.791 Y67.632 E11.45907
G1 X117.978 Y68.359 E11.50922
G1 X118.074 Y68.896 E11.54566
G1 X118.134 Y69.618 E11.59406
G1 X118.155 Y70.238 E11.6355
G1 X118.155 Y123.138 E15.1695
G1 X115.67 Y121.703 E15.3612
G1 X115.372 Y121.576 E15.38284
G1 X115.102 Y121.528 E15.40116
G1 X114.68 Y121.562 E15.42944
G1 X114.33 Y121.703 E15.45465
G1 X111.22 Y123.519 E15.69524
G1 X110.941 Y123.831 E15.7232
G1 X110.783 Y124.174 E15.74843
G1 X110.728 Y124.556 E15.77421
G1 X110.728 Y127.944 E16.00055
G1 X110.741 Y128.136 E16.01341
G1 X110.847 Y128.497 E16.03854
G1 X111.036 Y128.799 E16.06234
G1 X111.397 Y129.103 E16.09387
G1 X114.078 Y130.651 E16.30069
G1 X114.612 Y130.919 E16.3406
G1 X115.052 Y130.975 E16.37023
G1 X115.343 Y130.932 E16.38988
G1 X115.67 Y130.797 E16.41351
G1 X118.155 Y129.362 E16.60521
G1 X118.155 Y149.966 E17.98167
G1 X118.113 Y150.812 E18.03826
G1 X117.992 Y151.616 E18.09258
G1 X117.798 Y152.378 E18.14511
G1 E16.14511 F2400
G92 E0
G1 X117.798 Y152.378 F7800
G1 X118.714 Y124.556
G1 E2 F2400
;WIDTH:0.553883
G1 F1800
G1 X118.714 Y127.944 E2.20685
;WIDTH:0.565707
G1 X118.708 Y128.079 E2.2153
G1 E.2153 F2400
G92 E0
G1 X118.708 Y128.079 F7800
G1 X101.292 Y115.579
G1 E2 F2400
;WIDTH:0.565711
G1 F1800
G1 X101.286 Y115.444 E2.00845
;WIDTH:0.553885
G1 X101.286 Y112.056 E2.2153
G1 E.2153 F2400
G92 E0
G1 X101.286 Y112.056 F7800
G1 X118.296 Y152.581
G1 E2 F2400
;WIDTH:0.6
G1 F1800
G1 X118.007 Y153.375 E2.05645
G1 X117.631 Y154.156 E2.11436
G1 X117.18 Y154.895 E2.1722
G1 X116.657 Y155.586 E2.23009
G1 X116.067 Y156.221 E2.288
G1 X115.418 Y156.794 E2.34584
G1 X114.715 Y157.3 E2.4037
G1 X113.964 Y157.733 E2.46161
G1 X113.175 Y158.089 E2.51944
G1 X112.354 Y158.365 E2.5773
G1 X111.509 Y158.558 E2.6352
G1 X110.649 Y158.665 E2.6931
G1 X109.783 Y158.687 E2.75097
G1 X108.919 Y158.622 E2.80885
G1 X108.076 Y158.473 E2.86604
G1 X106.816 Y158.085 E2.95412
G1 X106.036 Y157.733 E3.01129
G1 X105.285 Y157.3 E3.0692
G1 X104.577 Y156.791 E3.12745
G1 X104.16 Y156.432 E3.16421
G1 X103.631 Y155.912 E3.21377
G1 X103.073 Y155.247 E3.27176
G1 X102.585 Y154.531 E3.32965
G1 X102.171 Y153.77 E3.38753
G1 X101.834 Y152.972 E3.4454
G1 X101.579 Y152.144 E3.50328
G1 X101.409 Y151.305 E3.56047
G1 X101.309 Y149.969 E3.64997
G1 X101.309 Y116.345 E5.89623
G1 X101.292 Y115.579 E5.94742
G1 X101.665 Y116.139 E5.99237
G1 X104.598 Y117.833 E6.21864
G1 X104.777 Y117.909 E6.23163
G1 X105.077 Y117.937 E6.25176
G1 X105.402 Y117.833 E6.27456
G1 X108.449 Y116.059 E6.5101
G1 X108.666 Y115.773 E6.53408
G1 X108.737 Y115.444 E6.55656
G1 X108.737 Y112.056 E6.7829
G1 X108.704 Y111.829 E6.79822
G1 X108.552 Y111.543 E6.81986
G1 X108.335 Y111.361 E6.83878
G1 X105.327 Y109.629 E7.07066
G1 X104.969 Y109.56 E7.09502
G1 X104.598 Y109.667 E7.12081
G1 X101.665 Y111.361 E7.34708
G1 X101.286 Y112.056 E7.39996
G1 X101.309 Y111.155 E7.46017
G1 X101.309 Y70.021 E10.20814
G1 X101.354 Y69.135 E10.26741
G1 X101.483 Y68.278 E10.32531
G1 X101.696 Y67.439 E10.38314
G1 X101.993 Y66.625 E10.44103
G1 X102.369 Y65.844 E10.49894
G1 X102.82 Y65.105 E10.55678
G1 X103.343 Y64.414 E10.61467
G1 X103.933 Y63.779 E10.67258
G1 X104.582 Y63.206 E10.73042
G1 X105.285 Y62.7 E10.78828
G1 X106.036 Y62.267 E10.84619
G1 X106.825 Y61.911 E10.90402
G1 X107.646 Y61.635 E10.96188
G1 X108.491 Y61.442 E11.01978
G1 X109.343 Y61.336 E11.07714
G1 X110.537 Y61.329 E11.15691
G1 X111.075 Y61.377 E11.19299
G1 X111.934 Y61.528 E11.25126
G1 X112.768 Y61.763 E11.30915
G1 X113.579 Y62.081 E11.36735
G1 X114.073 Y62.326 E11.40419
G1 X114.713 Y62.699 E11.45368
G1 X115.418 Y63.206 E11.51169
G1 X116.06 Y63.773 E11.56891
G1 X116.932 Y64.761 E11.65694
G1 X117.2 Y65.155 E11.68877
G1 X117.632 Y65.867 E11.74441
G1 X118.002 Y66.639 E11.8016
G1 X118.303 Y67.474 E11.8609
G1 X118.503 Y68.251 E11.9145
G1 X118.604 Y68.824 E11.95337
G1 X118.669 Y69.591 E12.00479
G1 X118.691 Y70.238 E12.04804
G1 X118.691 Y123.655 E15.61658
G1 X118.714 Y124.556 E15.67679
G1 X118.335 Y123.861 E15.72967
G1 X115.402 Y122.167 E15.95594
G1 X115.223 Y122.091 E15.96893
G1 X114.923 Y122.063 E15.98906
G1 X114.598 Y122.167 E16.01186
G1 X111.551 Y123.94 E16.24737
G1 X111.334 Y124.227 E16.27141
G1 X111.263 Y124.556 E16.29389
G1 X111.263 Y127.944 E16.52023
G1 X111.296 Y128.171 E16.53555
G1 X111.448 Y128.457 E16.55719
G1 X111.665 Y128.639 E16.57611
G1 X114.673 Y130.371 E16.80799
G1 X115.031 Y130.44 E16.83235
G1 X115.402 Y130.333 E16.85814
G1 X118.335 Y128.639 E17.08441
G1 X118.708 Y128.079 E17.12936
G1 X118.691 Y128.845 E17.18055
G1 X118.691 Y149.979 E18.59241
G1 X118.646 Y150.865 E18.65168
G1 X118.517 Y151.722 E18.70958
G1 X118.313 Y152.523 E18.7648
G1 X118.313 Y152.523 F7800
G1 X118.813 Y152.726
;TYPE:External perimeter
G1 F1800
G1 X118.501 Y153.584 E18.82579
G1 X118.102 Y154.412 E18.88719
G1 X117.623 Y155.197 E18.94862
G1 X117.067 Y155.93 E19.01008
G1 X116.442 Y156.605 E19.07154
G1 X115.752 Y157.213 E19.13298
G1 X115.005 Y157.75 E19.19444
G1 X114.209 Y158.21 E19.25586
G1 X113.371 Y158.588 E19.31727
G1 X112.499 Y158.881 E19.37872
G1 X111.602 Y159.086 E19.44019
G1 X110.689 Y159.2 E19.50166
G1 X109.77 Y159.223 E19.56307
G1 X108.853 Y159.154 E19.6245
G1 X107.95 Y158.995 E19.68575
G1 X106.626 Y158.587 E19.7783
G1 X105.791 Y158.21 E19.8395
G1 X104.995 Y157.75 E19.90092
G1 X104.246 Y157.212 E19.96253
G1 X103.797 Y156.826 E20.00209
G1 X103.237 Y156.276 E20.05453
G1 X102.646 Y155.571 E20.11599
G1 X102.128 Y154.811 E20.17743
G1 X101.688 Y154.003 E20.23889
G1 X101.33 Y153.155 E20.30038
G1 X101.059 Y152.277 E20.36177
G1 X100.878 Y151.378 E20.42303
G1 X100.774 Y149.989 E20.51608
G1 X100.774 Y70.007 E25.85931
G1 X100.82 Y69.081 E25.92125
G1 X100.957 Y68.172 E25.98266
G1 X101.184 Y67.281 E26.04408
G1 X101.499 Y66.416 E26.10558
G1 X101.898 Y65.588 E26.16698
G1 X102.377 Y64.803 E26.22841
G1 X102.933 Y64.07 E26.28987
G1 X103.558 Y63.395 E26.35133
G1 X104.248 Y62.787 E26.41277
G1 X104.994 Y62.25 E26.47418
G1 X105.791 Y61.79 E26.53566
G1 X106.629 Y61.412 E26.59707
G1 X107.501 Y61.119 E26.65852
G1 X108.398 Y60.914 E26.71999
G1 X109.308 Y60.8 E26.78126
G1 X110.559 Y60.793 E26.86483
G1 X111.145 Y60.845 E26.90413
G1 X112.053 Y61.005 E26.96572
G1 X112.938 Y61.254 E27.02714
G1 X113.796 Y61.591 E27.08872
G1 X114.327 Y61.854 E27.12831
G1 X115.005 Y62.25 E27.18076
G1 X115.752 Y62.787 E27.24222
G1 X116.44 Y63.394 E27.30351
G1 X117.356 Y64.432 E27.39599
G1 X117.872 Y65.189 E27.45719
G1 X118.312 Y65.997 E27.51865
G1 X118.67 Y66.845 E27.58014
G1 X118.941 Y67.724 E27.64159
G1 X119.135 Y68.751 E27.71141
G1 X119.204 Y69.565 E27.76598
G1 X119.226 Y70.238 E27.81096
G1 X119.226 Y149.993 E33.13902
G1 X119.18 Y150.919 E33.20096
G1 X119.043 Y151.828 E33.26237
G1 X118.829 Y152.668 E33.32028
G1 X118.696 Y153.046 F7800
G1 E31.32028 F2400
G92 E0
G1 X116.855 Y65.897 F7800
G1 E2 F2400
;TYPE:Solid infill
;WIDTH:0.602159
G1 F1800
G1 X115.389 Y64.431 E2.13906
G1 X114.833 Y63.94 E2.18881
G1 X114.202 Y63.487 E2.24091
G1 X113.628 Y63.152 E2.28549
G1 X113.097 Y62.899 E2.32494
G1 X117.092 Y66.894 E2.7039
G1 X117.284 Y67.349 E2.73702
G1 X117.506 Y68.069 E2.78756
G1 X111.941 Y62.504 E3.31544
G1 X111.725 Y62.443 E3.33049
G1 X110.99 Y62.314 E3.38054
G1 X117.683 Y69.007 E4.01542
G1 X117.712 Y69.216 E4.02957
G1 X117.742 Y69.826 E4.07053
G1 X110.184 Y62.268 E4.78747
G1 X109.428 Y62.272 E4.83818
G1 X117.753 Y70.598 E5.62792
G1 X117.753 Y71.358 E5.6789
G1 X108.75 Y62.355 E6.53291
G1 X108.122 Y62.488 E6.57597
G1 X117.753 Y72.119 E7.48955
G1 X117.753 Y72.879 E7.54053
G1 X107.535 Y62.661 E8.50979
G1 X107.168 Y62.785 E8.53577
G1 X106.982 Y62.869 E8.54946
G1 X117.753 Y73.64 E9.57117
G1 X117.753 Y74.401 E9.62221
G1 X106.458 Y63.106 E10.69363
G1 X105.976 Y63.384 E10.73095
G1 X117.753 Y75.161 E11.84809
G1 X117.753 Y75.922 E11.89913
G1 X105.519 Y63.687 E13.05967
G1 X105.084 Y64.013 E13.09613
G1 X117.753 Y76.682 E14.29788
G1 X117.753 Y77.443 E14.34892
G1 X104.68 Y64.37 E15.589
G1 X104.306 Y64.755 E15.625
G1 X117.753 Y78.203 E16.9006
G1 X117.753 Y78.964 E16.95164
G1 X103.952 Y65.163 E18.26077
G1 X103.625 Y65.595 E18.29711
G1 X117.753 Y79.724 E19.63731
G1 X117.753 Y80.485 E19.68835
G1 X103.333 Y66.064 E21.05625
G1 X103.193 Y66.293 E21.07425
G1 X103.065 Y66.557 E21.09393
G1 X117.753 Y81.245 E22.4872
G1 X117.753 Y82.006 E22.53824
G1 X102.825 Y67.078 E23.95428
G1 X102.622 Y67.635 E23.99404
G1 X117.753 Y82.766 E25.42933
G1 X117.753 Y83.527 E25.48037
