; generated by PrusaSlicer 2.8.1+linux-x64-GTK3 on 2024-10-16 at 12:45:01 UTC

; 

; external perimeters extrusion width = 0.45mm
; perimeters extrusion width = 0.45mm
; infill extrusion width = 0.45mm
; solid infill extrusion width = 0.45mm
; top infill extrusion width = 0.40mm
; support material extrusion width = 0.40mm
; first layer extrusion width = 0.60mm

M190 S60 ; set bed temperature and wait for it to be reached
M104 S200 ; set temperature
;TYPE:Custom
G28 ; home all axes
G1 Z5 F5000 ; lift nozzle
M109 S200 ; set temperature and wait for it to be reached
G21 ; set units to millimeters
G90 ; use absolute coordinates
M82 ; use absolute distances for extrusion
G92 E0
; Filament gcode
M107
;LAYER_CHANGE
;Z:0.3
;HEIGHT:0.3
G1 E-2 F2400
G1 Z.3 F7800
G1 X96.864 Y61.233
G1 E0 F2400
;TYPE:Skirt/Brim
;WIDTH:0.6
G1 F1800
G1 X98.317 Y59.373 E.15768
G1 X100.032 Y57.751 E.31538
G1 X101.683 Y56.576 E.45076
G1 X103.647 Y55.541 E.59907
G1 X105.873 Y54.756 E.75675
G1 X108.191 Y54.311 E.91443
G1 X110.55 Y54.217 E1.07215
G1 X112.588 Y54.421 E1.20898
G1 X114.881 Y54.98 E1.36665
G1 X117.065 Y55.876 E1.52435
G1 X119.092 Y57.087 E1.68209
G1 X120.915 Y58.586 E1.83976
G1 X122.494 Y60.34 E1.99742
G1 X123.557 Y61.899 E2.12348
G1 X124.613 Y64.01 E2.28117
G1 X125.342 Y66.255 E2.43886
G1 X136.21 Y114.668 E5.7536
G1 X136.439 Y116.59 E5.88291
G1 X136.439 Y117.723 E5.9586
G1 X136.335 Y118.866 E6.03527
G1 X136.128 Y119.978 E6.11083
G1 X135.761 Y121.274 E6.20081
G1 X125.045 Y154.804 E8.55241
G1 X124.491 Y156.278 E8.65761
G1 X123.794 Y157.69 E8.76281
G1 X122.683 Y159.411 E8.89966
G1 X121.47 Y160.856 E9.0257
G1 X119.968 Y162.249 E9.16255
G1 X118.031 Y163.598 E9.32024
G1 X115.915 Y164.643 E9.4779
G1 X114.127 Y165.244 E9.60392
G1 X111.809 Y165.689 E9.7616
G1 X109.763 Y165.791 E9.89845
G1 X107.881 Y165.65 E10.02453
G1 X105.572 Y165.16 E10.18222
G1 X103.363 Y164.33 E10.33987
G1 X101.301 Y163.181 E10.49757
G1 X99.433 Y161.737 E10.6553
G1 X97.802 Y160.031 E10.81297
G1 X96.443 Y158.101 E10.97066
G1 X95.509 Y156.278 E11.1075
G1 X95.107 Y155.254 E11.18099
G1 X94.668 Y153.791 E11.28303
G1 X84.934 Y112.562 E14.11307
G1 X84.7 Y111.26 E14.20144
G1 X84.609 Y109.505 E14.31884
G1 X84.704 Y108.254 E14.40265
G1 X84.945 Y106.945 E14.49157
G1 X94.672 Y66.194 E17.29044
G1 X95.107 Y64.746 E17.39145
G1 X95.704 Y63.289 E17.49664
G1 X96.834 Y61.285 E17.65033
G1 E15.65033 F2400
G92 E0
G1 X96.834 Y61.285 F7800
G92 E0
G1 X124.701 Y111.018
G1 E2 F2400
;TYPE:Support material
G1 F1800
G1 X125.805 Y111.244 E2.07528
G1 X126.85 Y111.668 E2.15062
G1 X127.8 Y112.273 E2.22586
G1 X128.624 Y113.041 E2.30111
G1 X129.295 Y113.946 E2.37637
G1 X129.791 Y114.957 E2.4516
G1 X130.095 Y116.041 E2.52681
G1 X130.197 Y117.16 E2.60188
G1 X130.143 Y117.753 E2.64166
G1 X130.094 Y118.284 E2.67728
G1 X129.79 Y119.366 E2.75236
G1 X129.294 Y120.377 E2.82759
G1 X128.623 Y121.281 E2.9028
G1 X127.799 Y122.049 E2.97805
G1 X126.848 Y122.655 E3.05338
G1 X125.804 Y123.078 E3.12863
G1 X124.699 Y123.304 E3.20398
G1 X123.571 Y123.326 E3.27935
G1 X122.459 Y123.142 E3.35465
G1 X121.398 Y122.759 E3.43001
G1 X120.424 Y122.19 E3.50537
G1 X120.051 Y121.869 E3.53825
G1 X120.051 Y112.439 E4.16823
G1 X120.469 Y112.105 E4.20397
G1 X121.399 Y111.562 E4.27591
G1 X122.46 Y111.179 E4.35127
G1 X123.573 Y110.996 E4.42662
G1 X124.62 Y111.016 E4.49658
G1 X124.62 Y111.016 F7800
G1 X129.639 Y119.012
G1 F1800
G1 X129.619 Y116.128 E4.68925
G1 X129.338 Y115.129 E4.75858
G1 X129.044 Y114.529 E4.80322
G1 X129.044 Y119.792 E5.15482
G1 X128.449 Y120.707 E5.22773
G1 X128.449 Y113.614 E5.70158
G1 X127.854 Y112.982 E5.75957
G1 X127.854 Y121.339 E6.31786
G1 X127.259 Y121.822 E6.36906
G1 X127.259 Y112.5 E6.99182
G1 X126.664 Y112.121 E7.03895
G1 X126.664 Y122.201 E7.71235
G1 X126.069 Y122.45 E7.75544
G1 X126.069 Y111.871 E8.46217
G1 X125.473 Y111.668 E8.50423
G1 X125.473 Y122.653 E9.23809
G1 X124.878 Y122.775 E9.27867
G1 X124.878 Y111.546 E10.02883
G1 X124.283 Y111.492 E10.06874
G1 X124.283 Y122.83 E10.82618
G1 X123.688 Y122.841 E10.86594
G1 X123.688 Y111.48 E11.62492
G1 X123.093 Y111.563 E11.66505
G1 X123.093 Y122.758 E12.41294
G1 X122.498 Y122.644 E12.45341
G1 X122.498 Y111.678 E13.186
G1 X121.903 Y111.892 E13.22824
G1 X121.903 Y122.429 E13.93217
G1 X121.308 Y122.148 E13.97613
G1 X121.308 Y112.173 E14.64251
G1 X120.712 Y112.527 E14.68882
G1 X120.712 Y122.08 E15.32701
G1 E13.32701 F2400
G92 E0
G1 X120.712 Y122.08 F7800
G1 X97.001 Y104.154
G1 E2 F2400
G1 F1800
G1 X97.549 Y104.21 E2.0368
G1 X98.595 Y104.507 E2.10944
G1 X99.592 Y105.02 E2.18434
G1 X99.949 Y105.304 E2.21482
G1 X99.949 Y114.246 E2.81219
G1 X99.62 Y114.511 E2.84041
G1 X98.625 Y115.029 E2.91535
G1 X97.547 Y115.341 E2.99032
G1 X96.43 Y115.435 E3.06521
G1 X95.315 Y115.306 E3.14019
G1 X94.248 Y114.959 E3.21515
G1 X93.269 Y114.408 E3.2902
G1 X92.417 Y113.674 E3.36533
G1 X91.726 Y112.785 E3.44055
G1 X91.245 Y111.815 E3.51288
G1 X90.938 Y110.651 E3.5933
G1 X90.876 Y109.521 E3.6689
G1 X91.041 Y108.4 E3.7446
G1 X91.427 Y107.333 E3.8204
G1 X92.019 Y106.365 E3.8962
G1 X92.793 Y105.534 E3.97207
G1 X93.718 Y104.874 E4.04798
G1 X94.756 Y104.413 E4.12386
G1 X95.866 Y104.17 E4.19977
G1 X96.921 Y104.149 E4.27026
G1 X96.921 Y104.149 F7800
G1 X99.288 Y114.412
G1 F1800
G1 X99.288 Y105.405 E4.87198
G1 X98.692 Y105.099 E4.91674
G1 X98.692 Y114.451 E5.5415
G1 X98.097 Y114.68 E5.58409
G1 X98.097 Y104.867 E6.23965
G1 X97.502 Y104.698 E6.28097
G1 X97.502 Y114.853 E6.95938
G1 X96.907 Y114.911 E6.99932
G1 X96.907 Y104.631 E7.68608
G1 X96.312 Y104.612 E7.72585
G1 X96.312 Y114.936 E8.41555
G1 X95.717 Y114.867 E8.45557
G1 X95.717 Y104.678 E9.13625
G1 X95.122 Y104.807 E9.17692
G1 X95.122 Y114.736 E9.84023
G1 X94.527 Y114.543 E9.88202
G1 X94.527 Y105.008 E10.51901
G1 X93.931 Y105.309 E10.56362
G1 X93.931 Y114.228 E11.15946
G1 X93.336 Y113.83 E11.20728
G1 X93.336 Y105.713 E11.74954
G1 X92.741 Y106.248 E11.80299
G1 X92.741 Y113.306 E12.2745
G1 X92.146 Y112.539 E12.33935
G1 X92.146 Y107.02 E12.70805
G1 X91.861 Y107.544 E12.7479
G1 X91.551 Y108.382 E12.80759
G1 X91.551 Y111.889 E13.04188
G1 E11.04188 F2400
G92 E0
G1 X91.551 Y111.889 F7800
G1 X118.153 Y150
G1 E2 F2400
;TYPE:Perimeter
;WIDTH:0.6
G1 F1800
G1 X118.113 Y150.812 E2.05431
G1 X117.992 Y151.616 E2.10863
G1 X117.791 Y152.403 E2.16289
G1 X117.513 Y153.167 E2.2172
G1 X117.16 Y153.899 E2.27149
G1 X116.737 Y154.593 E2.32579
G1 X116.246 Y155.241 E2.3801
G1 X115.693 Y155.837 E2.43442
G1 X115.084 Y156.375 E2.48871
G1 X114.424 Y156.849 E2.54299
G1 X113.72 Y157.255 E2.59728
G1 X112.979 Y157.59 E2.65161
G1 X112.208 Y157.849 E2.70595
G1 X111.416 Y158.029 E2.76021
G1 X110.609 Y158.131 E2.81455
G1 X109.797 Y158.151 E2.86881
G1 X108.983 Y158.09 E2.92334
G1 X108.296 Y157.972 E2.96991
G1 X107.801 Y157.852 E3.00394
G1 X107.018 Y157.589 E3.05912
G1 X106.381 Y157.305 E3.10571
G1 X105.931 Y157.066 E3.13975
G1 X105.241 Y156.62 E3.19464
G1 X104.605 Y156.113 E3.24898
G1 X104.023 Y155.546 E3.30326
G1 X103.501 Y154.923 E3.35756
G1 X103.052 Y154.265 E3.41078
G1 X102.481 Y153.151 E3.49441
G1 X102.209 Y152.403 E3.54758
G1 X102.008 Y151.616 E3.60184
G1 X101.887 Y150.812 E3.65616
G1 X101.845 Y149.966 E3.71275
G1 X101.845 Y70.034 E9.05264
G1 X101.887 Y69.188 E9.10923
G1 X102.008 Y68.384 E9.16355
G1 X102.209 Y67.597 E9.21781
G1 X102.487 Y66.833 E9.27212
G1 X102.84 Y66.101 E9.32641
G1 X103.263 Y65.407 E9.38071
G1 X103.754 Y64.759 E9.43502
G1 X104.307 Y64.163 E9.48934
G1 X104.916 Y63.625 E9.54363
G1 X105.576 Y63.151 E9.59791
G1 X106.28 Y62.745 E9.6522
G1 X107.021 Y62.41 E9.70653
G1 X107.792 Y62.151 E9.76087
G1 X108.584 Y61.971 E9.81513
G1 X109.378 Y61.871 E9.86859
G1 X110.258 Y61.866 E9.92738
G1 X111.005 Y61.908 E9.97736
G1 X111.814 Y62.051 E10.03224
G1 X112.597 Y62.271 E10.08657
G1 X113.362 Y62.572 E10.14149
G1 X113.819 Y62.798 E10.17555
G1 X114.421 Y63.149 E10.2221
G1 X115.084 Y63.625 E10.27662
G1 X115.681 Y64.152 E10.32982
G1 X116.509 Y65.091 E10.41345
G1 X116.758 Y65.456 E10.44297
G1 X117.161 Y66.123 E10.49503
G1 X117.508 Y66.847 E10.54867
G1 X117.791 Y67.632 E10.60442
G1 X117.978 Y68.359 E10.65457
G1 X118.074 Y68.896 E10.69101
G1 X118.134 Y69.618 E10.73941
G1 X118.155 Y70.238 E10.78085
G1 X118.155 Y149.94 E16.10537
G1 X118.69 Y150 F7800
G1 F1800
G1 X118.646 Y150.865 E16.16323
G1 X118.517 Y151.722 E16.22113
G1 X118.304 Y152.561 E16.27896
G1 X118.007 Y153.375 E16.33685
G1 X117.631 Y154.156 E16.39476
G1 X117.18 Y154.895 E16.4526
G1 X116.657 Y155.586 E16.51049
G1 X116.067 Y156.221 E16.5684
G1 X115.418 Y156.794 E16.62624
G1 X114.715 Y157.3 E16.6841
G1 X113.964 Y157.733 E16.74201
G1 X113.175 Y158.089 E16.79984
G1 X112.354 Y158.365 E16.8577
G1 X111.509 Y158.558 E16.9156
G1 X110.649 Y158.665 E16.9735
G1 X109.783 Y158.687 E17.03137
G1 X108.918 Y158.622 E17.08932
G1 X108.187 Y158.497 E17.13886
G1 X107.652 Y158.367 E17.17564
G1 X106.824 Y158.088 E17.23401
G1 X106.147 Y157.786 E17.28353
G1 X105.66 Y157.529 E17.32032
G1 X104.927 Y157.055 E17.37863
G1 X104.25 Y156.515 E17.43648
G1 X103.63 Y155.91 E17.49435
G1 X103.073 Y155.247 E17.5522
G1 X102.591 Y154.539 E17.60942
G1 X101.989 Y153.366 E17.6975
G1 X101.696 Y152.561 E17.75473
G1 X101.483 Y151.722 E17.81256
G1 X101.354 Y150.865 E17.87046
G1 X101.309 Y149.979 E17.92973
G1 X101.309 Y70.021 E23.27135
G1 X101.354 Y69.135 E23.33062
G1 X101.483 Y68.278 E23.38852
G1 X101.696 Y67.439 E23.44635
G1 X101.993 Y66.625 E23.50424
G1 X102.369 Y65.844 E23.56215
G1 X102.82 Y65.105 E23.61999
G1 X103.343 Y64.414 E23.67788
G1 X103.933 Y63.779 E23.73579
G1 X104.582 Y63.206 E23.79363
G1 X105.285 Y62.7 E23.85149
G1 X106.036 Y62.267 E23.9094
G1 X106.825 Y61.911 E23.96723
G1 X107.646 Y61.635 E24.02509
G1 X108.491 Y61.442 E24.08299
G1 X109.343 Y61.336 E24.14035
G1 X110.537 Y61.329 E24.22012
G1 X111.075 Y61.377 E24.2562
G1 X111.934 Y61.528 E24.31447
G1 X112.768 Y61.763 E24.37236
G1 X113.579 Y62.081 E24.43056
G1 X114.073 Y62.326 E24.4674
G1 X114.713 Y62.699 E24.51689
G1 X115.418 Y63.206 E24.5749
G1 X116.06 Y63.773 E24.63212
G1 X116.932 Y64.761 E24.72015
G1 X117.2 Y65.155 E24.75198
G1 X117.632 Y65.867 E24.80762
G1 X118.002 Y66.639 E24.86481
G1 X118.303 Y67.474 E24.92411
G1 X118.503 Y68.251 E24.97771
G1 X118.604 Y68.824 E25.01658
G1 X118.669 Y69.591 E25.068
G1 X118.691 Y70.238 E25.11125
G1 X118.691 Y149.94 E30.43577
G1 X118.691 Y149.94 F7800
G1 X119.226 Y150
;TYPE:External perimeter
G1 F1800
G1 X119.18 Y150.919 E30.49724
G1 X119.043 Y151.828 E30.55865
G1 X118.816 Y152.719 E30.62007
G1 X118.501 Y153.584 E30.68157
G1 X118.102 Y154.412 E30.74297
G1 X117.623 Y155.197 E30.8044
G1 X117.067 Y155.93 E30.86586
G1 X116.442 Y156.605 E30.92732
G1 X115.752 Y157.213 E30.98876
G1 X115.006 Y157.75 E31.05017
G1 X114.209 Y158.21 E31.11165
G1 X113.371 Y158.588 E31.17306
G1 X112.499 Y158.881 E31.23451
G1 X111.602 Y159.086 E31.29598
G1 X110.689 Y159.2 E31.35745
G1 X109.77 Y159.223 E31.41886
G1 X108.852 Y159.154 E31.48036
G1 X108.078 Y159.021 E31.53283
G1 X107.503 Y158.882 E31.57235
G1 X106.629 Y158.588 E31.63395
G1 X105.912 Y158.268 E31.6864
G1 X105.389 Y157.991 E31.72594
G1 X104.614 Y157.491 E31.78755
G1 X103.895 Y156.917 E31.84901
G1 X103.237 Y156.275 E31.91042
G1 X102.646 Y155.571 E31.97183
G1 X102.129 Y154.813 E32.03313
G1 X101.497 Y153.581 E32.12563
G1 X101.184 Y152.719 E32.1869
G1 X100.957 Y151.828 E32.24832
G1 X100.82 Y150.919 E32.30973
G1 X100.774 Y149.993 E32.37167
G1 X100.774 Y70.007 E37.71516
G1 X100.82 Y69.081 E37.7771
G1 X100.957 Y68.172 E37.83851
G1 X101.184 Y67.281 E37.89993
G1 X101.499 Y66.416 E37.96143
G1 X101.898 Y65.588 E38.02283
G1 X102.377 Y64.803 E38.08426
G1 X102.933 Y64.07 E38.14572
G1 X103.558 Y63.395 E38.20718
G1 X104.248 Y62.787 E38.26862
G1 X104.994 Y62.25 E38.33003
G1 X105.791 Y61.79 E38.39151
G1 X106.629 Y61.412 E38.45292
G1 X107.501 Y61.119 E38.51437
G1 X108.398 Y60.914 E38.57584
G1 X109.308 Y60.8 E38.63711
G1 X110.559 Y60.793 E38.72068
G1 X111.145 Y60.845 E38.75998
G1 X112.053 Y61.005 E38.82157
G1 X112.938 Y61.254 E38.88299
G1 X113.796 Y61.591 E38.94457
G1 X114.327 Y61.854 E38.98416
G1 X115.005 Y62.25 E39.03661
G1 X115.752 Y62.787 E39.09807
G1 X116.44 Y63.394 E39.15936
G1 X117.356 Y64.432 E39.25184
G1 X117.872 Y65.189 E39.31304
G1 X118.312 Y65.997 E39.3745
G1 X118.67 Y66.845 E39.43599
G1 X118.941 Y67.724 E39.49744
G1 X119.135 Y68.751 E39.56726
G1 X119.204 Y69.565 E39.62183
G1 X119.226 Y70.238 E39.66681
G1 X119.226 Y149.94 E44.99133
G1 X119.209 Y150.34 F7800
G1 E42.99133 F2400
G92 E0
G1 X114.115 Y63.157 F7800
G1 E2 F2400
;TYPE:Solid infill
;WIDTH:0.602156
G1 F1800
G1 X115.403 Y64.444 E2.12213
G1 X116.191 Y65.338 E2.20206
G1 X116.614 Y65.958 E2.2524
G1 X116.984 Y66.637 E2.30427
G1 X117.092 Y66.894 E2.32297
G1 X113.097 Y62.899 E2.70192
G1 X112.469 Y62.652 E2.74718
G1 X111.941 Y62.504 E2.78396
G1 X117.506 Y68.069 E3.31184
G1 X117.647 Y68.742 E3.35796
G1 X117.683 Y69.007 E3.3759
G1 X110.99 Y62.314 E4.01078
G1 X110.498 Y62.267 E4.04393
G1 X110.184 Y62.268 E4.06499
G1 X117.742 Y69.826 E4.78192
G1 X117.753 Y70.598 E4.83371
G1 X109.428 Y62.272 E5.62344
G1 X108.75 Y62.355 E5.66926
G1 X117.753 Y71.358 E6.52326
G1 X117.753 Y72.119 E6.5743
G1 X108.122 Y62.488 E7.48787
G1 X107.901 Y62.539 E7.50308
G1 X107.535 Y62.661 E7.52896
G1 X117.753 Y72.879 E8.49821
G1 X117.753 Y73.64 E8.54925
G1 X106.982 Y62.869 E9.57096
G1 X106.458 Y63.106 E9.60953
G1 X117.753 Y74.4 E10.6809
G1 X117.753 Y75.161 E10.73194
G1 X105.976 Y63.384 E11.84907
G1 X105.795 Y63.489 E11.86311
G1 X105.519 Y63.687 E11.88589
G1 X117.753 Y75.922 E13.04642
G1 X117.753 Y76.682 E13.0974
G1 X105.084 Y64.013 E14.29915
G1 X104.68 Y64.37 E14.33531
G1 X117.753 Y77.443 E15.57538
G1 X117.753 Y78.203 E15.62636
G1 X104.306 Y64.755 E16.90195
G1 X103.952 Y65.163 E16.93818
G1 X117.753 Y78.964 E18.24731
G1 X117.753 Y79.724 E18.29829
G1 X103.625 Y65.595 E19.63848
G1 X103.333 Y66.064 E19.67554
G1 X117.753 Y80.485 E21.04343
G1 X117.753 Y81.245 E21.09441
G1 X103.065 Y66.557 E22.48767
G1 X102.825 Y67.078 E22.52615
G1 X117.753 Y82.006 E23.94218
G1 X117.753 Y82.766 E23.99316
G1 X102.622 Y67.635 E25.42845
G1 X102.461 Y68.234 E25.47005
G1 X117.753 Y83.527 E26.92066
G1 X117.753 Y84.287 E26.97164
G1 X102.341 Y68.875 E28.43358
G1 X102.287 Y69.228 E28.45753
G1 X102.271 Y69.565 E28.48016
G1 X117.753 Y85.048 E29.94879
G1 X117.753 Y85.808 E29.99977
G1 X102.247 Y70.302 E31.47063
G1 X102.247 Y71.062 E31.52161
G1 X117.753 Y86.569 E32.99252
G1 X117.753 Y87.329 E33.0435
G1 X102.247 Y71.823 E34.51436
G1 X102.247 Y72.583 E34.56534
G1 X117.753 Y88.09 E36.03625
G1 X117.753 Y88.851 E36.08729
G1 X102.247 Y73.344 E37.5582
G1 X102.247 Y74.104 E37.60918
G1 X117.753 Y89.611 E39.08009
G1 X117.753 Y90.372 E39.13113
G1 X102.247 Y74.865 E40.60204
G1 X102.247 Y75.625 E40.65302
G1 X117.753 Y91.132 E42.12393
G1 X117.753 Y91.893 E42.17497
G1 X102.247 Y76.386 E43.64588
G1 X102.247 Y77.146 E43.69686
G1 X117.753 Y92.653 E45.16777
G1 X117.753 Y93.414 E45.21881
G1 X102.247 Y77.907 E46.68972
G1 X102.247 Y78.668 E46.74076
G1 X117.753 Y94.174 E48.21162
G1 X117.753 Y94.935 E48.26266
G1 X102.247 Y79.428 E49.73357
G1 X102.247 Y80.189 E49.78461
G1 X117.753 Y95.695 E51.25547
G1 X117.753 Y96.456 E51.30651
G1 X102.247 Y80.949 E52.77742
G1 X102.247 Y81.71 E52.82846
G1 X117.753 Y97.216 E54.29932
G1 X117.753 Y97.977 E54.35036
G1 X102.247 Y82.47 E55.82127
G1 X102.247 Y83.231 E55.87231
G1 X117.753 Y98.737 E57.34317
G1 X117.753 Y99.498 E57.39421
G1 X102.247 Y83.991 E58.86512
G1 X102.247 Y84.752 E58.91616
G1 X117.753 Y100.258 E60.38702
G1 X117.753 Y101.019 E60.43806
G1 X102.247 Y85.512 E61.90897
G1 X102.247 Y86.273 E61.96001
G1 X117.753 Y101.779 E63.43087
G1 X117.753 Y102.54 E63.48191
G1 X102.247 Y87.033 E64.95282
G1 X102.247 Y87.794 E65.00386
G1 X117.753 Y103.301 E66.47477
G1 X117.753 Y104.061 E66.52575
G1 X102.247 Y88.554 E67.99666
G1 X102.247 Y89.315 E68.0477
G1 X117.753 Y104.822 E69.51861
G1 X117.753 Y105.582 E69.56959
G1 X102.247 Y90.075 E71.0405
G1 X102.247 Y90.836 E71.09154
G1 X117.753 Y106.343 E72.56245
G1 X117.753 Y107.103 E72.61343
G1 X102.247 Y91.596 E74.08434
G1 X102.247 Y92.357 E74.13538
G1 X117.753 Y107.864 E75.60629
G1 X117.753 Y108.624 E75.65727
G1 X102.247 Y93.118 E77.12813
G1 X102.247 Y93.878 E77.17911
G1 X117.753 Y109.385 E78.65002
G1 X117.753 Y110.145 E78.701
