; generated by PrusaSlicer 2.8.1+linux-x64-GTK3 on 2024-10-13 at 18:53:15 UTC

; 

; external perimeters extrusion width = 0.45mm
; perimeters extrusion width = 0.45mm
; infill extrusion width = 0.45mm
; solid infill extrusion width = 0.45mm
; top infill extrusion width = 0.40mm
; support material extrusion width = 0.40mm
; first layer extrusion width = 0.60mm

M190 S60 ; set bed temperature and wait for it to be reached
M104 S200 ; set temperature
;TYPE:Custom
G28 ; home all axes
G1 Z5 F5000 ; lift nozzle
M109 S200 ; set temperature and wait for it to be reached
G21 ; set units to millimeters
G90 ; use absolute coordinates
M82 ; use absolute distances for extrusion
G92 E0
; Filament gcode
M107
;LAYER_CHANGE
;Z:0.3
;HEIGHT:0.3
G1 E-2 F2400
G1 Z.3 F7800
G1 X79.132 Y95.8
G1 E0 F2400
;TYPE:Skirt/Brim
;WIDTH:0.6
G1 F1800
G1 X80.301 Y95.009 E.09429
G1 X81.592 Y94.481 E.18747
G1 X82.245 Y94.324 E.23234
G1 X83.502 Y94.206 E.31668
G1 X127.658 Y94.208 E3.26654
G1 X130.01 Y94.408 E3.42423
G1 X131.247 Y94.658 E3.50854
G1 X132.756 Y95.107 E3.61372
G1 X134.213 Y95.704 E3.71891
G1 X135.191 Y96.206 E3.79235
G1 X137.162 Y97.506 E3.95008
G1 X138.128 Y98.317 E4.03434
G1 X139.239 Y99.433 E4.13954
G1 X140.683 Y101.301 E4.29727
G1 X141.416 Y102.533 E4.39304
G1 X141.96 Y103.647 E4.47586
G1 X142.422 Y104.822 E4.56021
G1 X142.78 Y106.009 E4.64304
G1 X143.081 Y107.412 E4.7389
G1 X143.238 Y108.664 E4.8232
G1 X143.293 Y109.763 E4.89671
G1 X143.238 Y111.336 E5.00186
G1 X142.863 Y113.666 E5.15952
G1 X142.521 Y114.881 E5.24384
G1 X141.96 Y116.353 E5.34908
G1 X141.323 Y117.638 E5.44489
G1 X140.683 Y118.699 E5.52767
G1 X139.239 Y120.567 E5.6854
G1 X138.357 Y121.47 E5.76973
G1 X137.162 Y122.494 E5.87486
G1 X135.191 Y123.794 E6.03259
G1 X133.492 Y124.613 E6.15859
G1 X131.872 Y125.175 E6.27314
G1 X130.01 Y125.592 E6.40061
G1 X128.133 Y125.78 E6.52663
G1 X83.191 Y125.786 E9.529
G1 X81.584 Y125.517 E9.63785
G1 X80.539 Y125.113 E9.7127
G1 X79.798 Y124.694 E9.76957
G1 X78.677 Y123.781 E9.86615
G1 X78.035 Y123.032 E9.93205
G1 X77.519 Y122.217 E9.99649
G1 X77.121 Y121.331 E10.06138
G1 X76.834 Y120.296 E10.13313
G1 X76.709 Y119.023 E10.21858
G1 X76.73 Y100.468 E11.45816
G1 X76.824 Y99.756 E11.50614
G1 X77.097 Y98.736 E11.57668
G1 X77.461 Y97.894 E11.63796
G1 X77.907 Y97.147 E11.69608
G1 X78.576 Y96.322 E11.76704
G1 X79.088 Y95.841 E11.81397
G1 E9.81397 F2400
G92 E0
G1 X79.088 Y95.841 F7800
G92 E0
G1 X127.467 Y118.155
G1 E2 F2400
;TYPE:Perimeter
;WIDTH:0.6
G1 F1800
G1 X84.346 Y118.155 E4.88071
G1 X84.346 Y101.845 E5.97031
G1 X127.605 Y101.848 E8.86024
G1 X128.31 Y101.887 E8.90741
G1 X129.101 Y102.006 E8.96085
G1 X130.306 Y102.345 E9.04448
G1 X131.048 Y102.658 E9.09828
G1 X131.498 Y102.895 E9.13226
G1 X132.092 Y103.262 E9.17891
G1 X132.742 Y103.754 E9.23337
G1 X133.338 Y104.307 E9.28769
G1 X133.878 Y104.919 E9.34221
G1 X134.288 Y105.483 E9.38879
G1 X134.558 Y105.915 E9.42282
G1 X134.933 Y106.647 E9.47777
G1 X135.234 Y107.412 E9.53269
G1 X135.378 Y107.9 E9.56668
G1 X135.527 Y108.565 E9.61221
G1 X135.652 Y109.813 E9.696
G1 X135.641 Y110.256 E9.7256
G1 X135.632 Y110.609 E9.74919
G1 X135.531 Y111.419 E9.80372
G1 X135.378 Y112.1 E9.85035
G1 X135.234 Y112.588 E9.88434
G1 X134.932 Y113.356 E9.93947
G1 X134.617 Y113.978 E9.98605
G1 X134.356 Y114.416 E10.02011
G1 X133.886 Y115.07 E10.07391
G1 X133.034 Y115.988 E10.15758
G1 X132.422 Y116.501 E10.21093
G1 X131.848 Y116.897 E10.25752
G1 X131.409 Y117.156 E10.29157
G1 X130.669 Y117.513 E10.34646
G1 X129.905 Y117.791 E10.40077
G1 X129.117 Y117.992 E10.4551
G1 X128.313 Y118.113 E10.50942
G1 X127.527 Y118.152 E10.56199
G1 X127.527 Y118.152 F7800
G1 X127.481 Y118.691
G1 F1800
G1 X83.811 Y118.691 E13.47938
G1 X83.811 Y101.309 E14.64059
G1 X127.619 Y101.313 E17.5672
G1 X128.365 Y101.353 E17.61711
G1 X129.214 Y101.481 E17.67447
G1 X130.483 Y101.838 E17.76254
G1 X131.277 Y102.173 E17.82011
G1 X131.764 Y102.43 E17.8569
G1 X132.395 Y102.819 E17.90642
G1 X133.087 Y103.343 E17.96441
G1 X133.722 Y103.933 E18.02232
G1 X134.297 Y104.583 E18.0803
G1 X134.732 Y105.183 E18.12981
G1 X135.024 Y105.65 E18.1666
G1 X135.422 Y106.426 E18.22486
G1 X135.741 Y107.238 E18.28314
G1 X135.897 Y107.766 E18.31992
G1 X136.057 Y108.48 E18.3688
G1 X136.188 Y109.793 E18.45695
G1 X136.176 Y110.269 E18.48876
G1 X136.167 Y110.649 E18.51415
G1 X136.059 Y111.511 E18.57219
G1 X135.897 Y112.234 E18.62169
G1 X135.741 Y112.762 E18.65847
G1 X135.422 Y113.576 E18.71688
G1 X135.086 Y114.237 E18.76642
G1 X134.804 Y114.71 E18.80321
G1 X134.301 Y115.41 E18.86079
G1 X133.404 Y116.376 E18.94886
G1 X132.747 Y116.928 E19.00619
G1 X132.136 Y117.348 E19.05572
G1 X131.663 Y117.629 E19.09247
G1 X130.877 Y118.007 E19.15074
G1 X130.063 Y118.304 E19.20863
G1 X129.223 Y118.517 E19.26652
G1 X128.367 Y118.646 E19.32435
G1 X127.541 Y118.688 E19.3796
G1 X127.541 Y118.688 F7800
G1 X127.494 Y119.226
;TYPE:External perimeter
G1 F1800
G1 X83.584 Y119.226 E22.31302
G1 X83.475 Y119.207 E22.32041
G1 X83.341 Y119.123 E22.33098
G1 X83.275 Y118.97 E22.34211
G1 X83.275 Y101.083 E23.53706
G1 X83.293 Y100.978 E23.54418
G1 X83.374 Y100.84 E23.55487
G1 X83.534 Y100.774 E23.56643
G1 X127.634 Y100.777 E26.51255
G1 X128.42 Y100.82 E26.56514
G1 X129.327 Y100.957 E26.62642
G1 X130.66 Y101.332 E26.71893
G1 X131.506 Y101.689 E26.78027
G1 X132.03 Y101.965 E26.81984
G1 X132.698 Y102.377 E26.87227
G1 X133.432 Y102.933 E26.93379
G1 X134.106 Y103.558 E26.9952
G1 X134.715 Y104.248 E27.05668
G1 X135.176 Y104.884 E27.10916
G1 X135.491 Y105.385 E27.1487
G1 X135.911 Y106.206 E27.21031
G1 X136.248 Y107.064 E27.27189
G1 X136.416 Y107.631 E27.3114
G1 X136.587 Y108.394 E27.36364
G1 X136.725 Y109.773 E27.45622
G1 X136.712 Y110.282 E27.49024
G1 X136.702 Y110.689 E27.51744
G1 X136.587 Y111.603 E27.57898
G1 X136.416 Y112.369 E27.63141
G1 X136.248 Y112.936 E27.67092
G1 X135.911 Y113.795 E27.73256
G1 X135.556 Y114.495 E27.78499
G1 X135.253 Y115.004 E27.82456
G1 X134.716 Y115.75 E27.88597
G1 X133.774 Y116.765 E27.97848
G1 X133.072 Y117.355 E28.03974
G1 X132.425 Y117.8 E28.0922
G1 X131.916 Y118.102 E28.13174
G1 X131.085 Y118.501 E28.19332
G1 X130.221 Y118.816 E28.25476
G1 X129.33 Y119.043 E28.31618
G1 X128.42 Y119.18 E28.37766
G1 X127.554 Y119.223 E28.43558
G1 X127.154 Y119.226 F7800
G1 E26.43558 F2400
G92 E0
G1 X131.621 Y103.16 F7800
G1 E2 F2400
;TYPE:Solid infill
;WIDTH:0.60232
G1 F1800
G1 X133.06 Y104.599 E2.13654
G1 X133.564 Y105.17 E2.18764
G1 X133.955 Y105.708 E2.23226
G1 X134.209 Y106.114 E2.26439
G1 X134.602 Y106.901 E2.32341
G1 X130.609 Y102.909 E2.70224
G1 X130.173 Y102.725 E2.73399
G1 X129.465 Y102.526 E2.78333
G1 X135.003 Y108.064 E3.30881
G1 X135.13 Y108.629 E3.34766
G1 X135.166 Y108.987 E3.3718
G1 X128.501 Y102.322 E4.00422
G1 X128.27 Y102.287 E4.0199
G1 X127.673 Y102.254 E4.06002
G1 X135.25 Y109.832 E4.77902
G1 X135.231 Y110.574 E4.82882
G1 X126.907 Y102.25 E5.61865
G1 X126.147 Y102.25 E5.66964
G1 X135.147 Y111.25 E6.52362
G1 X135.016 Y111.88 E6.56679
G1 X125.386 Y102.25 E7.48054
G1 X124.625 Y102.25 E7.5316
G1 X134.848 Y112.472 E8.50157
G1 X134.633 Y113.019 E8.541
G1 X123.864 Y102.25 E9.56283
G1 X123.103 Y102.25 E9.61389
G1 X134.39 Y113.537 E10.68487
G1 X134.12 Y114.027 E10.72241
G1 X122.343 Y102.25 E11.83989
G1 X121.582 Y102.25 E11.89095
G1 X133.814 Y114.482 E13.0516
G1 X133.484 Y114.913 E13.08802
G1 X120.821 Y102.25 E14.28956
G1 X120.06 Y102.25 E14.34062
G1 X133.118 Y115.307 E15.5796
G1 X132.751 Y115.701 E15.61573
G1 X119.299 Y102.249 E16.89214
G1 X118.538 Y102.249 E16.9432
G1 X132.337 Y116.048 E18.25254
G1 X131.901 Y116.372 E18.28899
G1 X117.778 Y102.249 E19.62907
G1 X117.017 Y102.249 E19.68013
G1 X131.439 Y116.672 E21.04863
G1 X130.942 Y116.935 E21.08636
G1 X116.256 Y102.249 E22.47986
G1 X115.495 Y102.249 E22.53092
G1 X130.422 Y117.176 E23.94729
G1 X129.864 Y117.379 E23.98713
G1 X114.734 Y102.249 E25.42276
G1 X113.974 Y102.249 E25.47375
G1 X129.264 Y117.54 E26.92461
G1 X129.037 Y117.597 E26.94031
G1 X128.624 Y117.66 E26.96834
G1 X113.213 Y102.249 E28.43063
G1 X112.452 Y102.249 E28.48169
G1 X127.933 Y117.73 E29.95062
G1 X127.196 Y117.753 E30.00009
G1 X111.691 Y102.249 E31.47125
G1 X110.93 Y102.249 E31.52231
G1 X126.435 Y117.753 E32.99347
G1 X125.674 Y117.753 E33.04453
G1 X110.169 Y102.249 E34.51569
G1 X109.409 Y102.249 E34.56668
G1 X124.913 Y117.753 E36.0378
G1 X124.153 Y117.753 E36.08879
G1 X108.648 Y102.249 E37.55995
G1 X107.887 Y102.249 E37.61101
G1 X123.392 Y117.753 E39.08217
G1 X122.631 Y117.753 E39.13323
G1 X107.126 Y102.249 E40.60439
G1 X106.365 Y102.248 E40.65545
G1 X121.87 Y117.753 E42.12666
G1 X121.109 Y117.753 E42.17772
G1 X105.605 Y102.248 E43.64888
G1 X104.844 Y102.248 E43.69994
G1 X120.349 Y117.753 E45.17115
G1 X119.588 Y117.753 E45.22221
G1 X104.083 Y102.248 E46.69342
G1 X103.322 Y102.248 E46.74448
G1 X118.827 Y117.753 E48.21569
G1 X118.066 Y117.753 E48.26675
G1 X102.561 Y102.248 E49.73796
G1 X101.8 Y102.248 E49.78902
G1 X117.306 Y117.753 E51.26028
G1 X116.545 Y117.753 E51.31134
G1 X101.04 Y102.248 E52.78255
G1 X100.279 Y102.248 E52.83361
G1 X115.784 Y117.753 E54.30482
G1 X115.023 Y117.753 E54.35588
G1 X99.518 Y102.248 E55.82709
G1 X98.757 Y102.248 E55.87815
G1 X114.263 Y117.753 E57.34941
G1 X113.502 Y117.753 E57.40047
G1 X97.996 Y102.248 E58.87173
G1 X97.235 Y102.248 E58.92279
G1 X112.741 Y117.753 E60.39405
G1 X111.98 Y117.753 E60.44511
G1 X96.475 Y102.248 E61.91632
G1 X95.714 Y102.248 E61.96738
G1 X111.22 Y117.753 E63.43864
G1 X110.459 Y117.753 E63.4897
G1 X94.953 Y102.248 E64.96096
G1 X94.192 Y102.247 E65.01202
G1 X109.698 Y117.753 E66.48333
G1 X108.937 Y117.753 E66.53439
G1 X93.431 Y102.247 E68.0057
G1 X92.671 Y102.247 E68.05669
G1 X108.177 Y117.753 E69.528
G1 X107.416 Y117.753 E69.57906
G1 X91.91 Y102.247 E71.05037
G1 X91.149 Y102.247 E71.10143
G1 X106.655 Y117.753 E72.57274
G1 X105.894 Y117.753 E72.6238
G1 X90.388 Y102.247 E74.09511
G1 X89.627 Y102.247 E74.14617
G1 X105.133 Y117.753 E75.61748
G1 X104.373 Y117.753 E75.66847
G1 X88.866 Y102.247 E77.13982
G1 X88.106 Y102.247 E77.19081
G1 X103.612 Y117.753 E78.66212
G1 X102.851 Y117.753 E78.71318
G1 X87.345 Y102.247 E80.18449
G1 X86.584 Y102.247 E80.23555
G1 X102.09 Y117.753 E81.70686
G1 X101.33 Y117.753 E81.75785
G1 X85.823 Y102.247 E83.2292
G1 X85.062 Y102.247 E83.28026
G1 X100.569 Y117.753 E84.75161
G1 X99.808 Y117.753 E84.80267
G1 X84.748 Y102.693 E86.23166
G1 X84.748 Y103.454 E86.28272
G1 X99.047 Y117.753 E87.6395
G1 X98.287 Y117.753 E87.69049
G1 X84.748 Y104.215 E88.97511
G1 X84.748 Y104.976 E89.02617
G1 X97.526 Y117.753 E90.23858
G1 X96.765 Y117.753 E90.28964
G1 X84.748 Y105.736 E91.42989
G1 X84.748 Y106.497 E91.48095
G1 X96.004 Y117.753 E92.54899
G1 X95.244 Y117.753 E92.59998
G1 X84.748 Y107.258 E93.59586
G1 X84.748 Y108.019 E93.64692
G1 X94.483 Y117.753 E94.57059
G1 X93.722 Y117.753 E94.62165
G1 X84.748 Y108.779 E95.47316
G1 X84.748 Y109.54 E95.52422
G1 X92.961 Y117.753 E96.30352
G1 X92.201 Y117.753 E96.35451
G1 X84.748 Y110.301 E97.06165
G1 X84.748 Y111.062 E97.11271
G1 X91.44 Y117.753 E97.74764
G1 X90.679 Y117.753 E97.7987
G1 X84.748 Y111.823 E98.36142
G1 X84.748 Y112.583 E98.41241
G1 X89.918 Y117.753 E98.90297
G1 X89.158 Y117.753 E98.95396
G1 X84.748 Y113.344 E99.37236
G1 X84.748 Y114.105 E99.42342
G1 X88.397 Y117.753 E99.76961
G1 X87.636 Y117.753 E99.82067
G1 X84.748 Y114.866 E100.09465
G1 X84.748 Y115.626 E100.14564
G1 X86.875 Y117.753 E100.34746
G1 X86.114 Y117.753 E100.39852
G1 X84.748 Y116.387 E100.52813
G1 X84.748 Y117.148 E100.57919
G1 X85.595 Y117.994 E100.65951
;LAYER_CHANGE
;Z:0.6
;HEIGHT:0.3
G1 Z.6 F7800
G1 E98.65951 F2400
G92 E0
G1 X85.595 Y117.994 Z.6 F7800
G1 X127.484 Y118.838
G1 E2 F2400
;TYPE:Perimeter
;WIDTH:0.45
G1 F3600
G1 X127.477 Y118.839 E2.00034
G1 X83.663 Y118.839 E4.10764
G1 X83.663 Y101.161 E4.95789
G1 X127.542 Y101.163 E7.06832
G1 X128.381 Y101.206 E7.10873
G1 X129.241 Y101.336 E7.15056
G1 X130.524 Y101.697 E7.21466
G1 X131.738 Y102.245 E7.27872
G1 X132.48 Y102.698 E7.32053
G1 X133.182 Y103.23 E7.36289
G1 X133.647 Y103.661 E7.39338
G1 X134.16 Y104.19 E7.42882
G1 X134.677 Y104.84 E7.46877
G1 X135.282 Y105.815 E7.52396
G1 X135.553 Y106.381 E7.55414
G1 X135.869 Y107.191 E7.59596
G1 X136.107 Y108.038 E7.63828
G1 X136.26 Y108.905 E7.68062
G1 X136.325 Y109.777 E7.72268
G1 X136.336 Y110.22 E7.74399
G1 X136.27 Y111.099 E7.78639
G1 X136.118 Y111.966 E7.82873
G1 X135.879 Y112.815 E7.87115
G1 X135.557 Y113.635 E7.91352
G1 X135.155 Y114.419 E7.9559
G1 X134.683 Y115.149 E7.99771
G1 X133.827 Y116.17 E8.06179
G1 X133.031 Y116.872 E8.11284
G1 X132.438 Y117.329 E8.14885
G1 X131.729 Y117.761 E8.18878
G1 X130.934 Y118.144 E8.23122
G1 X130.106 Y118.445 E8.27359
G1 X129.253 Y118.662 E8.31592
G1 X128.381 Y118.794 E8.35834
G1 X127.544 Y118.835 E8.39865
G1 X127.544 Y118.835 F7800
G1 X127.494 Y119.224
G1 F3600
G1 X127.486 Y119.224 E8.39903
G1 X83.57 Y119.224 E10.51124
G1 X83.374 Y119.176 E10.52095
G1 X83.277 Y118.966 E10.53208
G1 X83.277 Y101.076 E11.39253
G1 X83.318 Y100.884 E11.40197
G1 X83.53 Y100.776 E11.41341
G1 X127.552 Y100.777 E13.53072
G1 X128.419 Y100.822 E13.57248
G1 X129.322 Y100.958 E13.6164
G1 X130.656 Y101.334 E13.68306
G1 X131.919 Y101.903 E13.74969
G1 X132.697 Y102.379 E13.79356
G1 X133.43 Y102.934 E13.83778
G1 X134.109 Y103.564 E13.88233
G1 X134.453 Y103.94 E13.90684
G1 X134.99 Y104.615 E13.94833
G1 X135.621 Y105.633 E14.00594
G1 X135.905 Y106.223 E14.03743
G1 X136.235 Y107.068 E14.08106
G1 X136.483 Y107.952 E14.12522
G1 X136.643 Y108.857 E14.16942
G1 X136.711 Y109.768 E14.21336
G1 X136.722 Y110.23 E14.23559
G1 X136.654 Y111.147 E14.27982
G1 X136.494 Y112.052 E14.32402
G1 X136.245 Y112.938 E14.36828
G1 X135.909 Y113.794 E14.41251
G1 X135.489 Y114.612 E14.45674
G1 X134.994 Y115.378 E14.50061
G1 X134.104 Y116.44 E14.56725
G1 X133.06 Y117.36 E14.63418
G1 X132.65 Y117.651 E14.65836
G1 X131.913 Y118.1 E14.69987
G1 X131.084 Y118.499 E14.74412
G1 X130.22 Y118.814 E14.78835
G1 X129.329 Y119.041 E14.83257
G1 X128.42 Y119.178 E14.87678
G1 X127.554 Y119.221 E14.91848
G1 X127.504 Y119.61 F7800
;TYPE:External perimeter
G1 F1800
G1 X127.496 Y119.61 E14.91886
G1 X83.57 Y119.61 E17.03155
G1 X83.319 Y119.579 E17.04371
G1 X83.098 Y119.446 E17.05612
G1 X82.981 Y119.276 E17.06605
G1 X82.892 Y118.987 E17.08059
G1 X82.892 Y101.076 E17.94205
G1 X82.923 Y100.816 E17.95464
G1 X83.045 Y100.611 E17.96611
G1 X83.206 Y100.492 E17.97574
G1 X83.512 Y100.39 E17.99125
G1 X127.562 Y100.392 E20.1099
G1 X128.458 Y100.438 E20.15305
G1 X129.404 Y100.581 E20.19907
G1 X130.789 Y100.97 E20.26826
G1 X132.1 Y101.562 E20.33745
G1 X132.915 Y102.06 E20.38339
G1 X133.679 Y102.639 E20.4295
G1 X134.382 Y103.292 E20.47565
G1 X134.747 Y103.689 E20.50159
G1 X135.304 Y104.39 E20.54465
G1 X135.669 Y104.955 E20.577
G1 X135.961 Y105.45 E20.60464
G1 X136.257 Y106.065 E20.63747
G1 X136.6 Y106.945 E20.6829
G1 X136.859 Y107.866 E20.72892
G1 X137.025 Y108.809 E20.77497
G1 X137.096 Y109.758 E20.82074
G1 X137.108 Y110.24 E20.84393
G1 X137.037 Y111.195 E20.88999
G1 X136.87 Y112.138 E20.93605
G1 X136.611 Y113.061 E20.98216
G1 X136.261 Y113.952 E21.0282
G1 X135.824 Y114.805 E21.0743
G1 X135.305 Y115.608 E21.12029
G1 X134.38 Y116.71 E21.18949
G1 X133.3 Y117.663 E21.25877
G1 X132.863 Y117.974 E21.28457
G1 X132.098 Y118.439 E21.32763
G1 X131.234 Y118.855 E21.37375
G1 X130.334 Y119.183 E21.41982
G1 X129.406 Y119.419 E21.46587
G1 X128.458 Y119.562 E21.51198
G1 X127.564 Y119.607 E21.55503
G1 X127.164 Y119.61 F7800
G1 E19.55503 F2400
G92 E0
G1 X84.057 Y101.482 F7800
G1 E2 F2400
;TYPE:Solid infill
;WIDTH:0.543555
G1 F1200
G1 X84.014 Y101.439 E2.00363
G1 X83.956 Y101.455 E2.00723
G1 X83.941 Y101.513 E2.01081
G1 X83.983 Y101.555 E2.01436
G1 X84.041 Y101.54 E2.01794
;WIDTH:0.45
G1 X84.657 Y101.45 E2.04788
G1 X83.952 Y102.156 E2.09587
G1 X83.952 Y102.701 E2.12208
G1 X85.202 Y101.451 E2.2071
G1 X85.748 Y101.451 E2.23336
G1 X83.952 Y103.246 E2.35549
G1 X83.952 Y103.792 E2.38175
G1 X86.293 Y101.451 E2.54098
G1 X86.838 Y101.451 E2.56719
G1 X83.952 Y104.337 E2.76349
G1 X83.952 Y104.882 E2.7897
G1 X87.384 Y101.451 E3.02311
G1 X87.929 Y101.451 E3.04932
G1 X83.952 Y105.428 E3.31983
G1 X83.952 Y105.973 E3.34604
G1 X88.474 Y101.451 E3.65362
G1 X89.02 Y101.451 E3.67988
