; generated by PrusaSlicer 2.9.0 on 2025-01-18 at 16:37:37 UTC

; 

; external perimeters extrusion width = 0.42mm
; perimeters extrusion width = 0.44mm
; infill extrusion width = 0.44mm
; solid infill extrusion width = 0.44mm
; top infill extrusion width = 0.40mm
; first layer extrusion width = 0.42mm

M201 X500 Y500 Z100 E5000 ; sets maximum accelerations, mm/sec^2
M203 X500 Y500 Z10 E60 ; sets maximum feedrates, mm / sec
M204 S500 T1000 ; sets acceleration (S) and retract acceleration (R), mm/sec^2
M205 X8.00 Y8.00 Z0.40 E5.00 ; sets the jerk limits, mm/sec
M205 S0 T0 ; sets the minimum extruding and travel feed rate, mm/sec

; printing object Femur Center id:0 copy 0
; stop printing object Femur Center id:0 copy 0

;TYPE:Custom
G90 ; use absolute coordinates
M83 ; extruder relative mode
M104 S200 ; set temporary nozzle temp to prevent oozing during homing
M140 S60 ; set final bed temp
G4 S30 ; allow partial nozzle warmup
G28 ; home all axis
G1 Z50 F240
G1 X2.0 Y10 F3000
M104 S205 ; set final nozzle temp
M190 S60 ; wait for bed temp to stabilize
M109 S205 ; wait for nozzle temp to stabilize
G1 Z0.28 F240
G92 E0
G1 X2.0 Y140 E10 F1500 ; prime the nozzle
G1 X2.3 Y140 F5000
G92 E0
G1 X2.3 Y10 E10 F1200 ; prime the nozzle
G92 E0
G21 ; set units to millimeters
G90 ; use absolute coordinates
M83 ; use relative distances for extrusion
; Filament gcode
M107
;LAYER_CHANGE
;Z:0.34
;HEIGHT:0.34
G1 E-5 F3600
G1 Z.34 F9000
G1 X99.978 Y99.61
G1 Z.34
G1 E5 F2400
M204 S500
;TYPE:Skirt/Brim
;WIDTH:0.42
G1 F1200
G1 X100.597 Y99.055 E.04078
G1 X101.404 Y98.479 E.04864
G1 X102.871 Y97.754 E.08027
G1 X104.604 Y97.314 E.08771
G1 X105.735 Y97.234 E.05562
G1 X125.335 Y97.236 E.96149
G1 X126.667 Y97.362 E.06563
G1 X128.148 Y97.773 E.0754
G1 X129.33 Y98.336 E.06422
G1 X130.395 Y99.072 E.06351
G1 X131.386 Y100.03 E.06762
G1 X132.165 Y101.081 E.06418
G1 X132.823 Y102.385 E.07165
G1 X133.23 Y103.741 E.06945
G1 X133.401 Y105.4 E.08181
G1 X133.39 Y126.013 E1.01118
G1 X133.273 Y127.032 E.05032
G1 X132.969 Y128.218 E.06006
G1 X132.547 Y129.234 E.05397
G1 X131.991 Y130.186 E.05408
G1 X131.421 Y130.93 E.04598
G1 X130.785 Y131.589 E.04493
G1 X130.068 Y132.182 E.04564
G1 X129.331 Y132.664 E.0432
G1 X127.75 Y133.368 E.0849
G1 X126.895 Y133.595 E.0434
G1 X125.858 Y133.741 E.05137
G1 X105.335 Y133.755 E1.00676
G1 X104.228 Y133.625 E.05468
G1 X103.141 Y133.342 E.0551
G1 X102.084 Y132.903 E.05615
G1 X101.187 Y132.381 E.05091
G1 X99.865 Y131.275 E.08455
G1 X99.22 Y130.52 E.04871
G1 X98.697 Y129.739 E.04611
G1 X98.282 Y128.935 E.04438
G1 X97.947 Y128.054 E.04624
G1 X97.603 Y126.303 E.08754
G1 X97.599 Y104.781 E1.05577
G1 X97.769 Y103.609 E.05809
G1 X98.046 Y102.656 E.04868
G1 X98.454 Y101.704 E.05081
G1 X98.966 Y100.833 E.04956
G1 X99.94 Y99.657 E.07491
G1 E-3.5 F3600
;WIPE_START
G1 F7200
G1 X99.978 Y99.61 E-.02871
G1 X100.597 Y99.055 E-.3949
G1 X101.404 Y98.479 E-.47095
G1 X102.547 Y97.914 E-.60544
;WIPE_END
; printing object Femur Center id:0 copy 0
G1 X108.912 Y102.49 F9000
G1 E5 F2400
;TYPE:External perimeter
;WIDTH:0.42
G1 F1200
G1 X108.944 Y102.34 E.00752
G1 X109.266 Y101.88 E.02754
G1 X109.632 Y101.629 E.02177
G1 X110.124 Y101.495 E.02501
G1 X110.666 Y101.56 E.02678
G1 X111.155 Y101.834 E.0275
G1 X111.498 Y102.278 E.02752
G1 X111.64 Y102.82 E.02749
G1 X111.56 Y103.375 E.02751
G1 X111.27 Y103.854 E.02747
G1 X110.816 Y104.182 E.02748
G1 X110.265 Y104.308 E.02773
G1 X109.717 Y104.208 E.02733
G1 X109.248 Y103.903 E.02744
G1 X108.935 Y103.439 E.02746
G1 X108.828 Y102.889 E.02749
G1 X108.9 Y102.548 E.0171
G1 E-3.5 F3600
;WIPE_START
G1 F7200
G1 X108.912 Y102.49 E-.02813
G1 X108.944 Y102.34 E-.07285
G1 X109.266 Y101.88 E-.26671
G1 X109.632 Y101.629 E-.2108
G1 X110.124 Y101.495 E-.24221
G1 X110.666 Y101.56 E-.25929
G1 X111.155 Y101.834 E-.26625
G1 X111.353 Y102.09 E-.15376
;WIPE_END
G1 X120.836 Y102.852 F9000
G1 E5 F2400
G1 F1200
G1 X120.944 Y102.339 E.02572
G1 X121.194 Y101.954 E.02252
G1 X121.633 Y101.628 E.02682
G1 X122.124 Y101.495 E.02495
G1 X122.666 Y101.56 E.02678
G1 X123.155 Y101.834 E.0275
G1 X123.497 Y102.277 E.02745
G1 X123.64 Y102.818 E.02745
G1 X123.561 Y103.373 E.0275
G1 X123.272 Y103.852 E.02744
G1 X123.224 Y103.902 E.0034
G1 X122.754 Y104.208 E.02751
G1 X122.235 Y104.311 E.02596
G1 X121.717 Y104.208 E.02591
G1 X121.248 Y103.903 E.02744
G1 X120.935 Y103.439 E.02746
G1 X120.832 Y102.911 E.02639
G1 E-3.5 F3600
;WIPE_START
G1 F7200
G1 X120.836 Y102.852 E-.02809
G1 X120.944 Y102.339 E-.24902
G1 X121.194 Y101.954 E-.21805
G1 X121.633 Y101.628 E-.25973
G1 X122.124 Y101.495 E-.24163
G1 X122.666 Y101.56 E-.25929
G1 X123.114 Y101.812 E-.24419
;WIPE_END
G1 X122.236 Y126.701 F9000
G1 E5 F2400
G1 F1200
G1 X122.64 Y126.752 E.01998
G1 X123.08 Y126.975 E.0242
G1 X123.452 Y127.393 E.02745
G1 X123.632 Y127.924 E.0275
G1 X123.589 Y128.484 E.02755
G1 X123.331 Y128.983 E.02756
G1 X122.9 Y129.341 E.02749
G1 X122.362 Y129.502 E.02755
G1 X121.806 Y129.44 E.02744
G1 X121.317 Y129.167 E.02747
G1 X120.974 Y128.723 E.02752
G1 X120.83 Y128.182 E.02746
G1 X120.91 Y127.626 E.02756
G1 X121.199 Y127.148 E.0274
G1 X121.653 Y126.819 E.0275
G1 X122.176 Y126.696 E.02636
G1 E-3.5 F3600
;WIPE_START
G1 F7200
G1 X122.236 Y126.701 E-.0286
G1 X122.64 Y126.752 E-.19342
G1 X123.08 Y126.975 E-.23431
G1 X123.452 Y127.393 E-.26579
G1 X123.632 Y127.924 E-.26632
G1 X123.589 Y128.484 E-.26678
G1 X123.352 Y128.942 E-.24478
;WIPE_END
G1 X111.631 Y127.959 F9000
G1 E5 F2400
G1 F1200
G1 X111.639 Y127.987 E.00143
G1 X111.589 Y128.485 E.02455
G1 X111.331 Y128.983 E.02751
G1 X110.9 Y129.341 E.02749
G1 X110.362 Y129.502 E.02755
G1 X109.806 Y129.44 E.02744
G1 X109.317 Y129.167 E.02747
G1 X108.973 Y128.722 E.02759
G1 X108.83 Y128.181 E.02745
G1 X108.91 Y127.627 E.02746
G1 X109.2 Y127.147 E.02751
G1 X109.653 Y126.819 E.02744
G1 X110.185 Y126.694 E.02681
G1 X110.64 Y126.752 E.0225
G1 X111.135 Y127.018 E.02757
G1 X111.486 Y127.455 E.0275
G1 X111.615 Y127.901 E.02278
G1 E-3.5 F3600
;WIPE_START
G1 F7200
G1 X111.631 Y127.959 E-.02858
G1 X111.639 Y127.987 E-.01383
G1 X111.589 Y128.485 E-.23774
G1 X111.331 Y128.983 E-.26641
G1 X110.9 Y129.341 E-.26614
G1 X110.362 Y129.502 E-.26675
G1 X109.806 Y129.44 E-.26574
G1 X109.522 Y129.281 E-.15481
;WIPE_END
G1 X108.657 Y126.729 F9000
G1 E5 F2400
;TYPE:Perimeter
G1 F1200
G1 X108.35 Y127.188 E.02709
G1 X108.225 Y127.511 E.01699
G1 X108.132 Y128.123 E.03037
G1 X108.269 Y128.82 E.03485
G1 X108.414 Y129.134 E.01697
G1 X108.655 Y129.461 E.01993
G1 X105.504 Y129.46 E.15457
G1 X104.977 Y129.391 E.02607
G1 X104.356 Y129.211 E.03172
G1 X103.853 Y128.97 E.02736
G1 X103.411 Y128.685 E.0258
G1 X103.029 Y128.358 E.02467
G1 X102.708 Y128.002 E.02351
G1 X102.417 Y127.585 E.02494
G1 X102.144 Y127.03 E.03034
G1 X102.046 Y126.729 E.01553
G1 X108.597 Y126.729 E.32136
G1 X108.597 Y126.729 F9000
G1 X108.837 Y127.07
G1 F1200
G1 X108.642 Y127.375 E.01776
G1 X108.568 Y127.569 E.01019
G1 X108.479 Y128.13 E.02786
G1 X108.606 Y128.74 E.03057
G1 X108.694 Y128.928 E.01018
G1 X108.986 Y129.326 E.02422
G1 X109.141 Y129.465 E.01021
;WIDTH:0.431031
G1 X109.562 Y129.721 E.02494
;WIDTH:0.444809
G1 X109.758 Y129.797 E.01105
G1 X109.047 Y129.809 E.03738
;WIDTH:0.42
G1 X105.482 Y129.807 E.17488
G1 X104.906 Y129.732 E.02849
G1 X104.232 Y129.537 E.03442
G1 X103.6 Y129.233 E.0344
G1 X103.139 Y128.92 E.02733
G1 X102.739 Y128.564 E.02627
G1 X102.364 Y128.124 E.02836
G1 X102.088 Y127.702 E.02474
G1 X101.803 Y127.108 E.03232
G1 X101.6 Y126.382 E.03698
G1 X109.41 Y126.382 E.38312
G1 X110.133 Y126.367 E.03547
G1 X109.645 Y126.452 E.0243
G1 X109.456 Y126.533 E.01009
G1 X109.051 Y126.811 E.0241
G1 X108.908 Y126.96 E.01013
G1 X108.87 Y127.019 E.00344
G1 X108.87 Y127.019 F9000
G1 X110.133 Y126.367
;WIDTH:0.427951
G1 F1200
G1 X110.627 Y126.386 E.02481
G1 E-3.5 F3600
;WIPE_START
G1 F7200
G1 X110.133 Y126.367 E-.23482
G1 X110.627 Y126.386 E-.23482
;WIPE_END
G1 E-1.03036 F3600
G1 X110.403 Y129.828 F9000
G1 E5 F2400
;WIDTH:0.413387
G1 F1200
G1 X110.081 Y129.812 E.01551
;WIDTH:0.444809
G1 X109.758 Y129.797 E.017
G1 E-3.5 F3600
;WIPE_START
G1 F7200
G1 X110.403 Y129.828 E-.30673
G1 X110.081 Y129.812 E-.15314
G1 X109.758 Y129.797 E-.15359
;WIPE_END
G1 E-.88654 F3600
G1 X122.404 Y129.831 F9000
G1 E5 F2400
;WIDTH:0.418829
G1 F1200
G1 X122.081 Y129.815 E.01581
;WIDTH:0.450275
G1 X121.758 Y129.799 E.01725
G1 E-3.5 F3600
;WIPE_START
G1 F7200
G1 X122.404 Y129.831 E-.30723
G1 X122.081 Y129.815 E-.15361
G1 X121.758 Y129.799 E-.15361
;WIPE_END
G1 E-.88555 F3600
G1 X112.291 Y128.447 F9000
G1 E5 F2400
;WIDTH:0.42
G1 F1200
G1 X112.329 Y128.065 E.01883
G1 X112.295 Y127.721 E.01696
G1 X112.15 Y127.25 E.02418
G1 X111.984 Y126.947 E.01695
G1 X111.8 Y126.73 E.01396
G1 X120.657 Y126.73 E.43448
G1 X120.35 Y127.189 E.02709
G1 X120.226 Y127.511 E.01693
G1 X120.132 Y128.124 E.03042
G1 X120.269 Y128.822 E.03489
G1 X120.415 Y129.135 E.01694
G1 X120.659 Y129.467 E.02021
G1 X111.816 Y129.463 E.4338
G1 X111.94 Y129.317 E.0094
G1 X112.177 Y128.885 E.02417
G1 X112.279 Y128.555 E.01694
G1 X112.284 Y128.506 E.00242
G1 E-3.5 F3600
;WIPE_START
G1 F7200
G1 X112.291 Y128.447 E-.02822
G1 X112.329 Y128.065 E-.18235
G1 X112.295 Y127.721 E-.1642
G1 X112.15 Y127.25 E-.23409
G1 X111.984 Y126.947 E-.16411
G1 X111.8 Y126.73 E-.13514
G1 X113.046 Y126.73 E-.59189
;WIPE_END
G1 X120.485 Y128.16 F9000
G1 E5 F2400
G1 F1200
G1 X120.607 Y128.741 E.02912
G1 X120.694 Y128.929 E.01016
G1 X120.986 Y129.326 E.02418
G1 X121.14 Y129.465 E.01018
;WIDTH:0.433371
G1 X121.561 Y129.722 E.02513
;WIDTH:0.450275
G1 X121.758 Y129.799 E.01128
G1 X121.045 Y129.814 E.03804
;WIDTH:0.42
G1 X110.943 Y129.809 E.49556
G1 X110.403 Y129.828 E.02651
G1 X110.929 Y129.707 E.02648
G1 X111.114 Y129.613 E.01018
G1 X111.501 Y129.308 E.02417
G1 X111.635 Y129.15 E.01016
G1 X111.873 Y128.718 E.0242
G1 X111.934 Y128.52 E.01016
G1 X111.986 Y128.005 E.02539
G1 X111.818 Y127.353 E.03303
G1 X111.718 Y127.171 E.01019
G1 X111.401 Y126.794 E.02416
G1 X111.238 Y126.666 E.01017
;WIDTH:0.427951
G1 X110.627 Y126.386 E.03373
G1 X111.306 Y126.382 E.03407
;WIDTH:0.42
G1 X121.41 Y126.383 E.49566
G1 X122.133 Y126.367 E.03548
G1 X121.645 Y126.452 E.0243
G1 X121.456 Y126.533 E.01009
G1 X121.051 Y126.812 E.02413
G1 X120.907 Y126.961 E.01016
G1 X120.642 Y127.375 E.02411
G1 X120.568 Y127.568 E.01014
G1 X120.483 Y128.101 E.02648
G1 E-3.5 F3600
;WIPE_START
G1 F7200
G1 X120.485 Y128.16 E-.02804
G1 X120.607 Y128.741 E-.28199
G1 X120.694 Y128.929 E-.0984
G1 X120.986 Y129.326 E-.23409
G1 X121.14 Y129.465 E-.09854
G1 X121.561 Y129.722 E-.23429
G1 X121.758 Y129.799 E-.10047
G1 X121.045 Y129.814 E-.33875
G1 X120.865 Y129.814 E-.08543
;WIPE_END
G1 X122.133 Y126.367 F9000
G1 E5 F2400
;WIDTH:0.427571
G1 F1200
G1 X122.627 Y126.387 E.02478
G1 E-3.5 F3600
;WIPE_START
G1 F7200
G1 X122.133 Y126.367 E-.23484
G1 X122.627 Y126.387 E-.23484
;WIPE_END
G1 E-1.03032 F3600
G1 X126.099 Y126.476 F9000
G1 E5 F2400
;WIDTH:0.42
G1 F1200
G1 X126.137 Y126.449 E.00229
G1 X126.321 Y126.136 E.01781
G1 X126.365 Y125.862 E.01361
G1 X126.365 Y105.138 E1.01662
G1 X126.284 Y104.771 E.01844
G1 X126.062 Y104.478 E.01803
G1 X125.749 Y104.307 E.0175
G1 X125.498 Y104.27 E.01245
G1 X123.814 Y104.27 E.08261
G1 X124.121 Y103.811 E.02709
G1 X124.245 Y103.489 E.01693
G1 X124.327 Y103.003 E.02418
G1 X124.322 Y102.687 E.0155
G1 X124.201 Y102.178 E.02566
G1 X124.056 Y101.865 E.01692
G1 X123.813 Y101.535 E.0201
G1 X125.33 Y101.536 E.07442
G1 X126.114 Y101.639 E.03879
G1 X126.646 Y101.8 E.02727
G1 X127.313 Y102.14 E.03673
G1 X127.783 Y102.492 E.02881
G1 X128.21 Y102.931 E.03004
G1 X128.576 Y103.47 E.03196
G1 X128.806 Y103.916 E.02462
G1 X128.97 Y104.399 E.02502
G1 X129.069 Y104.895 E.02481
G1 X129.104 Y105.476 E.02855
G1 X129.095 Y125.757 E.99489
G1 X129.035 Y126.312 E.02738
G1 X128.826 Y127.032 E.03678
G1 X128.583 Y127.535 E.0274
G1 X128.25 Y128.018 E.02878
G1 X127.886 Y128.405 E.02606
G1 X127.367 Y128.822 E.03266
G1 X126.877 Y129.097 E.02756
G1 X126.394 Y129.284 E.02541
G1 X125.737 Y129.426 E.03297
G1 X125.219 Y129.469 E.0255
G1 X123.812 Y129.468 E.06902
G1 X123.94 Y129.317 E.00971
G1 X124.177 Y128.884 E.02421
G1 X124.29 Y128.458 E.02162
G1 X124.333 Y127.941 E.02545
G1 X124.148 Y127.247 E.03523
G1 X123.982 Y126.944 E.01695
G1 X123.8 Y126.73 E.01378
G1 X125.498 Y126.73 E.0833
G1 X125.843 Y126.658 E.01729
G1 X126.051 Y126.51 E.01252
G1 X126.051 Y126.51 F9000
G1 X125.859 Y126.219
G1 F1200
G1 X125.959 Y126.104 E.00748
G1 X126.018 Y125.862 E.01222
G1 X126.01 Y105.046 E1.02114
G1 X125.928 Y104.845 E.01065
G1 X125.764 Y104.69 E.01107
G1 X125.498 Y104.617 E.01353
G1 X122.83 Y104.617 E.13088
G1 X122.322 Y104.634 E.02493
G1 X122.823 Y104.548 E.02494
G1 X123.014 Y104.467 E.01018
G1 X123.42 Y104.188 E.02417
G1 X123.564 Y104.039 E.01016
G1 X123.828 Y103.624 E.02413
G1 X123.903 Y103.431 E.01016
G1 X123.985 Y102.946 E.02413
G1 X123.982 Y102.755 E.00937
G1 X123.864 Y102.259 E.02501
G1 X123.777 Y102.071 E.01016
G1 X123.485 Y101.675 E.02414
G1 X123.332 Y101.536 E.01014
;WIDTH:0.432414
G1 X122.911 Y101.279 E.02506
;WIDTH:0.448145
G1 X122.714 Y101.202 E.01122
G1 X123.427 Y101.188 E.03782
;WIDTH:0.42
G1 X125.202 Y101.187 E.08707
G1 X125.763 Y101.218 E.02756
G1 X126.283 Y101.318 E.02598
G1 X126.779 Y101.479 E.02558
G1 X127.498 Y101.845 E.03958
G1 X128.013 Y102.231 E.03157
G1 X128.48 Y102.711 E.03285
G1 X128.933 Y103.378 E.03955
G1 X129.165 Y103.893 E.02771
G1 X129.328 Y104.417 E.02692
G1 X129.421 Y104.961 E.02707
G1 X129.451 Y105.476 E.02531
G1 X129.442 Y125.865 E1.00019
G1 X129.376 Y126.382 E.02557
G1 X129.19 Y127.022 E.03269
G1 X128.935 Y127.604 E.03117
G1 X128.63 Y128.089 E.02811
G1 X128.31 Y128.483 E.0249
G1 X127.922 Y128.847 E.0261
G1 X127.492 Y129.16 E.02609
G1 X126.975 Y129.431 E.02863
G1 X126.484 Y129.619 E.02579
G1 X125.782 Y129.77 E.03522
G1 X125.225 Y129.816 E.02742
G1 X122.944 Y129.815 E.1119
G1 X122.404 Y129.831 E.0265
G1 X122.929 Y129.707 E.02646
G1 X123.114 Y129.613 E.01018
G1 X123.501 Y129.308 E.02417
G1 X123.635 Y129.15 E.01016
G1 X123.873 Y128.717 E.02424
G1 X123.935 Y128.518 E.01022
G1 X123.986 Y127.955 E.02773
G1 X123.817 Y127.35 E.03081
G1 X123.717 Y127.168 E.01019
G1 X123.399 Y126.793 E.02412
G1 X123.237 Y126.665 E.01013
;WIDTH:0.427571
G1 X122.627 Y126.387 E.0336
G1 X123.304 Y126.383 E.03394
;WIDTH:0.42
G1 X125.541 Y126.381 E.10974
G1 X125.804 Y126.283 E.01377
G1 X125.82 Y126.265 E.00118
G1 E-3.5 F3600
;WIPE_START
G1 F7200
G1 X125.859 Y126.219 E-.02865
G1 X125.959 Y126.104 E-.07239
G1 X126.018 Y125.862 E-.11832
G1 X126.017 Y123.166 E-1.28064
;WIPE_END
G1 X122.322 Y104.634 F9000
G1 E5 F2400
;WIDTH:0.389835
G1 F1200
G1 X122.134 Y104.632 E.00842
G1 E-3.5 F3600
;WIPE_START
G1 F7200
G1 X122.322 Y104.634 E-.08931
G1 X122.134 Y104.632 E-.08931
;WIPE_END
G1 E-1.32138 F3600
G1 X112.303 Y103.108 F9000
G1 E5 F2400
;WIDTH:0.42
G1 F1200
G1 X112.339 Y102.877 E.01147
G1 X112.202 Y102.18 E.03485
G1 X112.057 Y101.867 E.01692
G1 X111.816 Y101.539 E.01997
G1 X120.649 Y101.536 E.43331
G1 X120.386 Y101.906 E.02227
G1 X120.269 Y102.179 E.01457
G1 X120.132 Y102.877 E.03489
G1 X120.226 Y103.49 E.03042
G1 X120.35 Y103.813 E.01697
G1 X120.657 Y104.27 E.02701
G1 X111.814 Y104.271 E.4338
G1 X112.12 Y103.813 E.02702
G1 X112.245 Y103.491 E.01694
G1 X112.294 Y103.167 E.01607
G1 X112.294 Y103.167 F9000
G1 X111.96 Y103.074
G1 F1200
G1 X111.992 Y102.87 E.01013
G1 X111.864 Y102.26 E.03058
G1 X111.777 Y102.072 E.01016
G1 X111.485 Y101.675 E.02418
G1 X111.332 Y101.536 E.01014
;WIDTH:0.430442
G1 X110.911 Y101.28 E.0249
;WIDTH:0.443549
G1 X110.714 Y101.204 E.01106
G1 X111.426 Y101.192 E.0373
;WIDTH:0.42
G1 X121.528 Y101.189 E.49556
G1 X122.067 Y101.171 E.02646
G1 X121.542 Y101.293 E.02644
G1 X121.358 Y101.385 E.01009
G1 X120.865 Y101.806 E.0318
G1 X120.607 Y102.259 E.02557
G1 X120.479 Y102.87 E.03062
G1 X120.568 Y103.432 E.02791
G1 X120.643 Y103.626 E.0102
G1 X120.908 Y104.04 E.02411
G1 X121.051 Y104.189 E.01013
G1 X121.456 Y104.467 E.0241
G1 X121.647 Y104.548 E.01018
G1 X122.134 Y104.632 E.02424
G1 X121.64 Y104.617 E.02424
G1 X110.829 Y104.618 E.53034
G1 X110.323 Y104.634 E.02483
G1 X110.822 Y104.549 E.02483
G1 X111.013 Y104.468 E.01018
G1 X111.418 Y104.19 E.0241
G1 X111.562 Y104.041 E.01016
