; generated by PrusaSlicer 2.9.0 on 2025-01-18 at 16:38:01 UTC

; 

; external perimeters extrusion width = 0.42mm
; perimeters extrusion width = 0.44mm
; infill extrusion width = 0.44mm
; solid infill extrusion width = 0.44mm
; top infill extrusion width = 0.40mm
; first layer extrusion width = 0.42mm

M201 X500 Y500 Z100 E5000 ; sets maximum accelerations, mm/sec^2
M203 X500 Y500 Z10 E60 ; sets maximum feedrates, mm / sec
M204 S500 T1000 ; sets acceleration (S) and retract acceleration (R), mm/sec^2
M205 X8.00 Y8.00 Z0.40 E5.00 ; sets the jerk limits, mm/sec
M205 S0 T0 ; sets the minimum extruding and travel feed rate, mm/sec

; printing object Femur Holder id:0 copy 0
; stop printing object Femur Holder id:0 copy 0

;TYPE:Custom
G90 ; use absolute coordinates
M83 ; extruder relative mode
M104 S200 ; set temporary nozzle temp to prevent oozing during homing
M140 S60 ; set final bed temp
G4 S30 ; allow partial nozzle warmup
G28 ; home all axis
G1 Z50 F240
G1 X2.0 Y10 F3000
M104 S205 ; set final nozzle temp
M190 S60 ; wait for bed temp to stabilize
M109 S205 ; wait for nozzle temp to stabilize
G1 Z0.28 F240
G92 E0
G1 X2.0 Y140 E10 F1500 ; prime the nozzle
G1 X2.3 Y140 F5000
G92 E0
G1 X2.3 Y10 E10 F1200 ; prime the nozzle
G92 E0
G21 ; set units to millimeters
G90 ; use absolute coordinates
M83 ; use relative distances for extrusion
; Filament gcode
M107
;LAYER_CHANGE
;Z:0.34
;HEIGHT:0.34
G1 E-5 F3600
G1 Z.34 F9000
G1 X102.303 Y101.544
G1 Z.34
G1 E5 F2400
M204 S500
;TYPE:Skirt/Brim
;WIDTH:0.42
G1 F1200
G1 X103.099 Y100.958 E.04849
G1 X104.138 Y100.484 E.05602
G1 X105.286 Y100.244 E.05753
G1 X123.232 Y100.221 E.88035
G1 X126.016 Y100.284 E.13661
G1 X126.775 Y100.454 E.03816
G1 X127.812 Y100.905 E.05547
G1 X128.768 Y101.609 E.05824
G1 X129.467 Y102.406 E.052
G1 X129.935 Y103.205 E.04542
G1 X130.303 Y104.297 E.05653
G1 X130.423 Y105.4 E.05443
G1 X130.419 Y125.828 E1.0021
G1 X130.345 Y126.495 E.03292
G1 X130.128 Y127.333 E.04246
G1 X129.467 Y128.594 E.06984
G1 X128.768 Y129.391 E.052
G1 X127.812 Y130.095 E.05824
G1 X126.775 Y130.546 E.05547
G1 X125.528 Y130.768 E.06213
G1 X105.522 Y130.769 E.9814
G1 X104.855 Y130.695 E.03292
G1 X104.017 Y130.478 E.04246
G1 X102.756 Y129.817 E.06984
G1 X101.959 Y129.118 E.052
G1 X101.255 Y128.161 E.05828
G1 X100.804 Y127.125 E.05543
G1 X100.582 Y125.878 E.06213
G1 X100.571 Y105.376 E1.00573
G1 X100.634 Y104.634 E.03653
G1 X100.804 Y103.875 E.03816
G1 X101.091 Y103.153 E.03811
G1 X101.51 Y102.437 E.0407
G1 X102.263 Y101.589 E.05563
G1 E-3.5 F3600
;WIPE_START
G1 F7200
G1 X102.303 Y101.544 E-.0286
G1 X103.099 Y100.958 E-.46951
G1 X104.138 Y100.484 E-.54246
G1 X105.085 Y100.286 E-.45943
;WIPE_END
; printing object Femur Holder id:0 copy 0
G1 X110.653 Y110.51 F9000
G1 E5 F2400
;TYPE:Perimeter
;WIDTH:0.42
G1 F1200
G1 X110.98 Y110.206 E.0219
G1 X111.841 Y109.615 E.05123
G1 X112.695 Y109.197 E.04664
G1 X113.691 Y108.88 E.05127
G1 X114.502 Y108.738 E.04039
G1 X115.673 Y108.712 E.05746
G1 X116.615 Y108.837 E.04662
G1 X117.62 Y109.125 E.05128
G1 X118.373 Y109.456 E.04035
G1 X119.363 Y110.083 E.05749
G1 X120.079 Y110.711 E.04672
G1 X120.764 Y111.519 E.05196
G1 X121.199 Y112.2 E.03964
G1 X121.59 Y113.038 E.04536
G1 X121.923 Y114.187 E.05868
G1 X122.046 Y115.225 E.05128
G1 X122.031 Y116.048 E.04038
G1 X121.892 Y116.963 E.0454
G1 X121.59 Y117.963 E.05124
G1 X121.06 Y119.036 E.05871
G1 X120.35 Y119.999 E.05869
G1 X119.483 Y120.824 E.05871
G1 X118.81 Y121.297 E.04035
G1 X118.106 Y121.674 E.03918
G1 X117.363 Y121.967 E.03918
G1 X116.221 Y122.232 E.05751
G1 X115.272 Y122.301 E.04668
G1 X114.216 Y122.222 E.05195
G1 X113.425 Y122.054 E.03967
G1 X112.671 Y121.795 E.03911
G1 X111.951 Y121.449 E.03919
G1 X111.276 Y121.022 E.03918
G1 X110.283 Y120.146 E.06496
G1 X109.545 Y119.203 E.05874
G1 X109.04 Y118.272 E.05196
G1 X108.753 Y117.517 E.03962
G1 X108.562 Y116.742 E.03916
G1 X108.462 Y115.951 E.03911
G1 X108.462 Y115.049 E.04425
G1 X108.544 Y114.358 E.03414
G1 X108.724 Y113.58 E.03917
G1 X109.152 Y112.489 E.05749
G1 X109.631 Y111.668 E.04663
G1 X110.284 Y110.853 E.05123
G1 X110.609 Y110.551 E.02176
G1 X110.609 Y110.551 F9000
G1 X110.848 Y110.793
G1 F1200
G1 X111.117 Y110.54 E.01812
G1 X112.038 Y109.901 E.05499
G1 X112.8 Y109.528 E.04162
G1 X113.796 Y109.211 E.05127
G1 X114.557 Y109.081 E.03787
G1 X115.678 Y109.059 E.055
G1 X116.519 Y109.171 E.04162
G1 X117.524 Y109.459 E.05128
G1 X118.23 Y109.772 E.03788
G1 X119.175 Y110.375 E.05499
G1 X119.814 Y110.935 E.04168
G1 X120.499 Y111.743 E.05196
G1 X120.904 Y112.383 E.03715
G1 X121.258 Y113.138 E.04091
G1 X121.579 Y114.228 E.05574
G1 X121.701 Y115.265 E.05122
G1 X121.684 Y116.038 E.03793
G1 X121.56 Y116.862 E.04088
G1 X121.257 Y117.862 E.05126
G1 X120.75 Y118.879 E.05575
G1 X120.073 Y119.79 E.05568
G1 X119.247 Y120.569 E.0557
G1 X118.613 Y121.011 E.03791
G1 X117.944 Y121.367 E.03718
G1 X117.238 Y121.643 E.03719
G1 X116.145 Y121.893 E.055
G1 X115.298 Y121.955 E.04166
G1 X114.242 Y121.876 E.05195
G1 X113.501 Y121.715 E.0372
G1 X112.786 Y121.467 E.03712
G1 X112.103 Y121.138 E.03719
G1 X111.464 Y120.73 E.03719
G1 X110.554 Y119.929 E.05947
G1 X109.85 Y119.037 E.05574
G1 X109.345 Y118.106 E.05196
G1 X109.079 Y117.397 E.03715
G1 X108.899 Y116.662 E.03712
G1 X108.807 Y115.91 E.03716
G1 X108.807 Y115.09 E.04023
G1 X108.888 Y114.399 E.03413
G1 X109.061 Y113.661 E.03718
G1 X109.474 Y112.618 E.05503
G1 X109.902 Y111.885 E.04164
G1 X110.555 Y111.07 E.05123
G1 X110.805 Y110.834 E.01687
G1 X110.805 Y110.834 F9000
G1 X111.047 Y111.08
;TYPE:External perimeter
G1 F1200
G1 X111.353 Y110.794 E.02055
G1 X112.234 Y110.187 E.05248
G1 X112.905 Y109.858 E.03666
G1 X113.901 Y109.541 E.05127
G1 X114.613 Y109.423 E.0354
G1 X115.686 Y109.406 E.05264
G1 X116.424 Y109.504 E.03652
G1 X117.428 Y109.792 E.05124
G1 X118.086 Y110.089 E.03541
G1 X118.987 Y110.667 E.05251
G1 X119.549 Y111.159 E.03664
G1 X120.234 Y111.968 E.052
G1 X120.61 Y112.567 E.03469
G1 X120.925 Y113.238 E.03636
G1 X121.234 Y114.269 E.0528
G1 X121.356 Y115.306 E.05122
G1 X121.337 Y116.027 E.03538
G1 X121.228 Y116.762 E.03645
G1 X120.925 Y117.762 E.05126
G1 X120.441 Y118.722 E.05274
G1 X119.796 Y119.582 E.05273
G1 X119.01 Y120.315 E.05272
G1 X118.417 Y120.725 E.03537
G1 X117.783 Y121.06 E.03518
G1 X117.114 Y121.319 E.03519
G1 X116.069 Y121.554 E.05254
G1 X115.324 Y121.609 E.03665
G1 X114.268 Y121.53 E.05195
G1 X113.577 Y121.376 E.03473
G1 X112.901 Y121.14 E.03512
G1 X112.256 Y120.826 E.03519
G1 X111.652 Y120.438 E.03522
G1 X110.825 Y119.712 E.05398
G1 X110.155 Y118.871 E.05275
G1 X109.65 Y117.941 E.05191
G1 X109.405 Y117.278 E.03467
G1 X109.237 Y116.581 E.03517
G1 X109.151 Y115.869 E.03518
G1 X109.151 Y115.131 E.0362
G1 X109.233 Y114.439 E.03418
G1 X109.399 Y113.742 E.03515
G1 X109.796 Y112.747 E.05255
G1 X110.172 Y112.102 E.03662
G1 X110.826 Y111.287 E.05126
G1 X111.003 Y111.121 E.0119
G1 E-3.5 F3600
;WIPE_START
G1 F7200
G1 X111.047 Y111.08 E-.02857
G1 X111.353 Y110.794 E-.19895
G1 X112.234 Y110.187 E-.50819
G1 X112.905 Y109.858 E-.35498
G1 X113.726 Y109.597 E-.40931
;WIPE_END
G1 X105.514 Y105.298 F9000
G1 E5 F2400
;TYPE:Perimeter
G1 F1200
G1 X105.607 Y105.184 E.00722
G1 X105.804 Y105.116 E.01022
G1 X125.162 Y105.117 E.94961
G1 X125.32 Y105.139 E.00783
G1 X125.492 Y105.292 E.01129
G1 X125.532 Y105.486 E.00972
G1 X125.534 Y125.48 E.98081
G1 X125.513 Y125.628 E.00733
G1 X125.411 Y125.82 E.01067
G1 X125.165 Y125.887 E.01251
G1 X105.87 Y125.884 E.94652
G1 X105.722 Y125.863 E.00733
G1 X105.53 Y125.761 E.01067
G1 X105.463 Y125.515 E.01251
G1 X105.463 Y105.522 E.98076
G1 X105.489 Y105.35 E.00853
G1 X105.192 Y105.151 F9000
G1 F1200
G1 X105.299 Y104.98 E.0099
G1 X105.499 Y104.833 E.01218
G1 X105.784 Y104.769 E.01433
G1 X125.162 Y104.77 E.95059
G1 X125.451 Y104.811 E.01432
G1 X125.67 Y104.949 E.0127
G1 X125.81 Y105.138 E.01154
G1 X125.879 Y105.486 E.0174
G1 X125.881 Y125.48 E.98081
G1 X125.833 Y125.804 E.01607
G1 X125.7 Y126.029 E.01282
G1 X125.542 Y126.148 E.0097
G1 X125.196 Y126.234 E.01749
G1 X105.87 Y126.231 E.94804
G1 X105.546 Y126.183 E.01607
G1 X105.321 Y126.05 E.01282
G1 X105.202 Y125.892 E.0097
G1 X105.116 Y125.546 E.01749
G1 X105.116 Y105.522 E.98228
G1 X105.163 Y105.202 E.01587
G1 X105.163 Y105.202 F9000
G1 X104.873 Y105.006
;TYPE:External perimeter
G1 F1200
G1 X105.04 Y104.739 E.01545
G1 X105.337 Y104.52 E.0181
G1 X105.763 Y104.422 E.02144
G1 X125.162 Y104.423 E.95162
G1 X125.581 Y104.483 E.02076
G1 X125.911 Y104.69 E.01911
G1 X126.127 Y104.984 E.0179
G1 X126.175 Y105.158 E.00885
G1 X126.226 Y105.486 E.01628
G1 X126.228 Y125.48 E.98081
G1 X126.163 Y125.928 E.02221
G1 X126.04 Y126.136 E.01185
G1 X125.864 Y126.345 E.0134
G1 X125.59 Y126.514 E.01579
G1 X125.228 Y126.581 E.01806
G1 X105.87 Y126.578 E.94961
G1 X105.422 Y126.513 E.02221
G1 X105.214 Y126.39 E.01185
G1 X105.005 Y126.214 E.0134
G1 X104.836 Y125.94 E.01579
G1 X104.769 Y125.578 E.01806
G1 X104.769 Y105.522 E.98385
G1 X104.834 Y105.067 E.02255
G1 X104.841 Y105.057 E.0006
G1 E-3.5 F3600
;WIPE_START
G1 F7200
G1 X104.873 Y105.006 E-.0286
G1 X105.04 Y104.739 E-.14959
G1 X105.337 Y104.52 E-.17528
G1 X105.763 Y104.422 E-.20764
G1 X107.74 Y104.422 E-.93889
;WIPE_END
G1 X125.421 Y106.07 F9000
G1 E5 F2400
;TYPE:Solid infill
;WIDTH:0.42391
G1 F1200
G1 X124.735 Y105.384 E.04813
G1 X124.238 Y105.384 E.02466
G1 X125.265 Y106.41 E.07202
G1 X125.265 Y106.907 E.02466
G1 X123.742 Y105.384 E.10685
G1 X123.246 Y105.384 E.02461
G1 X125.265 Y107.403 E.14165
G1 X125.265 Y107.9 E.02466
G1 X122.749 Y105.384 E.17651
G1 X122.253 Y105.384 E.02461
G1 X125.265 Y108.396 E.21131
G1 X125.265 Y108.892 E.02461
G1 X121.757 Y105.384 E.24611
G1 X121.261 Y105.384 E.02461
G1 X125.265 Y109.389 E.28094
G1 X125.265 Y109.885 E.02461
G1 X120.764 Y105.384 E.31577
G1 X120.268 Y105.384 E.02461
G1 X125.265 Y110.381 E.35057
G1 X125.265 Y110.878 E.02466
G1 X119.772 Y105.384 E.3854
G1 X119.275 Y105.384 E.02466
G1 X125.265 Y111.374 E.42024
G1 X125.265 Y111.87 E.02461
G1 X118.779 Y105.384 E.45503
G1 X118.283 Y105.384 E.02461
G1 X125.265 Y112.367 E.48987
G1 X125.265 Y112.863 E.02461
G1 X117.786 Y105.384 E.5247
G1 X117.29 Y105.384 E.02461
G1 X125.265 Y113.359 E.5595
G1 X125.266 Y113.856 E.02466
G1 X116.794 Y105.384 E.59436
G1 X116.297 Y105.384 E.02466
G1 X125.266 Y114.352 E.6292
G1 X125.266 Y114.849 E.02466
G1 X115.801 Y105.384 E.66403
G1 X115.305 Y105.384 E.02461
G1 X125.266 Y115.345 E.69883
G1 X125.266 Y115.841 E.02461
G1 X121.317 Y111.893 E.27701
G1 X121.062 Y111.474 E.02433
G1 X120.215 Y110.464 E.06539
G1 X119.513 Y109.862 E.04588
G1 X118.876 Y109.452 E.03758
G1 X114.808 Y105.384 E.2854
G1 X114.312 Y105.384 E.02461
G1 X117.857 Y108.929 E.2487
G1 X117.149 Y108.717 E.03666
G1 X113.816 Y105.384 E.23383
G1 X113.319 Y105.384 E.02466
G1 X116.488 Y108.553 E.22233
G1 X115.916 Y108.477 E.02863
G1 X112.823 Y105.384 E.21699
G1 X112.327 Y105.384 E.02461
G1 X115.394 Y108.451 E.21517
G1 X114.91 Y108.463 E.02402
G1 X111.83 Y105.384 E.21605
G1 X111.334 Y105.384 E.02461
G1 X114.43 Y108.48 E.2172
G1 X114.008 Y108.554 E.02125
G1 X110.838 Y105.384 E.2224
G1 X110.341 Y105.384 E.02466
G1 X113.589 Y108.632 E.22787
G1 X113.213 Y108.752 E.01958
G1 X109.845 Y105.384 E.23629
G1 X109.349 Y105.384 E.02461
G1 X112.837 Y108.871 E.24467
G1 X112.607 Y108.944 E.01197
G1 X112.477 Y109.008 E.00719
G1 X108.852 Y105.383 E.25432
G1 X108.356 Y105.383 E.02461
G1 X112.144 Y109.171 E.26575
G1 X111.81 Y109.334 E.01844
G1 X107.86 Y105.383 E.27715
G1 X107.363 Y105.383 E.02466
G1 X111.504 Y109.525 E.29055
G1 X111.213 Y109.729 E.01763
G1 X106.867 Y105.383 E.3049
G1 X106.371 Y105.383 E.02461
G1 X110.921 Y109.933 E.31921
G1 X110.638 Y110.148 E.01763
G1 X105.874 Y105.383 E.33426
G1 X105.785 Y105.389 E.00443
G1 X105.756 Y105.407 E.00169
G1 X105.731 Y105.51 E.00526
G1 X105.731 Y105.736 E.01121
G1 X110.384 Y110.39 E.32647
G1 X110.13 Y110.632 E.0174
G1 X105.731 Y106.232 E.30865
G1 X105.731 Y106.729 E.02466
G1 X109.903 Y110.901 E.29269
G1 X109.682 Y111.177 E.01754
G1 X105.731 Y107.225 E.27722
G1 X105.731 Y107.721 E.02461
G1 X109.462 Y111.452 E.26175
G1 X109.268 Y111.755 E.01785
G1 X105.731 Y108.218 E.24814
G1 X105.731 Y108.714 E.02461
G1 X109.082 Y112.065 E.23509
G1 X108.974 Y112.245 E.01041
G1 X108.914 Y112.394 E.00797
G1 X105.731 Y109.21 E.22334
G1 X105.731 Y109.707 E.02466
G1 X108.772 Y112.748 E.21335
G1 X108.63 Y113.102 E.01892
G1 X105.731 Y110.203 E.20338
G1 X105.731 Y110.699 E.02461
G1 X108.488 Y113.456 E.19342
G1 X108.387 Y113.852 E.02027
G1 X105.731 Y111.195 E.18637
G1 X105.731 Y111.692 E.02466
G1 X108.294 Y114.255 E.17981
G1 X108.238 Y114.696 E.02205
G1 X105.731 Y112.188 E.17592
G1 X105.731 Y112.684 E.02461
G1 X108.189 Y115.143 E.17248
G1 X108.193 Y115.643 E.0248
G1 X105.731 Y113.181 E.17272
G1 X105.731 Y113.677 E.02461
G1 X108.219 Y116.165 E.17455
G1 X108.287 Y116.729 E.02818
G1 X105.731 Y114.173 E.17932
G1 X105.731 Y114.67 E.02466
G1 X108.439 Y117.378 E.18998
G1 X108.694 Y118.13 E.03939
G1 X105.574 Y115.01 E.21889
G1 E-3.5 F3600
;WIPE_START
G1 F7200
G1 X107.807 Y117.243 E-1.5
;WIPE_END
G1 X125.422 Y116.494 F9000
G1 E5 F2400
G1 F1200
G1 X121.811 Y112.883 E.25333
G1 X122.037 Y113.605 E.03753
G1 X125.266 Y116.834 E.22653
G1 X125.266 Y117.33 E.02461
G1 X122.201 Y114.265 E.21503
G1 X122.261 Y114.822 E.02779
G1 X125.266 Y117.827 E.21082
G1 X125.266 Y118.323 E.02461
G1 X122.318 Y115.375 E.20682
G1 X122.3 Y115.853 E.02373
G1 X125.266 Y118.819 E.20808
G1 X125.266 Y119.316 E.02466
G1 X122.267 Y116.317 E.2104
G1 X122.203 Y116.749 E.02166
G1 X125.266 Y119.812 E.21489
G1 X125.266 Y120.308 E.02461
G1 X122.108 Y117.151 E.22152
G1 X121.995 Y117.534 E.01981
G1 X125.266 Y120.805 E.22948
G1 X125.266 Y121.301 E.02461
G1 X121.882 Y117.917 E.23741
G1 X121.745 Y118.276 E.01906
G1 X125.266 Y121.798 E.24706
G1 X125.266 Y122.294 E.02461
G1 X121.578 Y118.606 E.25874
G1 X121.411 Y118.935 E.0183
G1 X125.266 Y122.79 E.27045
G1 X125.266 Y123.287 E.02466
G1 X121.236 Y119.257 E.28273
G1 X121.028 Y119.544 E.01758
G1 X125.266 Y123.783 E.29736
G1 X125.267 Y124.279 E.02461
G1 X120.815 Y119.827 E.31234
G1 X120.601 Y120.11 E.0176
G1 X125.267 Y124.776 E.32735
G1 X125.267 Y125.272 E.02461
G1 X120.364 Y120.369 E.34398
G1 X120.104 Y120.606 E.01745
G1 X125.118 Y125.619 E.35173
G1 X124.621 Y125.619 E.02466
G1 X119.844 Y120.842 E.33514
G1 X119.585 Y121.079 E.01742
G1 X124.125 Y125.619 E.31851
G1 X123.628 Y125.619 E.02466
G1 X119.295 Y121.285 E.30402
G1 X118.998 Y121.485 E.01776
G1 X123.132 Y125.619 E.29003
G1 X122.636 Y125.619 E.02461
G1 X118.686 Y121.669 E.27712
G1 X118.358 Y121.838 E.0183
G1 X122.139 Y125.619 E.26526
G1 X121.643 Y125.619 E.02461
G1 X118.022 Y121.998 E.25404
G1 X117.66 Y122.132 E.01915
G1 X121.147 Y125.619 E.24464
G1 X120.65 Y125.619 E.02466
G1 X117.296 Y122.265 E.2353
G1 X116.891 Y122.356 E.02059
G1 X120.154 Y125.619 E.22892
G1 X119.657 Y125.619 E.02466
G1 X116.485 Y122.446 E.22257
G1 X116.273 Y122.494 E.01078
G1 X116.054 Y122.512 E.0109
G1 X119.161 Y125.619 E.21798
G1 X118.665 Y125.618 E.02461
G1 X115.596 Y122.55 E.21527
G1 X115.337 Y122.571 E.01289
G1 X115.102 Y122.552 E.0117
G1 X118.168 Y125.618 E.2151
G1 X117.672 Y125.618 E.02461
G1 X114.561 Y122.508 E.21822
G1 X114.018 Y122.46 E.02704
G1 X117.176 Y125.618 E.22155
G1 X116.679 Y125.618 E.02466
G1 X113.37 Y122.309 E.23215
G1 X112.628 Y122.063 E.03878
G1 X116.183 Y125.618 E.24941
G1 X115.686 Y125.618 E.02466
G1 X111.629 Y121.561 E.28462
G1 X111.127 Y121.243 E.02948
G1 X110.21 Y120.455 E.05998
G1 X110.077 Y120.316 E.00954
G1 X109.419 Y119.495 E.05219
G1 X109.21 Y119.142 E.02035
G1 X105.731 Y115.662 E.24411
G1 X105.731 Y116.159 E.02466
G1 X115.19 Y125.618 E.66361
G1 X114.694 Y125.618 E.02461
G1 X105.731 Y116.655 E.62881
G1 X105.731 Y117.151 E.02461
G1 X114.197 Y125.618 E.59398
G1 X113.701 Y125.618 E.02461
G1 X105.731 Y117.648 E.55915
G1 X105.731 Y118.144 E.02461
G1 X113.204 Y125.618 E.52431
G1 X112.708 Y125.618 E.02461
G1 X105.731 Y118.64 E.48952
G1 X105.731 Y119.136 E.02461
G1 X112.212 Y125.618 E.45472
G1 X111.715 Y125.617 E.02466
G1 X105.731 Y119.633 E.41982
G1 X105.731 Y120.129 E.02461
G1 X111.219 Y125.617 E.38502
G1 X110.723 Y125.617 E.02461
G1 X105.731 Y120.625 E.35022
G1 X105.731 Y121.122 E.02466
