; generated by PrusaSlicer 2.8.1+linux-x64-GTK3 on 2024-10-08 at 07:18:27 UTC

; 

; external perimeters extrusion width = 0.45mm
; perimeters extrusion width = 0.45mm
; infill extrusion width = 0.45mm
; solid infill extrusion width = 0.45mm
; top infill extrusion width = 0.40mm
; support material extrusion width = 0.40mm
; first layer extrusion width = 0.60mm

M190 S60 ; set bed temperature and wait for it to be reached
M104 S200 ; set temperature
;TYPE:Custom
G28 ; home all axes
G1 Z5 F5000 ; lift nozzle
M109 S200 ; set temperature and wait for it to be reached
G21 ; set units to millimeters
G90 ; use absolute coordinates
M82 ; use absolute distances for extrusion
G92 E0
; Filament gcode
M107
;LAYER_CHANGE
;Z:0.3
;HEIGHT:0.3
G1 E-2 F2400
G1 Z.3 F7800
G1 X69.431 Y74.685
G1 E0 F2400
;TYPE:Skirt/Brim
;WIDTH:0.6
G1 F1800
G1 X70.527 Y73.807 E.09382
G1 X71.707 Y73.192 E.18271
G1 X72.33 Y72.978 E.22672
G1 X73.573 Y72.742 E.31124
G1 X90.895 Y72.708 E1.46845
G1 X156.274 Y79.395 E5.85891
G1 X157.52 Y79.666 E5.9441
G1 X158.563 Y80.007 E6.01741
G1 X159.86 Y80.602 E6.11274
G1 X161.363 Y81.551 E6.23149
G1 X165.294 Y84.524 E6.56075
G1 X166.696 Y85.822 E6.68839
G1 X167.598 Y86.928 E6.78373
G1 X168.203 Y87.872 E6.85863
G1 X168.818 Y89.112 E6.9511
G1 X169.229 Y90.266 E7.03294
G1 X169.54 Y91.623 E7.12595
G1 X169.709 Y93.452 E7.24866
G1 X169.671 Y122.949 E9.21922
G1 X169.538 Y124.103 E9.29682
G1 X169.305 Y125.213 E9.37259
G1 X167.606 Y130.752 E9.75964
G1 X167.069 Y132.002 E9.85053
G1 X166.513 Y132.983 E9.92586
G1 X165.676 Y134.134 E10.02093
G1 X164.839 Y135.046 E10.10363
G1 X163.363 Y136.231 E10.23008
G1 X161.909 Y137.057 E10.34179
G1 X156.751 Y139.596 E10.72586
G1 X154.856 Y140.282 E10.8605
G1 X153.592 Y140.555 E10.94689
G1 X91.303 Y147.279 E15.13231
G1 X73.573 Y147.258 E16.31677
G1 X72.33 Y147.022 E16.40129
G1 X71.651 Y146.785 E16.44933
G1 X70.527 Y146.193 E16.5342
G1 X69.443 Y145.326 E16.62693
G1 X66.989 Y142.843 E16.86015
G1 X56.945 Y130.949 E17.90015
G1 X56.485 Y130.33 E17.95167
G1 X56.044 Y129.559 E18.01101
G1 X55.731 Y128.801 E18.0658
G1 X55.497 Y127.945 E18.12508
G1 X55.358 Y126.586 E18.21634
G1 X55.358 Y93.414 E20.43241
G1 X55.452 Y92.305 E20.50676
G1 X55.709 Y91.264 E20.57839
G1 X56.067 Y90.396 E20.64112
G1 X56.945 Y89.051 E20.74842
G1 X66.989 Y77.157 E21.78842
G1 X69.389 Y74.728 E22.01654
G1 E20.01654 F2400
G92 E0
G1 X69.389 Y74.728 F7800
G92 E0
G1 X127.674 Y83.503
G1 E2 F2400
;TYPE:Support material
G1 F1800
G1 X128.291 Y83.573 E2.04148
G1 X129.329 Y83.915 E2.11449
G1 X130.288 Y84.498 E2.18947
G1 X130.646 Y84.847 E2.22287
G1 X131.537 Y84.508 E2.28656
G1 X132.063 Y84.416 E2.32223
G1 X132.656 Y84.349 E2.3621
G1 X133.816 Y84.45 E2.43989
G1 X134.859 Y84.792 E2.51322
G1 X135.826 Y85.377 E2.58872
G1 X136.494 Y86.027 E2.65099
G1 X136.763 Y85.845 E2.67269
G1 X137.817 Y85.437 E2.74819
G1 X138.897 Y85.285 E2.82105
G1 X140.094 Y85.389 E2.90132
G1 X141.137 Y85.73 E2.97463
G1 X142.105 Y86.315 E3.05019
G1 X142.711 Y86.906 E3.10674
G1 X143.424 Y86.92 E3.15438
G1 X144.307 Y87.074 E3.21426
G1 X145.091 Y86.227 E3.29136
G1 X146.026 Y85.592 E3.36687
G1 X147.08 Y85.185 E3.44235
G1 X148.16 Y85.032 E3.51522
G1 X149.357 Y85.136 E3.59549
G1 X150.4 Y85.477 E3.6688
G1 X151.368 Y86.062 E3.74436
G1 X151.727 Y86.412 E3.77785
G1 X152.241 Y86.09 E3.81837
G1 X153.294 Y85.681 E3.89384
G1 X154.412 Y85.522 E3.96928
G1 X155.572 Y85.623 E4.04707
G1 X156.615 Y85.964 E4.12038
G1 X157.582 Y86.55 E4.19592
G1 X158.392 Y87.339 E4.27146
G1 X158.997 Y88.282 E4.34631
G1 X159.095 Y88.551 E4.36544
G1 X159.502 Y88.597 E4.3928
G1 X160.545 Y88.938 E4.46611
G1 X161.512 Y89.523 E4.54161
G1 X162.322 Y90.312 E4.61715
G1 X162.928 Y91.256 E4.69209
G1 X163.115 Y91.77 E4.72863
G1 X163.313 Y92.336 E4.76869
G1 X163.441 Y93.452 E4.84373
G1 X163.312 Y94.576 E4.91931
G1 X162.933 Y95.641 E4.99483
G1 X162.282 Y96.655 E5.07533
G1 X162.783 Y97.909 E5.16554
G1 X162.911 Y99.029 E5.24085
G1 X162.781 Y100.158 E5.31677
G1 X162.403 Y101.22 E5.39208
G1 X161.793 Y102.172 E5.46761
G1 X160.983 Y102.961 E5.54315
G1 X160.408 Y103.309 E5.58805
G1 X160.528 Y104.35 E5.65805
G1 X160.399 Y105.473 E5.73357
G1 X160.019 Y106.539 E5.80917
G1 X159.419 Y107.475 E5.88344
G1 X158.58 Y108.291 E5.96163
G1 X157.632 Y108.865 E6.03567
G1 X156.555 Y109.217 E6.11136
G1 X156.555 Y109.652 E6.14042
G1 X157.208 Y109.866 E6.18633
G1 X158.175 Y110.451 E6.26183
G1 X158.985 Y111.24 E6.33737
G1 X159.59 Y112.184 E6.41227
G1 X159.976 Y113.264 E6.48889
G1 X160.104 Y114.38 E6.56393
G1 X160.068 Y114.694 E6.58504
G1 X160.403 Y114.897 E6.61121
G1 X161.202 Y115.675 E6.68571
G1 X161.828 Y116.649 E6.76306
G1 X162.203 Y117.702 E6.83773
G1 X162.303 Y119.076 E6.92976
G1 X162.935 Y120.061 E7.00794
G1 X163.314 Y121.126 E7.08346
G1 X163.442 Y122.247 E7.15884
G1 X163.313 Y123.375 E7.23469
G1 X162.935 Y124.438 E7.31006
G1 X162.334 Y125.374 E7.38437
G1 X162.001 Y125.707 E7.41583
G1 X162.127 Y126.782 E7.48814
G1 X161.957 Y127.792 E7.55656
G1 X161.614 Y128.914 E7.63494
G1 X161.059 Y129.896 E7.7103
G1 X160.222 Y130.807 E7.79295
G1 X159.14 Y131.434 E7.87649
G1 X158.071 Y131.771 E7.95137
G1 X156.967 Y131.867 E8.0254
G1 X156.286 Y131.779 E8.07127
G1 X155.769 Y132.584 E8.13518
G1 X154.931 Y133.399 E8.21327
G1 X153.983 Y133.973 E8.28731
G1 X152.908 Y134.325 E8.36288
G1 X151.782 Y134.424 E8.43839
G1 X150.662 Y134.266 E8.51395
G1 X149.608 Y133.859 E8.58943
G1 X148.717 Y133.254 E8.66138
G1 X148.146 Y132.682 E8.71537
G1 X147.096 Y132.774 E8.78578
G1 X145.977 Y132.616 E8.86128
G1 X145.545 Y132.45 E8.8922
G1 X145.229 Y132.553 E8.9144
G1 X144.103 Y132.652 E8.98991
G1 X142.951 Y132.49 E9.06763
G1 X142.105 Y132.766 E9.12708
G1 X140.979 Y132.866 E9.2026
G1 X139.859 Y132.708 E9.27816
G1 X139.602 Y132.608 E9.29658
G1 X138.748 Y132.879 E9.35644
G1 X137.656 Y132.976 E9.42968
G1 X136.58 Y132.824 E9.50228
G1 X135.83 Y132.55 E9.55562
G1 X135.048 Y132.619 E9.60806
G1 X134.765 Y132.868 E9.63324
G1 X133.79 Y133.406 E9.70763
G1 X132.66 Y133.735 E9.78625
G1 X132.469 Y134.271 E9.82426
G1 X131.868 Y135.207 E9.89857
G1 X131.03 Y136.022 E9.97666
G1 X130.081 Y136.596 E10.05075
G1 X129.007 Y136.948 E10.12625
G1 X127.88 Y137.047 E10.20183
G1 X126.761 Y136.889 E10.27733
G1 X125.707 Y136.482 E10.35281
G1 X124.816 Y135.877 E10.42476
G1 X123.972 Y134.96 E10.50802
G1 X123.476 Y134.091 E10.57486
G1 X123.256 Y133.461 E10.61944
G1 X123.082 Y132.49 E10.68534
G1 X123.424 Y132.294 E10.71167
G1 X123.627 Y132.054 E10.73267
G1 X123.785 Y131.515 E10.77019
G1 X123.783 Y113.454 E11.97676
G1 X123.658 Y112.998 E12.00835
G1 X123.392 Y112.681 E12.036
G1 X122.972 Y112.476 E12.06722
G1 X122.43 Y112.451 E12.10347
G1 X122.756 Y111.388 E12.17775
G1 X123.288 Y110.464 E12.24898
G1 X123.891 Y109.818 E12.30802
G1 X123.476 Y109.091 E12.36394
G1 X123.256 Y108.461 E12.40852
G1 X123.082 Y107.489 E12.47449
G1 X123.424 Y107.294 E12.50079
G1 X123.627 Y107.054 E12.52179
G1 X123.785 Y106.515 E12.55931
G1 X123.785 Y88.485 E13.76381
G1 X123.658 Y87.998 E13.79743
G1 X123.392 Y87.681 E13.82508
G1 X122.972 Y87.476 E13.8563
G1 X122.43 Y87.451 E13.89255
G1 X122.732 Y86.458 E13.96189
G1 X122.963 Y86 E13.99616
G1 X123.324 Y85.426 E14.04146
G1 X124.054 Y84.643 E14.11298
G1 X124.985 Y84.016 E14.18797
G1 X126.034 Y83.615 E14.26299
G1 X127.11 Y83.467 E14.33555
G1 X127.594 Y83.498 E14.36795
G1 X127.594 Y83.498 F7800
G1 X142.105 Y119.542
G1 F1800
G1 X142.39 Y119.449 E14.38798
G1 X142.633 Y119.534 E14.40518
G1 X143.545 Y120.565 E14.49714
G1 X143.413 Y121.432 E14.55573
G1 X143.508 Y122.806 E14.64774
G1 X143.027 Y122.874 E14.68019
G1 X142.343 Y123.113 E14.72859
G1 X140.979 Y122.935 E14.82049
G1 X139.902 Y123.087 E14.89315
G1 X139.277 Y123.306 E14.93739
G1 X138.782 Y123.145 E14.97216
G1 X137.656 Y123.046 E15.04767
G1 X136.821 Y123.163 E15.104
G1 X135.779 Y122.823 E15.17722
G1 X134.653 Y122.724 E15.25273
G1 X133.533 Y122.882 E15.32829
G1 X132.253 Y123.376 E15.41995
G1 X132.338 Y122.639 E15.46951
G1 X132.208 Y121.51 E15.54543
G1 X132.111 Y121.237 E15.56478
G1 X133.594 Y120.723 E15.66963
G1 X134.654 Y121.133 E15.74556
G1 X135.223 Y121.233 E15.78415
G1 X135.856 Y121.304 E15.8267
G1 X136.944 Y121.208 E15.89967
G1 X137.991 Y120.866 E15.97325
G1 X138.478 Y120.584 E16.01085
G1 X139.002 Y120.255 E16.05218
G1 X139.799 Y119.479 E16.12649
G1 X140.946 Y119.644 E16.2039
G1 X142.025 Y119.551 E16.27625
G1 E14.27625 F2400
G92 E0
G1 X142.025 Y119.551 F7800
G1 X136.387 Y98.023
G1 E2 F2400
G1 F1800
G1 X136.858 Y97.737 E2.03681
G1 X137.97 Y98.167 E2.11646
G1 X136.391 Y98.744 E2.22877
G1 X135.615 Y98.275 E2.28934
G1 X136.31 Y98.048 E2.33818
G1 X136.31 Y98.048 F7800
G1 X142.088 Y97.242
G1 F1800
G1 X142.397 Y96.951 E2.36654
G1 X143.171 Y97.977 E2.4524
G1 X142.057 Y98.134 E2.52756
G1 X141.002 Y98.541 E2.6031
G1 X140.711 Y98.739 E2.62661
G1 X140.18 Y98.565 E2.66394
G1 X140.18 Y98.13 E2.693
G1 X141.14 Y97.816 E2.76048
G1 X142.02 Y97.284 E2.82918
G1 E.82918 F2400
G92 E0
G1 X142.02 Y97.284 F7800
G1 X162.372 Y124.869
G1 E2 F2400
G1 F1800
G1 X162.372 Y120.076 E2.3202
G1 X161.804 Y119.192 E2.3904
G1 X161.846 Y118.826 E2.41501
G1 X161.776 Y118.216 E2.45603
G1 X161.776 Y125.25 E2.92594
G1 X161.472 Y125.554 E2.95466
G1 X161.614 Y126.178 E2.99741
G1 X161.643 Y126.753 E3.03587
G1 X161.486 Y127.681 E3.09875
G1 X161.181 Y128.681 E3.16859
G1 X161.181 Y116.527 E3.98054
G1 X160.586 Y115.748 E4.04603
G1 X160.586 Y129.697 E4.9779
G1 X159.991 Y130.346 E5.03672
G1 X159.991 Y115.211 E6.04782
G1 X159.554 Y114.946 E6.08196
G1 X159.618 Y114.38 E6.12001
G1 X159.503 Y113.373 E6.18772
G1 X159.396 Y113.067 E6.20938
G1 X159.396 Y130.729 E7.3893
G1 X158.801 Y131.035 E7.434
G1 X158.801 Y111.846 E8.71593
G1 X158.206 Y111.154 E8.7769
G1 X158.206 Y131.223 E10.11762
G1 X157.611 Y131.327 E10.15797
G1 X157.611 Y110.673 E11.53777
G1 X157.015 Y110.313 E11.58429
G1 X157.015 Y131.379 E12.99161
G1 X156.42 Y131.31 E13.03163
G1 X156.42 Y110.115 E14.44757
G1 X156.073 Y110.002 E14.47195
G1 X156.073 Y108.867 E14.54777
G1 X156.42 Y108.753 E14.57217
G1 X156.42 Y86.41 E16.0648
G1 X155.825 Y86.213 E16.10667
G1 X155.825 Y131.604 E19.13903
G1 X155.23 Y132.442 E19.20769
G1 X155.23 Y86.07 E22.30559
G1 X154.635 Y86.018 E22.34549
G1 X154.635 Y133.015 E25.48514
G1 X154.04 Y133.375 E25.5316
G1 X154.04 Y86.049 E28.69323
G1 X153.445 Y86.144 E28.73348
G1 X153.445 Y133.642 E31.9066
G1 X152.85 Y133.837 E31.94843
G1 X152.85 Y86.352 E35.12069
G1 X152.254 Y86.65 E35.16521
G1 X152.254 Y133.898 E38.32163
G1 X151.659 Y133.92 E38.36141
G1 X151.659 Y87.019 E41.49465
G1 X151.064 Y86.442 E41.55002
G1 X151.064 Y133.836 E44.7162
G1 X150.469 Y133.675 E44.75738
G1 X150.469 Y86.082 E47.93685
G1 X149.874 Y85.812 E47.9805
G1 X149.874 Y133.445 E51.16264
G1 X149.279 Y133.053 E51.21024
G1 X149.279 Y85.617 E54.37922
G1 X148.684 Y85.546 E54.41925
G1 X148.684 Y132.539 E57.55864
G1 X148.328 Y132.183 E57.59227
G1 X148.088 Y132.204 E57.60836
G1 X148.088 Y85.529 E60.7265
G1 X147.493 Y85.613 E60.76664
G1 X147.493 Y132.256 E63.88264
G1 X146.898 Y132.26 E63.92239
G1 X146.898 Y85.772 E67.02804
G1 X146.303 Y86.001 E67.07063
G1 X146.303 Y132.176 E70.15537
G1 X145.708 Y131.996 E70.1969
G1 X145.708 Y86.39 E73.24363
G1 X145.113 Y86.913 E73.29655
G1 X145.113 Y132.08 E76.31395
G1 X144.518 Y132.132 E76.35385
G1 X144.518 Y87.557 E79.3317
G1 X144.451 Y87.628 E79.33822
G1 X143.923 Y87.461 E79.37522
G1 X143.923 Y132.14 E82.36002
G1 X143.327 Y132.056 E82.40023
G1 X143.327 Y123.319 E82.98391
G1 X142.732 Y123.488 E83.02523
G1 X142.732 Y132.054 E83.59749
G1 X142.137 Y132.249 E83.63932
G1 X142.137 Y123.555 E84.22013
G1 X141.542 Y123.469 E84.26029
G1 X141.542 Y132.332 E84.85239
G1 X140.947 Y132.374 E84.89224
G1 X140.947 Y123.427 E85.48995
G1 X140.352 Y123.511 E85.53009
G1 X140.352 Y132.29 E86.11657
G1 X139.757 Y132.151 E86.15739
G1 X139.757 Y123.649 E86.72537
G1 X139.282 Y123.815 E86.75898
G1 X139.161 Y123.776 E86.76747
G1 X139.161 Y132.251 E87.33365
G1 X138.566 Y132.411 E87.37481
G1 X138.566 Y123.61 E87.96276
G1 X137.971 Y123.557 E88.00267
G1 X137.971 Y132.464 E88.59771
G1 X137.376 Y132.449 E88.63747
G1 X137.376 Y123.572 E89.2305
G1 X136.781 Y123.656 E89.27064
G1 X136.781 Y132.365 E89.85245
G1 X136.186 Y132.175 E89.89418
G1 X136.186 Y123.463 E90.47619
G1 X135.591 Y123.29 E90.51759
G1 X135.591 Y132.087 E91.10528
G1 X134.996 Y132.139 E91.14518
G1 X134.996 Y123.238 E91.73981
G1 X134.665 Y123.209 E91.76201
G1 X134.4 Y123.246 E91.77989
G1 X134.4 Y132.519 E92.39938
G1 X133.805 Y132.847 E92.44477
G1 X133.805 Y123.33 E93.08056
G1 X133.655 Y123.351 E93.09068
G1 X133.21 Y123.523 E93.12255
G1 X133.21 Y133.072 E93.76047
G1 X132.615 Y133.246 E93.80188
G1 X132.615 Y123.753 E94.43606
G1 X132.02 Y123.983 E94.47868
G1 X132.02 Y134.078 E95.15308
G1 X131.425 Y134.969 E95.22466
G1 X131.425 Y85.058 E98.55899
G1 X132.02 Y84.913 E98.5999
G1 X132.02 Y120.761 E100.99474
G1 X132.615 Y120.582 E101.03625
G1 X132.615 Y84.839 E103.42408
G1 X133.21 Y84.867 E103.46387
G1 X133.21 Y120.38 E105.83633
G1 X133.547 Y120.188 E105.86224
G1 X133.805 Y120.288 E105.88073
G1 X133.805 Y84.954 E108.24123
G1 X134.4 Y85.149 E108.28306
G1 X134.4 Y120.518 E110.6459
G1 X134.784 Y120.666 E110.67339
G1 X134.996 Y120.703 E110.68777
G1 X134.996 Y85.438 E113.04366
G1 X135.591 Y85.821 E113.09093
G1 X135.591 Y97.776 E113.88959
G1 X136.186 Y97.581 E113.93142
G1 X136.186 Y86.4 E114.67837
G1 X136.439 Y86.647 E114.70199
G1 X136.781 Y86.415 E114.7296
G1 X136.781 Y97.221 E115.4515
G1 X137.376 Y97.421 E115.49343
G1 X137.376 Y86.125 E116.24806
G1 X137.971 Y85.903 E116.29049
G1 X137.971 Y97.65 E117.07525
G1 X138.566 Y97.88 E117.11787
G1 X138.566 Y85.819 E117.92361
G1 X139.161 Y85.783 E117.96343
G1 X139.161 Y119.427 E120.21103
G1 X139.639 Y118.962 E120.25558
G1 X139.757 Y118.982 E120.26358
G1 X139.757 Y85.836 E122.47791
G1 X140.352 Y85.98 E122.51881
G1 X140.352 Y97.567 E123.29288
G1 X140.947 Y97.369 E123.33477
G1 X140.947 Y86.178 E124.08239
G1 X141.542 Y86.538 E124.12885
G1 X141.542 Y97.009 E124.82837
G1 X142.137 Y96.533 E124.87927
G1 X142.137 Y87.02 E125.51479
G1 X142.544 Y87.417 E125.55277
G1 X142.732 Y87.39 E125.56546
G1 X142.732 Y96.581 E126.17947
G1 X143.327 Y97.419 E126.24813
G1 X143.327 Y87.155 E126.93382
G1 X143.327 Y87.155 F7800
G1 X162.372 Y100.59
G1 F1800
G1 X162.372 Y97.473 E127.14205
G1 X162.372 Y97.473 F7800
G1 X162.372 Y96.069
G1 F1800
G1 X162.372 Y91.282 E127.46185
G1 X161.776 Y90.453 E127.53006
G1 X161.776 Y101.304 E128.25497
G1 X161.417 Y101.865 E128.29946
G1 X161.181 Y102.095 E128.32147
G1 X161.181 Y89.886 E129.1371
G1 X160.586 Y89.526 E129.18356
G1 X160.586 Y102.919 E130.07828
G1 X160.586 Y102.919 F7800
G1 X159.991 Y105.9
G1 F1800
G1 X159.991 Y89.264 E131.18965
G1 X159.396 Y89.07 E131.23146
G1 X159.396 Y106.618 E132.40376
G1 X158.801 Y107.411 E132.46999
G1 X158.801 Y89.003 E133.69974
G1 X158.206 Y87.941 E133.78106
G1 X158.206 Y107.954 E135.11804
G1 X157.611 Y108.314 E135.1645
G1 X157.611 Y87.25 E136.57169
G1 X157.015 Y86.77 E136.62281
G1 X157.015 Y108.812 E138.09533
G1 X157.015 Y108.812 F7800
G1 X143.327 Y119.975
G1 F1800
G1 X143.327 Y98.442 E139.53385
G1 X142.732 Y98.526 E139.57399
G1 X142.732 Y119.058 E140.94564
G1 X142.396 Y118.94 E140.96943
G1 X142.137 Y119.024 E140.98762
G1 X142.137 Y98.62 E142.35072
G1 X141.542 Y98.85 E142.39334
G1 X141.542 Y119.12 E143.74749
G1 X140.959 Y119.16 E143.78653
G1 X140.947 Y99.162 E145.1225
G1 X140.786 Y99.271 E145.13549
G1 X140.352 Y99.129 E145.166
G1 X140.352 Y119.332 E146.51567
G1 X140.352 Y119.332 F7800
G1 X138.566 Y120.245
G1 F1800
G1 X138.566 Y98.469 E147.97042
G1 X137.971 Y98.677 E148.01253
G1 X137.971 Y120.321 E149.45847
G1 X137.376 Y120.56 E149.50131
G1 X137.376 Y98.886 E150.94925
G1 X136.781 Y99.101 E150.99151
G1 X136.781 Y120.739 E152.43705
G1 X136.186 Y120.791 E152.47695
G1 X136.186 Y99.183 E153.92048
G1 X135.591 Y98.823 E153.96694
G1 X135.591 Y121.032 E155.45062
G1 E153.45062 F2400
G92 E0
G1 X135.591 Y121.032 F7800
G1 X130.83 Y135.862
G1 E2 F2400
G1 F1800
G1 X130.83 Y85.293 E5.37828
G1 X130.54 Y85.418 E5.39938
G1 X130.234 Y85.119 E5.42796
G1 X130.234 Y135.94 E8.82308
G1 X129.639 Y136.234 E8.86742
G1 X129.639 Y84.668 E12.31231
G1 X129.044 Y84.329 E12.35806
G1 X129.044 Y136.428 E15.83856
G1 X128.449 Y136.513 E15.87871
G1 X128.449 Y84.133 E19.37798
